( Made using CamBam - http://www.cambam.co.uk )
( Elvis Mic 1/25/2014 12:22:31 AM )
( T0 : 0.0 )
G21 G90 G64 G40
G0 Z5.0
( T0 : 0.0 )
T0 M6
( Detail1 )
G17
M3 S1000
G0 X-211.0054 Y336.1485
G1 F1.0 Z0.0
G2 X-204.5996 Y337.7684 I104.0001 J-397.7931
G2 X-199.0707 Y339.0718 I84.7355 J-347.0591
G1 X-198.4647 Y339.2091
G2 X-188.8887 Y341.2245 I71.3351 J-315.1904
G2 X-181.6668 Y342.5359 I53.3836 J-273.4359
G2 X-181.5819 Y342.5502 I0.2586 J-1.2804
G2 X-180.2292 Y342.7735 I32.4657 J-192.4801
G1 X-178.96 Y342.9763
G1 X-177.7691 Y343.1606
G2 X-177.2106 Y343.2449 I7.3915 J-47.0348
G1 X-176.1279 Y343.4047
G1 X-175.1123 Y343.55
G2 X-167.4749 Y344.4868 I29.8198 J-211.4923
G1 X-166.5178 Y344.5833
G2 X-159.8055 Y345.1091 I16.2362 J-164.1647
G2 X-156.4998 Y345.2671 I10.1469 J-177.7016
G2 X-153.5943 Y345.349 I5.1574 J-131.3288
G1 X-153.2751 Y345.3542
G1 X-152.9607 Y345.3585
G2 X-152.6511 Y345.3619 I0.4684 J-28.2129
G2 X-152.3462 Y345.3645 I0.3232 J-20.1254
G2 X-147.5428 Y345.2801 I0.821 J-89.9275
G1 X-147.4291 Y345.2746
G2 X-145.626 Y345.1617 I-3.0008 J-62.3378
G1 X-145.2303 Y345.1293
G2 X-142.1732 Y344.7591 I-3.316 J-40.192
G1 X-141.8856 Y344.7107
G2 X-139.6771 Y344.2257 I-3.8642 J-22.8675
G2 X-138.0565 Y343.6838 I-3.8304 J-14.1471
G2 X-136.8957 Y343.1269 I-3.529 J-8.844
G2 X-136.0871 Y342.5954 I-3.4193 J-6.0835
G2 X-135.0492 Y341.5834 I-3.5195 J-4.6478
G2 X-134.6315 Y340.9902 I-4.6461 J-3.7153
G2 X-134.2693 Y340.3616 I-10.771 J-6.6251
G3 X-133.8615 Y339.7904 I2.5102 J1.3608
G3 X-133.3777 Y339.3598 I2.361 J2.1653
G3 X-132.8667 Y339.0421 I2.5266 J3.4949
G3 X-132.6148 Y338.9179 I2.7737 J5.3071
G1 X-132.4907 Y338.8627
G3 X-131.4789 Y338.5199 I2.8093 J6.6264
G1 X-131.2527 Y338.4629
G3 X-130.3667 Y338.2862 I2.7927 J11.6973
G3 X-128.7985 Y338.0948 I3.2852 J20.3905
G1 X-128.651 Y338.082
G3 X-128.0788 Y338.0384 I4.2861 J52.4033
G1 X-127.5778 Y338.0062
G1 X-127.1391 Y337.9813
G1 X-125.6035 Y337.9041
G1 X-124.8358 Y337.8625
G1 X-124.4522 Y337.8389
G1 X-124.0687 Y337.8123
G1 X-123.8851 Y337.7978
G2 X-122.4623 Y337.6308 I-2.2053 J-24.9398
G2 X-120.2351 Y337.2585 I-7.4429 J-51.3629
G1 X-119.82 Y337.1781
G1 X-119.3724 Y337.0878
G1 X-119.077 Y337.0261
G1 X-118.6451 Y336.9326
G2 X-118.2332 Y336.8397 I-6.7109 J-30.7019
G2 X-116.9765 Y336.5283 I-7.6169 J-33.4344
G2 X-116.0261 Y336.2511 I-4.8073 J-18.2509
G2 X-115.6968 Y336.1401 I-1.9367 J-6.2854
G1 X-115.5487 Y336.0859
G2 X-115.2346 Y335.9576 I-1.3931 J-3.8573
G2 X-114.9423 Y335.8042 I-1.0427 J-2.3428
G2 X-114.8876 Y335.7665 I-0.2499 J-0.4214
G2 X-114.7968 Y335.6834 I-0.3851 J-0.5117
G2 X-114.7564 Y335.5931 I-0.1197 J-0.1078
G2 X-114.7833 Y335.5209 I-0.1059 J-0.0016
G2 X-114.8989 Y335.4434 I-0.2301 J0.2181
G2 X-115.1527 Y335.3686 I-0.4926 J1.204
G2 X-115.6425 Y335.3018 I-0.8849 J4.6587
G2 X-116.5057 Y335.2595 I-1.084 J13.3007
G1 X-116.8297 Y335.2554
G1 X-117.1132 Y335.2551
G2 X-117.6094 Y335.2606 I0.1501 J36.2437
G1 X-117.7955 Y335.2642
G2 X-118.4464 Y335.2826 I0.6616 J34.947
G1 X-119.0972 Y335.3081
G1 X-119.5111 Y335.3273
G1 X-119.6138 Y335.3323
G2 X-121.2522 Y335.4278 I7.0438 J135.0625
G1 X-122.0455 Y335.4816
G1 X-122.4359 Y335.5094
G1 X-123.9847 Y335.625
G1 X-124.3599 Y335.6538
G1 X-125.8485 Y335.7681
G1 X-126.2091 Y335.7954
G1 X-126.5669 Y335.8222
G1 X-127.9872 Y335.9249
G1 X-128.6753 Y335.9718
G3 X-134.1001 Y336.2443 I-10.2714 J-150.3471
G1 X-134.6939 Y336.2616
G3 X-139.3717 Y336.3015 I-3.4268 J-127.6678
G3 X-147.5493 Y335.9583 I1.3624 J-130.0721
G3 X-153.6606 Y335.3854 I11.0762 J-151.0393
G1 X-154.2323 Y335.3193
G1 X-155.3391 Y335.1854
G3 X-159.4815 Y334.6195 I21.444 J-172.4083
G1 X-159.8691 Y334.5615
G3 X-165.8618 Y333.5639 I31.4202 J-207.2399
G1 X-166.6088 Y333.4269
G3 X-169.2194 Y332.9274 I33.895 J-184.2534
G1 X-170.5226 Y332.6666
G1 X-171.8242 Y332.3985
G2 X-175.3353 Y331.6981 I-47.6286 J229.5808
G1 X-176.1872 Y331.5368
G2 X-182.9656 Y330.3451 I-61.275 J328.6559
G1 X-184.5575 Y330.0837
G1 X-186.1255 Y329.8315
G1 X-187.6696 Y329.5875
G1 X-188.0498 Y329.528
G1 X-189.5646 Y329.2932
G1 X-190.3105 Y329.1787
G1 X-191.7907 Y328.9535
G1 X-192.1551 Y328.8984
G1 X-193.607 Y328.6802
G1 X-195.0365 Y328.467
G1 X-197.8515 Y328.051
G1 X-199.2153 Y327.8507
G1 X-204.5857 Y327.0642
G1 X-207.1032 Y326.6942
G1 X-209.5419 Y326.3334
G1 X-209.8372 Y326.2895
G1 X-210.1314 Y326.2457
G1 X-210.4244 Y326.202
G1 X-212.7589 Y325.8519
G1 X-215.0198 Y325.5085
G1 X-215.2937 Y325.4666
G1 X-217.4748 Y325.13
G1 X-219.5871 Y324.7989
G1 X-220.61 Y324.6365
G1 X-222.6232 Y324.3127
G1 X-224.5727 Y323.9934
G1 X-226.4604 Y323.6784
G1 X-228.2881 Y323.3674
G1 X-230.0579 Y323.0603
G3 X-236.9051 Y321.8094 I87.004 J-495.6343
G1 X-238.4005 Y321.5215
G3 X-239.1245 Y321.3799 I14.093 J-74.0215
G3 X-239.4808 Y321.3098 I4.8543 J-25.5917
G3 X-239.8342 Y321.2399 I3.9366 J-20.8223
G3 X-240.1849 Y321.1701 I3.3943 J-17.9872
G3 X-245.7408 Y320.0175 I69.7245 J-350.0647
G1 X-246.9537 Y319.7531
G3 X-247.1005 Y319.7207 I0.9803 J-4.7991
G3 X-247.2468 Y319.6885 I0.9718 J-4.7488
G3 X-247.3924 Y319.6562 I0.9637 J-4.6999
G3 X-249.7113 Y319.1331 I86.3199 J-388.0484
G3 X-249.8471 Y319.1019 I0.8512 J-4.0124
G3 X-258.467 Y316.9696 I59.8015 J-260.2446
G1 X-259.2713 Y316.7542
G3 X-262.3803 Y315.8915 I54.8066 J-203.552
G1 X-263.0587 Y315.6967
G1 X-263.7153 Y315.5057
G1 X-264.3509 Y315.3187
G3 X-269.2535 Y313.7966 I52.7052 J-178.4148
G1 X-270.168 Y313.496
G3 X-276.9682 Y311.0731 I49.9209 J-150.8656
G1 X-277.3894 Y310.9111
G3 X-283.6389 Y308.3135 I46.4008 J-120.451
G2 X-283.717 Y308.2806 I-0.2737 J0.5407
G2 X-283.7501 Y308.2687 I-0.0975 J0.2182
G2 X-283.7851 Y308.2586 I-0.0689 J0.1739
G1 X-283.8108 Y308.2551
G2 X-283.8244 Y308.2808 I-0.0042 J0.0143
G2 X-283.765 Y308.3488 I0.2609 J-0.168
G2 X-283.4852 Y308.5729 I2.0861 J-2.3182
G1 X-283.4134 Y308.6251
G1 X-283.3773 Y308.651
G2 X-282.7909 Y309.0481 I10.3454 J-14.6446
G1 X-282.4978 Y309.2366
G1 X-282.2052 Y309.4205
G2 X-281.0306 Y310.1288 I35.3365 J-57.2772
G2 X-279.8786 Y310.7905 I34.5651 J-58.8364
G2 X-279.598 Y310.9479 I6.2114 J-10.7438
G2 X-275.0832 Y313.3345 I57.8828 J-104.0362
G2 X-274.8336 Y313.4599 I7.0191 J-13.6559
G2 X-272.8454 Y314.4395 I78.637 J-157.1036
G1 X-272.3775 Y314.6653
G1 X-271.4544 Y315.1057
G1 X-271.2305 Y315.2116
G2 X-269.4484 Y316.0418 I120.0854 J-255.4528
G2 X-262.6995 Y319.0081 I96.4242 J-210.2234
G1 X-261.4241 Y319.5409
G2 X-256.6173 Y321.4803 I111.5754 J-269.6207
G1 X-255.712 Y321.8341
G1 X-255.6059 Y321.8754
G2 X-248.8346 Y324.4153 I113.4891 J-292.2586
G2 X-242.0098 Y326.8079 I114.1264 J-314.6134
G2 X-231.9819 Y330.0893 I158.482 J-467.347
G2 X-231.8443 Y330.1327 I0.9365 J-2.7332
G2 X-223.0271 Y332.8127 I144.2868 J-458.8584
G1 X-222.0594 Y333.095
G1 X-221.1061 Y333.3708
G1 X-220.1672 Y333.6403
G1 X-219.2423 Y333.9034
G2 X-211.0054 Y336.1485 I112.2371 J-395.548
G0 Z5.0
G0 X-203.6749 Y302.8683
G1 Z0.0
G2 X-200.0712 Y303.6552 I219.1447 J-994.9104
G1 X-199.0907 Y303.8664
G1 X-198.1252 Y304.0731
G1 X-197.1746 Y304.2754
G1 X-196.2384 Y304.4735
G2 X-194.3945 Y304.8602 I60.3439 J-283.1368
G1 X-192.6072 Y305.2305
G1 X-190.8746 Y305.585
G2 X-184.1512 Y306.9155 I128.0511 J-629.4431
G1 X-182.6776 Y307.1967
G1 X-181.249 Y307.4653
G1 X-179.8643 Y307.7219
G1 X-178.5219 Y307.9668
G1 X-177.8714 Y308.0842
G1 X-177.2308 Y308.1988
G2 X-167.1183 Y309.8728 I69.1686 J-386.4526
G2 X-159.4892 Y310.9189 I38.9014 J-255.3713
G2 X-158.7711 Y311.0047 I11.1041 J-89.8861
G2 X-155.9848 Y311.3123 I22.358 J-189.7335
G1 X-155.3742 Y311.3739
G1 X-154.7824 Y311.4313
G2 X-150.1875 Y311.7921 I12.3222 J-127.5033
G1 X-149.3229 Y311.84
G1 X-148.5116 Y311.8779
G1 X-148.1311 Y311.8933
G2 X-145.1799 Y311.9485 I2.7933 J-70.3053
G2 X-142.9627 Y311.895 I-0.183 J-53.4869
G1 X-142.7547 Y311.8845
G1 X-142.5531 Y311.8733
G1 X-142.3579 Y311.8614
G2 X-140.8483 Y311.7309 I-1.9075 J-30.8693
G2 X-139.7208 Y311.5772 I-2.2536 J-20.7443
G1 X-139.5102 Y311.5417
G1 X-139.3131 Y311.5061
G2 X-137.8533 Y311.1545 I-2.3694 J-13.0433
G2 X-137.1449 Y310.9026 I-2.5728 J-8.3576
G2 X-136.4684 Y310.5744 I-2.006 J-4.9958
G2 X-134.8413 Y309.4059 I-5.0859 J-8.7992
G2 X-133.6235 Y308.1417 I-7.3664 J-8.3151
G2 X-133.5927 Y308.1045 I-0.3394 J-0.3119
G2 X-133.1196 Y307.4984 I-10.8291 J-8.9402
G2 X-132.6996 Y306.9104 I-16.5105 J-12.2358
G1 X-132.5084 Y306.6296
G1 X-132.4167 Y306.4926
G1 X-132.3269 Y306.3574
G1 X-131.626 Y305.2873
G3 X-131.3124 Y304.8203 I17.2724 J11.2619
G3 X-131.2749 Y304.7658 I0.5996 J0.3719
G3 X-131.2377 Y304.7119 I0.6002 J0.3751
G3 X-130.9355 Y304.2883 I15.5897 J10.7988
G1 X-130.7892 Y304.0928
G1 X-130.6441 Y303.9058
G3 X-130.0451 Y303.2112 I7.8966 J6.2042
G3 X-129.7618 Y302.9264 I7.8382 J7.5142
G3 X-128.5741 Y302.0044 I4.9763 J5.1844
G3 X-127.5686 Y301.4959 I3.5794 J5.8297
G3 X-126.7698 Y301.2211 I2.9533 J7.2872
G3 X-125.5308 Y300.9612 I2.6147 J9.3782
G3 X-124.2698 Y300.8501 I1.6703 J11.7461
G1 X-123.8272 Y300.83
G1 X-123.4099 Y300.8057
G2 X-120.2707 Y300.4752 I-2.7949 J-41.6234
G2 X-118.341 Y300.154 I-5.7224 J-40.3417
G2 X-118.299 Y300.146 I-0.0399 J-0.3238
G1 X-117.9502 Y300.0779
G2 X-117.8172 Y300.0511 I-0.6331 J-3.4822
G1 X-117.5213 Y299.9897
G2 X-116.5999 Y299.7822 I-9.1845 J-42.9379
G1 X-116.3417 Y299.7191
G2 X-116.3184 Y299.7133 I-0.0289 J-0.1654
G1 X-116.1285 Y299.6653
G2 X-115.9407 Y299.6163 I-2.4749 J-9.8843
G1 X-115.785 Y299.5747
G2 X-115.2249 Y299.4152 I-6.7975 J-24.9411
G1 X-114.8968 Y299.3135
G1 X-114.6834 Y299.2432
G2 X-113.8931 Y298.9385 I-2.906 J-8.7149
G2 X-113.5583 Y298.7669 I-1.2624 J-2.8748
G2 X-113.5419 Y298.757 I-0.0165 J-0.0458
G2 X-113.417 Y298.673 I-0.5871 J-1.0077
G2 X-113.3142 Y298.5816 I-0.3517 J-0.4989
G2 X-113.2512 Y298.4834 I-0.2143 J-0.2069
G2 X-113.2515 Y298.3893 I-0.1247 J-0.0467
G2 X-113.2994 Y298.3242 I-0.1576 J0.066
G2 X-113.4315 Y298.2472 I-0.3113 J0.3822
G2 X-113.7129 Y298.1686 I-0.5698 J1.497
G2 X-114.2545 Y298.1024 I-0.8215 J4.4704
G2 X-115.2079 Y298.0757 I-0.8285 J12.561
G2 X-115.5655 Y298.0803 I-0.055 J9.7412
G2 X-116.1911 Y298.1001 I1.1566 J46.4931
G2 X-118.0649 Y298.2175 I2.0482 J47.7018
G1 X-118.4561 Y298.2471
G1 X-118.6511 Y298.2608
G1 X-119.0403 Y298.2864
G1 X-119.4282 Y298.3097
G1 X-120.2011 Y298.3507
G1 X-120.5847 Y298.3686
G3 X-120.9668 Y298.385 I-0.8849 J-16.1294
G1 X-121.1571 Y298.3927
G1 X-121.5371 Y298.4071
G1 X-122.294 Y298.4324
G1 X-122.6696 Y298.4434
G1 X-123.4179 Y298.4624
G1 X-123.4643 Y298.4634
G1 X-124.2064 Y298.4786
G1 X-124.3906 Y298.4818
G1 X-124.758 Y298.4877
G1 X-125.4901 Y298.4973
G1 X-126.2165 Y298.5041
G1 X-126.3066 Y298.5048
G1 X-126.3966 Y298.5054
G1 X-127.1159 Y298.5089
G3 X-129.9705 Y298.5005 I-0.7513 J-228.0811
G1 X-131.3532 Y298.4845
G1 X-131.5233 Y298.4821
G3 X-136.9552 Y298.3505 I4.6307 J-303.3538
G1 X-138.2279 Y298.3058
G1 X-139.4805 Y298.2569
G1 X-140.7133 Y298.2043
G3 X-150.4139 Y297.6417 I15.9704 J-359.3208
G3 X-167.3456 Y296.0802 I28.7819 J-404.6532
G3 X-179.9951 Y294.4579 I48.7316 J-430.0932
G3 X-198.8638 Y291.3142 I60.301 J-420.134
G3 X-217.5676 Y287.3047 I75.2589 J-396.7029
G1 X-219.547 Y286.8323
G1 X-221.4651 Y286.3771
G1 X-223.3239 Y285.9385
G1 X-225.1251 Y285.5158
G1 X-226.8706 Y285.1085
G2 X-230.2543 Y284.3259 I-317.9916 J1367.2124
G1 X-231.8413 Y283.9622
G2 X-237.9956 Y282.5734 I-214.7527 J937.3444
G1 X-239.3431 Y282.2743
G1 X-240.649 Y281.9864
G1 X-243.1804 Y281.4336
G2 X-252.6891 Y279.4317 I-166.8804 J769.0913
G1 X-254.4759 Y279.0711
G1 X-256.1523 Y278.738
G2 X-262.4492 Y277.5407 I-84.3167 J426.279
G1 X-263.6326 Y277.3269
G1 X-264.7429 Y277.1301
G1 X-265.7845 Y276.9492
G1 X-266.273 Y276.8657
G2 X-270.065 Y276.2502 I-35.759 J208.3211
G1 X-270.1541 Y276.2365
G1 X-270.2425 Y276.223
G2 X-273.0523 Y275.8181 I-21.5751 J139.7544
G1 X-273.5805 Y275.7481
G1 X-274.0761 Y275.6846
G2 X-275.9375 Y275.4677 I-10.2714 J80.0738
G2 X-276.0251 Y275.4585 I-0.1449 J0.9577
G2 X-276.1113 Y275.4496 I-0.1419 J0.9456
G2 X-276.1961 Y275.4408 I-0.1388 J0.9333
G2 X-276.2797 Y275.4323 I-0.1358 J0.9214
G2 X-276.3619 Y275.4241 I-0.1329 J0.9101
G2 X-276.4429 Y275.4161 I-0.1301 J0.8986
G2 X-276.5227 Y275.4082 I-0.1272 J0.8871
G2 X-276.6012 Y275.4006 I-0.1244 J0.876
G2 X-277.838 Y275.2951 I-4.8391 J49.4027
G2 X-279.7009 Y275.2116 I-2.214 J28.5636
G2 X-279.7596 Y275.2113 I-0.0319 J0.5705
G2 X-280.2141 Y275.2172 I-0.0481 J13.7789
G2 X-280.8957 Y275.2668 I0.1798 J7.1842
G2 X-281.2343 Y275.3293 I0.2746 J2.4354
G2 X-281.3991 Y275.383 I0.4612 J1.6927
G2 X-281.5474 Y275.4725 I0.1917 J0.4853
G2 X-281.431 Y275.5542 I1.6024 J-2.1605
G2 X-280.4846 Y276.1806 I21.7555 J-31.84
G1 X-280.0127 Y276.4791
G1 X-279.5417 Y276.7706
G2 X-275.731 Y278.9624 I45.207 J-74.1901
G1 X-275.6178 Y279.0239
G1 X-275.5049 Y279.0852
G2 X-271.8638 Y280.9771 I60.5433 J-112.0694
G2 X-264.8999 Y284.2426 I71.8652 J-144.1964
G1 X-264.7075 Y284.3274
G1 X-263.9399 Y284.6632
G1 X-263.1828 Y284.9904
G2 X-261.6884 Y285.6251 I106.8489 J-249.5021
G1 X-260.9627 Y285.9281
G1 X-260.2472 Y286.2237
G2 X-258.8354 Y286.798 I65.8237 J-159.8086
G1 X-258.15 Y287.0725
G2 X-256.7983 Y287.6063 I86.5216 J-217.1474
G2 X-246.2167 Y291.4631 I90.8656 J-232.857
G1 X-245.2163 Y291.801
G2 X-237.4229 Y294.2949 I94.977 J-283.3751
G2 X-235.9543 Y294.7389 I104.4293 J-342.7367
G2 X-234.5756 Y295.1487 I52.0981 J-172.7492
G1 X-233.2814 Y295.5274
G1 X-232.6742 Y295.703
G1 X-232.0856 Y295.872
G2 X-227.5141 Y297.1458 I93.7612 J-327.6658
G1 X-226.655 Y297.3776
G2 X-220.1941 Y299.0487 I94.6116 J-352.4854
G1 X-219.9916 Y299.099
G1 X-219.7955 Y299.1477
G1 X-219.0354 Y299.3353
G1 X-217.7045 Y299.6598
G1 X-216.7054 Y299.9001
G1 X-215.2058 Y300.2556
G2 X-214.4554 Y300.4312 I16.1595 J-67.369
G1 X-214.2677 Y300.4749
G1 X-213.7047 Y300.6053
G1 X-211.3257 Y301.1517
G1 X-209.0198 Y301.6759
G2 X-203.6749 Y302.8683 I224.4895 J-993.7181
G0 Z5.0
G0 X-197.5938 Y266.8426
G1 Z0.0
G2 X-197.4015 Y266.8741 I3.4147 J-20.2293
G1 X-195.9415 Y267.1171
G1 X-194.846 Y267.2956
G2 X-194.4351 Y267.3617 I7.9211 J-47.9045
G1 X-194.2552 Y267.3906
G1 X-193.5808 Y267.4978
G1 X-193.0748 Y267.5775
G1 X-191.5564 Y267.8124
G1 X-189.4811 Y268.1261
G1 X-187.4696 Y268.4234
G2 X-179.6643 Y269.5098 I85.1353 J-583.0761
G1 X-177.954 Y269.7324
G1 X-176.2963 Y269.9425
G1 X-174.6894 Y270.1406
G1 X-173.1319 Y270.3272
G1 X-171.6222 Y270.5027
G1 X-170.159 Y270.6677
G1 X-168.7408 Y270.8227
G2 X-163.2394 Y271.3733 I37.2272 J-344.1572
G2 X-158.4164 Y271.7825 I27.6829 J-297.6381
G2 X-149.9571 Y272.2968 I19.2044 J-246.0806
G2 X-149.1622 Y272.3293 I3.4586 J-74.8644
G1 X-148.392 Y272.3578
G2 X-145.406 Y272.4387 I5.8255 J-159.9469
G1 X-144.7524 Y272.4496
G1 X-144.1191 Y272.4577
G1 X-143.5055 Y272.4631
G1 X-142.9109 Y272.466
G2 X-138.3034 Y272.3993 I0.529 J-122.76
G1 X-137.4391 Y272.3667
G1 X-136.6289 Y272.3293
G1 X-135.8695 Y272.288
G1 X-135.1577 Y272.2432
G1 X-135.0742 Y272.2376
G1 X-134.9914 Y272.2319
G2 X-132.3681 Y272.0034 I-4.8006 J-70.2761
G2 X-130.4066 Y271.7581 I-5.2668 J-50.0981
G2 X-129.6733 Y271.6455 I-7.7966 J-53.2238
G1 X-129.353 Y271.5921
G1 X-129.0532 Y271.5396
G1 X-128.7724 Y271.488
G2 X-126.6852 Y271.0135 I-4.7364 J-25.6584
G1 X-126.4274 Y270.9402
G2 X-125.536 Y270.6475 I-3.3038 J-11.5662
G2 X-125.1004 Y270.472 I-2.711 J-7.3567
G1 X-124.9935 Y270.4236
G2 X-124.6816 Y270.2598 I-1.3675 J-2.9813
G1 X-124.6316 Y270.1294
G3 X-123.6966 Y268.1398 I17.6928 J7.1003
G1 X-123.6718 Y268.0943
G1 X-123.5725 Y267.9145
G3 X-122.7312 Y266.5632 I14.9134 J8.3464
G3 X-122.5578 Y266.319 I17.3998 J12.1778
G3 X-121.8577 Y265.4409 I10.038 J7.2853
G3 X-121.2738 Y264.8317 I6.6483 J5.7874
G3 X-120.2879 Y264.0376 I5.0678 J5.2825
G1 X-120.1545 Y263.9517
G3 X-119.1585 Y263.4658 I2.7197 J4.3107
G3 X-118.8477 Y263.3584 I4.6585 J12.985
G1 X-118.7722 Y263.3331
G1 X-118.6222 Y263.2834
G1 X-118.326 Y263.1882
G3 X-118.2541 Y263.1655 I0.3018 J0.8325
G3 X-117.1079 Y262.8247 I15.1403 J48.8245
G1 X-116.6039 Y262.6845
G3 X-116.4856 Y262.6522 I1.3375 J4.6762
G3 X-116.369 Y262.6207 I0.5573 J1.8296
G1 X-115.9097 Y262.4987
G3 X-115.0466 Y262.2774 I80.1013 J310.7055
G1 X-114.2895 Y262.0908
G3 X-108.9601 Y260.9178 I33.0058 J137.2663
G1 X-109.3066 Y260.9682
G3 X-109.393 Y260.9802 I-0.8821 J-6.0069
G3 X-112.1598 Y261.3156 I-13.0052 J-95.7103
G1 X-112.8309 Y261.3863
G3 X-115.4974 Y261.6364 I-17.4342 J-171.581
G3 X-118.0839 Y261.8378 I-12.8917 J-148.8683
G1 X-118.7107 Y261.8811
G1 X-119.0217 Y261.9018
G3 X-128.9466 Y262.3225 I-14.285 J-219.7178
G1 X-130.0329 Y262.3423
G1 X-130.5676 Y262.3502
G3 X-139.0564 Y262.323 I-3.4534 J-247.1422
G3 X-139.9847 Y262.303 I1.7049 J-100.6252
G1 X-140.8984 Y262.2801
G3 X-148.0898 Y261.9903 I6.9043 J-260.6457
G1 X-148.8759 Y261.9469
G3 X-173.5381 Y259.4409 I15.8969 J-279.0504
G1 X-173.9214 Y259.3844
G3 X-197.8826 Y254.7663 I41.1162 J-277.7977
G1 X-200.4741 Y254.1518
G1 X-201.102 Y254.004
G2 X-202.3483 Y253.7119 I-129.488 J549.6513
G1 X-203.5755 Y253.4259
G1 X-204.7838 Y253.1459
G1 X-205.9736 Y252.8719
G1 X-207.1452 Y252.6036
G2 X-209.4529 Y252.0798 I-139.9318 J611.1472
G1 X-211.6897 Y251.5781
G1 X-213.858 Y251.0976
G1 X-215.9597 Y250.6376
G2 X-216.0234 Y250.6237 I-0.2378 J0.9399
G2 X-216.087 Y250.6099 I-0.2375 J0.939
G2 X-216.1506 Y250.5961 I-0.2372 J0.9382
G2 X-224.283 Y248.8735 I-153.2717 J703.5295
G1 X-226.0647 Y248.5086
G2 X-239.9056 Y245.8475 I-124.1198 J608.2633
G1 X-241.2066 Y245.6149
G1 X-242.4675 Y245.3926
G1 X-243.0785 Y245.286
G1 X-243.68 Y245.1818
G1 X-244.2723 Y245.0799
G1 X-245.4387 Y244.8815
G2 X-254.4951 Y243.4468 I-73.5996 J435.2883
G1 X-255.3459 Y243.3226
G2 X-261.9489 Y242.4304 I-46.3855 J318.4103
G1 X-263.1891 Y242.2784
G1 X-264.3523 Y242.1408
G1 X-265.4434 Y242.0162
G1 X-266.4668 Y241.9036
G1 X-267.4266 Y241.8018
G2 X-274.6383 Y241.1746 I-20.8506 J197.9741
G1 X-274.8641 Y241.1595
G1 X-275.0828 Y241.1452
G1 X-275.9305 Y241.0927
G1 X-276.116 Y241.0819
G2 X-278.9925 Y240.9465 I-7.567 J130.1041
G2 X-281.8715 Y240.8858 I-3.3062 J88.5301
G1 X-281.7089 Y240.974
G1 X-281.5461 Y241.061
G1 X-281.4648 Y241.1042
G2 X-280.1566 Y241.7792 I37.5817 J-71.2334
G2 X-278.8591 Y242.4239 I43.8631 J-86.6495
G2 X-273.6893 Y244.8347 I71.0483 J-145.6088
G1 X-273.0786 Y245.1061
G1 X-272.7753 Y245.2401
G1 X-272.1704 Y245.5053
G1 X-271.5694 Y245.7666
G1 X-271.4948 Y245.7989
G1 X-270.8982 Y246.0558
G2 X-268.5229 Y247.058 I78.7085 J-183.2205
G1 X-268.2345 Y247.1775
G2 X-263.6179 Y249.0322 I89.9884 J-217.3297
G2 X-254.8714 Y252.2727 I100.8629 J-258.8106
G2 X-239.3365 Y257.2769 I103.5661 J-294.8926
G2 X-227.5327 Y260.5181 I97.7718 J-332.956
G1 X-226.9767 Y260.6597
G1 X-225.8813 Y260.9359
G2 X-208.7994 Y264.7763 I87.8975 J-351.0546
G2 X-204.502 Y265.6095 I68.2596 J-340.5475
G1 X-202.8881 Y265.9092
G1 X-201.4748 Y266.1656
G1 X-200.8562 Y266.2761
G1 X-199.6958 Y266.4806
G1 X-198.6799 Y266.6566
G2 X-197.7907 Y266.8084 I27.6183 J-159.1568
G2 X-197.5938 Y266.8426 I3.6115 J-20.1951
G0 Z5.0
G0 X-191.1743 Y228.6034
G1 Z0.0
G2 X-191.1029 Y228.6152 I2.3406 J-13.942
G2 X-184.2768 Y229.7084 I59.8161 J-351.6391
G2 X-180.9217 Y230.2077 I153.291 J-1018.7328
G1 X-180.5284 Y230.2659
G1 X-180.1381 Y230.3237
G1 X-177.0403 Y230.7799
G1 X-175.5876 Y230.9924
G1 X-172.7724 Y231.4011
G1 X-170.1319 Y231.7802
G2 X-169.8223 Y231.8244 I1.9179 J-12.3394
G2 X-169.5151 Y231.8681 I1.8657 J-12.0
G2 X-169.2103 Y231.9115 I1.8173 J-11.6864
G2 X-164.3704 Y232.5897 I164.3983 J-1155.4993
G1 X-163.3106 Y232.7354
G1 X-161.2566 Y233.0141
G1 X-159.3296 Y233.2708
G1 X-159.1037 Y233.3005
G1 X-158.8794 Y233.33
G1 X-158.6569 Y233.3591
G1 X-158.4362 Y233.388
G1 X-156.6837 Y233.6141
G1 X-155.0396 Y233.8212
G1 X-154.8468 Y233.8451
G1 X-154.6554 Y233.8687
G2 X-148.5754 Y234.5687 I42.8247 J-345.2422
G1 X-148.0036 Y234.6279
G1 X-147.4494 Y234.6839
G2 X-143.1484 Y235.0575 I14.8963 J-146.5402
G1 X-142.7439 Y235.0855
G1 X-142.3518 Y235.1112
G1 X-141.5919 Y235.1563
G2 X-138.7384 Y235.2567 I3.6828 J-64.0843
G2 X-136.595 Y235.2271 I0.5482 J-38.0103
G2 X-134.9904 Y235.1133 I-1.0299 J-25.8724
G2 X-132.6083 Y234.7334 I-1.9781 J-20.0623
G1 X-132.4611 Y234.7004
G1 X-132.1859 Y234.6356
G2 X-131.2291 Y234.3832 I-7.5186 J-30.4357
G1 X-130.9913 Y234.3147
G1 X-130.9022 Y234.2886
G1 X-130.8244 Y234.2656
G1 X-130.2807 Y234.1005
G2 X-130.2182 Y234.0811 I-0.3249 J-1.154
G2 X-128.2677 Y233.3518 I-5.9393 J-18.8568
G2 X-126.6259 Y232.5667 I-9.5521 J-22.0847
G2 X-125.9252 Y232.1891 I-10.5511 J-20.4224
G2 X-125.8437 Y232.1437 I-0.5858 J-1.147
G2 X-125.2015 Y231.7756 I-18.5414 J-33.0876
G2 X-122.8502 Y230.3 I-27.2213 J-45.9896
G2 X-122.7958 Y230.2641 I-0.3425 J-0.578
G2 X-122.7419 Y230.2285 I-0.3388 J-0.5712
G1 X-121.889 Y229.6591
G1 X-121.1444 Y229.1577
G1 X-120.4918 Y228.7201
G3 X-119.9181 Y228.3408 I56.7757 J85.2384
G1 X-119.4128 Y228.0138
G3 X-118.5167 Y227.4593 I14.8584 J23.0125
G1 X-118.1754 Y227.2596
G1 X-118.1002 Y227.2167
G3 X-117.8075 Y227.0534 I4.5562 J7.8226
G3 X-116.758 Y226.5293 I7.0417 J12.7888
G3 X-115.6598 Y226.1172 I3.645 J8.0431
G1 X-115.4321 Y226.051
G3 X-113.6488 Y225.6107 I7.3674 J26.0069
G3 X-110.9301 Y225.1676 I6.2177 J29.5878
G1 X-110.5878 Y225.1292
G1 X-110.2879 Y225.0988
G1 X-110.0253 Y225.0745
G1 X-109.5652 Y225.0375
G1 X-109.4788 Y225.0314
G1 X-109.155 Y225.0107
G1 X-108.912 Y224.9978
G1 X-108.5472 Y224.983
G3 X-108.5016 Y224.9815 I0.2177 J6.3017
G1 X-108.1822 Y224.9755
G3 X-110.7428 Y225.1334 I-7.8728 J-106.8236
G1 X-110.8979 Y225.1413
G1 X-111.5172 Y225.1716
G1 X-112.7464 Y225.2256
G3 X-117.5888 Y225.3708 I-9.6402 J-240.752
G1 X-118.1565 Y225.3815
G1 X-119.2829 Y225.3992
G3 X-128.1541 Y225.3812 I-3.8374 J-295.7363
G3 X-159.1234 Y223.3199 I5.4289 J-315.2363
G3 X-174.4911 Y221.116 I33.6553 J-289.3624
G3 X-178.3126 Y220.4348 I45.061 J-263.8521
G1 X-179.7432 Y220.1654
G3 X-189.7123 Y218.0602 I47.9179 J-251.5637
G1 X-191.0018 Y217.763
G2 X-211.4092 Y213.5361 I-109.8788 J479.1181
G2 X-219.1077 Y212.1811 I-82.3909 J445.557
G1 X-219.9512 Y212.0409
G2 X-233.2691 Y210.0504 I-71.2815 J431.3955
G1 X-234.5208 Y209.8856
G2 X-244.2386 Y208.7427 I-50.4839 J387.3594
G2 X-258.8644 Y207.5185 I-35.7604 J339.2542
G1 X-259.7802 Y207.4638
G1 X-260.2096 Y207.4391
G1 X-260.6256 Y207.4158
G2 X-267.0767 Y207.1344 I-15.0927 J271.9277
G1 X-267.8835 Y207.1106
G2 X-273.5331 Y207.0266 I-5.8679 J204.7071
G2 X-270.8095 Y207.9667 I71.9895 J-204.1525
G2 X-265.5122 Y209.7282 I136.1554 J-400.6061
G2 X-255.5318 Y212.8829 I187.538 J-575.9401
G1 X-254.9844 Y213.0504
G1 X-254.9165 Y213.0712
G1 X-254.8486 Y213.0919
G1 X-253.7641 Y213.422
G2 X-236.6053 Y218.3617 I181.1186 J-596.8709
G1 X-236.4033 Y218.4166
G1 X-234.7936 Y218.8521
G1 X-234.0134 Y219.0614
G1 X-233.6293 Y219.1641
G2 X-221.399 Y222.2851 I145.4028 J-544.2716
G1 X-220.824 Y222.4245
G2 X-211.7469 Y224.5345 I120.6435 J-498.4286
G1 X-210.8939 Y224.7236
G1 X-209.2403 Y225.0855
G1 X-208.8525 Y225.1695
G1 X-207.3249 Y225.4969
G1 X-206.6084 Y225.6486
G2 X-203.83 Y226.2252 I68.9917 J-325.4318
G2 X-194.0765 Y228.0959 I81.4895 J-398.5179
G1 X-192.8541 Y228.3124
G2 X-191.7838 Y228.4985 I25.9746 J-146.1954
G2 X-191.5496 Y228.5388 I3.2954 J-18.4545
G2 X-191.3227 Y228.5777 I2.8154 J-15.7475
G2 X-191.1743 Y228.6034 I2.489 J-13.9162
G0 Z5.0
G0 X-185.7602 Y191.5062
G1 Z0.0
G2 X-185.4545 Y191.5507 I59.0523 J-404.6235
G2 X-182.4093 Y191.984 I60.0469 J-411.0887
G2 X-179.5519 Y192.3728 I49.8305 J-355.5367
G1 X-178.2118 Y192.5496
G1 X-176.913 Y192.7177
G1 X-175.6546 Y192.8778
G2 X-175.5783 Y192.8874 I0.1839 J-1.1525
G2 X-175.5023 Y192.8969 I0.1834 J-1.1499
G2 X-175.4263 Y192.9065 I0.1828 J-1.1474
G2 X-175.3505 Y192.916 I0.1823 J-1.1448
G2 X-175.2749 Y192.9255 I0.1818 J-1.1423
G2 X-170.4426 Y193.5131 I93.3167 J-747.291
G2 X-166.2111 Y194.0014 I141.0536 J-1203.6274
G1 X-164.3591 Y194.2091
G1 X-162.6226 Y194.4013
G1 X-159.366 Y194.7571
G1 X-158.6535 Y194.8345
G1 X-157.9633 Y194.9094
G1 X-155.2888 Y195.2002
G1 X-154.7037 Y195.2642
G1 X-154.1369 Y195.3263
G1 X-151.9411 Y195.5697
G1 X-150.0202 Y195.7877
G1 X-148.3401 Y195.9842
G1 X-147.6052 Y196.0723
G1 X-146.2279 Y196.2419
G3 X-143.8199 Y196.5567 I-33.103 J262.5942
G3 X-140.2167 Y197.0943 I-17.1195 J127.0953
G1 X-140.1044 Y197.1129
G1 X-139.8868 Y197.1492
G3 X-138.2583 Y197.4405 I-11.2311 J67.49
G1 X-137.8522 Y197.5193
G3 X-136.6377 Y197.7737 I-11.0189 J55.6329
G2 X-131.8961 Y198.3976 I5.9516 J-26.903
G2 X-128.2961 Y198.334 I1.2907 J-28.8943
G2 X-125.6101 Y197.9766 I-2.0737 J-25.8554
G2 X-124.6125 Y197.7674 I-4.4779 J-23.8387
G2 X-123.7472 Y197.5474 I-4.6974 J-20.2787
G2 X-122.9979 Y197.3242 I-4.9024 J-17.8272
G2 X-122.8351 Y197.2713 I-2.4535 J-7.8283
G2 X-122.6779 Y197.2186 I-3.8828 J-11.8502
G2 X-122.3746 Y197.1123 I-2.4561 J-7.4989
G2 X-121.2569 Y196.6616 I-4.925 J-13.8242
G2 X-119.6666 Y195.8001 I-4.6985 J-10.572
G2 X-118.9367 Y195.263 I-4.3399 J-6.6614
G2 X-118.2831 Y194.6353 I-3.9052 J-4.7201
G1 X-118.0608 Y194.3823
G2 X-118.0073 Y194.3206 I-0.5971 J-0.5726
G2 X-117.9542 Y194.2593 I-0.6075 J-0.5789
G2 X-117.9017 Y194.1983 I-0.619 J-0.5862
G1 X-117.4885 Y193.7115
G3 X-116.7141 Y192.7945 I67.699 J56.3951
G3 X-115.9985 Y192.0203 I10.5372 J9.0214
G3 X-115.3048 Y191.412 I5.0476 J5.056
G3 X-113.9058 Y190.6215 I3.5715 J4.6877
G3 X-112.7591 Y190.2628 I3.0285 J7.669
G1 X-112.6494 Y190.2372
G3 X-111.7924 Y190.0747 I2.7708 J12.2697
G3 X-111.4687 Y190.0276 I4.3462 J28.7772
G3 X-110.3303 Y189.908 I2.879 J21.9258
G3 X-110.045 Y189.8871 I0.7833 J8.6968
G1 X-109.6164 Y189.861
G1 X-109.1876 Y189.8406
G2 X-108.196 Y189.7832 I-1.0283 J-26.3853
G2 X-106.4682 Y189.5891 I-1.5549 J-21.625
G2 X-105.1902 Y189.3297 I-2.0354 J-13.3023
G2 X-104.7194 Y189.1967 I-3.8 J-14.3518
G2 X-103.1462 Y188.527 I-2.3751 J-7.762
G2 X-103.0988 Y188.501 I-0.2017 J-0.4246
G1 X-102.9161 Y188.3997
G1 X-102.756 Y188.3112
G1 X-102.6854 Y188.273
G3 X-102.4165 Y188.1386 I2.1507 J3.9647
G3 X-101.9912 Y187.9881 I0.9505 J2.0107
G3 X-101.5438 Y187.9303 I0.4876 J2.0126
G1 X-101.5184 Y187.9292
G2 X-101.5018 Y187.9279 I0.005 J-0.0411
G2 X-101.4924 Y187.9265 I-0.0026 J-0.0503
G2 X-101.4849 Y187.9224 I-0.0002 J-0.0094
G2 X-101.5317 Y187.9095 I-0.061 J0.1309
G1 X-101.6275 Y187.8955
G1 X-101.8194 Y187.8731
G2 X-102.5853 Y187.7992 I-4.515 J42.8272
G1 X-102.9626 Y187.766
G1 X-103.337 Y187.734
G1 X-104.0802 Y187.6724
G1 X-104.8119 Y187.6134
G1 X-105.172 Y187.5849
G1 X-106.6014 Y187.4736
G1 X-107.2939 Y187.4207
G1 X-108.6573 Y187.3179
G1 X-111.2992 Y187.1227
G1 X-113.7763 Y186.9434
G1 X-116.0987 Y186.7779
G1 X-118.2762 Y186.6248
G1 X-118.7865 Y186.5891
G1 X-122.8057 Y186.3117
G1 X-124.5643 Y186.1921
G1 X-127.8617 Y185.9707
G1 X-128.583 Y185.9227
G1 X-128.7578 Y185.9112
G2 X-139.8528 Y185.1993 I-189.786 J2871.1497
G1 X-142.6271 Y185.0298
G2 X-150.9517 Y184.5511 I-83.3548 J1376.9487
G1 X-151.5803 Y184.5162
G1 X-152.2038 Y184.4791
G1 X-152.8224 Y184.44
G1 X-152.8991 Y184.435
G1 X-152.9758 Y184.43
G3 X-155.4241 Y184.2534 I11.162 J-171.7503
G1 X-155.7204 Y184.23
G1 X-156.9007 Y184.1329
G3 X-159.2228 Y183.9246 I22.4751 J-263.7051
G1 X-160.3468 Y183.8164
G1 X-160.4852 Y183.8027
G1 X-161.589 Y183.6916
G1 X-161.7248 Y183.6776
G1 X-162.8088 Y183.564
G1 X-163.3422 Y183.5067
G1 X-163.8714 Y183.4491
G1 X-164.9211 Y183.3323
G1 X-165.0503 Y183.3177
G1 X-166.0811 Y183.1996
G1 X-166.208 Y183.1848
G1 X-166.3347 Y183.1701
G1 X-167.3451 Y183.0509
G1 X-168.3394 Y182.9311
G1 X-169.318 Y182.8109
G1 X-170.281 Y182.6904
G1 X-170.7549 Y182.6303
G3 X-174.514 Y182.1374 I51.4733 J-407.0657
G1 X-176.2748 Y181.897
G1 X-177.1275 Y181.7787
G1 X-177.9666 Y181.661
G1 X-178.3796 Y181.6026
G1 X-180.0182 Y181.3684
G1 X-180.8117 Y181.2535
G1 X-181.2022 Y181.1966
G1 X-182.7515 Y180.9686
G1 X-183.5018 Y180.857
G1 X-184.9787 Y180.635
G3 X-190.6975 Y179.7499 I136.4132 J-900.3199
G1 X-190.8538 Y179.7252
G1 X-193.3442 Y179.3279
G1 X-195.678 Y178.9499
G1 X-197.8653 Y178.591
G3 X-201.9647 Y177.9073 I288.0104 J-1739.5098
G1 X-202.1888 Y177.8695
G1 X-202.4113 Y177.832
G3 X-204.1761 Y177.5329 I152.5459 J-905.662
G1 X-205.8302 Y177.2506
G1 X-208.9308 Y176.7164
G1 X-210.287 Y176.4808
G1 X-212.8294 Y176.0362
G1 X-215.0535 Y175.6443
G3 X-230.6111 Y172.8402 I488.9632 J-2757.4872
G2 X-235.8776 Y171.9372 I-40.7119 J221.6192
G2 X-245.146 Y170.6757 I-31.0579 J193.5115
G2 X-246.0185 Y170.581 I-9.0379 J79.2288
G2 X-249.4042 Y170.2576 I-17.5985 J166.3192
G2 X-249.4506 Y170.2536 I-0.065 J0.4916
G2 X-249.4969 Y170.2497 I-0.0647 J0.4907
G2 X-255.415 Y169.8738 I-11.6345 J136.379
G2 X-256.5267 Y169.8328 I-6.3225 J156.3186
G2 X-260.6985 Y169.7756 I-3.585 J109.3671
G2 X-263.828 Y169.8477 I0.4434 J87.1904
G2 X-266.1728 Y169.9798 I3.0659 J75.2952
G2 X-269.6778 Y170.3372 I3.9791 J56.388
G1 X-269.8961 Y170.3674
G1 X-270.1006 Y170.3967
G2 X-270.1964 Y170.4108 I0.1313 J1.2264
G2 X-270.2892 Y170.4247 I0.1313 J1.1975
G2 X-271.7222 Y170.6696 I4.4141 J30.1331
G1 X-272.0786 Y170.7414
G1 X-272.212 Y170.7697
G2 X-272.6772 Y170.8757 I5.3232 J24.4528
G1 X-272.9085 Y170.9337
G1 X-273.1385 Y170.9974
G1 X-272.0621 Y171.3095
G1 X-269.9413 Y171.9184
G1 X-267.8853 Y172.5033
G1 X-265.8925 Y173.0659
G1 X-263.961 Y173.6076
G1 X-263.9024 Y173.624
G1 X-262.9674 Y173.8849
G2 X-255.5974 Y175.9142 I396.5819 J-1425.894
G1 X-253.9835 Y176.3522
G1 X-253.8858 Y176.3787
G1 X-252.3248 Y176.7999
G1 X-250.8121 Y177.2061
G1 X-249.3461 Y177.5977
G1 X-246.5045 Y178.3512
G1 X-245.1717 Y178.7019
G1 X-244.5261 Y178.8712
G1 X-241.9828 Y179.5341
G1 X-239.597 Y180.15
G1 X-237.359 Y180.7223
G1 X-235.2596 Y181.2542
G1 X-233.2904 Y181.7486
G1 X-231.4433 Y182.2082
G1 X-229.7107 Y182.6354
G1 X-229.3044 Y182.7351
G1 X-228.5046 Y182.9306
G2 X-216.0801 Y185.8486 I167.922 J-687.0753
G1 X-215.3017 Y186.0229
G1 X-214.5717 Y186.1853
G1 X-213.8872 Y186.3367
G1 X-213.2452 Y186.4778
G1 X-212.6432 Y186.6093
G1 X-212.0787 Y186.732
G1 X-211.0198 Y186.9602
G1 X-209.1657 Y187.3538
G2 X-209.0787 Y187.3721 I0.3219 J-1.3165
G2 X-208.9931 Y187.3901 I0.3178 J-1.3017
G2 X-208.9088 Y187.4077 I0.3138 J-1.2873
G2 X-207.5811 Y187.6837 I138.6441 J-663.6535
G1 X-207.083 Y187.7861
G2 X-203.5927 Y188.4846 I69.7217 J-339.3186
G1 X-203.0742 Y188.5854
G1 X-202.5594 Y188.6846
G2 X-198.4689 Y189.444 I59.8103 J-310.7622
G1 X-197.509 Y189.615
G1 X-197.0363 Y189.6982
G1 X-196.5673 Y189.7802
G1 X-196.1018 Y189.8609
G2 X-192.4035 Y190.4809 I66.9167 J-387.8312
G2 X-185.7602 Y191.5062 I65.6956 J-403.5981
G0 Z5.0
G0 X-180.8887 Y155.0312
G1 Z0.0
G2 X-180.1825 Y155.1246 I36.3181 J-271.9266
G1 X-178.2674 Y155.3759
G2 X-173.8875 Y155.9295 I79.0494 J-607.8565
G1 X-173.6115 Y155.9634
G1 X-171.2557 Y156.2488
G1 X-170.0394 Y156.3933
G2 X-168.7837 Y156.5404 I22.4218 J-185.9744
G1 X-168.1458 Y156.6143
G1 X-166.8286 Y156.7654
G1 X-165.4687 Y156.9192
G1 X-164.7779 Y156.9965
G1 X-163.3515 Y157.1543
G2 X-148.1238 Y158.7065 I111.362 J-1017.0062
G2 X-144.0597 Y159.0854 I104.7434 J-1101.6865
G1 X-143.9961 Y159.0912
G1 X-141.8959 Y159.2821
G2 X-139.7279 Y159.4763 I41.3749 J-449.7974
G1 X-138.6265 Y159.574
G1 X-133.9273 Y159.9875
G1 X-132.734 Y160.0938
G1 X-131.522 Y160.2047
G1 X-131.3702 Y160.219
G1 X-131.2942 Y160.2262
G1 X-130.682 Y160.2858
G1 X-130.5286 Y160.3014
G1 X-130.2209 Y160.3339
G1 X-129.9123 Y160.3694
G3 X-129.6034 Y160.4122 I-0.755 J6.5749
G3 X-129.5266 Y160.4269 I-0.2213 J1.3713
G2 X-129.2243 Y160.4861 I1.0957 J-4.7878
G2 X-128.9183 Y160.5223 I0.4588 J-2.5683
G1 X-128.8304 Y160.5267
G2 X-128.1319 Y160.4445 I0.0686 J-2.4284
G2 X-127.6849 Y160.3007 I-1.027 J-3.957
G1 X-127.568 Y160.2559
G2 X-126.9565 Y159.9965 I-6.6102 J-16.435
G1 X-126.6116 Y159.8406
G1 X-126.2196 Y159.6607
G1 X-125.1813 Y159.1843
G1 X-124.5878 Y158.9164
G1 X-123.909 Y158.6154
G3 X-123.1319 Y158.2779 I41.6565 J94.8484
G3 X-121.0525 Y157.4088 I52.9874 J123.8528
G1 X-120.7831 Y157.2994
G1 X-120.5048 Y157.1871
G1 X-120.2173 Y157.0719
G1 X-119.6034 Y156.8282
G1 X-118.9475 Y156.5711
G1 X-118.6086 Y156.4396
G1 X-116.0006 Y155.4359
G1 X-113.3919 Y154.4338
G1 X-112.6473 Y154.1458
G1 X-111.797 Y153.8145
G2 X-111.6891 Y153.7722 I-0.6871 J-1.9118
G1 X-111.4664 Y153.6847
G1 X-110.4501 Y153.2808
G1 X-110.1884 Y153.1753
G1 X-110.0555 Y153.1214
G2 X-108.8452 Y152.6184 I-24.9844 J-61.8201
G2 X-107.479 Y152.004 I-13.5531 J-31.9651
G1 X-107.3079 Y151.9207
G2 X-106.5905 Y151.5399 I-5.0471 J-10.3756
G2 X-106.2354 Y151.3162 I-3.0435 J-5.2237
G2 X-105.8996 Y151.039 I-1.1665 J-1.7554
G2 X-105.7707 Y150.8548 I-0.4714 J-0.467
G2 X-105.8052 Y150.5941 I-0.2092 J-0.105
G2 X-105.9334 Y150.4918 I-0.3504 J0.3078
G2 X-106.1047 Y150.4134 I-0.5516 J0.9787
G1 X-106.1986 Y150.3818
G2 X-106.4122 Y150.326 I-0.8776 J2.9189
G2 X-107.4084 Y150.1346 I-4.6255 J21.3902
G1 X-107.7417 Y150.0778
G1 X-107.9324 Y150.0464
G1 X-108.4412 Y149.9652
G1 X-108.5771 Y149.9442
G1 X-108.8876 Y149.897
G2 X-111.3762 Y149.5524 I-17.4891 J117.1607
G1 X-111.537 Y149.5319
G1 X-111.703 Y149.5109
G1 X-111.8744 Y149.4893
G2 X-117.3683 Y148.8948 I-20.8939 J167.3906
G1 X-118.1021 Y148.8284
G1 X-118.481 Y148.7952
G2 X-122.5257 Y148.491 I-16.5464 J192.9822
G1 X-123.6053 Y148.4256
G2 X-129.3693 Y148.1994 I-8.7629 J149.7164
G1 X-130.1135 Y148.1867
G2 X-130.2069 Y148.1853 I-0.0869 J2.8753
G1 X-130.9783 Y148.1771
G2 X-131.1727 Y148.1758 I-0.1761 J11.3538
G1 X-131.9753 Y148.1734
G2 X-135.6438 Y148.2335 I-0.0886 J106.4586
G3 X-137.9553 Y148.2582 I-1.6859 J-49.6617
G3 X-140.2658 Y148.185 I0.5751 J-54.6529
G3 X-144.8712 Y147.7907 I3.7306 J-70.6705
G3 X-146.1818 Y147.6269 I7.0642 J-61.8287
G1 X-146.3481 Y147.6047
G1 X-146.517 Y147.5818
G3 X-150.1082 Y147.026 I14.2892 J-104.2168
G1 X-151.0627 Y146.8589
G3 X-151.305 Y146.8154 I4.2729 J-24.4817
G1 X-152.3377 Y146.6253
G1 X-152.8702 Y146.5246
G1 X-154.005 Y146.3046
G3 X-155.2142 Y146.0636 I199.3441 J-1003.3774
G1 X-155.8379 Y145.9372
G1 X-156.1547 Y145.8726
G1 X-159.0482 Y145.2758
G1 X-160.5917 Y144.96
G1 X-161.389 Y144.8001
G1 X-161.59 Y144.7603
G1 X-162.4202 Y144.5986
G1 X-162.6296 Y144.5586
G1 X-162.8407 Y144.5187
G2 X-164.6449 Y144.1957 I-14.8611 J77.825
G2 X-164.7584 Y144.1768 I-0.6483 J3.5281
G2 X-164.9872 Y144.1391 I-1.9623 J11.1998
G1 X-165.4523 Y144.065
G1 X-165.687 Y144.029
G2 X-167.6959 Y143.7682 I-6.5503 J42.5928
G2 X-168.7379 Y143.6765 I-2.8702 J26.6494
G1 X-177.9349 Y143.0192
G1 X-178.5481 Y142.9753
G1 X-181.8182 Y142.7408
G1 X-194.8983 Y141.8019
G1 X-198.6355 Y141.5335
G3 X-198.871 Y141.5166 I1.5372 J-23.048
G1 X-208.9153 Y140.795
G1 X-214.6549 Y140.3825
G1 X-216.1362 Y140.2761
G1 X-263.534 Y136.8683
G1 X-269.8537 Y136.4137
G2 X-269.804 Y136.7886 I0.7712 J0.0885
G2 X-269.6104 Y137.1134 I1.1034 J-0.4375
G2 X-269.4394 Y137.2979 I1.5199 J-1.2371
G2 X-269.1854 Y137.513 I1.8567 J-1.9355
G2 X-269.1142 Y137.5658 I1.3065 J-1.6882
G2 X-268.7222 Y137.8205 I2.937 J-4.0899
G2 X-268.6702 Y137.8509 I0.5504 J-0.8826
G2 X-268.6162 Y137.8818 I0.5487 J-0.8969
G2 X-268.0338 Y138.1814 I4.9665 J-8.9397
G2 X-267.9573 Y138.2171 I0.6917 J-1.38
G2 X-267.138 Y138.565 I7.0196 J-15.3918
G2 X-267.0311 Y138.6067 I2.2021 J-5.4991
G2 X-266.9206 Y138.6489 I5.2596 J-13.5835
G2 X-265.7416 Y139.0624 I9.7957 J-26.0447
G1 X-265.425 Y139.1642
G1 X-265.0869 Y139.2695
G2 X-264.3137 Y139.4991 I12.5349 J-40.7881
G2 X-262.2515 Y140.055 I19.1085 J-66.7819
G2 X-259.4971 Y140.7144 I27.2867 J-107.9054
G1 X-259.1407 Y140.7949
G1 X-258.7729 Y140.877
G1 X-258.3931 Y140.9608
G1 X-257.5831 Y141.1368
G2 X-256.7189 Y141.3205 I20.42 J-93.912
G1 X-256.2727 Y141.414
G1 X-255.8122 Y141.5095
G2 X-250.9065 Y142.4814 I73.2995 J-357.0991
G1 X-249.5971 Y142.7305
G1 X-248.2005 Y142.9928
G1 X-246.7108 Y143.2694
G1 X-245.942 Y143.4112
G1 X-244.3021 Y143.7116
G1 X-243.8855 Y143.7875
G1 X-243.4624 Y143.8646
G1 X-241.6577 Y144.1919
G1 X-240.7262 Y144.3603
G1 X-236.4708 Y145.1276
G1 X-231.6107 Y146.0066
G1 X-229.02 Y146.4794
G1 X-226.2581 Y146.9884
G1 X-225.5569 Y147.1187
G1 X-224.1095 Y147.3889
G1 X-222.616 Y147.6699
G1 X-221.075 Y147.9623
G1 X-219.4848 Y148.267
G1 X-217.8442 Y148.5848
G1 X-216.1514 Y148.9165
G1 X-214.405 Y149.2631
G3 X-210.683 Y150.0183 I-91.4811 J460.4238
G1 X-208.764 Y150.4172
G2 X-205.231 Y151.1309 I48.178 J-229.3943
G1 X-204.0512 Y151.3582
G2 X-203.9762 Y151.3724 I0.2561 J-1.1416
G2 X-202.3766 Y151.672 I60.3848 J-317.9669
G2 X-202.2749 Y151.6908 I0.3118 J-1.4062
G1 X-201.3455 Y151.8605
G2 X-198.8649 Y152.3002 I43.5848 J-238.6804
G1 X-197.446 Y152.5435
G2 X-186.0669 Y154.3133 I75.0641 J-445.1542
G2 X-185.8874 Y154.339 I0.9222 J-5.8056
G2 X-185.7064 Y154.3649 I0.9607 J-6.0843
G2 X-185.524 Y154.3908 I1.0048 J-6.4044
G2 X-185.3401 Y154.4169 I1.0564 J-6.7776
G2 X-181.9771 Y154.8836 I66.0881 J-463.873
G2 X-180.8887 Y155.0312 I37.4066 J-271.779
G0 Z5.0
G0 X-174.6319 Y118.2552
G1 Z0.0
G1 X-167.8122 Y119.4154
G1 X-165.8651 Y119.7467
G1 X-164.4046 Y119.9949
G1 X-163.3092 Y120.1807
G1 X-161.666 Y120.4586
G1 X-160.0225 Y120.7345
G2 X-157.1549 Y121.1835 I25.4502 J-153.1665
G1 X-156.4818 Y121.2815
G1 X-155.8188 Y121.3758
G1 X-155.1659 Y121.4665
G1 X-155.0855 Y121.4775
G1 X-153.8017 Y121.6497
G1 X-152.5573 Y121.8101
G1 X-151.3509 Y121.9598
G2 X-141.9839 Y122.9644 I41.663 J-344.293
G1 X-141.1042 Y123.046
G1 X-139.3992 Y123.1981
G1 X-137.8 Y123.3336
G1 X-136.3002 Y123.4544
G1 X-134.8935 Y123.562
G2 X-134.811 Y123.5681 I0.1282 J-1.167
G1 X-133.4969 Y123.6631
G1 X-132.2646 Y123.7475
G1 X-131.1088 Y123.8222
G2 X-126.772 Y124.0605 I16.8916 J-267.7933
G1 X-126.365 Y124.079
G1 X-125.5764 Y124.1127
G1 X-125.2067 Y124.1275
G2 X-122.3404 Y124.2162 I7.261 J-188.2316
G1 X-122.0714 Y124.2218
G2 X-121.0293 Y124.2385 I1.8276 J-81.7882
G2 X-119.205 Y124.2437 I1.1819 J-94.2082
G1 X-118.5206 Y124.2358
G1 X-117.9218 Y124.2233
G1 X-117.6598 Y124.216
G2 X-115.697 Y124.1103 I-1.014 J-37.1367
G2 X-114.7192 Y124.0032 I-1.6678 J-19.743
G2 X-114.2336 Y123.9233 I-1.3035 J-9.437
G2 X-113.7544 Y123.8112 I-1.0991 J-5.7758
G2 X-112.7445 Y123.4777 I-3.2547 J-11.5522
G2 X-112.3122 Y123.2982 I-2.7273 J-7.1805
G2 X-111.9191 Y123.1043 I-2.5978 J-5.7597
G2 X-111.2383 Y122.6487 I-1.8984 J-3.5736
G2 X-110.7434 Y122.1344 I-2.1176 J-2.533
G2 X-110.7192 Y122.1036 I-0.1375 J-0.1324
G1 X-110.6258 Y121.9794
G1 X-110.538 Y121.857
G1 X-110.3705 Y121.6178
G3 X-110.2095 Y121.3961 I4.726 J3.2635
G3 X-109.497 Y120.6602 I3.1225 J2.3102
G3 X-108.8603 Y120.2341 I3.1567 J4.0283
G3 X-108.3506 Y119.9701 I3.51 J6.1537
G1 X-108.1548 Y119.8806
G3 X-107.8078 Y119.734 I5.0207 J11.4001
G3 X-106.7438 Y119.3543 I6.2116 J15.7261
G2 X-104.6544 Y118.545 I-5.425 J-17.1074
G2 X-103.6049 Y118.0093 I-6.4494 J-13.9328
G2 X-102.7044 Y117.4441 I-5.1721 J-9.2393
G1 X-102.4992 Y117.2949
G2 X-102.1073 Y116.9777 I-4.3298 J-5.7507
G1 X-102.0618 Y116.9374
G2 X-101.719 Y116.5975 I-2.709 J-3.0753
G2 X-101.442 Y116.2416 I-2.1018 J-1.9218
G2 X-101.2544 Y115.8717 I-1.4464 J-0.9659
G2 X-101.1899 Y115.5048 I-0.9751 J-0.3605
G2 X-101.2613 Y115.1825 I-0.8319 J0.0152
G2 X-101.4255 Y114.9349 I-0.8413 J0.3796
G2 X-101.8609 Y114.6072 I-1.1715 J1.1036
G2 X-102.0739 Y114.5045 I-0.9771 J1.7538
G2 X-102.49 Y114.3544 I-1.4487 J3.3641
G2 X-102.8639 Y114.2562 I-1.6273 J5.4337
G2 X-103.529 Y114.1352 I-1.8246 J8.1443
G2 X-104.5378 Y114.0348 I-1.8574 J13.5445
G1 X-104.791 Y114.0207
G2 X-105.551 Y113.9982 I-0.9336 J18.7373
G1 X-106.2406 Y113.9913
G1 X-108.9559 Y113.9688
G1 X-111.5017 Y113.9465
G1 X-113.8883 Y113.9203
G3 X-116.1258 Y113.8897 I5.3206 J-470.11
G1 X-117.1746 Y113.873
G1 X-117.6827 Y113.8643
G1 X-119.683 Y113.8261
G1 X-121.5582 Y113.7843
G1 X-123.316 Y113.7392
G1 X-124.9639 Y113.6913
G1 X-125.7364 Y113.6669
G1 X-127.2328 Y113.6158
G1 X-128.6355 Y113.563
G1 X-128.9643 Y113.55
G1 X-130.2586 Y113.4957
G3 X-135.1104 Y113.2482 I12.4826 J-292.3429
G1 X-136.0197 Y113.1929
G3 X-137.724 Y113.0806 I14.8361 J-238.1781
G3 X-139.2147 Y112.9722 I10.0256 J-148.0815
G3 X-140.5184 Y112.8686 I11.512 J-153.1277
G1 X-141.6586 Y112.7706
G1 X-142.6556 Y112.6787
G1 X-143.5276 Y112.5931
G1 X-143.7183 Y112.5737
G1 X-144.457 Y112.4961
G1 X-144.6185 Y112.4786
G1 X-144.775 Y112.4614
G1 X-145.381 Y112.3932
G1 X-145.6461 Y112.3623
G3 X-149.6107 Y111.8167 I10.8464 J-93.4918
G1 X-149.7618 Y111.7922
G1 X-149.9118 Y111.7677
G1 X-150.0605 Y111.7432
G1 X-150.2081 Y111.7187
G1 X-150.3544 Y111.6942
G3 X-151.5146 Y111.4935 I39.402 J-231.2099
G1 X-151.6505 Y111.4692
G3 X-155.9443 Y110.6015 I16.2314 J-91.3804
G3 X-162.285 Y108.8722 I16.7455 J-73.8874
G1 X-163.0715 Y108.6216
G1 X-163.7601 Y108.4022
G2 X-164.9713 Y108.0345 I-11.3517 J35.2214
G2 X-165.8917 Y107.7967 I-4.9899 J17.407
G1 X-166.0658 Y107.7583
G2 X-167.3882 Y107.5617 I-2.1143 J9.6777
G2 X-168.7251 Y107.5605 I-0.6765 J8.7332
G3 X-169.3275 Y107.5747 I-0.5394 J-10.0487
G1 X-169.6263 Y107.5726
G1 X-169.7751 Y107.5705
G1 X-170.0721 Y107.5649
G1 X-170.6636 Y107.5493
G1 X-170.9571 Y107.54
G1 X-171.5416 Y107.5195
G1 X-172.7011 Y107.4728
G3 X-172.7725 Y107.4697 I0.0231 J-1.3683
G1 X-173.3426 Y107.4445
G1 X-173.9081 Y107.4186
G1 X-174.1887 Y107.4054
G1 X-174.7476 Y107.3786
G1 X-175.8565 Y107.3236
G1 X-178.0395 Y107.21
G1 X-180.154 Y107.0953
G1 X-181.1782 Y107.0386
G1 X-185.2104 Y106.8096
G1 X-188.9904 Y106.5895
G1 X-192.534 Y106.3805
G1 X-199.178 Y105.985
G1 X-204.9915 Y105.6385
G1 X-210.0784 Y105.3374
G1 X-211.1913 Y105.272
G1 X-215.5035 Y105.0206
G1 X-219.277 Y104.8042
G1 X-219.6898 Y104.7808
G1 X-222.9402 Y104.5986
G1 X-225.7846 Y104.4428
G1 X-227.0291 Y104.376
G1 X-229.3626 Y104.2532
G1 X-231.4047 Y104.1491
G2 X-234.9788 Y103.9766 I-35.2166 J692.5841
G1 X-235.314 Y103.9613
G1 X-236.6126 Y103.9033
G1 X-237.7491 Y103.8549
G2 X-241.7277 Y103.7116 I-12.0831 J280.1878
G1 X-242.7227 Y103.6857
G1 X-243.0959 Y103.6776
G1 X-243.2592 Y103.6744
G1 X-243.8715 Y103.6645
G1 X-244.3308 Y103.6598
G1 X-244.5031 Y103.6587
G2 X-245.7087 Y103.6684 I-0.2634 J42.1971
G1 X-246.4591 Y103.6917
G1 X-247.1625 Y103.721
G1 X-247.2451 Y103.7249
G2 X-249.859 Y103.9107 I2.7237 J56.7959
G1 X-250.3487 Y103.9607
G1 X-250.8075 Y104.0125
G2 X-252.5218 Y104.2565 I3.8039 J32.8746
G2 X-253.7989 Y104.5026 I4.7761 J28.2128
G2 X-254.2747 Y104.6126 I3.0241 J14.1719
G1 X-254.4822 Y104.6642
G2 X-254.8697 Y104.7674 I4.0104 J15.8381
G1 X-255.2067 Y104.8652
G1 X-255.3535 Y104.9104
G2 X-256.435 Y105.3069 I3.3532 J10.8179
G2 X-256.9548 Y105.5575 I2.753 J6.3742
G1 X-257.0808 Y105.6284
G1 X-257.1737 Y105.6843
G2 X-257.1909 Y105.6951 I0.061 J0.1166
G2 X-257.4377 Y105.8737 I1.0462 J1.7049
G3 X-257.4097 Y105.8289 I0.0854 J0.0222
G3 X-257.323 Y105.7812 I0.1796 J0.2232
G3 X-257.134 Y105.7367 I0.3634 J1.1205
G3 X-256.75 Y105.7042 I0.5239 J3.9096
G3 X-256.5584 Y105.6995 I0.2185 J5.0209
G3 X-255.7943 Y105.7144 I0.0733 J15.8944
G1 X-255.4158 Y105.7334
G1 X-255.0391 Y105.757
G1 X-254.8516 Y105.7702
G1 X-254.4776 Y105.7988
G3 X-251.5028 Y106.0944 I-7.7515 J93.1353
G1 X-250.7836 Y106.1771
G1 X-250.0704 Y106.2621
G3 X-248.656 Y106.4374 I-86.7357 J705.6018
G1 X-247.2646 Y106.6171
G1 X-245.8956 Y106.7994
G1 X-245.2221 Y106.8909
G1 X-245.055 Y106.9138
G1 X-244.3882 Y107.0056
G3 X-239.0994 Y107.7611 I-79.0103 J571.9599
G1 X-236.6222 Y108.1279
G1 X-236.3223 Y108.1728
G1 X-236.0235 Y108.2175
G1 X-233.6434 Y108.5772
G3 X-224.4266 Y110.009 I-273.9058 J1793.5192
G1 X-220.3965 Y110.65
G1 X-216.6193 Y111.2571
G1 X-216.398 Y111.2929
G1 X-216.1775 Y111.3285
G1 X-212.6649 Y111.8984
G1 X-211.0186 Y112.1669
G1 X-209.4238 Y112.4278
G1 X-206.3342 Y112.9353
G1 X-203.4381 Y113.4133
G1 X-198.0089 Y114.3147
G1 X-195.6339 Y114.711
G1 X-191.1812 Y115.4569
G3 X-175.601 Y118.0903 I-1202.8184 J7163.6559
G1 X-174.6319 Y118.2552
G0 Z5.0
G0 X-171.0795 Y75.5097
G1 Z0.0
G1 X-92.8236 Y82.0132
G1 X-50.2486 Y89.5018
G3 X-50.2303 Y89.7475 I-2.1402 J0.2835
G3 X-50.2152 Y90.7308 I-34.5316 J1.0209
G3 X-50.215 Y90.7918 I-0.682 J0.0322
G1 X-50.2149 Y91.0356
G1 X-50.2192 Y92.0088
G1 X-50.2283 Y92.9742
G1 X-50.2339 Y93.4532
G1 X-50.2401 Y93.9304
G1 X-50.2538 Y94.8809
G1 X-50.2687 Y95.8239
G1 X-50.2766 Y96.2917
G1 X-50.2929 Y97.2236
G1 X-50.3276 Y99.0729
G1 X-50.3639 Y100.8932
G1 X-50.4402 Y104.4768
G1 X-50.5184 Y107.9484
G1 X-50.5574 Y109.6299
G3 X-50.882 Y122.8713 I-7852.8881 J-185.8998
G1 X-51.0307 Y128.6642
G1 X-51.1727 Y134.095
G1 X-51.3077 Y139.1864
G1 X-51.5648 Y148.7326
G1 X-51.579 Y149.2547
G1 X-51.8059 Y157.5422
G1 X-51.8559 Y159.3551
G1 X-52.2473 Y173.4049
G1 X-52.5449 Y183.9421
G1 X-52.5729 Y184.9301
G1 X-52.7912 Y192.5859
G1 X-53.1214 Y204.0697
G1 X-53.2045 Y206.9406
G1 X-53.4554 Y215.5532
G1 X-54.31 Y222.511
G1 X-55.909 Y235.5571
G1 X-56.2583 Y238.4111
G1 X-56.5965 Y241.1759
G1 X-57.9053 Y251.8895
G1 X-59.048 Y261.2642
G1 X-59.2977 Y263.315
G1 X-60.2637 Y271.2618
G1 X-61.107 Y278.2155
G1 X-61.8431 Y284.3003
G1 X-63.1261 Y294.9492
G1 X-63.605 Y298.9429
G1 X-63.7096 Y299.8166
G1 X-64.5169 Y306.5876
G1 X-65.1177 Y311.6665
G2 X-66.0051 Y319.2865 I2911.4814 J342.9271
G1 X-66.2221 Y321.192
G1 X-66.3026 Y321.9067
G1 X-66.3376 Y322.2195
G1 X-66.4675 Y323.3923
G1 X-66.5631 Y324.2722
G1 X-66.5983 Y324.6022
G1 X-66.6588 Y325.1798
G1 X-66.7449 Y326.0468
G1 X-66.7836 Y326.4808
G2 X-66.7879 Y326.5352 I1.3109 J0.1327
G1 X-66.8015 Y326.7253
G2 X-66.8063 Y326.9159 I1.8111 J0.1404
G3 X-66.811 Y327.0449 I-0.7404 J0.0375
G3 X-66.8306 Y327.1714 I-1.1206 J-0.109
G3 X-66.8849 Y327.4203 I-2.9336 J-0.5096
G1 X-66.9482 Y327.6648
G3 X-67.2368 Y328.6245 I-20.9481 J-5.7759
G3 X-67.5412 Y329.5461 I-57.6199 J-18.5222
G1 X-67.6933 Y329.9909
G1 X-67.7689 Y330.2096
G1 X-67.9204 Y330.6431
G1 X-67.9579 Y330.7498
G3 X-68.1081 Y331.1741 I-22.4542 J-7.7105
G1 X-68.2572 Y331.5915
G1 X-68.4048 Y332.002
G3 X-68.9935 Y333.6156 I-229.4979 J-82.8107
G1 X-69.1328 Y333.9933
G1 X-69.6852 Y335.479
G1 X-69.7503 Y335.6531
G1 X-70.2689 Y337.0334
G1 X-70.5131 Y337.6799
G1 X-70.988 Y338.9321
G1 X-71.8831 Y341.2779
G1 X-72.6703 Y343.329
G1 X-74.0531 Y346.9164
G1 X-74.5726 Y348.2613
G1 X-74.8 Y348.8498
G1 X-75.0131 Y349.4014
G1 X-75.8115 Y351.4703
G1 X-76.4086 Y353.0225
G1 X-76.8546 Y354.1876
G2 X-76.938 Y354.4061 I7.2164 J2.8766
G1 X-77.016 Y354.6111
G1 X-77.1619 Y354.9955
G1 X-77.416 Y355.6686
G1 X-77.6048 Y356.1741
G1 X-77.6751 Y356.364
G1 X-77.7971 Y356.6964
G2 X-77.9761 Y357.1967 I26.3231 J9.6987
G2 X-78.0617 Y357.4482 I7.7157 J2.7665
G1 X-78.1021 Y357.5748
G1 X-78.1209 Y357.6385
G1 X-78.1296 Y357.6706
G1 X-78.1337 Y357.6867
G2 X-78.1375 Y357.7028 I0.0989 J0.0318
G3 X-78.1905 Y357.8035 I-0.2757 J-0.0809
G3 X-78.3477 Y357.9597 I-0.7673 J-0.6151
G3 X-78.7026 Y358.2146 I-2.25 J-2.7588
G3 X-79.4439 Y358.6477 I-6.4932 J-10.2627
G1 X-79.8109 Y358.8426
G1 X-79.9926 Y358.9364
G3 X-81.4515 Y359.648 I-21.1021 J-41.4152
G1 X-82.1416 Y359.9681
G1 X-82.8127 Y360.2727
G1 X-83.4646 Y360.5637
G1 X-84.0975 Y360.8424
G1 X-84.1743 Y360.876
G3 X-89.091 Y362.956 I-105.4347 J-242.3736
G3 X-92.7993 Y364.4658 I-160.3264 J-388.4774
G3 X-103.9815 Y368.8515 I-269.1586 J-669.8297
G1 X-169.5642 Y373.143
G1 X-208.9311 Y364.6328
G1 X-218.7727 Y362.5048
G1 X-226.1539 Y360.9085
G1 X-227.5379 Y360.6092
G1 X-237.9175 Y358.3639
G1 X-243.1072 Y357.2406
G3 X-243.7559 Y357.1001 I16.2463 J-76.5946
G1 X-248.2963 Y356.1149
G3 X-248.3942 Y356.0877 I0.2889 J-1.2297
G1 X-248.4905 Y356.056
G1 X-248.6808 Y355.9877
G1 X-248.8692 Y355.9164
G1 X-249.2426 Y355.7694
G1 X-249.6117 Y355.6201
G3 X-250.3416 Y355.3181 I30.51 J-74.768
G1 X-251.0584 Y355.0163
G1 X-251.4107 Y354.8668
G1 X-252.8069 Y354.2685
G1 X-254.1574 Y353.6841
G1 X-254.8111 Y353.3998
G1 X-256.0971 Y352.8384
G1 X-258.5867 Y351.7457
G1 X-260.9187 Y350.7169
G1 X-263.1038 Y349.7497
G1 X-267.1984 Y347.9308
G1 X-270.7792 Y346.3349
G1 X-271.5623 Y345.9853
G1 X-272.3209 Y345.6465
G1 X-278.1981 Y343.017
G1 X-282.6042 Y341.041
G3 X-285.9079 Y339.557 I753.8137 J-1682.6448
G1 X-287.1467 Y339.0001
G1 X-291.4815 Y337.0494
G1 X-291.7525 Y336.9274
G1 X-295.815 Y335.096
G1 X-298.9702 Y322.4643
G1 X-303.6956 Y294.5649
G1 X-294.5327 Y280.202
G1 X-301.2597 Y252.355
G1 X-294.1936 Y245.7682
G1 X-299.5121 Y224.408
G1 X-290.2398 Y209.5697
G1 X-296.5528 Y193.2528
G1 X-288.0513 Y178.5125
G1 X-287.1764 Y173.4624
G1 X-291.1742 Y160.1504
G1 X-284.0442 Y146.097
G1 X-282.6913 Y137.6758
G1 X-286.6327 Y126.3604
G1 X-279.6261 Y110.5176
G1 X-278.1245 Y103.2711
G1 X-280.6209 Y90.4133
G1 X-274.5443 Y79.9904
G1 X-270.9786 Y67.2075
G1 X-171.0795 Y75.5097
G0 Z5.0
G0 X-169.3212 Y69.4148
G1 Z0.0
G3 X-169.3252 Y69.4136 I3.3473 J-11.6035
G3 X-170.6884 Y68.9282 I3.2702 J-11.3399
G3 X-171.8309 Y68.3481 I3.9665 J-9.2277
G3 X-172.7597 Y67.7041 I4.0869 J-6.8854
G3 X-173.483 Y67.0232 I3.8406 J-4.8051
G3 X-174.0143 Y66.3337 I3.9135 J-3.5644
G3 X-174.6203 Y64.9431 I3.8481 J-2.5044
G3 X-174.7533 Y63.8162 I4.4869 J-1.101
G3 X-174.6804 Y62.9695 I5.2479 J0.0252
G3 X-174.3473 Y61.7412 I6.4354 J1.0861
G3 X-174.1021 Y61.1534 I7.5838 J2.8189
G3 X-173.9637 Y60.8666 I22.5898 J10.7221
G1 X-173.891 Y60.725
G1 X-173.8161 Y60.5846
G2 X-173.7754 Y60.5045 I-3.0082 J-1.5786
G2 X-173.6999 Y60.3421 I-6.8224 J-3.2728
G1 X-173.4128 Y59.6887
G1 X-173.1298 Y59.0455
G3 X-170.667 Y54.0907 I57.0715 J25.2791
G3 X-168.1452 Y49.9498 I51.8502 J28.7374
G3 X-165.6559 Y46.509 I46.3642 J30.9225
G1 X-165.3674 Y46.1444
G3 X-160.402 Y40.77 I38.9388 J30.9942
G3 X-156.1608 Y37.2777 I30.4849 J32.7008
G3 X-152.7068 Y35.0272 I24.3124 J33.539
G3 X-141.2375 Y30.5151 I20.3382 J34.8648
G1 X-141.1438 Y30.4781
G3 X-140.3793 Y30.2449 I2.2984 J6.1652
G1 X-140.196 Y30.203
G1 X-140.1053 Y30.1838
G3 X-138.6476 Y29.9863 I2.3181 J11.6303
G3 X-137.3419 Y29.9363 I1.3519 J18.2126
G3 X-132.7111 Y30.4068 I-0.0146 J23.1682
G3 X-131.2896 Y30.765 I-3.2066 J15.7209
G3 X-130.0847 Y31.2066 I-2.8708 J9.6993
G3 X-129.5938 Y31.4523 I-2.4108 J5.4304
G3 X-129.1783 Y31.7196 I-1.8845 J3.3863
G3 X-128.8474 Y32.015 I-1.3121 J1.8024
G3 X-128.6275 Y32.3379 I-0.9431 J0.8788
G3 X-128.6052 Y32.9935 I-0.7291 J0.353
G3 X-128.8635 Y33.3953 I-1.2376 J-0.5117
G3 X-129.1225 Y33.6405 I-1.7838 J-1.6253
G3 X-129.559 Y33.9486 I-2.4424 J-2.9963
G3 X-129.7897 Y34.0835 I-3.8992 J-6.4033
G3 X-129.9071 Y34.1472 I-0.9448 J-1.6021
G1 X-129.9664 Y34.1782
G1 X-130.0258 Y34.2087
G2 X-130.5583 Y34.4877 I8.1021 J16.1095
G2 X-132.6057 Y35.6745 I19.5432 J36.0742
G2 X-136.298 Y38.1339 I34.2071 J55.356
G2 X-142.3858 Y42.9567 I45.5261 J63.7218
G2 X-146.6127 Y46.9788 I46.3502 J52.9431
G1 X-146.9914 Y47.3747
G2 X-147.3549 Y47.7613 I47.273 J44.8094
G2 X-148.0497 Y48.5194 I55.1853 J51.2743
G2 X-149.3162 Y49.9735 I44.6202 J40.144
G2 X-151.4037 Y52.6254 I37.9306 J32.0051
G2 X-152.8424 Y54.7095 I36.8817 J26.9988
G2 X-153.8363 Y56.3286 I31.3394 J20.3523
G1 X-154.0135 Y56.6376
G1 X-154.177 Y56.9289
G2 X-154.7648 Y58.0349 I25.8782 J14.4637
G2 X-154.7914 Y58.0873 I0.9985 J0.5391
G2 X-156.2583 Y61.4806 I26.4707 J13.4574
G3 X-156.6023 Y62.3695 I-15.9324 J-5.6543
G3 X-156.969 Y63.1864 I-15.9358 J-6.6619
G3 X-157.7798 Y64.6594 I-13.67 J-6.565
G3 X-158.1886 Y65.274 I-9.8989 J-6.1406
G3 X-159.0466 Y66.3611 I-10.1262 J-7.1104
G3 X-160.8363 Y67.9957 I-8.3245 J-7.3176
G3 X-162.4005 Y68.93 I-5.9035 J-8.1065
G3 X-165.0052 Y69.7435 I-4.0955 J-8.5373
G3 X-167.7338 Y69.759 I-1.4153 J-8.9428
G3 X-169.3212 Y69.4148 I1.7599 J-11.9478
G0 Z5.0
G0 X-189.9171 Y60.812
G1 Z0.0
G1 X-190.0617 Y61.1583
G1 X-190.3173 Y61.7821
G1 X-190.5064 Y62.251
G1 X-190.7854 Y62.9562
G1 X-190.8199 Y63.0446
G1 X-191.0572 Y63.6643
G3 X-191.1362 Y63.7835 I-2.9897 J-1.8954
G3 X-191.4845 Y64.2252 I-4.3683 J-3.0859
G3 X-193.0945 Y65.5716 I-5.1725 J-4.5496
G3 X-194.5228 Y66.2318 I-3.6912 J-6.1105
G3 X-196.8429 Y66.6185 I-2.4175 J-7.3515
G3 X-197.1376 Y66.6188 I-0.1518 J-5.0945
G3 X-199.1817 Y66.3688 I0.2131 J-10.2256
G3 X-199.7328 Y66.2337 I2.411 J-11.0277
G1 X-199.8618 Y66.1983
G1 X-199.9885 Y66.1619
G3 X-200.4835 Y66.0044 I3.0863 J-10.5583
G3 X-201.3917 Y65.6406 I3.0961 J-9.0437
G3 X-202.1553 Y65.2375 I3.5702 J-7.6886
G3 X-202.7855 Y64.8112 I3.4603 J-5.7939
G3 X-203.7503 Y63.8859 I3.4192 J-4.5309
G3 X-204.3054 Y63.0391 I3.717 J-3.0419
G3 X-204.5905 Y62.3295 I3.8698 J-1.9665
G3 X-204.7434 Y61.1904 I3.4048 J-1.0369
G3 X-204.658 Y60.6154 I2.4204 J0.0658
G3 X-204.558 Y60.341 I1.8379 J0.5142
G3 X-204.405 Y60.092 I1.1056 J0.5077
G2 X-204.2541 Y59.8742 I-1.6387 J-1.2967
G2 X-203.9986 Y59.416 I-5.6267 J-3.4379
G1 X-203.8813 Y59.1859
G1 X-203.6553 Y58.7259
G1 X-203.2188 Y57.816
G1 X-202.7935 Y56.9355
G3 X-202.7674 Y56.8822 I0.639 J0.2792
G3 X-201.0188 Y53.5288 I59.6646 J28.9787
G3 X-199.3201 Y50.6878 I49.665 J27.7673
G3 X-195.9474 Y45.98 I45.2787 J28.8766
G3 X-189.9745 Y39.6802 I40.8899 J32.7868
G3 X-183.0474 Y34.4477 I35.5595 J39.874
G1 X-182.4316 Y34.0578
G1 X-181.8333 Y33.6822
G1 X-181.2519 Y33.3204
G3 X-176.6895 Y30.6059 I74.3129 J119.71
G3 X-176.2536 Y30.3599 I13.9857 J24.2724
G3 X-175.8299 Y30.1234 I12.1437 J21.2551
G3 X-175.4181 Y29.896 I10.6694 J18.8385
G1 X-175.2181 Y29.7865
G3 X-172.0293 Y28.1347 I36.9631 J67.4527
G3 X-169.5615 Y27.0092 I22.2755 J45.5751
G3 X-169.088 Y26.8132 I17.7822 J42.2816
G3 X-167.2837 Y26.1425 I11.5374 J28.2728
G1 X-167.1108 Y26.0856
G3 X-165.7543 Y25.6972 I5.7247 J17.4309
G3 X-164.7087 Y25.4866 I3.0107 J12.2456
G1 X-164.5093 Y25.4579
G1 X-164.4155 Y25.4459
G3 X-163.6847 Y25.3904 I0.8913 J6.8954
G3 X-163.1323 Y25.4049 I0.1471 J4.9293
G3 X-162.9255 Y25.4269 I-0.1774 J2.6494
G3 X-162.5672 Y25.4929 I-0.3463 J2.8847
G3 X-162.0517 Y25.675 I-0.6133 J2.556
G3 X-161.6012 Y25.9846 I-0.7705 J1.6042
G3 X-161.5145 Y26.1852 I-0.1833 J0.1981
G3 X-161.5537 Y26.3742 I-0.5082 J-0.0067
G3 X-161.5917 Y26.4597 I-1.9109 J-0.7983
G3 X-161.7943 Y26.7702 I-1.8686 J-0.9977
G3 X-161.8508 Y26.8411 I-0.9948 J-0.7349
G1 X-161.9088 Y26.9104
G1 X-161.9236 Y26.9275
G3 X-162.4232 Y27.4439 I-5.7206 J-5.0349
G3 X-162.9379 Y27.9113 I-10.3884 J-10.9233
G1 X-163.193 Y28.131
G1 X-163.2246 Y28.1578
G1 X-163.4781 Y28.3704
G3 X-163.7294 Y28.5773 I-9.8179 J-11.6684
G1 X-164.2283 Y28.9797
G1 X-164.7153 Y29.3648
G3 X-165.6653 Y30.1031 I-118.0338 J-150.9089
G1 X-167.4555 Y31.4762
G1 X-167.8472 Y31.7765
G1 X-168.6051 Y32.3598
G1 X-168.9598 Y32.6341
G1 X-169.303 Y32.9004
G1 X-169.9662 Y33.4184
G1 X-170.5857 Y33.9071
G1 X-170.6582 Y33.9646
G1 X-170.7301 Y34.0217
G1 X-171.2989 Y34.4763
G1 X-171.5647 Y34.6905
G1 X-171.6933 Y34.7946
G1 X-172.1979 Y35.2059
G2 X-174.0662 Y36.7777 I62.6299 J76.3421
G2 X-175.4363 Y37.9931 I40.7638 J47.335
G2 X-175.6896 Y38.2251 I23.2942 J25.6857
G2 X-177.543 Y40.0134 I34.1371 J37.2354
G2 X-177.5995 Y40.0708 I0.5653 J0.6119
G2 X-178.0331 Y40.5194 I19.8576 J19.6296
G2 X-178.194 Y40.6893 I5.4445 J5.3165
G2 X-179.2894 Y41.9063 I27.0669 J25.4646
G2 X-179.7876 Y42.5028 I23.2292 J19.9063
G2 X-180.7119 Y43.6906 I26.8742 J21.8654
G1 X-180.9214 Y43.9742
G2 X-182.4921 Y46.2637 I40.0088 J29.131
G1 X-182.8188 Y46.7754
G1 X-182.8972 Y46.8999
G1 X-183.205 Y47.3957
G2 X-183.7884 Y48.3641 I52.829 J32.4865
G1 X-184.0563 Y48.8214
G2 X-184.1207 Y48.9325 I3.5746 J2.1465
G1 X-184.3743 Y49.3742
G2 X-185.3296 Y51.1014 I72.9267 J41.4639
G2 X-186.1329 Y52.6302 I73.6945 J39.697
G1 X-186.219 Y52.7983
G1 X-186.5551 Y53.4618
G2 X-186.8657 Y54.086 I79.5105 J39.9536
G1 X-187.0099 Y54.3794
G2 X-188.0974 Y56.6669 I106.7553 J52.1574
G2 X-188.2957 Y57.0985 I21.8299 J10.2906
G1 X-188.6628 Y57.9098
G1 X-188.8216 Y58.2656
G2 X-189.4066 Y59.6043 I80.8836 J36.1444
G1 X-189.6218 Y60.1081
G1 X-189.7153 Y60.3289
G1 X-189.9171 Y60.812
G0 Z5.0
G0 X-210.5982 Y43.5962
G1 Z0.0
G2 X-210.6465 Y43.6543 I142.2442 J118.4099
G1 X-211.4516 Y44.6247
G2 X-212.9478 Y46.4552 I164.5383 J136.0146
G1 X-213.5971 Y47.2603
G1 X-213.9004 Y47.6386
G2 X-214.486 Y48.373 I63.8732 J51.5346
G1 X-215.0328 Y49.0634
G1 X-215.5435 Y49.7122
G1 X-216.0205 Y50.3218
G2 X-216.0485 Y50.3576 I0.3373 J0.292
G2 X-216.0763 Y50.3933 I0.3357 J0.2906
G1 X-216.2975 Y50.6773
G1 X-217.1513 Y51.7804
G1 X-217.5232 Y52.2643
G1 X-217.6972 Y52.4914
G1 X-217.8656 Y52.7116
G2 X-218.0284 Y52.9251 I7.7243 J6.0633
G1 X-218.6577 Y53.7536
G1 X-219.2059 Y54.4803
G1 X-219.2658 Y54.5599
G1 X-219.3246 Y54.6383
G1 X-219.3826 Y54.7155
G1 X-219.8377 Y55.3238
G1 X-220.2346 Y55.8571
G1 X-220.5809 Y56.3245
G1 X-220.6565 Y56.4269
G1 X-221.2407 Y57.2213
G1 X-221.6769 Y57.8186
G1 X-222.0027 Y58.2675
G1 X-222.2463 Y58.6047
G1 X-222.6102 Y59.1116
G1 X-222.7914 Y59.3656
G1 X-222.8817 Y59.4928
G1 X-222.9717 Y59.6202
G3 X-223.3998 Y59.9467 I-3.3413 J-3.9369
G3 X-224.2601 Y60.4725 I-5.3162 J-7.7311
G3 X-227.602 Y61.549 I-4.6147 J-8.6006
G3 X-229.363 Y61.619 I-1.2676 J-9.6997
G3 X-231.109 Y61.3796 I0.5363 J-10.399
G3 X-231.3689 Y61.3196 I3.596 J-16.157
G3 X-232.3678 Y61.0357 I2.8465 J-11.9162
G3 X-233.2257 Y60.6885 I2.1093 J-6.4443
G3 X-233.9271 Y60.2623 I1.8342 J-3.8089
G3 X-234.1983 Y60.0265 I1.4975 J-1.9963
G3 X-234.5961 Y59.4903 I1.4484 J-1.49
G3 X-234.7752 Y58.9451 I1.6751 J-0.8526
G3 X-234.8005 Y58.4498 I2.2784 J-0.3645
G3 X-234.7803 Y58.2347 I2.0678 J0.0857
G3 X-234.7476 Y58.0352 I2.0728 J0.2375
G3 X-234.5372 Y57.3083 I4.592 J0.9349
G3 X-234.4331 Y57.0446 I4.6568 J1.686
G3 X-234.2292 Y56.5923 I10.9141 J4.6477
G1 X-234.1886 Y56.5086
G3 X-234.031 Y56.1976 I6.8722 J3.2866
G3 X-233.97 Y56.0818 I1.99 J0.9739
G3 X-233.7508 Y55.68 I27.951 J14.9872
G1 X-233.6949 Y55.5802
G1 X-233.6738 Y55.5428
G1 X-233.5997 Y55.4122
G1 X-233.5251 Y55.2819
G3 X-233.008 Y54.3148 I118.3214 J62.6373
G3 X-230.8297 Y50.6678 I52.008 J28.5895
G3 X-221.4842 Y39.1379 I58.4717 J37.8418
G3 X-221.319 Y38.9744 I5.004 J4.8902
G1 X-221.2374 Y38.8941
G3 X-220.5856 Y38.262 I29.8945 J30.1738
G3 X-215.427 Y33.8201 I44.5501 J46.522
G3 X-214.0649 Y32.7983 I33.3912 J43.0955
G3 X-209.814 Y29.9683 I34.7704 J47.6204
G3 X-209.774 Y29.9441 I0.2594 J0.3836
G3 X-209.7341 Y29.92 I0.2588 J0.3829
G3 X-209.6942 Y29.8959 I0.2581 J0.3823
G3 X-209.6544 Y29.8719 I0.2575 J0.3817
G3 X-209.6147 Y29.8479 I0.2568 J0.3811
G3 X-209.575 Y29.8241 I0.2562 J0.3805
G3 X-209.5354 Y29.8002 I0.2555 J0.3799
G3 X-204.3949 Y26.9126 I48.7712 J80.804
G3 X-200.3871 Y24.9888 I31.1099 J59.6715
G1 X-200.1949 Y24.905
G1 X-200.0054 Y24.8233
G3 X-198.5022 Y24.2053 I22.5791 J52.7868
G1 X-198.4192 Y24.1728
G1 X-198.3367 Y24.1407
G3 X-195.6875 Y23.2125 I15.0128 J38.6042
G3 X-194.6712 Y22.9157 I8.2644 J26.4047
G1 X-194.447 Y22.8552
G3 X-194.0111 Y22.7433 I4.7944 J17.7623
G3 X-192.3582 Y22.393 I5.8711 J23.6308
G1 X-192.0436 Y22.3414
G3 X-190.8557 Y22.1988 I2.689 J17.3871
G3 X-190.6305 Y22.1824 I0.891 J10.6794
G3 X-190.2072 Y22.1623 I0.8084 J12.5498
G3 X-189.4637 Y22.1665 I0.3119 J10.7195
G3 X-189.4462 Y22.1673 I0.0045 J0.094
G3 X-189.4287 Y22.1681 I0.0043 J0.0933
G3 X-189.2908 Y22.176 I-0.0385 J1.8838
G3 X-189.1615 Y22.1856 I-0.0841 J2.0133
G3 X-188.6778 Y22.2432 I-0.582 J6.9431
G3 X-188.3172 Y22.3144 I-0.5463 J3.7121
G3 X-187.7912 Y22.4895 I-0.6793 J2.9201
G3 X-187.5468 Y22.6307 I-0.4938 J1.1362
G3 X-187.4413 Y22.7271 I-0.3883 J0.5307
G3 X-187.3716 Y22.8519 I-0.2442 J0.2184
G3 X-187.4114 Y23.0218 I-0.2027 J0.0421
G3 X-187.5216 Y23.1402 I-0.557 J-0.4077
G3 X-187.5834 Y23.1905 I-0.4544 J-0.4949
G3 X-187.8467 Y23.3668 I-1.5848 J-2.0828
G1 X-187.981 Y23.4461
G1 X-188.1156 Y23.5222
G3 X-188.3849 Y23.6693 I-4.6153 J-8.1317
G1 X-189.4508 Y24.2383
G2 X-191.4169 Y25.3638 I20.8267 J38.66
G2 X-194.7039 Y27.577 I23.2762 J38.1169
G1 X-195.0019 Y27.7987
G1 X-195.289 Y28.0156
G1 X-195.5657 Y28.2276
G2 X-196.6246 Y29.0663 I38.7462 J50.0036
G2 X-198.4286 Y30.5938 I40.827 J50.0466
G1 X-198.5946 Y30.7406
G1 X-198.9149 Y31.0266
G1 X-199.2135 Y31.2966
G2 X-199.3528 Y31.4238 I3.2178 J3.6655
G1 X-199.4202 Y31.4856
G2 X-200.4705 Y32.47 I48.7993 J53.1179
G2 X-203.505 Y35.5413 I53.4299 J55.8239
G2 X-208.6684 Y41.3153 I129.5579 J121.0525
G2 X-208.7275 Y41.3843 I1.0682 J0.9757
G2 X-208.7864 Y41.453 I1.0554 J0.9637
G2 X-210.5982 Y43.5962 I140.4324 J120.5532
G0 Z5.0
G0 X-173.6233 Y-7.571
G1 Z0.0
G3 X-173.7646 Y-7.6742 I10.6983 J-14.8047
G3 X-174.7115 Y-8.4336 I8.3191 J-11.3422
G3 X-176.1929 Y-9.9635 I7.8775 J-9.1105
G3 X-177.0916 Y-11.2941 I7.3384 J-5.9251
G3 X-177.3653 Y-11.833 I8.7215 J-4.7675
G3 X-177.9723 Y-13.8536 I6.5875 J-3.0804
G3 X-178.0346 Y-14.9116 I6.3206 J-0.9029
G3 X-177.9945 Y-15.441 I6.1374 J0.1983
G3 X-177.976 Y-15.5725 I1.9736 J0.2114
G3 X-177.8933 Y-15.962 I3.3896 J0.5154
G1 X-163.8744 Y-74.4843
G1 X-137.4011 Y-183.5809
G1 X-84.0165
G1 X-81.6229 Y-180.4552
G1 X-81.8539 Y-179.3804
G1 X-83.6893 Y-170.8496
G1 X-97.5197 Y-106.8831
G1 X-99.2587 Y-98.8894
G1 X-99.3539 Y-98.4523
G1 X-100.8667 Y-91.5131
G1 X-100.9496 Y-91.1336
G1 X-101.0317 Y-90.7571
G1 X-102.3378 Y-84.7804
G1 X-102.9101 Y-82.1658
G1 X-103.9849 Y-77.2639
G1 X-104.2204 Y-76.1916
G1 X-104.4486 Y-75.1529
G1 X-105.3343 Y-71.1282
G1 X-106.1112 Y-67.6071
G1 X-106.7928 Y-64.5264
G1 X-107.9909 Y-59.1365
G1 X-108.4425 Y-57.1158
G1 X-108.8389 Y-55.3479
G1 X-108.8824 Y-55.1545
G1 X-109.5694 Y-52.1101
G1 X-110.0892 Y-49.8277
G1 X-110.4828 Y-48.1169
G3 X-111.0836 Y-45.5529 I-405.0484 J-93.5659
G1 X-111.1027 Y-45.4728
G1 X-111.2518 Y-44.8527
G1 X-111.4802 Y-43.9237
G1 X-111.5388 Y-43.6918
G1 X-111.6285 Y-43.3445
G3 X-111.7219 Y-42.998 I-10.4222 J-2.6235
G2 X-113.9392 Y-43.435 I-9.8111 J43.9418
G1 X-114.0624 Y-43.4557
G2 X-116.0255 Y-43.728 I-6.1044 J36.7918
G1 X-116.1343 Y-43.7397
G1 X-116.2424 Y-43.7509
G1 X-116.3497 Y-43.7617
G1 X-116.4562 Y-43.772
G1 X-116.562 Y-43.7818
G1 X-116.6671 Y-43.7912
G1 X-116.7714 Y-43.8002
G1 X-116.875 Y-43.8087
G1 X-116.9778 Y-43.8168
G1 X-117.0799 Y-43.8244
G1 X-117.1813 Y-43.8316
G1 X-117.282 Y-43.8384
G1 X-117.3819 Y-43.8448
G1 X-117.4812 Y-43.8507
G2 X-119.0586 Y-43.8916 I-1.3671 J22.2888
G1 X-119.1456 Y-43.8907
G2 X-120.5247 Y-43.8249 I0.156 J17.7493
G2 X-121.7313 Y-43.6757 I1.3545 J15.9134
G2 X-122.7786 Y-43.4598 I2.0751 J12.7101
G2 X-123.2319 Y-43.3361 I3.5197 J13.796
G2 X-124.0666 Y-43.0505 I2.7508 J9.4019
G2 X-125.4494 Y-42.3584 I2.9937 J7.709
G2 X-126.3797 Y-41.6581 I3.7417 J5.9388
G2 X-127.4913 Y-40.3126 I3.8799 J4.3372
G2 X-127.6996 Y-39.9266 I4.8996 J2.893
G2 X-127.9483 Y-39.3173 I4.05 J2.009
G2 X-128.0398 Y-39.0009 I3.599 J1.2117
G2 X-128.0754 Y-38.84 I2.343 J0.603
G2 X-128.1014 Y-38.6774 I1.3113 J0.2928
G1 X-134.4589 Y-1.2644
G3 X-143.5501 Y-2.1947 I92.1145 J-945.085
G1 X-143.9761 Y-2.2403
G1 X-144.8147 Y-2.3305
G1 X-145.627 Y-2.4186
G1 X-147.2006 Y-2.5913
G1 X-148.6756 Y-2.7556
G1 X-150.0582 Y-2.9119
G3 X-155.2404 Y-3.5211 I84.2914 J-739.4013
G3 X-157.1825 Y-3.7607 I31.2461 J-261.2063
G1 X-158.8811 Y-3.9767
G1 X-159.0669 Y-4.0007
G1 X-159.7981 Y-4.0961
G3 X-162.5384 Y-4.4672 I36.8718 J-282.5844
G1 X-163.5652 Y-4.6129
G3 X-167.1528 Y-5.1635 I27.0152 J-187.9689
G1 X-168.0475 Y-5.3152
G1 X-168.7176 Y-5.4344
G3 X-170.72 Y-5.8338 I8.9033 J-49.8602
G1 X-171.0862 Y-6.0204
G3 X-172.4741 Y-6.8048 I10.6004 J-20.3765
G1 X-172.5487 Y-6.8509
G1 X-172.6225 Y-6.897
G3 X-173.6233 Y-7.571 I9.6975 J-15.4787
G0 Z5.0
G0 X-123.59 Y-32.165
G1 Z0.0
G3 X-123.6493 Y-32.3169 I0.8665 J-0.4259
G3 X-123.6682 Y-32.4859 I0.5405 J-0.1461
G3 X-123.6167 Y-32.648 I0.3222 J0.0131
G3 X-111.0642 Y-30.6555 I-29.4844 J226.2926
G1 X-110.6732 Y-30.5804
G3 X-107.6508 Y-29.96 I-23.0338 J119.8721
G3 X-107.5801 Y-29.9445 I-0.1267 J0.7475
G3 X-107.5099 Y-29.9291 I-0.1247 J0.7348
G3 X-107.4402 Y-29.9137 I-0.1229 J0.7226
G3 X-106.3373 Y-29.6633 I-13.3841 J61.5051
G3 X-105.8557 Y-29.5493 I-5.1605 J22.884
G1 X-105.4047 Y-29.4398
G1 X-105.1935 Y-29.3874
G3 X-103.5628 Y-28.9576 I-12.3957 J50.333
G3 X-101.1488 Y-28.198 I-9.3077 J33.7951
G3 X-99.9717 Y-27.7289 I-5.4183 J15.3088
G3 X-99.4001 Y-27.4545 I-3.7164 J8.4747
G3 X-98.8513 Y-27.1371 I-2.8865 J5.6249
G3 X-98.7596 Y-27.0767 I-1.4772 J2.3406
G3 X-98.6691 Y-27.016 I-1.494 J2.3232
G3 X-97.3025 Y-25.9576 I-7.814 J11.5015
G3 X-95.2378 Y-23.748 I-10.313 J11.7059
G3 X-93.9767 Y-21.8533 I-13.2416 J10.1806
G3 X-93.7697 Y-21.4783 I-10.3343 J5.949
G3 X-93.0877 Y-20.0239 I-13.5543 J7.2431
G3 X-92.6866 Y-18.8849 I-12.1859 J4.9313
G1 X-92.6237 Y-18.6669
G1 X-92.5956 Y-18.5642
G3 X-92.3026 Y-16.9436 I-9.0069 J2.4654
G3 X-92.2833 Y-16.118 I-6.447 J0.5632
G3 X-92.387 Y-15.2988 I-4.8026 J-0.1918
G1 X-92.4354 Y-15.0834
G3 X-92.4756 Y-14.9138 I-3.9098 J-0.8395
G3 X-92.5065 Y-14.8052 I-0.8006 J-0.1687
G3 X-92.5242 Y-14.7609 I-0.2897 J-0.0905
G3 X-92.5347 Y-14.7445 I-0.0958 J-0.0494
G3 X-92.5608 Y-14.7436 I-0.0133 J-0.0072
G3 X-92.5932 Y-14.8189 I0.2293 J-0.1432
G3 X-92.6717 Y-15.1347 I8.1379 J-2.1901
G2 X-93.5417 Y-17.5386 I-10.3037 J2.3698
G2 X-94.7306 Y-19.4155 I-10.6234 J5.4143
G2 X-94.8051 Y-19.5111 I-1.9953 J1.4777
G2 X-95.427 Y-20.2443 I-9.7151 J7.61
G2 X-96.7206 Y-21.4952 I-10.8679 J9.9446
G2 X-96.7954 Y-21.559 I-0.8429 J0.9134
G2 X-96.8701 Y-21.6218 I-0.7831 J0.8548
G1 X-96.9073 Y-21.6528
G2 X-98.1366 Y-22.583 I-10.5268 J12.6346
G2 X-100.453 Y-23.9596 I-11.576 J16.8422
G2 X-102.287 Y-24.8063 I-11.5316 J22.5689
G1 X-102.4622 Y-24.8784
G1 X-102.8029 Y-25.0146
G1 X-103.1239 Y-25.1385
G2 X-103.2748 Y-25.1952 I-1.5129 J3.7945
G2 X-104.4541 Y-25.6083 I-10.251 J27.3767
G2 X-108.0693 Y-26.5939 I-11.8786 J36.4489
G1 X-109.0944 Y-26.8251
G3 X-112.9264 Y-27.7547 I29.5377 J-130.1241
G1 X-113.6445 Y-27.9429
G3 X-114.3171 Y-28.1242 I13.3483 J-50.863
G3 X-116.8284 Y-28.8531 I20.3654 J-74.8561
G1 X-117.2988 Y-29.0009
G3 X-119.0523 Y-29.5954 I15.2907 J-47.9846
G1 X-119.3806 Y-29.7162
G3 X-119.6878 Y-29.8326 I3.7807 J-10.4389
G1 X-119.8316 Y-29.8884
G3 X-120.9361 Y-30.3486 I7.8958 J-20.5045
G1 X-121.1424 Y-30.4424
G3 X-121.906 Y-30.8202 I6.9807 J-15.0677
G1 X-122.0481 Y-30.8974
G3 X-122.1807 Y-30.9719 I1.8098 J-3.3755
G3 X-122.4267 Y-31.1178 I3.2237 J-5.7184
G3 X-122.4803 Y-31.151 I2.2445 J-3.6736
G3 X-122.8845 Y-31.4255 I3.6704 J-5.8393
G1 X-123.0317 Y-31.5396
G3 X-123.1569 Y-31.6456 I7.2778 J-8.7274
G3 X-123.3633 Y-31.8479 I2.2946 J-2.546
G3 X-123.5013 Y-32.019 I1.3525 J-1.2328
G3 X-123.59 Y-32.165 I0.7779 J-0.572
G0 Z5.0
G0 X-112.1385 Y40.1784
G1 Z0.0
G1 X-111.6474 Y40.1018
G3 X-109.7333 Y39.8707 I5.1859 J34.9161
G1 X-109.6277 Y39.8612
G3 X-106.2669 Y39.7584 I2.5469 J28.2677
G3 X-104.9945 Y39.8323 I-0.6309 J21.8425
G3 X-104.9595 Y39.8354 I-0.0058 J0.2702
G3 X-102.7507 Y40.149 I-1.6714 J19.7042
G3 X-102.3372 Y40.2378 I-2.0528 J10.5678
G3 X-102.2404 Y40.2601 I-0.4095 J1.9948
G3 X-102.1453 Y40.2827 I-0.4242 J2.0008
G3 X-100.6675 Y40.7183 I-3.4051 J14.2762
G3 X-99.5879 Y41.1632 I-4.0522 J11.3648
G3 X-98.8081 Y41.5821 I-3.7175 J7.8553
G3 X-98.2524 Y41.9582 I-3.1701 J5.2833
G1 X-98.1519 Y42.0362
G3 X-97.7937 Y42.3522 I-2.396 J3.0768
G1 X-97.7302 Y42.4166
G1 X-97.6721 Y42.4784
G3 X-97.3027 Y42.9964 I-1.6851 J1.5923
G3 X-97.1958 Y43.3018 I-1.0206 J0.5287
G3 X-97.2064 Y43.6252 I-0.6788 J0.1395
G3 X-97.4352 Y44.2074 I-3.8126 J-1.1622
G3 X-97.7356 Y44.7262 I-4.0263 J-1.9848
G3 X-98.0827 Y45.1866 I-4.8 J-3.2572
G3 X-98.8637 Y45.9776 I-5.5881 J-4.7373
G3 X-99.6771 Y46.6222 I-6.9213 J-7.8969
G3 X-100.4827 Y47.1647 I-8.7715 J-12.1569
G3 X-100.5791 Y47.2252 I-0.8614 J-1.2666
G3 X-102.1474 Y48.119 I-13.4371 J-21.7533
G3 X-102.8493 Y48.4803 I-13.689 J-25.729
G1 X-103.1806 Y48.6452
G1 X-103.261 Y48.6848
G1 X-103.3409 Y48.7239
G1 X-103.6584 Y48.8779
G1 X-104.276 Y49.1712
G3 X-104.5665 Y49.3069 I-8.8174 J-18.5043
G1 X-104.8482 Y49.4372
G1 X-105.3951 Y49.6876
G3 X-107.4523 Y50.6128 I-105.0913 J-230.9468
G1 X-108.2241 Y50.9591
G2 X-108.8986 Y51.264 I24.967 J56.1255
G1 X-109.046 Y51.3311
G1 X-109.1887 Y51.3962
G1 X-109.7411 Y51.6498
G2 X-111.6631 Y52.5619 I38.794 J84.2226
G2 X-112.6148 Y53.0371 I24.106 J49.4704
G1 X-113.0876 Y53.2807
G1 X-113.5581 Y53.5286
G2 X-115.6072 Y54.7821 I9.3439 J17.5748
G2 X-118.753 Y57.5522 I10.7206 J15.3462
G2 X-120.6751 Y60.0323 I15.3153 J13.8545
G2 X-120.7156 Y60.0936 I0.6532 J0.4757
G2 X-121.905 Y62.1005 I20.8617 J13.7192
G2 X-122.3065 Y62.8775 I24.2557 J13.0263
G2 X-122.6408 Y63.5657 I27.1551 J13.6145
G1 X-122.712 Y63.7173
G2 X-122.7463 Y63.7908 I0.7336 J0.3867
G2 X-123.011 Y64.3718 I48.6335 J22.5079
G1 X-123.2359 Y64.8832
G2 X-123.2602 Y64.9393 I0.6045 J0.2948
G2 X-123.284 Y64.9945 I0.5979 J0.2906
G2 X-123.3074 Y65.049 I0.5914 J0.2865
G2 X-124.0206 Y66.772 I83.7494 J35.674
G1 X-124.3673 Y67.6375
G1 X-124.7147 Y68.5027
G3 X-125.0656 Y69.2939 I-11.982 J-4.8403
G3 X-125.0879 Y69.3397 I-0.4348 J-0.1831
G3 X-125.8915 Y70.7453 I-10.9284 J-5.3157
G3 X-126.7502 Y71.878 I-9.0025 J-5.9326
G3 X-128.593 Y73.5501 I-7.6209 J-6.5473
G3 X-130.2306 Y74.4579 I-5.1184 J-7.3022
G3 X-132.9589 Y75.0962 I-3.2074 J-7.5599
G3 X-135.7426 Y74.7759 I-0.4507 J-8.3406
G3 X-136.9906 Y74.3648 I4.6462 J-16.2052
G1 X-137.2625 Y74.2597
G3 X-138.2924 Y73.7906 I4.0672 J-10.2925
G3 X-139.1485 Y73.2764 I3.6443 J-7.0374
G3 X-139.8317 Y72.7254 I3.1978 J-4.6649
G3 X-140.3466 Y72.1548 I3.1412 J-3.3521
G3 X-140.9668 Y70.9695 I3.1071 J-2.3806
G3 X-141.1539 Y69.9876 I3.9422 J-1.2599
G1 X-141.1598 Y69.8941
G3 X-141.1469 Y69.1692 I5.6856 J-0.2615
G3 X-140.9667 Y68.0979 I6.8308 J0.5986
G3 X-140.9332 Y67.9662 I1.8204 J0.3917
G1 X-140.918 Y67.9087
G1 X-140.8573 Y67.6942
G1 X-140.8085 Y67.5343
G3 X-140.7895 Y67.4745 I0.6283 J0.1669
G3 X-140.7554 Y67.3703 I2.6786 J0.8193
G1 X-140.7022 Y67.2147
G1 X-140.6466 Y67.0598
G3 X-140.5414 Y66.0423 I13.7174 J0.9046
G3 X-140.3874 Y65.0641 I23.4954 J3.1971
G3 X-139.9819 Y63.1895 I25.92 J4.6254
G3 X-137.3943 Y56.4967 I28.9864 J7.3603
G3 X-134.4259 Y52.0012 I25.398 J13.5428
G3 X-133.1018 Y50.4731 I22.0511 J17.7684
G3 X-130.5356 Y48.0401 I21.1256 J19.7117
G3 X-126.1845 Y45.0147 I19.3485 J23.1862
G3 X-123.8323 Y43.7902 I16.1909 J28.229
G3 X-123.6821 Y43.7199 I1.5877 J3.1977
G3 X-122.5455 Y43.2161 I13.0241 J27.8503
G3 X-121.9707 Y42.9794 I10.3766 J24.3745
G3 X-121.392 Y42.7525 I9.1456 J22.4824
G3 X-119.9133 Y42.2103 I18.5562 J48.3176
G3 X-119.8696 Y42.195 I0.1747 J0.4282
G3 X-119.826 Y42.1797 I0.174 J0.4276
G3 X-119.7824 Y42.1645 I0.1734 J0.427
G3 X-118.3862 Y41.6992 I14.9753 J42.6068
G3 X-118.345 Y41.6861 I0.152 J0.4072
G3 X-118.3038 Y41.6731 I0.1514 J0.4067
G3 X-118.2627 Y41.6601 I0.1508 J0.4061
G3 X-116.9457 Y41.2646 I12.7854 J40.1838
G3 X-116.6348 Y41.1771 I3.6241 J12.275
G3 X-116.3279 Y41.0929 I4.2898 J15.0369
G3 X-116.0252 Y41.012 I6.0919 J22.2026
G1 X-115.7265 Y40.9344
G3 X-115.1366 Y40.7875 I6.5214 J24.9278
G1 X-114.8498 Y40.7192
G1 X-114.2836 Y40.5904
G3 X-113.1805 Y40.3631 I8.0437 J36.2564
G3 X-112.1385 Y40.1784 I6.1354 J31.571
G0 Z5.0
G0 X-163.9522 Y378.1728
G1 Z0.0
G3 X-161.3973 Y378.7544 I-2.7703 J18.0715
G3 X-158.334 Y380.0005 I-5.4871 J17.8771
G3 X-155.8712 Y381.5021 I-9.1259 J17.7384
G3 X-153.9032 Y383.075 I-13.3059 J18.666
G3 X-152.326 Y384.6121 I-17.3795 J19.4096
G1 X-152.1616 Y384.788
G3 X-149.7717 Y387.7294 I-22.1042 J20.4018
G1 X-149.5664 Y388.0194
G3 X-148.7992 Y389.1628 I-26.4458 J18.5706
G3 X-146.4577 Y393.3715 I-32.815 J21.0128
G3 X-145.4818 Y395.5744 I-35.3967 J16.9978
G1 X-145.3694 Y395.8539
G1 X-145.2729 Y396.0992
G3 X-144.9498 Y396.9634 I-33.5656 J13.0417
G1 X-144.7981 Y397.3991
G1 X-144.7254 Y397.618
G1 X-144.7077 Y397.6729
G1 X-144.6945 Y397.7141
G1 X-144.6847 Y397.7451
G3 X-144.6559 Y397.8379 I-3.0585 J0.9976
G1 X-164.2642 Y399.0603
G3 X-165.8858 Y396.5924 I48.9826 J-33.9522
G3 X-168.5222 Y391.9749 I54.1637 J-33.9868
G3 X-169.0058 Y391.0084 I53.3277 J-27.2827
G3 X-169.118 Y390.776 I32.5535 J-15.8667
G1 X-169.336 Y390.3146
G1 X-169.5438 Y389.8611
G3 X-169.9331 Y388.9671 I38.3101 J-17.2166
G3 X-170.1102 Y388.5369 I98.871 J-40.9662
G1 X-170.1946 Y388.3259
G3 X-170.8021 Y386.6353 I24.8862 J-9.8971
G3 X-171.0348 Y385.8588 I23.7587 J-7.544
G1 X-171.1341 Y385.4875
G3 X-171.4364 Y384.022 I14.6131 J-3.7784
G3 X-171.5533 Y382.6952 I9.6479 J-1.5186
G3 X-171.5539 Y382.6583 I0.2557 J-0.0223
G3 X-171.4729 Y381.4875 I6.7235 J-0.1229
G3 X-171.2024 Y380.4942 I4.6555 J0.7343
G3 X-170.7738 Y379.7068 I3.384 J1.3314
G3 X-169.6164 Y378.6796 I2.8853 J2.0853
G3 X-168.5496 Y378.2442 I2.3362 J4.1999
G3 X-167.7053 Y378.0675 I1.7986 J6.4878
G3 X-166.4159 Y377.9756 I1.3283 J9.5471
G3 X-165.7695 Y377.9884 I0.0098 J15.8832
G3 X-165.4468 Y378.0065 I-0.5953 J13.4636
G1 X-165.1245 Y378.0317
G3 X-163.9522 Y378.1728 I-1.5979 J18.2126
G0 Z5.0
G0 X-183.0979 Y389.8169
G1 Z0.0
G2 X-182.3266 Y391.0761 I197.5229 J-120.1303
G1 X-182.1804 Y391.3131
G1 X-182.0387 Y391.5426
G1 X-181.7636 Y391.9868
G1 X-181.2462 Y392.8189
G1 X-180.7919 Y393.546
G1 X-179.994 Y394.8165
G1 X-179.3933 Y395.768
G1 X-179.1675 Y396.1245
G1 X-178.7719 Y396.748
G1 X-178.1771 Y397.6823
G1 X-177.5802 Y398.6154
G1 X-192.8511 Y396.5137
G1 X-192.9639 Y396.4237
G3 X-194.6881 Y394.9167 I21.4537 J-26.2856
G3 X-197.4889 Y392.0474 I28.3017 J-30.4281
G3 X-197.737 Y391.7638 I11.1169 J-9.9755
G3 X-197.9746 Y391.4867 I11.8487 J-10.4012
G3 X-199.7157 Y389.257 I24.7132 J-21.0918
G3 X-199.8689 Y389.0399 I6.0629 J-4.4419
G3 X-200.9846 Y387.3103 I21.2853 J-14.9546
G3 X-201.7252 Y385.9545 I18.2495 J-10.8483
G3 X-201.9777 Y385.4328 I23.7945 J-11.8376
G3 X-202.7317 Y383.5502 I16.3604 J-7.6457
G3 X-203.2395 Y381.5868 I13.3388 J-4.497
G3 X-203.3707 Y380.7393 I14.7783 J-2.7212
G3 X-203.4699 Y379.1216 I11.6659 J-1.5273
G3 X-203.4305 Y378.4039 I8.3395 J0.0979
G3 X-203.3314 Y377.7357 I7.6185 J0.788
G3 X-203.2607 Y377.427 I6.5553 J1.3398
G3 X-202.8109 Y376.2896 I4.5371 J1.1365
G3 X-201.3165 Y374.8169 I3.2885 J1.8425
G1 X-201.2305 Y374.771
G3 X-200.5233 Y374.4765 I2.1441 J4.1514
G3 X-199.8766 Y374.3076 I1.6653 J5.055
G3 X-198.7174 Y374.1717 I1.4555 J7.4044
G3 X-197.8424 Y374.1735 I0.4176 J10.0594
G1 X-197.6786 Y374.1818
G1 X-197.3718 Y374.2036
G3 X-196.3037 Y374.3349 I-1.2695 J14.737
G3 X-195.7737 Y374.4284 I-3.0155 J18.6411
G1 X-195.6417 Y374.4543
G1 X-195.4441 Y374.495
G1 X-195.3454 Y374.5162
G1 X-195.2469 Y374.5378
G3 X-194.3203 Y374.8567 I-1.0752 J4.6299
G3 X-193.5228 Y375.2965 I-2.9078 J6.2166
G3 X-192.8297 Y375.7897 I-5.2075 J8.0515
G3 X-192.5206 Y376.0405 I-5.3151 J6.8668
G3 X-192.3741 Y376.1657 I-2.3818 J2.9351
G3 X-191.8157 Y376.6789 I-8.8557 J10.1951
G1 X-191.5632 Y376.929
G3 X-190.6325 Y377.9428 I-13.3584 J13.1986
G3 X-190.246 Y378.4041 I-15.4371 J13.3284
G1 X-190.2014 Y378.4588
G3 X-188.8538 Y380.2462 I-25.8214 J20.8682
G1 X-188.6139 Y380.5907
G3 X-188.5582 Y380.6718 I-1.2114 J0.8919
G1 X-188.3407 Y380.9923
G3 X-186.7907 Y383.4486 I-44.1985 J29.609
G3 X-186.7674 Y383.4876 I-0.2853 J0.1963
G3 X-185.3546 Y385.9731 I-69.0396 J40.8893
G2 X-185.1295 Y386.3788 I25.9022 J-14.1051
G1 X-185.019 Y386.5745
G1 X-184.7995 Y386.9585
G1 X-184.5846 Y387.3293
G1 X-184.4799 Y387.5085
G1 X-184.0644 Y388.2122
G1 X-183.9663 Y388.3768
G1 X-183.8696 Y388.5387
G2 X-183.0979 Y389.8169 I198.2946 J-118.8521
G0 Z5.0
G0 X-209.4493 Y392.3994
G1 Z0.0
G1 X-224.4657 Y387.6334
G3 X-225.4516 Y385.0766 I91.6814 J-36.8204
G3 X-227.0305 Y380.5073 I102.8429 J-38.0941
G3 X-228.0806 Y376.9416 I71.7901 J-23.0801
G3 X-228.1038 Y376.8543 I1.4701 J-0.4374
G3 X-228.7631 Y374.0617 I48.2206 J-12.8578
G3 X-228.7909 Y373.923 I2.6364 J-0.6018
G3 X-229.1489 Y371.7186 I28.6353 J-5.7809
G3 X-229.2728 Y369.9366 I16.4781 J-2.0411
G1 X-229.273 Y369.7576
G1 X-229.2705 Y369.5833
G1 X-229.2652 Y369.4136
G3 X-229.2572 Y369.2485 I3.5299 J0.0891
G3 X-229.2548 Y369.2084 I0.2021 J-0.008
G3 X-229.1887 Y368.5726 I8.1454 J0.5252
G3 X-229.1395 Y368.2925 I8.6965 J1.384
G3 X-229.0029 Y367.7738 I4.023 J0.7817
G1 X-228.9636 Y367.662
G3 X-228.7716 Y367.2448 I2.6517 J0.9675
G3 X-228.5425 Y366.9134 I1.9778 J1.1221
G3 X-227.9934 Y366.4797 I1.2923 J1.0718
G3 X-227.4965 Y366.3219 I0.7899 J1.6265
G3 X-227.1076 Y366.2913 I0.3807 J2.3515
G3 X-226.5266 Y366.35 I-0.0362 J3.2645
G3 X-225.9611 Y366.4954 I-0.8556 J4.501
G3 X-225.0368 Y366.8757 I-1.9155 J5.9683
G3 X-224.6141 Y367.104 I-3.6478 J7.2618
G3 X-223.8232 Y367.6177 I-5.0066 J8.5724
G3 X-223.1053 Y368.1776 I-7.1186 J9.8671
G3 X-222.7728 Y368.4659 I-9.2618 J11.0183
G1 X-222.7325 Y368.5021
G3 X-221.5089 Y369.7211 I-11.873 J13.1414
G3 X-220.9731 Y370.3263 I-14.5677 J13.4385
G1 X-220.9096 Y370.4008
G3 X-219.9344 Y371.617 I-20.7428 J17.6312
G1 X-219.8243 Y371.7626
G3 X-218.1723 Y374.1432 I-32.8064 J24.5293
G3 X-216.8486 Y376.3043 I-48.47 J31.1745
G1 X-216.5714 Y376.7843
G1 X-216.4386 Y377.0177
G1 X-216.3088 Y377.2479
G3 X-215.8058 Y378.1589 I-50.7353 J28.6037
G3 X-214.0241 Y381.6301 I-80.0377 J43.276
G3 X-211.6041 Y386.9584 I-102.5485 J49.7892
G1 X-211.3201 Y387.6326
G1 X-211.0748 Y388.2239
G1 X-210.8626 Y388.7423
G3 X-210.7705 Y388.9695 I-9.1032 J3.8238
G3 X-209.4493 Y392.3994 I-92.4068 J37.5634
G0 Z5.0
G0 X-239.5196 Y382.3408
G1 Z0.0
G1 X-253.4473 Y377.0284
G1 X-258.0815 Y362.9592
G3 X-258.0327 Y361.1302 I8.6557 J-0.6842
G3 X-257.8922 Y360.4219 I5.7409 J0.7709
G1 X-257.8488 Y360.2679
G3 X-257.8019 Y360.1198 I1.8877 J0.5167
G3 X-257.5676 Y359.5647 I3.5026 J1.1516
G3 X-257.2801 Y359.1204 I2.5826 J1.3558
G3 X-256.5689 Y358.5386 I1.6466 J1.2871
G3 X-255.9141 Y358.3411 I0.9439 J1.946
G3 X-255.4034 Y358.3201 I0.3773 J2.9458
G3 X-254.647 Y358.4361 I-0.2296 J4.0194
G3 X-253.9187 Y358.6708 I-1.4403 J5.7176
G3 X-253.5184 Y358.8657 I-0.9698 J2.5001
G3 X-252.8109 Y359.3703 I-2.611 J4.4092
G3 X-252.1962 Y359.9387 I-6.0012 J7.1068
G1 X-252.1606 Y359.9747
G1 X-252.1252 Y360.0108
G3 X-251.0638 Y361.2231 I-11.8614 J11.4559
G3 X-250.1544 Y362.4269 I-24.0894 J19.1436
G1 X-250.0518 Y362.5707
G1 X-249.8502 Y362.8577
G1 X-249.6543 Y363.1418
G3 X-248.1816 Y365.4255 I-46.0159 J31.2904
G3 X-248.104 Y365.5523 I-2.233 J1.453
G3 X-246.9053 Y367.5836 I-72.1644 J43.9563
G1 X-246.6502 Y368.032
G3 X-246.5274 Y368.2497 I-17.927 J10.2542
G3 X-244.6539 Y371.7108 I-120.1752 J67.2907
G3 X-244.6325 Y371.7517 I-0.6412 J0.3612
G3 X-241.9976 Y377.0084 I-160.4273 J83.6995
G1 X-241.6794 Y377.6711
G1 X-241.541 Y377.9613
G1 X-241.4115 Y378.2336
G3 X-240.9296 Y379.2563 I-308.6509 J146.0736
G3 X-239.5196 Y382.3408 I-154.61 J72.5374
G0 Z5.0
G0 X-265.6816 Y371.7152
G1 Z0.0
G1 X-280.0525 Y364.0198
G3 X-280.6776 Y362.1827 I51.4405 J-18.5281
G3 X-281.6558 Y358.8749 I63.7626 J-20.6563
G1 X-281.6776 Y358.7928
G3 X-282.0065 Y357.4834 I43.7647 J-11.6875
G1 X-282.0756 Y357.1873
G1 X-282.141 Y356.8979
G3 X-282.5708 Y354.6217 I33.0208 J-7.4138
G3 X-282.6365 Y354.1509 I15.6269 J-2.422
G1 X-282.6645 Y353.9251
G3 X-282.7485 Y353.0384 I18.7352 J-2.2226
G1 X-282.7611 Y352.8352
G3 X-282.7662 Y352.7359 I2.4296 J-0.1746
G3 X-282.7787 Y351.9496 I10.7686 J-0.5644
G3 X-282.7354 Y351.2404 I9.1756 J0.2047
G3 X-282.6326 Y350.6132 I5.3911 J0.561
G3 X-282.4662 Y350.0735 I3.3768 J0.7462
G3 X-282.2342 Y349.6333 I2.1507 J0.8521
G3 X-281.9468 Y349.3083 I1.3479 J0.9022
G3 X-281.2757 Y348.9835 I0.9437 J1.0945
G3 X-280.7234 Y348.9546 I0.3816 J1.9969
G1 X-280.6203 Y348.9645
G3 X-280.5241 Y348.9774 I-0.0812 J0.973
G3 X-279.8208 Y349.1589 I-0.6379 J3.9248
G3 X-279.7353 Y349.1898 I-0.6198 J1.8472
G3 X-279.1516 Y349.4417 I-2.0476 J5.5484
G3 X-278.4171 Y349.8473 I-3.9681 J8.053
G3 X-277.7469 Y350.3012 I-5.669 J9.0931
G3 X-276.5497 Y351.3067 I-7.4624 J10.1001
G1 X-276.4833 Y351.3696
G3 X-275.4744 Y352.4186 I-12.0185 J12.5699
G3 X-273.7853 Y354.5559 I-18.9219 J16.69
G3 X-273.1126 Y355.5384 I-27.7358 J19.7093
G3 X-272.9599 Y355.7719 I-8.2661 J5.574
G1 X-272.6642 Y356.2348
G3 X-271.5758 Y358.0634 I-39.0309 J24.4721
G1 X-271.3487 Y358.4696
G3 X-269.7011 Y361.6778 I-55.8691 J30.7189
G3 X-269.412 Y362.2891 I-52.3826 J25.15
G3 X-267.4099 Y366.948 I-75.4368 J35.1771
G3 X-266.5095 Y369.3184 I-85.2972 J33.7574
G1 X-266.2948 Y369.9149
G3 X-265.9815 Y370.8128 I-51.2521 J18.3868
G3 X-265.8294 Y371.2633 I-44.0518 J15.1255
G1 X-265.7548 Y371.489
G3 X-265.6816 Y371.7152 I-10.2422 J3.4382
G0 Z5.0
G0 X-292.7234 Y355.1342
G1 Z0.0
G3 X-293.8968 Y354.2412 I13.6659 J-19.1742
G3 X-294.0221 Y354.1397 I5.9554 J-7.4811
G3 X-294.9925 Y353.3206 I25.3587 J-31.0276
G3 X-301.0234 Y346.813 I28.2804 J-32.2572
G3 X-301.5924 Y344.8033 I25.6104 J-8.3366
G1 X-301.6869 Y344.4014
G3 X-301.7706 Y344.0182 I66.0659 J-14.6306
G3 X-301.8441 Y343.6524 I18.116 J-3.8315
G3 X-301.9652 Y342.9528 I14.8489 J-2.9285
G3 X-302.0996 Y341.6736 I12.3925 J-1.9491
G3 X-302.105 Y341.5427 I3.7966 J-0.221
G1 X-302.1083 Y341.415
G1 X-302.1095 Y341.2904
G3 X-302.0927 Y340.8048 I5.6241 J-0.0475
G3 X-302.0395 Y340.3728 I4.0688 J0.2816
G3 X-301.9492 Y339.9964 I3.0974 J0.5441
G3 X-301.8215 Y339.6788 I2.0921 J0.6566
G3 X-301.6596 Y339.4256 I1.2725 J0.6352
G3 X-301.2488 Y339.1063 I0.8453 J0.6638
G3 X-300.8739 Y339.0133 I0.4621 J1.0595
G3 X-300.3002 Y339.0592 I0.1384 J1.878
G3 X-299.7516 Y339.2336 I-0.7565 J3.3292
G3 X-299.2453 Y339.4961 I-1.1847 J2.9051
G3 X-298.8044 Y339.8193 I-2.3145 J3.6186
G3 X-298.4179 Y340.1767 I-4.06 J4.7795
G3 X-298.2431 Y340.3612 I-5.9041 J5.7653
G3 X-298.0781 Y340.5488 I-22.435 J19.902
G3 X-297.4847 Y341.332 I-7.22 J6.0868
G3 X-297.2329 Y341.7167 I-9.7064 J6.6276
G3 X-297.1741 Y341.8111 I-1.6045 J1.0647
G3 X-296.7329 Y342.576 I-14.9785 J9.1506
G3 X-296.0052 Y344.0617 I-18.9595 J10.2074
G1 X-295.932 Y344.2271
G3 X-295.3914 Y345.5444 I-32.4037 J14.069
G1 X-295.2806 Y345.8355
G1 X-295.2278 Y345.9768
G1 X-295.1256 Y346.2557
G3 X-294.3966 Y348.4387 I-42.9703 J15.5613
G3 X-293.4738 Y351.7649 I-61.0972 J18.742
G1 X-293.3706 Y352.1839
G3 X-293.3262 Y352.3674 I-28.4594 J6.9758
G3 X-293.1642 Y353.0566 I-665.6994 J156.845
G1 X-293.0473 Y353.5745
G1 X-293.0365 Y353.6232
G1 X-293.0261 Y353.6704
G1 X-292.9467 Y354.0356
G1 X-292.9175 Y354.1727
G1 X-292.8672 Y354.4127
G1 X-292.7937 Y354.7732
G3 X-292.7847 Y354.8183 I-2.4405 J0.5103
G1 X-292.7234 Y355.1342
G0 Z5.0
M5
M30
