( Made using CamBam - http://www.cambam.co.uk )
( Elvis Mic 1/25/2014 12:22:51 AM )
( T0 : 0.0 )
G21 G90 G64 G40
G0 Z5.0
( T0 : 0.0 )
T0 M6
( Detail3 )
G17
M3 S1000
G0 X-308.1274 Y338.1779
G1 F1.0 Z0.0
G3 X-308.5144 Y337.2771 I76.1628 J-33.2552
G3 X-308.8805 Y336.3675 I27.8621 J-11.741
G1 X-308.9269 Y336.2453
G3 X-308.9756 Y336.1146 I2.9724 J-1.1822
G3 X-309.0265 Y335.9748 I12.5016 J-4.6329
G3 X-309.1381 Y335.6536 I22.2002 J-7.8925
G1 X-309.1943 Y335.4811
G3 X-309.2082 Y335.4371 I0.5432 J-0.1951
G1 X-309.2648 Y335.2489
G3 X-309.3751 Y334.8131 I4.951 J-1.4851
G3 X-309.4394 Y334.3023 I2.536 J-0.5787
G3 X-309.4072 Y334.0266 I0.9236 J-0.0318
G3 X-309.2179 Y333.7752 I0.3834 J0.0916
G3 X-309.0427 Y333.7258 I0.2093 J0.4072
G3 X-308.8389 Y333.7326 I0.0752 J0.8059
G3 X-308.3776 Y333.8594 I-0.3624 J2.2214
G3 X-307.9206 Y334.0583 I-1.9416 J5.0854
G3 X-307.4547 Y334.2996 I-4.8165 J9.8691
G1 X-307.3366 Y334.3649
G3 X-306.8744 Y334.6319 I-8.387 J15.0514
G3 X-306.6588 Y334.7614 I-4.0829 J7.0409
G1 X-306.5542 Y334.8252
G1 X-306.3527 Y334.9494
G1 X-305.9487 Y335.2035
G1 X-305.5009 Y335.4909
G1 X-305.0228 Y335.8027
G3 X-303.4789 Y336.8292 I-100.1414 J152.2942
G1 X-302.7103 Y337.3451
G1 X-300.9729 Y338.5113
G1 X-300.02 Y339.1472
G1 X-298.962 Y339.8483
G1 X-298.8278 Y339.9368
G1 X-298.6918 Y340.0264
G1 X-297.4729 Y340.8243
G1 X-297.318 Y340.925
G1 X-297.1609 Y341.0269
G1 X-297.0016 Y341.1302
G1 X-296.8399 Y341.2348
G1 X-296.5072 Y341.4496
G2 X-293.0251 Y343.65 I113.7689 J-176.1786
G2 X-291.0311 Y344.8701 I128.9188 J-208.4629
G2 X-274.9207 Y353.675 I108.7584 J-179.8537
G2 X-263.803 Y358.7606 I97.2943 J-198.0027
G2 X-260.7931 Y360.0134 I80.3185 J-188.7192
G1 X-260.4126 Y360.1682
G1 X-260.0288 Y360.3236
G1 X-259.6418 Y360.4795
G1 X-259.2514 Y360.6359
G2 X-242.3539 Y366.6596 I89.5888 J-224.5987
G2 X-232.5153 Y369.55 I77.1695 J-244.4845
G1 X-231.2581 Y369.8892
G2 X-225.8752 Y371.2679 I65.1706 J-243.2588
G2 X-220.1032 Y372.6174 I67.3762 J-275.1554
G2 X-211.9794 Y374.1041 I24.225 J-109.4314
G2 X-203.7736 Y375.0381 I19.1037 J-131.3297
G2 X-203.6439 Y375.0489 I0.3702 J-3.6718
G2 X-203.5132 Y375.0596 I0.3698 J-3.7012
G2 X-203.3815 Y375.0703 I0.3694 J-3.7313
G2 X-197.7553 Y375.4206 I12.2701 J-151.7278
G2 X-190.2424 Y375.5929 I7.9278 J-181.7869
G2 X-189.2726 I0.4877 J-172.1796
G2 X-178.9365 Y375.3163 I-0.7167 J-220.0313
G1 X-177.6041 Y375.2469
G1 X-177.2684 Y375.2284
G1 X-176.9301 Y375.2092
G1 X-176.2428 Y375.1688
G1 X-174.8245 Y375.0799
G1 X-173.3609 Y374.9803
G1 X-172.6177 Y374.9268
G1 X-172.2432 Y374.8991
G1 X-171.8658 Y374.8707
G1 X-171.4855 Y374.8415
G1 X-171.1022 Y374.8116
G1 X-170.716 Y374.781
G1 X-170.3267 Y374.7497
G2 X-163.2191 Y374.0923 I-28.0827 J-342.4093
G1 X-162.3176 Y373.9983
G2 X-154.0885 Y373.0448 I-45.4535 J-428.2762
G1 X-153.0448 Y372.913
G1 X-152.7829 Y372.8795
G1 X-152.52 Y372.8459
G1 X-152.2561 Y372.8119
G1 X-151.184 Y372.6727
G1 X-150.0951 Y372.5291
G1 X-149.9587 Y372.511
G1 X-147.7074 Y372.2075
G1 X-145.3848 Y371.8867
G1 X-144.2054 Y371.7212
G1 X-141.7716 Y371.3752
G1 X-139.2602 Y371.0133
G1 X-133.9047 Y370.2357
G1 X-131.1404 Y369.8383
G1 X-129.736 Y369.6395
G1 X-129.6481 Y369.6271
G1 X-128.9395 Y369.528
G1 X-127.4995 Y369.3295
G1 X-126.0361 Y369.1328
G1 X-125.2984 Y369.0358
G1 X-124.5546 Y368.9399
G3 X-124.3682 Y368.9162 I1.2864 J9.3567
G1 X-123.6169 Y368.8218
G1 X-122.8593 Y368.729
G3 X-119.7281 Y368.3771 I20.6684 J169.8032
G3 X-116.4883 Y368.0892 I11.4468 J110.4199
G3 X-116.2851 Y368.0747 I0.6189 J7.2355
G1 X-115.877 Y368.0471
G3 X-115.054 Y367.9982 I3.6057 J53.7471
G1 X-114.6406 Y367.9774
G3 X-112.9591 Y367.9239 I2.4948 J52.0197
G3 X-112.7483 Y367.9213 I0.2803 J14.1625
G1 X-112.3252 Y367.9193
G3 X-110.6048 Y367.9646 I0.0189 J32.024
G1 X-110.1736 Y367.9926
G3 X-108.4264 Y368.2069 I-1.1723 J16.7841
G1 X-108.2096 Y368.2485
G3 X-107.3431 Y368.4636 I-1.7967 J9.0902
G1 X-107.1296 Y368.5317
G3 X-106.2908 Y368.8869 I-1.7452 J5.29
G3 X-105.526 Y369.4286 I-1.5836 J3.0467
G3 X-105.2108 Y369.7931 I-1.7713 J1.8499
G3 X-104.8184 Y370.7618 I-1.8759 J1.3238
G3 X-104.7838 Y371.3177 I-2.7485 J0.4497
G3 X-104.8496 Y371.905 I-4.0532 J-0.1567
G3 X-105.0031 Y372.5121 I-5.3787 J-1.0365
G3 X-105.231 Y373.1322 I-7.0786 J-2.2497
G3 X-105.8857 Y374.4301 I-10.2655 J-4.3644
G3 X-106.2834 Y375.0785 I-15.6022 J-9.1239
G2 X-106.8756 Y376.0477 I18.2085 J11.7911
G1 X-106.8938 Y376.0795
G2 X-107.4346 Y377.1198 I12.3135 J7.0617
G2 X-107.7265 Y377.8454 I7.2231 J3.3273
G2 X-107.8495 Y378.2757 I4.6753 J1.5684
G2 X-107.8945 Y378.5104 I4.0067 J0.8905
G2 X-107.9093 Y379.0597 I1.9715 J0.3282
G2 X-107.8363 Y379.3479 I1.2093 J-0.1533
G2 X-107.6642 Y379.6248 I0.83 J-0.3239
G2 X-107.3726 Y379.8431 I0.7212 J-0.6595
G2 X-106.9878 Y379.9726 I0.6747 J-1.3681
G2 X-106.5472 Y380.0216 I0.5034 J-2.5212
G2 X-106.0711 Y380.0088 I0.126 J-4.1594
G2 X-105.0517 Y379.8516 I-0.6854 J-7.8326
G2 X-103.9907 Y379.5786 I-2.8966 J-13.4531
G1 X-103.7214 Y379.4974
G1 X-103.5852 Y379.4549
G1 X-103.306 Y379.3649
G1 X-103.0208 Y379.2693
G2 X-102.8771 Y379.2198 I-0.8905 J-2.8205
G2 X-100.5763 Y378.3376 I-14.0896 J-40.1898
G2 X-98.1444 Y377.2831 I-29.4956 J-71.3486
G1 X-97.8377 Y377.1442
G1 X-97.2033 Y376.8539
G1 X-96.5449 Y376.5485
G1 X-95.8591 Y376.2268
G2 X-95.8161 Y376.2065 I-0.3008 J-0.6935
G2 X-95.773 Y376.1862 I-0.3048 J-0.7016
G1 X-95.4209 Y376.0196
G1 X-94.6835 Y375.6684
G1 X-93.9098 Y375.2972
G1 X-89.9981 Y373.4049
G1 X-88.9612 Y372.907
G1 X-87.8602 Y372.3845
G1 X-87.2921 Y372.1186
G3 X-84.7034 Y370.9595 I33.9443 J72.3409
G3 X-84.6214 Y370.9248 I0.4463 J0.9413
G1 X-84.2881 Y370.7857
G1 X-83.9486 Y370.6474
G3 X-82.4877 Y370.1052 I9.4529 J23.2326
G3 X-81.7176 Y369.8747 I4.2615 J12.8371
G1 X-81.521 Y369.826
G3 X-81.4715 Y369.8145 I0.1795 J0.6643
G1 X-81.3719 Y369.7927
G1 X-81.1702 Y369.7537
G3 X-80.7547 Y369.7035 I0.6071 J3.2753
G3 X-80.326 Y369.7263 I0.1269 J1.653
G3 X-80.1172 Y369.7996 I-0.1305 J0.7054
G3 X-79.9432 Y369.9616 I-0.2083 J0.3982
G3 X-79.8718 Y370.2295 I-0.4626 J0.2668
G1 X-81.4726 Y371.1993
G1 X-83.07 Y372.1744
G1 X-86.2607 Y374.1316
G1 X-88.3891 Y375.4344
G3 X-88.4562 Y375.4754 I-0.8561 J-1.3275
G3 X-88.5239 Y375.5167 I-0.8592 J-1.3323
G1 X-89.7613 Y376.2695
G3 X-93.0731 Y378.2577 I-172.4514 J-283.5058
G3 X-93.1778 Y378.3197 I-1.027 J-1.6132
G3 X-93.2833 Y378.3822 I-1.0299 J-1.6188
G3 X-93.3897 Y378.4452 I-1.0329 J-1.6244
G3 X-93.497 Y378.5086 I-1.0359 J-1.63
G3 X-93.5508 Y378.5404 I-0.7223 J-1.1613
G3 X-93.6049 Y378.5723 I-0.7233 J-1.1633
G3 X-93.6592 Y378.6044 I-0.7243 J-1.1653
G3 X-93.7137 Y378.6365 I-0.7253 J-1.1674
G3 X-98.393 Y381.3288 I-124.6802 J-211.2868
G1 X-98.6923 Y381.4959
G1 X-98.9966 Y381.6651
G3 X-105.5672 Y385.1316 I-82.0213 J-147.5083
G3 X-107.3465 Y386.0033 I-74.4434 J-149.6878
G3 X-109.2576 Y386.9057 I-51.319 J-106.2182
G1 X-109.7452 Y387.1301
G1 X-110.2415 Y387.3562
G3 X-112.3694 Y388.2974 I-45.197 J-99.305
G1 X-112.9125 Y388.5303
G3 X-115.2422 Y389.4954 I-53.8905 J-126.8018
G1 X-115.837 Y389.7329
G3 X-128.813 Y394.0233 I-43.1611 J-108.7683
G3 X-136.4295 Y395.78 I-29.8727 J-112.1312
G3 X-145.2573 Y397.1722 I-23.2771 J-118.9131
G3 X-150.0005 Y397.657 I-16.1402 J-134.4608
G1 X-150.5992 Y397.7059
G3 X-161.5739 Y398.1437 I-11.1868 J-142.6495
G3 X-161.6599 Y398.1439 I-0.0453 J-1.186
G3 X-161.7459 Y398.144 I-0.0447 J-1.1867
G3 X-161.832 Y398.1441 I-0.044 J-1.1874
G3 X-161.9183 I-0.0434 J-1.1881
G3 X-167.7986 Y398.0341 I0.0028 J-157.3514
G1 X-168.5391 Y398.005
G1 X-169.2852 Y397.9725
G1 X-170.037 Y397.9363
G1 X-170.7945 Y397.8966
G1 X-171.5579 Y397.8531
G1 X-172.327 Y397.8059
G1 X-173.1019 Y397.7549
G1 X-173.8826 Y397.7001
G1 X-174.6692 Y397.6415
G3 X-176.2665 Y397.5118 I25.8619 J-328.5147
G3 X-179.5597 Y397.201 I16.7945 J-195.5301
G3 X-186.5617 Y396.3544 I21.0397 J-203.3942
G1 X-187.0001 Y396.2933
G1 X-187.4401 Y396.2311
G1 X-187.8816 Y396.1678
G1 X-188.3247 Y396.1033
G1 X-188.7694 Y396.0376
G1 X-189.2157 Y395.9708
G3 X-196.8044 Y394.6964 I34.294 J-227.4454
G3 X-200.7027 Y393.9448 I44.0423 J-238.9175
G1 X-201.191 Y393.8462
G1 X-201.6811 Y393.7463
G1 X-202.1728 Y393.6451
G1 X-202.6663 Y393.5426
G1 X-203.1615 Y393.4387
G1 X-203.6584 Y393.3334
G1 X-204.157 Y393.2269
G3 X-206.1804 Y392.7844 I49.757 J-232.3836
G3 X-223.0987 Y388.3804 I52.5288 J-236.4918
G1 X-224.2146 Y388.0432
G1 X-224.3551 Y388.0003
G3 X-242.09 Y381.7808 I66.8196 J-218.9314
G1 X-243.2156 Y381.3291
G3 X-255.0582 Y376.1249 I81.8414 J-202.3124
G1 X-255.4261 Y375.9494
G1 X-255.7964 Y375.7718
G1 X-256.1693 Y375.5921
G1 X-256.5448 Y375.4103
G1 X-256.9229 Y375.2263
G1 X-257.6899 Y374.8501
G3 X-264.6291 Y371.2648 I91.3056 J-185.2303
G1 X-265.0616 Y371.0302
G3 X-272.8662 Y366.5537 I94.4037 J-173.6317
G3 X-281.5222 Y361.0015 I97.9042 J-162.1579
G1 X-282.0571 Y360.636
G1 X-282.595 Y360.2656
G3 X-292.1831 Y353.1479 I98.808 J-143.1171
G3 X-297.0812 Y349.0738 I97.2689 J-121.9251
G1 X-297.3828 Y348.8114
G1 X-297.9886 Y348.2799
G1 X-298.5962 Y347.7408
G1 X-299.2055 Y347.1939
G1 X-299.8163 Y346.639
G1 X-300.4285 Y346.076
G1 X-300.5813 Y345.9343
G1 X-301.195 Y345.3608
G3 X-302.4303 Y344.1829 I77.5731 J-82.5907
G3 X-304.9256 Y341.6933 I76.445 J-79.1158
G3 X-306.1594 Y340.3952 I69.7415 J-67.5204
G3 X-307.3825 Y339.0474 I57.5257 J-53.4305
G1 X-307.4577 Y338.9619
G1 X-307.6078 Y338.79
G1 X-307.9065 Y338.4424
G1 X-308.0543 Y338.2666
G1 X-308.1274 Y338.1779
G0 Z5.0
G0 X-292.3102 Y318.4224
G1 Z0.0
G1 X-292.3028 Y318.4533
G2 X-292.1573 Y318.9394 I6.6729 J-1.7321
G1 X-292.0761 Y319.1711
G2 X-291.7077 Y320.064 I12.3735 J-4.5821
G1 X-291.6601 Y320.1666
G1 X-291.6121 Y320.268
G2 X-291.2023 Y321.0587 I12.5194 J-5.987
G2 X-290.312 Y322.4695 I14.2187 J-7.9865
G2 X-288.429 Y324.6947 I14.1471 J-10.0621
G2 X-287.6323 Y325.4435 I12.4814 J-12.4815
G2 X-284.5374 Y327.6836 I13.2273 J-15.017
G2 X-281.0971 Y329.3452 I11.9846 J-20.4201
G1 X-280.5298 Y329.5622
G1 X-279.9691 Y329.7697
G1 X-279.4155 Y329.9691
G2 X-278.3215 Y330.3504 I20.5325 J-57.1612
G1 X-277.7901 Y330.5305
G1 X-277.2661 Y330.7055
G1 X-276.2326 Y331.0438
G1 X-275.2294 Y331.365
G1 X-274.7427 Y331.5185
G2 X-270.8996 Y332.6915 I71.725 J-228.1181
G1 X-270.4783 Y332.8166
G1 X-268.8179 Y333.3042
G1 X-268.0389 Y333.5303
G1 X-266.5285 Y333.9643
G1 X-266.3514 Y334.0148
G1 X-264.945 Y334.4137
G1 X-263.6256 Y334.7842
G1 X-262.3879 Y335.1289
G1 X-261.8074 Y335.2897
G1 X-261.245 Y335.4449
G1 X-259.0644 Y336.0419
G1 X-257.1549 Y336.5591
G1 X-256.3192 Y336.7839
G2 X-256.1232 Y336.8364 I2.3566 J-8.3915
G2 X-255.9303 Y336.8882 I1.6536 J-5.7829
G1 X-255.1708 Y337.0913
G1 X-253.7462 Y337.4704
G1 X-252.4992 Y337.8003
G1 X-252.2263 Y337.8723
G1 X-250.1112 Y338.427
G1 X-249.3176 Y338.6339
G1 X-248.9704 Y338.7242
G1 X-246.3652 Y339.3971
G1 X-245.0618 Y339.7305
G1 X-244.7359 Y339.8135
G1 X-243.7578 Y340.0613
G1 X-229.5193 Y335.6066
G2 X-229.4041 Y336.0313 I3.3271 J-0.6747
G2 X-229.0839 Y336.8313 I7.1022 J-2.3777
G1 X-228.9939 Y337.0185
G2 X-228.5983 Y337.7407 I9.9441 J-4.9784
G1 X-228.4945 Y337.9103
G2 X-227.5773 Y339.1932 I10.9111 J-6.8313
G2 X-226.5988 Y340.295 I13.0424 J-10.5974
G2 X-225.6014 Y341.2472 I12.8779 J-12.4919
G1 X-225.3583 Y341.4597
G2 X-223.3423 Y343.0054 I14.9859 J-17.4574
G2 X-221.4638 Y344.1891 I16.6546 J-24.3475
G2 X-219.7559 Y345.1127 I17.7467 J-30.776
G2 X-216.6618 Y346.5132 I18.4532 J-36.6518
G2 X-216.0701 Y346.7485 I12.8884 J-31.5418
G2 X-211.5482 Y348.2808 I19.9745 J-51.5074
G1 X-210.9746 Y348.4463
G2 X-206.9234 Y349.4664 I20.4102 J-72.5089
G1 X-205.8294 Y349.712
G1 X-205.2913 Y349.8342
G1 X-204.2239 Y350.079
G1 X-204.0926 Y350.1094
G1 X-203.9615 Y350.1397
G1 X-202.9155 Y350.383
G1 X-201.8862 Y350.6246
G1 X-199.8609 Y351.105
G1 X-198.8801 Y351.3395
G1 X-191.1589 Y353.1987
G1 X-190.7362 Y353.3001
G1 X-189.0585 Y353.7012
G1 X-187.4323 Y354.0873
G2 X-181.1216 Y355.5477 I129.7236 J-546.2088
G1 X-179.738 Y355.8573
G1 X-179.0673 Y356.0057
G1 X-177.7461 Y356.2945
G2 X-172.6157 Y357.3667 I71.8911 J-331.1925
G1 X-172.0531 Y357.4788
G2 X-171.9146 Y357.5063 I0.6808 J-3.0749
G2 X-171.7766 Y357.5335 I0.6698 J-3.0285
G2 X-171.6392 Y357.5606 I0.6591 J-2.984
G1 X-170.5435 Y357.7737
G1 X-169.4812 Y357.9758
G2 X-167.42 Y358.3538 I47.6432 J-253.9842
G1 X-166.4523 Y358.5244
G1 X-165.5141 Y358.6855
G1 X-165.0594 Y358.7619
G2 X-157.8723 Y359.8084 I27.3307 J-162.5031
G2 X-157.7877 Y359.8187 I0.1879 J-1.1943
G2 X-152.3832 Y360.3523 I14.2042 J-116.2322
G1 X-151.875 Y360.3886
G1 X-151.3825 Y360.4214
G1 X-150.9052 Y360.4506
G2 X-149.0542 Y360.54 I5.3276 J-91.1583
G1 X-148.649 Y360.5541
G1 X-148.4526 Y360.5602
G2 X-146.9063 Y360.5909 I2.5101 J-87.6927
G2 X-144.1996 Y360.5615 I0.641 J-65.6849
G2 X-140.1494 Y360.2755 I-1.5247 J-50.4151
G1 X-139.6452 Y360.2153
G2 X-139.59 Y360.2084 I-0.0479 J-0.6012
G2 X-139.5357 Y360.2014 I-0.0484 J-0.5957
G2 X-136.1447 Y359.6052 I-4.4394 J-35.1898
G2 X-130.3668 Y358.2313 I-78.4905 J-342.926
G1 X-129.1045 Y357.9183
G2 X-126.6615 Y357.2994 I-69.2379 J-278.446
G1 X-125.5171 Y357.0034
G1 X-124.4093 Y356.7131
G2 X-115.8565 Y354.3312 I-77.9816 J-296.5545
G2 X-109.4779 Y352.3516 I-61.5891 J-209.728
G2 X-107.0951 Y351.5505 I-59.3322 J-180.4022
G1 X-106.5747 Y351.3698
G2 X-102.5664 Y349.894 I-39.1027 J-112.3811
G1 X-102.1918 Y349.7469
G2 X-99.3133 Y348.543 I-28.2768 J-71.6531
G1 X-98.777 Y348.301
G1 X-98.6514 Y348.2433
G1 X-98.528 Y348.1863
G1 X-98.4066 Y348.1298
G2 X-96.5178 Y347.1916 I-17.4304 J-37.4629
G2 X-95.8199 Y346.8088 I-20.2624 J-37.7646
G1 X-95.5173 Y346.6345
G1 X-95.2354 Y346.4671
G1 X-94.9732 Y346.3061
G2 X-94.0135 Y345.6624 I-8.0766 J-13.079
G1 X-93.8382 Y345.5327
G2 X-93.204 Y345.0154 I-6.2103 J-8.262
G2 X-92.7613 Y344.5859 I-4.008 J-4.5732
G1 X-92.6829 Y344.5003
G2 X-92.4068 Y344.1632 I-3.7062 J-3.3159
G2 X-92.0725 Y343.6008 I-2.3562 J-1.7812
G2 X-91.9621 Y343.2915 I-2.0262 J-0.898
G2 X-91.9077 Y342.9678 I-1.6481 J-0.4432
G1 X-91.5686 Y337.8278
G0 Z5.0
G0 X-94.5242 Y329.7335
G1 Z0.0
G3 X-96.4149 Y330.3963 I-26.563 J-72.746
G3 X-98.8704 Y331.1815 I-25.1282 J-74.3467
G1 X-99.1889 Y331.2775
G1 X-99.8696 Y331.4782
G1 X-100.5974 Y331.6863
G3 X-101.3755 Y331.9016 I-14.9624 J-52.5535
G3 X-101.7778 Y332.0101 I-4.9078 J-17.3991
G3 X-101.8793 Y332.0372 I-0.4753 J-1.5785
G3 X-101.9816 Y332.0643 I-0.4758 J-1.5857
G3 X-106.3709 Y333.1199 I-24.7363 J-93.2049
G3 X-106.4401 Y333.1349 I-0.3278 J-1.3444
G1 X-107.0121 Y333.2571
G1 X-107.6031 Y333.3799
G1 X-108.2139 Y333.5033
G1 X-108.8451 Y333.6271
G3 X-111.7389 Y334.1475 I-21.3119 J-110.2035
G1 X-112.1072 Y334.2084
G1 X-112.4817 Y334.2691
G1 X-112.8622 Y334.3296
G1 X-113.249 Y334.3899
G1 X-113.6421 Y334.4498
G1 X-114.0416 Y334.5095
G1 X-114.867 Y334.6286
G1 X-115.7197 Y334.7459
G3 X-117.5411 Y334.9778 I-24.519 J-185.3509
G3 X-127.2899 Y335.8239 I-18.0371 J-151.2291
G3 X-127.9104 Y335.8573 I-2.3287 J-37.5434
G3 X-127.9882 Y335.8613 I-0.1293 J-1.7475
G3 X-128.0661 Y335.8653 I-0.1287 J-1.7508
G3 X-128.1442 Y335.8692 I-0.1282 J-1.7542
G3 X-128.2224 Y335.8732 I-0.1276 J-1.7575
G3 X-128.3008 Y335.8771 I-0.1271 J-1.7609
G3 X-128.3793 Y335.8809 I-0.1265 J-1.7643
G3 X-128.458 Y335.8848 I-0.1259 J-1.7677
G3 X-134.2119 Y336.0724 I-8.9415 J-185.868
G3 X-134.9428 Y336.0836 I-1.3504 J-64.6683
G3 X-135.6854 Y336.0921 I-1.4442 J-93.6266
G1 X-136.4398 Y336.0979
G1 X-137.206 Y336.1009
G1 X-137.9845
G3 X-145.0964 Y335.9708 I0.3996 J-216.2054
G3 X-153.2102 Y335.5584 I8.6835 J-250.8822
G3 X-157.5298 Y335.2353 I16.7517 J-252.9792
G3 X-157.665 Y335.2241 I0.2582 J-3.9371
G3 X-157.8005 Y335.2128 I0.2617 J-3.9575
G3 X-157.9362 Y335.2014 I0.2652 J-3.9782
G3 X-158.0722 Y335.1899 I0.2687 J-3.9993
G3 X-158.2084 Y335.1784 I0.2723 J-4.0206
G3 X-160.4567 Y334.9784 I44.6246 J-514.379
G3 X-160.5975 Y334.9653 I0.3425 J-4.443
G3 X-160.7385 Y334.9521 I0.3472 J-4.4713
G3 X-160.8798 Y334.9388 I0.3519 J-4.5001
G3 X-161.0214 Y334.9254 I0.3567 J-4.5295
G3 X-161.1633 Y334.912 I0.3616 J-4.5593
G3 X-171.509 Y333.7534 I30.0907 J-315.4695
G3 X-171.833 Y333.7117 I2.1453 J-17.9747
G3 X-183.6409 Y331.9909 I47.4542 J-366.9968
G1 X-185.1361 Y331.7462
G1 X-185.5113 Y331.6838
G1 X-185.8878 Y331.6209
G1 X-186.2658 Y331.5574
G1 X-186.6452 Y331.4933
G1 X-187.0259 Y331.4286
G1 X-188.5723 Y331.162
G1 X-188.9603 Y331.0942
G3 X-203.0884 Y328.3809 I79.4067 J-451.6148
G1 X-204.8761 Y328.0053
G1 X-206.6904 Y327.617
G1 X-208.5319 Y327.2157
G3 X-225.277 Y323.2486 I116.1933 J-527.774
G3 X-234.1504 Y320.9254 I142.459 J-562.2134
G3 X-235.2656 Y320.623 I43.4159 J-162.3151
G1 X-235.8252 Y320.4703
G1 X-236.9527 Y320.1611
G3 X-257.4322 Y314.1371 I163.886 J-594.9759
G1 X-258.0712 Y313.9366
G1 X-258.3913 Y313.8358
G1 X-259.6808 Y313.4279
G3 X-259.8421 Y313.3767 I1.0827 J-3.6872
G3 X-270.8081 Y309.766 I163.5611 J-515.2121
G1 X-272.1837 Y309.2936
G3 X-277.8419 Y307.286 I97.6431 J-284.1737
G2 X-263.0264 Y311.8819 I266.3347 J-832.3889
G2 X-248.126 Y316.1944 I219.3952 J-730.1479
G2 X-238.1436 Y318.8957 I197.0472 J-708.3942
G1 X-237.9867 Y318.9369
G1 X-237.8291 Y318.9782
G1 X-237.6709 Y319.0196
G1 X-237.5121 Y319.0612
G2 X-223.9246 Y322.4604 I161.184 J-615.443
G1 X-222.1659 Y322.8768
G1 X-220.3491 Y323.3011
G1 X-218.4724 Y323.7329
G1 X-216.5336 Y324.1722
G2 X-214.5307 Y324.6185 I73.4896 J-325.0905
G1 X-213.5127 Y324.8424
G1 X-212.9995 Y324.9545
G1 X-211.9567 Y325.1807
G2 X-202.4005 Y327.152 I112.7226 J-522.2784
G1 X-202.2506 Y327.1815
G1 X-202.1004 Y327.2109
G1 X-201.9498 Y327.2403
G2 X-190.9164 Y329.2633 I88.7468 J-452.9298
G1 X-190.2198 Y329.3818
G1 X-188.8038 Y329.619
G2 X-182.7535 Y330.5777 I64.6605 J-388.4713
G2 X-168.8716 Y332.4172 I56.7421 J-374.9107
G1 X-168.6537 Y332.4418
G2 X-161.2077 Y333.1956 I38.3194 J-341.359
G2 X-160.9742 Y333.2165 I1.413 J-14.513
G2 X-160.033 Y333.2987 I7.9034 J-85.0398
G1 X-159.0842 Y333.3787
G2 X-155.1636 Y333.6772 I23.4047 J-281.4525
G2 X-154.1751 Y333.7442 I10.5881 J-148.9673
G2 X-145.7298 Y334.1713 I17.6383 J-265.055
G2 X-136.7081 Y334.3133 I8.1584 J-231.6385
G2 X-127.0824 Y334.0495 I-0.6009 J-197.699
G1 X-126.479 Y334.017
G2 X-121.4992 Y333.6678 I-8.8721 J-162.2276
G1 X-120.875 Y333.6135
G2 X-115.7275 Y333.0675 I-13.8247 J-154.8641
G2 X-113.1204 Y332.7192 I-14.6042 J-119.2546
G2 X-111.8091 Y332.5242 I-15.6028 J-109.4262
G1 X-111.7271 Y332.5115
G1 X-111.0693 Y332.408
G2 X-105.6563 Y331.4118 I-18.4393 J-115.3938
G1 X-105.319 Y331.3405
G2 X-99.7798 Y329.9903 I-19.2948 J-91.1921
G2 X-94.1592 Y328.1987 I-19.5557 J-71.0648
G2 X-91.3664 Y327.0966 I-20.0378 J-54.8673
G1 X-91.0209 Y326.9479
G1 X-90.6758 Y326.7962
G1 X-90.3311 Y326.6414
G1 X-90.1589 Y326.5629
G2 X-88.7821 Y325.9021 I-18.322 J-39.9386
G1 X-88.441 Y325.7284
G1 X-88.101 Y325.5508
G1 X-87.7621 Y325.3691
G1 X-87.4244 Y325.1829
G1 X-87.0883 Y324.992
G1 X-86.921 Y324.8948
G1 X-86.5877 Y324.6962
G2 X-86.2567 Y324.4918 I-7.0453 J-11.78
G1 X-85.9286 Y324.2809
G1 X-85.7659 Y324.1727
G2 X-85.1278 Y323.7131 I-5.3499 J-8.1005
G3 X-84.8338 Y323.7846 I-0.1923 J1.432
G3 X-84.5675 Y323.9282 I-0.2895 J0.8555
G3 X-84.4411 Y324.0882 I-0.2867 J0.3565
G3 X-84.4254 Y324.3669 I-0.3779 J0.1611
G3 X-84.4846 Y324.5179 I-0.7042 J-0.189
G3 X-84.5807 Y324.6733 I-1.265 J-0.6758
G3 X-84.709 Y324.8319 I-1.3898 J-0.992
G3 X-85.0667 Y325.174 I-2.6915 J-2.4561
G3 X-85.5258 Y325.527 I-3.9904 J-4.7155
G3 X-86.1063 Y325.912 I-7.534 J-10.7308
G3 X-86.8526 Y326.3534 I-11.3601 J-18.3561
G1 X-86.9497 Y326.4078
G1 X-87.0497 Y326.4632
G3 X-87.2617 Y326.5789 I-3.674 J-6.4795
G1 X-87.4869 Y326.6993
G1 X-87.7262 Y326.8248
G3 X-88.9787 Y327.448 I-20.6164 J-39.8628
G3 X-88.9985 Y327.4575 I-0.0766 J-0.1345
G3 X-89.0184 Y327.467 I-0.0768 J-0.135
G3 X-89.0384 Y327.4766 I-0.0771 J-0.1356
G3 X-89.0585 Y327.4861 I-0.0773 J-0.1361
G3 X-89.0786 Y327.4957 I-0.0775 J-0.1367
G3 X-89.0988 Y327.5054 I-0.0778 J-0.1372
G3 X-89.1191 Y327.515 I-0.078 J-0.1377
G3 X-89.1395 Y327.5247 I-0.0782 J-0.1383
G3 X-89.1599 Y327.5344 I-0.0785 J-0.1388
G3 X-89.1805 Y327.5442 I-0.0787 J-0.1394
G3 X-89.2011 Y327.5539 I-0.0789 J-0.1399
G3 X-89.2218 Y327.5637 I-0.0792 J-0.1405
G3 X-92.7816 Y329.0733 I-29.2754 J-64.0819
G3 X-94.5242 Y329.7335 I-28.3057 J-72.0858
G0 Z5.0
G0 X-100.3862 Y297.801
G1 Z0.0
G3 X-105.0416 Y298.5651 I-22.5751 J-122.9755
G1 X-105.8251 Y298.6767
G1 X-106.6344 Y298.787
G1 X-107.4705 Y298.896
G3 X-111.2996 Y299.332 I-18.322 J-143.876
G3 X-121.5451 Y300.0453 I-17.0389 J-170.7954
G3 X-121.6255 Y300.0486 I-0.1102 J-1.732
G3 X-121.706 Y300.0518 I-0.1097 J-1.7352
G3 X-121.7867 Y300.055 I-0.1092 J-1.7384
G3 X-121.8675 Y300.0582 I-0.1086 J-1.7416
G3 X-121.9486 Y300.0613 I-0.1081 J-1.7449
G3 X-122.0297 Y300.0644 I-0.1076 J-1.7481
G3 X-122.1111 Y300.0675 I-0.107 J-1.7514
G3 X-122.1926 Y300.0705 I-0.1065 J-1.7546
G3 X-128.151 Y300.2035 I-7.7238 J-212.5832
G3 X-134.9593 Y300.1543 I-1.7337 J-231.1957
G1 X-135.3881 Y300.1445
G1 X-135.8202 Y300.134
G3 X-137.604 Y300.0824 I5.4618 J-219.6277
G3 X-141.4072 Y299.9308 I7.7075 J-241.2321
G1 X-142.3727 Y299.8837
G1 X-143.3532 Y299.8323
G3 X-152.3033 Y299.2088 I16.5784 J-302.525
G3 X-162.4989 Y298.1892 I29.3944 J-345.4209
G3 X-162.6583 Y298.1708 I0.5036 J-5.0781
G3 X-162.818 Y298.1524 I0.5098 J-5.1136
G3 X-162.978 Y298.1338 I0.5161 J-5.1497
G3 X-163.1383 Y298.1152 I0.5225 J-5.1867
G3 X-174.829 Y296.5706 I46.6723 J-398.2718
G3 X-175.195 Y296.5167 I4.4299 J-31.3241
G3 X-175.5624 Y296.4622 I6.1909 J-43.0174
G1 X-176.3028 Y296.3514
G1 X-177.8062 Y296.1224
G1 X-179.3327 Y295.8845
G1 X-180.1016 Y295.7626
G1 X-180.8763 Y295.6384
G1 X-181.6567 Y295.5119
G3 X-184.8766 Y294.9755 I87.8508 J-537.271
G3 X-188.1955 Y294.3987 I71.8613 J-423.3446
G1 X-188.6118 Y294.3247
G1 X-189.0296 Y294.2501
G1 X-189.4489 Y294.1748
G3 X-204.7245 Y291.1889 I95.2383 J-527.8066
G3 X-212.8318 Y289.4239 I130.6534 J-619.6505
G3 X-231.2493 Y284.9918 I142.4697 J-632.5074
G1 X-231.3929 Y284.9551
G1 X-231.5365 Y284.9183
G3 X-233.87 Y284.316 I448.8081 J-1743.6106
G3 X-255.0816 Y278.4536 I183.0976 J-703.8056
G3 X-255.7442 Y278.2595 I17.1037 J-59.5904
G1 X-257.0791 Y277.8662
G3 X-258.4236 Y277.4674 I55.7955 J-190.5751
G1 X-259.0983 Y277.2663
G1 X-259.7753 Y277.0637
G3 X-271.2932 Y273.509 I202.2329 J-675.7016
G3 X-271.4729 Y273.4518 I2.6505 J-8.6488
G1 X-272.1942 Y273.222
G1 X-272.9181 Y272.9905
G3 X-285.2229 Y268.9121 I189.7312 J-593.0391
G3 X-288.3321 Y267.8308 I146.6175 J-426.572
G1 X-289.111 Y267.5553
G1 X-289.8922 Y267.2766
G1 X-290.2832 Y267.136
G1 X-290.6746 Y266.994
G2 X-281.3145 Y269.6818 I308.1647 J-1055.5103
G2 X-271.932 Y272.291 I295.8059 J-1045.5427
G1 X-269.2472 Y273.0213
G2 X-247.6997 Y278.6039 I262.5556 J-969.0258
G2 X-233.2646 Y282.0447 I210.3928 J-850.6599
G1 X-231.3978 Y282.4707
G1 X-229.4697 Y282.9061
G1 X-228.49 Y283.1254
G1 X-226.4665 Y283.5744
G1 X-225.9564 Y283.6867
G1 X-223.8496 Y284.1469
G1 X-221.6736 Y284.6159
G1 X-219.426 Y285.0935
G1 X-218.8594 Y285.2128
G2 X-208.4831 Y287.3152 I153.0361 J-728.6501
G2 X-196.5864 Y289.523 I127.5475 J-654.1078
G1 X-195.8356 Y289.6547
G1 X-195.0788 Y289.7864
G2 X-181.21 Y292.0217 I99.7373 J-574.6564
G1 X-179.445 Y292.2807
G1 X-179.0019 Y292.3448
G1 X-177.2006 Y292.6013
G1 X-176.975 Y292.6329
G1 X-175.1406 Y292.8866
G2 X-158.3251 Y294.876 I62.3584 J-455.0362
G2 X-153.974 Y295.2834 I40.3261 J-407.2838
G2 X-149.4776 Y295.6531 I30.9783 J-349.2001
G1 X-148.3439 Y295.7377
G1 X-147.2011 Y295.8195
G1 X-146.6273 Y295.8591
G2 X-141.8864 Y296.1505 I22.323 J-324.5476
G2 X-131.7588 Y296.5385 I16.9551 J-310.1548
G2 X-120.9437 Y296.5481 I5.633 J-254.6713
G2 X-115.3629 Y296.361 I-4.5102 J-217.8191
G1 X-115.2756 Y296.3569
G1 X-115.1883 Y296.3527
G1 X-115.101 Y296.3486
G1 X-115.0137 Y296.3444
G1 X-114.9263 Y296.3401
G1 X-114.2246 Y296.3047
G2 X-111.3745 Y296.1349 I-12.647 J-236.2818
G1 X-110.6595 Y296.0856
G2 X-107.7559 Y295.8558 I-10.8625 J-155.7406
G1 X-107.6651 Y295.8478
G1 X-107.5743 Y295.8398
G1 X-107.4834 Y295.8317
G1 X-107.3926 Y295.8236
G1 X-107.3016 Y295.8154
G2 X-101.3053 Y295.1596 I-13.7868 J-153.7961
G2 X-95.1452 Y294.2117 I-16.1485 J-125.4294
G2 X-88.8422 Y292.8729 I-17.201 J-96.4884
G1 X-88.0581 Y292.6739
G1 X-87.8622 Y292.6228
G1 X-87.6661 Y292.5713
G1 X-87.4701 Y292.5191
G2 X-86.6839 Y292.3045 I-10.4861 J-39.9582
G2 X-83.5119 Y291.3367 I-18.2716 J-65.5647
G2 X-80.3459 Y290.162 I-15.4426 J-46.4774
G2 X-79.5657 Y289.8286 I-10.6537 J-26.0086
G2 X-78.0184 Y289.0912 I-11.7072 J-26.5579
G1 X-77.9708 Y289.0665
G1 X-77.7811 Y288.966
G2 X-77.7338 Y288.9406 I-0.3171 J-0.6455
G2 X-76.9874 Y288.5046 I-5.2925 J-9.9179
G3 X-76.6725 Y288.5734 I-0.1859 J1.6059
G3 X-76.3796 Y288.7081 I-0.3463 J1.1388
G3 X-76.2256 Y288.8604 I-0.2823 J0.4392
G3 X-76.1811 Y289.1554 I-0.3169 J0.1987
G3 X-76.245 Y289.3196 I-0.6375 J-0.1536
G3 X-76.3543 Y289.4854 I-1.0865 J-0.5973
G3 X-76.5002 Y289.6516 I-1.4623 J-1.1366
G3 X-76.9027 Y290.0029 I-2.6691 J-2.6514
G3 X-77.4022 Y290.3529 I-4.6232 J-6.0676
G1 X-77.5355 Y290.4378
G1 X-77.5693 Y290.4589
G1 X-77.7104 Y290.5453
G3 X-77.7829 Y290.5888 I-0.6104 J-0.9361
G3 X-77.8571 Y290.6326 I-0.886 J-1.4141
G3 X-78.0127 Y290.7228 I-2.4655 J-4.0764
G1 X-78.1766 Y290.8153
G3 X-79.0034 Y291.2529 I-11.1436 J-20.0562
G1 X-79.2242 Y291.3633
G3 X-79.722 Y291.6046 I-9.2041 J-18.3504
G3 X-81.0224 Y292.1972 I-17.2242 J-36.0742
G1 X-81.3702 Y292.3486
G3 X-85.8381 Y294.0472 I-30.2245 J-72.774
G1 X-86.4844 Y294.2678
G3 X-86.8299 Y294.3833 I-5.7144 J-16.514
G3 X-92.4166 Y296.0373 I-28.3826 J-85.61
G3 X-96.192 Y296.9514 I-25.7716 J-98.1857
G3 X-96.2515 Y296.9646 I-0.2947 J-1.1853
G3 X-98.4318 Y297.4256 I-22.9683 J-103.2319
G1 X-98.9958 Y297.5376
G3 X-100.3862 Y297.801 I-23.9655 J-122.7121
G0 Z5.0
G0 X-104.0895 Y262.1344
G1 Z0.0
G3 X-111.6462 Y262.7467 I-17.3138 J-166.7485
G1 X-112.8411 Y262.8136
G3 X-118.3064 Y263.0256 I-10.2442 J-193.4932
G3 X-118.392 Y263.0278 I-0.0886 J-1.8205
G3 X-118.4779 Y263.0299 I-0.088 J-1.8239
G3 X-118.5638 Y263.032 I-0.0874 J-1.8274
G3 X-118.65 Y263.034 I-0.0868 J-1.8309
G3 X-118.7363 Y263.0361 I-0.0863 J-1.8344
G3 X-118.8228 Y263.0381 I-0.0857 J-1.8379
G3 X-118.9095 Y263.04 I-0.0851 J-1.8414
G3 X-118.9963 Y263.042 I-0.0845 J-1.8449
G3 X-119.0833 Y263.0439 I-0.0839 J-1.8485
G3 X-119.1705 Y263.0457 I-0.0833 J-1.852
G3 X-119.2578 Y263.0476 I-0.0827 J-1.8556
G3 X-119.3453 Y263.0494 I-0.0821 J-1.8592
G3 X-119.433 Y263.0512 I-0.0815 J-1.8628
G3 X-119.5209 Y263.0529 I-0.0809 J-1.8664
G3 X-119.6089 Y263.0546 I-0.0803 J-1.87
G3 X-119.6971 Y263.0563 I-0.0797 J-1.8736
G3 X-119.7855 Y263.0579 I-0.0791 J-1.8772
G3 X-119.874 Y263.0595 I-0.0785 J-1.8809
G3 X-119.9628 Y263.0611 I-0.0778 J-1.8846
G3 X-120.0517 Y263.0626 I-0.0772 J-1.8882
G3 X-120.1407 Y263.0642 I-0.0766 J-1.8919
G3 X-126.6509 Y263.0793 I-3.7708 J-220.9602
G3 X-134.0854 Y262.885 I3.2208 J-265.5405
G3 X-134.2017 Y262.8803 I0.0453 J-2.5645
G3 X-134.3183 Y262.8756 I0.0465 J-2.5711
G3 X-134.4351 Y262.8708 I0.0478 J-2.5777
G3 X-142.9668 Y262.3912 I12.4382 J-297.4118
G1 X-144.049 Y262.3132
G1 X-145.1481 Y262.2302
G1 X-146.2643 Y262.1421
G1 X-147.3978 Y262.0487
G3 X-152.2291 Y261.6083 I27.3077 J-326.2794
G1 X-153.455 Y261.4859
G1 X-154.6998 Y261.3574
G3 X-166.0522 Y259.9974 I41.0814 J-390.9886
G3 X-166.2296 Y259.9736 I0.8823 J-7.2472
G3 X-166.4074 Y259.9497 I0.8975 J-7.3382
G3 X-166.5855 Y259.9256 I0.9131 J-7.4324
G3 X-166.7639 Y259.9015 I0.9294 J-7.5303
G3 X-166.9427 Y259.8772 I0.9462 J-7.6322
G3 X-168.395 Y259.677 I25.4639 J-190.1078
G1 X-169.8695 Y259.4687
G1 X-171.3665 Y259.2521
G3 X-177.7434 Y258.2735 I74.3771 J-505.9467
G1 X-178.5458 Y258.1442
G1 X-180.1753 Y257.8773
G3 X-195.0187 Y255.2015 I86.7113 J-523.5268
G3 X-211.8745 Y251.675 I119.3829 J-612.6697
G1 X-214.0077 Y251.1947
G1 X-216.1728 Y250.6997
G3 X-235.8731 Y245.8657 I161.815 J-702.0048
G3 X-246.3193 Y243.0722 I200.4235 J-770.3951
G3 X-270.0214 Y236.1666 I211.7779 J-771.0179
G1 X-270.3907 Y236.0527
G1 X-271.8791 Y235.5917
G1 X-273.3782 Y235.1241
G3 X-273.7536 Y235.0065 I5.6483 J-18.686
G1 X-274.5071 Y234.7698
G3 X-287.3181 Y230.6048 I207.8894 J-661.2159
G1 X-288.9256 Y230.0608
G1 X-289.1267 Y229.9924
G1 X-290.7462 Y229.4374
G1 X-291.1516 Y229.2973
G1 X-291.9649 Y229.0149
G1 X-292.7807 Y228.7291
G3 X-293.1891 Y228.5849 I10.0896 J-29.2223
G1 X-293.5978 Y228.4393
G1 X-291.6155 Y229.0084
G1 X-289.6322 Y229.5744
G1 X-288.3095 Y229.9499
G1 X-286.5453 Y230.4485
G1 X-285.5369 Y230.7323
G2 X-277.461 Y232.9721 I322.5036 J-1147.122
G1 X-277.2043 Y233.0424
G1 X-276.9436 Y233.1136
G2 X-260.2242 Y237.5497 I297.7693 J-1088.5554
G2 X-249.0404 Y240.362 I255.867 J-993.8796
G1 X-248.8647 Y240.4051
G1 X-248.6883 Y240.4484
G2 X-233.609 Y244.021 I232.2839 J-946.8235
G1 X-231.6591 Y244.464
G1 X-229.6453 Y244.9168
G1 X-228.622 Y245.145
G1 X-228.1062 Y245.2596
G2 X-206.0343 Y249.8436 I175.8249 J-791.1628
G1 X-205.861 Y249.877
G1 X-205.6873 Y249.9104
G1 X-205.5133 Y249.9438
G1 X-205.339 Y249.9773
G2 X-192.5665 Y252.3079 I136.0065 J-709.2093
G2 X-185.7366 Y253.4503 I105.2184 J-608.0292
G1 X-185.3076 Y253.5196
G2 X-181.7635 Y254.0794 I114.1479 J-711.0523
G2 X-165.5187 Y256.357 I84.4816 J-543.4958
G1 X-165.3914 Y256.3729
G1 X-165.2639 Y256.3887
G1 X-164.2363 Y256.5152
G1 X-163.2003 Y256.6406
G1 X-162.156 Y256.7647
G1 X-162.0253 Y256.7801
G1 X-161.8944 Y256.7954
G1 X-161.7635 Y256.8108
G1 X-161.6324 Y256.8261
G1 X-161.5011 Y256.8414
G2 X-152.5324 Y257.7978 I52.5116 J-449.8849
G1 X-151.969 Y257.8518
G1 X-151.4033 Y257.9053
G2 X-141.738 Y258.6984 I38.9859 J-415.8325
G2 X-136.742 Y259.0126 I23.4802 J-333.4412
G1 X-135.4825 Y259.0808
G2 X-124.7234 Y259.4659 I16.8468 J-320.2235
G1 X-124.555 Y259.4689
G2 X-118.9918 Y259.5124 I4.9106 J-272.4975
G2 X-113.2481 Y259.433 I-0.4675 J-241.6533
G1 X-112.5275 Y259.4134
G1 X-111.8041 Y259.3915
G2 X-105.8316 Y259.1185 I-6.3846 J-205.1512
G1 X-105.4579 Y259.0956
G1 X-105.0835 Y259.072
G1 X-104.3318 Y259.0225
G2 X-101.2788 Y258.7899 I-12.0317 J-178.0717
G1 X-101.1834 Y258.7817
G1 X-101.088 Y258.7736
G1 X-100.9925 Y258.7654
G1 X-100.8969 Y258.7571
G2 X-97.7937 Y258.4587 I-12.5561 J-146.8575
G2 X-91.4043 Y257.6436 I-15.2355 J-144.8746
G1 X-90.6054 Y257.5202
G1 X-89.8039 Y257.3912
G1 X-89.0001 Y257.2563
G1 X-88.5977 Y257.1867
G2 X-85.3354 Y256.5655 I-17.6777 J-101.7264
G2 X-82.0412 Y255.8232 I-17.961 J-87.3837
G2 X-78.7241 Y254.9322 I-18.7019 J-76.2411
G1 X-78.3117 Y254.8094
G2 X-74.9887 Y253.6982 I-16.1299 J-53.7589
G1 X-74.578 Y253.5429
G2 X-72.9377 Y252.8698 I-12.9526 J-33.9033
G1 X-72.5323 Y252.6877
G2 X-72.4818 Y252.6645 I-0.3783 J-0.8892
G2 X-71.6771 Y252.2755 I-9.1036 J-19.8577
G2 X-71.6273 Y252.25 I-0.3425 J-0.7316
G2 X-70.8407 Y251.8131 I-5.1959 J-10.2799
G3 X-70.5216 Y251.8818 I-0.2476 J1.9252
G3 X-70.2221 Y252.0119 I-0.3488 J1.2126
G3 X-70.058 Y252.157 I-0.3234 J0.5311
G3 X-69.9917 Y252.4509 I-0.2882 J0.2195
G3 X-70.0528 Y252.6198 I-0.6176 J-0.1278
G3 X-70.1647 Y252.7894 I-0.8244 J-0.4221
G3 X-70.3157 Y252.9575 I-1.4805 J-1.1781
G3 X-70.7346 Y253.3103 I-2.6479 J-2.7194
G3 X-71.2483 Y253.6551 I-4.0261 J-5.4419
G3 X-71.8746 Y254.0178 I-7.1573 J-11.638
G3 X-72.6632 Y254.4255 I-11.554 J-21.3842
G3 X-73.6806 Y254.9035 I-12.648 J-25.6001
G3 X-75.013 Y255.4786 I-17.2551 J-38.1425
G1 X-75.369 Y255.6253
G3 X-76.7823 Y256.166 I-23.164 J-58.4221
G3 X-76.8769 Y256.2011 I-0.5588 J-1.3616
G3 X-76.9779 Y256.2384 I-0.5769 J-1.4065
G3 X-78.5996 Y256.8167 I-27.1855 J-73.6707
G1 X-79.0651 Y256.9757
G3 X-82.8201 Y258.1529 I-28.3224 J-83.7665
G3 X-90.4572 Y260.0452 I-28.7565 J-99.7016
G3 X-95.6141 Y261.0063 I-24.7962 J-118.731
G1 X-95.9428 Y261.06
G3 X-98.9539 Y261.513 I-21.3085 J-131.3934
G3 X-102.4059 Y261.951 I-19.0736 J-136.5059
G3 X-104.0895 Y262.1344 I-18.9974 J-166.5651
G0 Z5.0
G0 X-105.7519 Y225.7843
G1 Z0.0
G3 X-108.3789 Y225.8872 I-9.1982 J-201.1238
G3 X-113.5124 Y225.9904 I-6.9911 J-220.139
G1 X-114.8373 Y225.9975
G1 X-116.2049 Y225.9968
G1 X-116.5495 Y225.9954
G1 X-116.8968 Y225.9935
G1 X-117.2469 Y225.991
G1 X-117.5997 Y225.988
G1 X-117.9552 Y225.9845
G1 X-118.3136 Y225.9804
G1 X-118.6747 Y225.9758
G1 X-119.0387 Y225.9706
G1 X-119.4056 Y225.9648
G1 X-119.7753 Y225.9585
G3 X-126.531 Y225.7508 I5.0191 J-273.2894
G1 X-126.9564 Y225.7322
G1 X-127.3852 Y225.7128
G1 X-127.8173 Y225.6926
G3 X-135.7078 Y225.2155 I14.3923 J-303.5498
G3 X-135.8313 Y225.2065 I0.1381 J-2.7391
G3 X-135.9549 Y225.1974 I0.1396 J-2.7469
G3 X-136.0789 Y225.1883 I0.1411 J-2.7548
G3 X-136.203 Y225.179 I0.1426 J-2.7628
G3 X-140.4376 Y224.8376 I22.2256 J-302.0972
G1 X-141.5123 Y224.7428
G3 X-146.0933 Y224.3031 I36.2818 J-402.0653
G3 X-156.5376 Y223.1003 I43.5119 J-423.774
G3 X-156.7009 Y223.0794 I0.5521 J-4.9671
G3 X-156.8645 Y223.0584 I0.558 J-4.9997
G3 X-168.8006 Y221.37 I62.2516 J-483.1265
G3 X-169.1744 Y221.3124 I2.6986 J-18.7292
G3 X-169.5497 Y221.2542 I2.9798 J-20.4578
G3 X-169.9263 Y221.1955 I3.354 J-22.7669
G3 X-170.3044 Y221.1363 I3.8887 J-26.0788
G3 X-170.6838 Y221.0766 I4.7486 J-31.4271
G3 X-171.0648 Y221.0164 I6.5096 J-42.4264
G3 X-184.9556 Y218.6356 I89.1057 J-561.5877
G1 X-186.7152 Y218.3095
G1 X-188.5015 Y217.973
G1 X-190.3151 Y217.626
G1 X-192.1563 Y217.2682
G1 X-194.0255 Y216.8994
G3 X-201.9861 Y215.2671 I139.0866 J-698.5724
G1 X-204.0046 Y214.8379
G1 X-205.0213 Y214.6195
G1 X-207.0858 Y214.1711
G1 X-208.1257 Y213.943
G3 X-216.9824 Y211.9377 I155.3071 J-706.4992
G1 X-219.2277 Y211.4121
G1 X-221.5069 Y210.8716
G1 X-223.8206 Y210.3158
G1 X-226.169 Y209.7445
G1 X-228.5528 Y209.1572
G1 X-230.9725 Y208.5536
G3 X-252.9939 Y202.723 I219.6443 J-874.0638
G3 X-277.9495 Y195.3878 I238.4553 J-857.3872
G1 X-279.5138 Y194.9004
G1 X-281.0893 Y194.4057
G1 X-281.8797 Y194.1561
G1 X-282.673 Y193.9046
G1 X-283.469 Y193.6511
G1 X-285.0724 Y193.1371
G3 X-288.3252 Y192.0786 I168.1222 J-522.1769
G1 X-289.1404 Y191.8093
G1 X-289.9582 Y191.5371
G1 X-290.7782 Y191.261
G2 X-278.5247 Y194.6115 I381.5818 J-1371.4465
G2 X-266.2414 Y197.8511 I354.3406 J-1318.5995
G1 X-264.6014 Y198.2742
G1 X-264.3947 Y198.3274
G1 X-262.6308 Y198.7796
G1 X-260.7486 Y199.2592
G1 X-258.7402 Y199.7676
G1 X-258.487 Y199.8314
G1 X-256.3268 Y200.3738
G2 X-255.778 Y200.511 I19.979 J-78.788
G1 X-253.4358 Y201.0932
G1 X-252.8407 Y201.2403
G1 X-252.2361 Y201.3895
G1 X-250.9877 Y201.6965
G1 X-248.3234 Y202.3468
G2 X-234.0879 Y205.7071 I275.297 J-1134.4153
G1 X-233.8642 Y205.7583
G1 X-233.6397 Y205.8097
G1 X-233.4142 Y205.8612
G1 X-233.1878 Y205.9129
G1 X-232.9606 Y205.9647
G1 X-231.0836 Y206.3907
G2 X-230.6106 Y206.4975 I7.0436 J-30.1008
G1 X-228.6568 Y206.936
G1 X-226.6392 Y207.3848
G1 X-225.6139 Y207.6111
G1 X-223.4966 Y208.075
G1 X-222.9629 Y208.1912
G1 X-222.425 Y208.308
G1 X-220.2031 Y208.787
G2 X-217.9085 Y209.2759 I108.2577 J-502.4402
G2 X-207.4033 Y211.4372 I184.7048 J-871.1769
G2 X-195.3655 Y213.7484 I165.3471 J-828.6911
G2 X-194.6061 Y213.8879 I17.027 J-90.5362
G1 X-193.0627 Y214.1691
G1 X-192.2847 Y214.3096
G2 X-178.0326 Y216.7322 I126.6872 J-702.1886
G1 X-177.1331 Y216.8749
G1 X-175.3051 Y217.1612
G1 X-173.4473 Y217.4468
G2 X-156.4218 Y219.7916 I88.325 J-578.339
G2 X-156.1547 Y219.8242 I2.2747 J-17.519
G2 X-155.8871 Y219.8567 I2.7222 J-21.2719
G1 X-154.808 Y219.9866
G1 X-153.7201 Y220.1151
G1 X-152.6234 Y220.2423
G1 X-152.0728 Y220.3053
G2 X-149.8346 Y220.555 I37.4686 J-325.7455
G2 X-147.5597 Y220.7981 I34.0261 J-307.5926
G2 X-137.8398 Y221.7091 I46.7412 J-446.398
G2 X-127.4499 Y222.4295 I32.4346 J-392.5058
G1 X-127.2872 Y222.4385
G1 X-127.1244 Y222.4474
G1 X-125.8114 Y222.5166
G1 X-124.4878 Y222.5813
G1 X-123.1536 Y222.6413
G2 X-111.7564 Y222.9209 I12.9861 J-296.9492
G1 X-110.3199 Y222.9238
G2 X-108.8721 Y222.9186 I0.0456 J-190.4819
G1 X-108.7815 Y222.918
G1 X-108.6909 Y222.9174
G2 X-102.7063 Y222.7995 I-1.6523 J-235.9615
G1 X-101.9555 Y222.7736
G1 X-101.5794 Y222.7595
G1 X-101.2025 Y222.7448
G1 X-100.446 Y222.7132
G2 X-97.3726 Y222.5553 I-10.3795 J-231.9515
G2 X-96.9879 Y222.532 I-1.0987 J-21.3776
G1 X-96.2155 Y222.4829
G2 X-93.0784 Y222.2485 I-9.751 J-151.5906
G1 X-92.8822 Y222.2319
G1 X-92.6859 Y222.215
G1 X-91.8978 Y222.1449
G2 X-91.5031 Y222.1083 I-1.4493 J-17.7682
G1 X-90.7109 Y222.0317
G1 X-89.9159 Y221.9506
G1 X-89.5177 Y221.9084
G1 X-89.3184 Y221.8868
G2 X-82.7521 Y221.003 I-13.5382 J-125.4257
G1 X-81.9318 Y220.866
G1 X-81.7266 Y220.8306
G1 X-80.9036 Y220.6844
G2 X-79.2477 Y220.3677 I-13.5879 J-75.529
G1 X-79.196 Y220.3573
G1 X-79.1443 Y220.3469
G2 X-78.315 Y220.175 I-18.5397 J-91.509
G2 X-76.6482 Y219.8017 I-15.0357 J-71.055
G1 X-76.232 Y219.7023
G2 X-76.1279 Y219.677 I-0.3231 J-1.5566
G2 X-76.0238 Y219.6515 I-0.3625 J-1.7073
G2 X-72.6622 Y218.7244 I-14.0418 J-57.4693
G2 X-70.9926 Y218.1675 I-11.9563 J-38.631
G2 X-69.3385 Y217.5164 I-9.5322 J-26.6388
G2 X-68.9325 Y217.3323 I-7.0358 J-16.0575
G2 X-68.5327 Y217.1319 I-4.6405 J-9.7614
G3 X-68.4524 Y217.1445 I-0.0393 J0.5124
G3 X-68.3727 Y217.1602 I-0.0906 J0.6717
G3 X-68.2153 Y217.1998 I-0.4481 J2.1158
G3 X-67.9145 Y217.3216 I-0.3732 J1.3533
G3 X-67.7446 Y217.4572 I-0.2757 J0.5196
G3 X-67.6822 Y217.7526 I-0.23 J0.2029
G3 X-67.7632 Y217.9174 I-0.5668 J-0.1762
G3 X-67.8961 Y218.0757 I-0.9617 J-0.6729
G3 X-68.0652 Y218.2275 I-1.1426 J-1.1025
G3 X-68.2667 Y218.3779 I-2.5365 J-3.1875
G3 X-68.3752 Y218.4509 I-1.1352 J-1.5711
G3 X-68.8695 Y218.7423 I-4.0535 J-6.3097
G3 X-69.4484 Y219.0347 I-4.9245 J-9.0338
G1 X-69.768 Y219.1824
G1 X-69.8501 Y219.2192
G1 X-70.0225 Y219.2951
G1 X-70.4057 Y219.4578
G3 X-70.6085 Y219.5412 I-15.6383 J-37.7686
G1 X-70.7128 Y219.5833
G1 X-71.1807 Y219.7677
G3 X-71.3014 Y219.814 I-1.1567 J-2.8314
G3 X-71.8456 Y220.0179 I-10.2903 J-26.6453
G1 X-72.4624 Y220.2401
G1 X-72.6215 Y220.2961
G1 X-72.7856 Y220.3534
G1 X-72.9547 Y220.4119
G1 X-73.6498 Y220.6386
G1 X-74.347 Y220.8591
G1 X-74.8128 Y221.0025
G3 X-75.0794 Y221.0833 I-3.1208 J-9.823
G1 X-75.7916 Y221.2943
G1 X-76.1994 Y221.4121
G1 X-76.6662 Y221.5443
G3 X-80.424 Y222.5119 I-24.6439 J-87.9231
G3 X-82.9492 Y223.0738 I-22.0748 J-93.2517
G3 X-83.0289 Y223.0905 I-0.2947 J-1.2101
G3 X-86.4426 Y223.7473 I-23.7731 J-114.3542
G1 X-87.356 Y223.9051
G3 X-92.2456 Y224.6324 I-20.7601 J-122.7568
G1 X-92.8784 Y224.7131
G3 X-99.6455 Y225.403 I-18.9855 J-152.6802
G3 X-103.523 Y225.6697 I-14.4766 J-182.1753
G3 X-103.6448 Y225.6767 I-0.1664 J-1.8352
G3 X-103.7058 Y225.6801 I-0.1046 J-1.3012
G3 X-103.767 Y225.6836 I-0.1044 J-1.3034
G3 X-103.8282 Y225.687 I-0.1041 J-1.3055
G3 X-103.8896 Y225.6905 I-0.1039 J-1.3076
G3 X-105.7519 Y225.7843 I-11.0605 J-201.03
G0 Z5.0
G0 X-108.1095 Y187.5087
G1 Z0.0
G3 X-112.1565 Y187.7158 I-11.9765 J-194.4372
G3 X-112.2419 Y187.7193 I-0.1171 J-1.7931
G3 X-112.3274 Y187.7228 I-0.1166 J-1.7968
G3 X-112.4131 Y187.7263 I-0.1161 J-1.8006
G3 X-112.499 Y187.7298 I-0.1157 J-1.8043
G3 X-112.585 Y187.7332 I-0.1152 J-1.8081
G3 X-118.8754 Y187.8955 I-9.1129 J-231.2516
G3 X-126.0638 Y187.8844 I-3.1875 J-262.6681
G3 X-134.2716 Y187.6457 I4.3922 J-292.3079
G3 X-138.6445 Y187.4301 I12.9709 J-307.5295
G1 X-139.1952 Y187.3989
G3 X-140.3139 Y187.3327 I6.5178 J-119.6767
G3 X-145.083 Y187.0108 I22.1458 J-363.5526
G3 X-155.9586 Y186.0523 I30.2636 J-405.5749
G1 X-157.3376 Y185.91
G3 X-157.6837 Y185.8736 I1.486 J-15.79
G3 X-158.0311 Y185.8368 I1.6207 J-16.9478
G3 X-158.3798 Y185.7995 I1.7886 J-18.4
G3 X-158.7298 Y185.7619 I2.0068 J-20.2968
G3 X-159.0811 Y185.7238 I2.3075 J-22.9268
G3 X-159.4338 Y185.6853 I2.7624 J-26.9309
G3 X-159.7879 Y185.6463 I3.5799 J-34.1725
G3 X-160.5013 Y185.567 I17.4684 J-160.3269
G1 X-161.9504 Y185.4023
G1 X-163.4219 Y185.2304
G3 X-176.8385 Y183.4542 I60.1299 J-505.7471
G1 X-177.682 Y183.3306
G3 X-184.869 Y182.224 I76.1485 J-518.4689
G3 X-192.5162 Y180.9459 I102.8847 J-639.093
G1 X-193.4784 Y180.778
G1 X-195.4324 Y180.4324
G1 X-195.6771 Y180.3887
G3 X-204.0137 Y178.8415 I122.7894 J-684.8555
G1 X-204.2745 Y178.7913
G3 X-223.2712 Y174.8628 I135.1084 J-701.2302
G3 X-233.3544 Y172.5668 I162.7251 J-737.888
G3 X-233.986 Y172.4182 I18.6376 J-80.6569
G3 X-235.2587 Y172.1172 I54.511 J-233.3023
G3 X-237.8428 Y171.499 I184.7208 J-777.9141
G1 X-238.491 Y171.3425
G1 X-239.7971 Y171.0254
G1 X-241.1128 Y170.7035
G3 X-246.5384 Y169.3504 I163.6283 J-667.6912
G3 X-249.2901 Y168.6482 I133.1532 J-527.5365
G1 X-249.6346 Y168.5596
G1 X-251.0226 Y168.2005
G3 X-262.833 Y165.0262 I172.9582 J-667.08
G3 X-265.8225 Y164.1853 I142.8114 J-513.3886
G1 X-267.3272 Y163.7551
G1 X-267.5154 Y163.7009
G1 X-269.0317 Y163.2614
G1 X-269.4113 Y163.1504
G1 X-270.1731 Y162.9263
G1 X-270.9372 Y162.6994
G1 X-271.3197 Y162.5848
G1 X-271.7027 Y162.469
G1 X-270.1798 Y162.8317
G1 X-268.6565 Y163.1926
G1 X-265.6085 Y163.9086
G2 X-264.7374 Y164.1118 I21.472 J-90.1019
G1 X-262.4135 Y164.6505
G1 X-261.085 Y164.9562
G1 X-260.3764 Y165.1187
G1 X-258.7564 Y165.4884
G1 X-256.9043 Y165.9082
G1 X-254.7867 Y166.3843
G2 X-254.2401 Y166.5065 I8.8793 J-38.4283
G1 X-253.0738 Y166.7664
G1 X-252.4717 Y166.9
G1 X-249.7184 Y167.5068
G2 X-227.6372 Y172.1011 I222.6979 J-1014.9773
G2 X-221.3099 Y173.3225 I174.1392 J-885.1058
G1 X-220.5058 Y173.4745
G1 X-218.8453 Y173.786
G1 X-218.6369 Y173.8249
G1 X-218.4276 Y173.8639
G1 X-218.2175 Y173.903
G1 X-218.0066 Y173.9421
G2 X-199.975 Y177.0925 I152.8898 J-821.9002
G1 X-197.6433 Y177.4696
G1 X-197.4972 Y177.493
G1 X-197.3509 Y177.5164
G2 X-186.6345 Y179.1482 I119.0846 J-746.0443
G1 X-186.4666 Y179.1724
G1 X-186.2982 Y179.1967
G1 X-186.1296 Y179.221
G1 X-185.9606 Y179.2453
G1 X-185.7913 Y179.2696
G1 X-185.6216 Y179.2939
G1 X-185.4516 Y179.3182
G1 X-185.2813 Y179.3425
G1 X-183.8969 Y179.5384
G2 X-183.5493 Y179.5871 I2.5021 J-16.5803
G2 X-183.2004 Y179.6359 I2.8301 J-18.9861
G2 X-182.8501 Y179.6846 I3.3631 J-22.8837
G2 X-182.1439 Y179.7823 I10.414 J-72.6702
G1 X-180.7087 Y179.9785
G1 X-179.9853 Y180.0762
G1 X-179.256 Y180.1738
G1 X-177.7741 Y180.3697
G2 X-171.4461 Y181.1658 I72.9895 J-554.6159
G1 X-171.0488 Y181.2136
G2 X-170.2478 Y181.309 I12.6428 J-102.6616
G2 X-163.4073 Y182.0787 I64.8428 J-545.539
G1 X-162.9777 Y182.1242
G1 X-161.232 Y182.3057
G2 X-160.7938 Y182.3503 I4.257 J-39.5936
G1 X-159.0127 Y182.5281
G1 X-157.2027 Y182.7026
G2 X-149.4728 Y183.3736 I44.9913 J-473.3957
G2 X-141.216 Y183.9487 I36.8918 J-470.0983
G1 X-140.6976 Y183.9796
G1 X-140.177 Y184.01
G1 X-139.1277 Y184.0692
G2 X-130.1671 Y184.4619 I21.5537 J-389.4718
G1 X-130.0268 Y184.4663
G2 X-125.394 Y184.5821 I10.8395 J-340.8571
G1 X-124.2263 Y184.6014
G1 X-123.0495 Y184.6167
G1 X-122.4587 Y184.6228
G1 X-121.8656 Y184.6277
G1 X-120.67 Y184.6344
G1 X-120.5203 Y184.6349
G1 X-120.3706 Y184.6354
G1 X-120.2206 Y184.6357
G2 X-109.9867 Y184.4775 I0.7613 J-281.8507
G1 X-109.6664 Y184.4663
G1 X-108.3752 Y184.4171
G2 X-105.7524 Y184.2958 I-7.9097 J-199.5655
G1 X-104.4311 Y184.2236
G2 X-98.9793 Y183.8405 I-11.5658 J-203.5588
G1 X-98.296 Y183.7822
G1 X-97.6101 Y183.7212
G1 X-97.2665 Y183.6897
G2 X-96.5768 Y183.6246 I-5.1131 J-57.8544
G1 X-95.8847 Y183.5567
G2 X-93.0745 Y183.2528 I-15.7773 J-159.0383
G2 X-87.2882 Y182.4704 I-17.3655 J-150.2159
G1 X-86.5644 Y182.356
G2 X-80.609 Y181.2496 I-18.5855 J-116.624
G1 X-80.5164 Y181.2298
G2 X-80.1453 Y181.1497 I-4.1331 J-20.031
G1 X-79.4012 Y180.9846
G2 X-77.9046 Y180.634 I-19.7329 J-87.6108
G1 X-77.1554 Y180.4486
G2 X-74.1268 Y179.6234 I-18.851 J-75.154
G1 X-74.0797 Y179.6095
G1 X-73.7028 Y179.4971
G2 X-72.1892 Y179.0209 I-17.328 J-57.7317
G1 X-71.8119 Y178.8957
G1 X-71.4346 Y178.7675
G1 X-71.0574 Y178.6365
G1 X-70.6804 Y178.5023
G1 X-70.5862 Y178.4683
G2 X-67.5625 Y177.2442 I-13.6102 J-37.9678
G2 X-67.377 Y177.1587 I-1.9907 J-4.5618
G1 X-67.2844 Y177.1154
G2 X-65.8157 Y176.3596 I-8.3003 J-17.9327
G2 X-65.4617 Y176.144 I-2.711 J-4.8507
G3 X-65.17 Y176.1934 I-0.1316 J1.6618
G3 X-64.8922 Y176.2954 I-0.3029 J1.255
G3 X-64.7334 Y176.414 I-0.272 J0.5299
G3 X-64.6495 Y176.6736 I-0.2272 J0.2168
G3 X-64.698 Y176.8303 I-0.4956 J-0.0677
G3 X-64.7963 Y176.9883 I-0.9014 J-0.451
G3 X-65.1184 Y177.3198 I-1.7475 J-1.3756
G3 X-65.3133 Y177.4773 I-2.0916 J-2.3905
G3 X-65.7723 Y177.7968 I-3.976 J-5.2216
G3 X-66.3275 Y178.1324 I-5.7667 J-8.9148
G1 X-66.475 Y178.2156
G3 X-66.8018 Y178.3937 I-4.9596 J-8.7144
G1 X-67.1676 Y178.5843
G1 X-67.5792 Y178.7902
G3 X-67.7979 Y178.8965 I-9.1271 J-18.4995
G1 X-68.0299 Y179.0072
G1 X-68.5546 Y179.2509
G3 X-69.1504 Y179.5182 I-25.4385 J-55.9182
G3 X-69.3043 Y179.5858 I-1.5526 J-3.3245
G3 X-69.4631 Y179.655 I-1.6212 J-3.5023
G3 X-72.4869 Y180.8474 I-27.8492 J-66.194
G3 X-75.5575 Y181.913 I-28.148 J-76.1532
G1 X-75.97 Y182.0461
G3 X-82.6464 Y183.9118 I-29.3953 J-92.3125
G3 X-82.7526 Y183.9375 I-0.4064 J-1.4478
G3 X-87.3025 Y184.9355 I-26.4638 J-109.7716
G1 X-87.8923 Y185.0511
G1 X-88.5018 Y185.1674
G3 X-91.2945 Y185.6613 I-23.4504 J-124.4444
G3 X-94.4977 Y186.1541 I-24.6124 J-149.3457
G3 X-96.2103 Y186.3874 I-18.1405 J-126.7185
G3 X-105.3759 Y187.3215 I-21.7704 J-168.1837
G3 X-105.4478 Y187.3269 I-0.1504 J-1.5172
G3 X-105.5199 Y187.3323 I-0.1501 J-1.52
G1 X-106.7103 Y187.4175
G3 X-108.1095 Y187.5087 I-13.3757 J-194.3459
G0 Z5.0
G0 X-107.5945 Y149.2125
G1 Z0.0
G1 X-108.3673 Y149.2021
G1 X-109.6603 Y149.1808
G1 X-110.9948 Y149.1545
G1 X-111.6726 Y149.1396
G1 X-112.3612 Y149.1233
G1 X-113.0607 Y149.1057
G1 X-113.7713 Y149.0866
G1 X-115.238 Y149.0434
G1 X-116.7521 Y148.9938
G1 X-118.3146 Y148.9371
G3 X-134.9651 Y148.0067 I18.3984 J-478.6767
G1 X-136.021 Y147.9284
G1 X-137.0936 Y147.8466
G1 X-138.183 Y147.7613
G1 X-139.2895 Y147.6722
G1 X-139.847 Y147.6264
G1 X-140.4089 Y147.5797
G1 X-140.691 Y147.556
G1 X-141.8368 Y147.4582
G1 X-143.0006 Y147.3563
G3 X-153.6294 Y146.3089 I47.1911 J-533.3417
G3 X-165.7492 Y144.8688 I64.9117 J-598.0205
G1 X-166.129 Y144.8196
G1 X-166.5102 Y144.77
G1 X-166.8928 Y144.7199
G1 X-167.6641 Y144.6183
G1 X-169.2306 Y144.4088
G1 X-170.0199 Y144.3017
G1 X-170.8153 Y144.1927
G1 X-172.4306 Y143.9682
G3 X-175.7637 Y143.4915 I106.6498 J-757.6038
G3 X-190.9652 Y141.0931 I95.954 J-657.5307
G1 X-191.9209 Y140.9302
G1 X-193.8619 Y140.5952
G3 X-211.5583 Y137.278 I120.348 J-690.8813
G1 X-212.6702 Y137.0539
G3 X-222.142 Y135.0698 I133.1331 J-659.1627
G3 X-243.6786 Y130.0446 I144.8928 J-669.6315
G3 X-246.401 Y129.355 I311.693 J-1236.1484
G1 X-247.7716 Y129.0026
G1 X-247.8574 Y128.9805
G1 X-248.5453 Y128.8022
G1 X-248.8899 Y128.7125
G1 X-250.2786 Y128.3489
G1 X-251.6772 Y127.9788
G3 X-257.4402 Y126.4069 I119.2847 J-448.6751
G1 X-258.8887 Y125.9976
G1 X-258.9792 Y125.9718
G1 X-259.7059 Y125.7634
G3 X-261.1683 Y125.3356 I62.3084 J-215.7
G1 X-260.2145 Y125.5304
G1 X-259.2606 Y125.7246
G1 X-257.3525 Y126.1114
G1 X-256.0801 Y126.3679
G1 X-255.3529 Y126.5141
G1 X-253.4134 Y126.9022
G1 X-250.8267 Y127.4159
G1 X-250.1367 Y127.5522
G2 X-239.0894 Y129.6895 I277.2927 J-1403.6389
G1 X-235.9301 Y130.2849
G1 X-234.2446 Y130.5996
G1 X-233.3745 Y130.7613
G1 X-232.4762 Y130.9276
G1 X-230.5596 Y131.2804
G1 X-230.318 Y131.3246
G1 X-230.0746 Y131.3692
G1 X-229.8292 Y131.4141
G1 X-227.7354 Y131.7952
G1 X-226.6545 Y131.9907
G1 X-225.5385 Y132.1916
G1 X-224.9716 Y132.2932
G1 X-222.5523 Y132.7243
G1 X-221.3034 Y132.9451
G1 X-218.6383 Y133.412
G1 X-218.471 Y133.4412
G1 X-215.6159 Y133.9347
G1 X-212.5692 Y134.4541
G1 X-210.9963 Y134.7192
G1 X-210.1972 Y134.8531
G1 X-208.5471 Y135.1279
G2 X-190.9235 Y137.9136 I186.1003 J-1120.2082
G1 X-188.6463 Y138.2527
G1 X-188.5036 Y138.2738
G1 X-188.3607 Y138.2949
G2 X-177.9001 Y139.7836 I157.5284 J-1069.36
G1 X-176.5706 Y139.9648
G1 X-173.8252 Y140.333
G2 X-173.4805 Y140.3787 I2.3762 J-16.6162
G2 X-173.1345 Y140.4244 I2.7101 J-19.1857
G1 X-171.7285 Y140.6087
G1 X-170.2998 Y140.7938
G1 X-169.5798 Y140.8863
G1 X-168.1166 Y141.0723
G1 X-167.3792 Y141.1652
G1 X-165.8805 Y141.3519
G2 X-152.1643 Y142.9365 I103.142 J-832.6411
G2 X-151.7335 Y142.9825 I5.9902 J-54.1197
G2 X-135.9627 Y144.4881 I75.167 J-703.9885
G1 X-133.9576 Y144.6533
G2 X-125.3968 Y145.2849 I51.0306 J-633.3005
G1 X-124.3177 Y145.3557
G2 X-115.103 Y145.8716 I34.1507 J-527.4049
G1 X-113.9415 Y145.9248
G1 X-113.7961 Y145.9313
G2 X-108.9939 Y146.1193 I19.7815 J-443.7663
G1 X-107.7836 Y146.1586
G1 X-106.5636 Y146.1949
G1 X-105.9512 Y146.2117
G1 X-104.7166 Y146.243
G2 X-104.0968 Y146.2573 I1.9411 J-70.6948
G1 X-102.8475 Y146.2832
G1 X-102.5345 Y146.2891
G2 X-91.8483 Y146.3283 I6.6248 J-349.9572
G2 X-86.3332 Y146.208 I-3.2693 J-276.5119
G1 X-85.6413 Y146.1851
G1 X-84.2467 Y146.1331
G2 X-83.8973 Y146.1188 I-0.4508 J-15.3263
G1 X-83.1961 Y146.0887
G1 X-82.4921 Y146.0562
G1 X-81.7855 Y146.0215
G1 X-81.0762 Y145.9844
G1 X-80.3642 Y145.9447
G1 X-79.6496 Y145.9025
G2 X-73.7527 Y145.4484 I-10.94 J-180.5861
G1 X-73.014 Y145.3763
G1 X-72.2727 Y145.3
G2 X-69.2643 Y144.9435 I-11.833 J-112.7426
G1 X-68.8882 Y144.8929
G1 X-68.5115 Y144.8407
G1 X-67.7559 Y144.7309
G1 X-67.3777 Y144.6732
G2 X-65.8558 Y144.419 I-9.7148 J-62.8287
G2 X-64.3306 Y144.1096 I-4.8814 J-27.9762
G3 X-64.0541 Y144.1559 I-0.201 J2.0478
G3 X-63.7894 Y144.2481 I-0.3268 J1.3646
G3 X-63.6328 Y144.3514 I-0.3057 J0.6336
G3 X-63.5174 Y144.5794 I-0.2146 J0.2519
G3 X-63.5405 Y144.7315 I-0.41 J0.0154
G3 X-63.6197 Y144.8901 I-0.6834 J-0.2423
G3 X-63.7401 Y145.0469 I-1.4678 J-1.0018
G3 X-64.0962 Y145.3778 I-2.1782 J-1.987
G3 X-64.5393 Y145.6982 I-4.143 J-5.2645
G3 X-64.657 Y145.775 I-1.4449 J-2.0857
G1 X-64.7795 Y145.8523
G1 X-64.9072 Y145.9306
G3 X-64.9726 Y145.9698 I-0.5427 J-0.8305
G1 X-65.2587 Y146.1357
G3 X-65.9736 Y146.5199 I-11.38 J-20.3196
G1 X-66.3775 Y146.7231
G3 X-67.4239 Y147.2184 I-13.7675 J-27.7383
G3 X-67.5596 Y147.2799 I-1.2151 J-2.496
G3 X-68.1745 Y147.5532 I-24.3515 J-53.9715
G3 X-68.3333 Y147.6224 I-1.586 J-3.4258
G3 X-83.1517 Y148.7557 I-30.9562 J-307.3
G3 X-83.3873 Y148.7681 I-0.503 J-7.322
G3 X-83.6267 Y148.7805 I-0.5049 J-7.4231
G3 X-83.8699 Y148.793 I-0.5067 J-7.5267
G3 X-84.1169 Y148.8054 I-0.5085 J-7.6331
G3 X-99.9387 Y149.2406 I-17.8286 J-360.3132
G3 X-100.188 Y149.2421 I-0.2347 J-19.1736
G3 X-100.4393 Y149.2434 I-0.2282 J-20.1217
G3 X-100.6925 Y149.2445 I-0.221 J-21.2182
G3 X-101.207 Y149.2463 I-0.3711 J-32.8871
G3 X-101.7296 Y149.2474 I-0.3432 J-38.3235
G3 X-102.2606 Y149.2478 I-0.3034 J-47.6553
G3 X-107.1147 Y149.219 I-0.1372 J-385.2553
G1 X-107.5945 Y149.2125
G0 Z5.0
G0 X-63.6612 Y127.7376
G1 Z0.0
G2 X-63.7746 Y127.9001 I1.6395 J1.2648
G1 X-63.7999 Y127.9417
G2 X-63.9811 Y128.2841 I4.3126 J2.5014
G1 X-63.9913 Y128.3053
G2 X-64.2886 Y128.9918 I10.5939 J4.9965
G2 X-64.7738 Y130.3071 I28.7166 J11.3397
G1 X-64.8731 Y130.5972
G2 X-65.5972 Y132.8603 I71.9255 J24.2597
G1 X-65.6297 Y132.9669
G1 X-65.6616 Y133.0718
G2 X-66.626 Y136.388 I164.1859 J49.5477
G2 X-67.5321 Y139.7206 I204.2675 J57.3283
G1 X-68.0809 Y139.7813
G1 X-68.3532 Y139.8111
G1 X-68.4888 Y139.8259
G1 X-69.5718 Y139.9424
G1 X-70.638 Y140.0551
G3 X-87.4493 Y141.6422 I-86.6436 J-827.9337
G3 X-93.7631 Y142.1492 I-58.7014 J-691.414
G1 X-93.9359 Y142.1623
G3 X-99.443 Y142.558 I-49.2754 J-647.2592
G1 X-100.6482 Y142.6384
G1 X-101.816 Y142.714
G1 X-102.9474 Y142.7851
G1 X-103.2215 Y142.8019
G3 X-111.9268 Y143.2613 I-29.6391 J-478.9465
G1 X-112.3351 Y143.2788
G1 X-112.7372 Y143.2956
G1 X-114.3202 Y143.3577
G1 X-115.8045 Y143.4098
G1 X-117.1964 Y143.4529
G1 X-117.8489 Y143.471
G3 X-119.1132 Y143.5022 I-10.9751 J-418.8942
G1 X-119.7059 Y143.515
G1 X-120.2802 Y143.5262
G1 X-120.8365 Y143.5358
G1 X-121.9144 Y143.5512
G3 X-125.9571 Y143.564 I-2.658 J-201.544
G1 X-126.7152 Y143.5573
G1 X-127.4259 Y143.5482
G1 X-127.5925 Y143.5456
G1 X-127.7565 Y143.5429
G1 X-127.9179 Y143.54
G1 X-128.0768 Y143.5371
G1 X-128.2332 Y143.534
G1 X-128.3871 Y143.5309
G1 X-128.5387 Y143.5276
G1 X-128.6879 Y143.5242
G3 X-128.9816 Y143.5172 I0.1101 J-10.6963
G3 X-129.2661 Y143.5098 I0.1984 J-13.0943
G3 X-133.6719 Y143.3106 I2.9485 J-114.0325
G1 X-134.2219 Y143.2722
G1 X-134.703 Y143.2355
G1 X-135.1237 Y143.201
G1 X-135.3078 Y143.1851
G1 X-135.9974 Y143.1211
G1 X-136.2559 Y143.0952
G1 X-136.4819 Y143.0716
G1 X-136.5809 Y143.061
G3 X-138.0612 Y142.8797 I5.2971 J-49.3849
G3 X-142.3519 Y142.2467 I38.6206 J-276.6299
G1 X-143.3563 Y142.0899
G1 X-143.8505 Y142.0118
G3 X-151.6862 Y140.7145 I104.7916 J-657.2594
G1 X-153.3984 Y140.4198
G1 X-154.2276 Y140.276
G3 X-157.4913 Y139.7037 I259.585 J-1489.8647
G1 X-160.5498 Y139.1594
G1 X-163.416 Y138.6434
G1 X-164.0876 Y138.5217
G1 X-164.4182 Y138.4617
G1 X-165.73 Y138.2231
G1 X-168.2711 Y137.7581
G1 X-168.8666 Y137.6486
G3 X-169.1597 Y137.5947 I2.121 J-12.3478
G1 X-170.3228 Y137.3802
G3 X-170.4636 Y137.3542 I0.6671 J-4.0058
G1 X-171.5858 Y137.1466
G1 X-173.7598 Y136.7427
G1 X-177.835 Y135.9805
G1 X-179.6176 Y135.645
G1 X-182.9593 Y135.013
G1 X-184.4211 Y134.7353
G1 X-185.7914 Y134.4743
G3 X-185.8718 Y134.459 I0.1231 J-0.8638
G1 X-188.4307 Y133.9701
G1 X-190.6694 Y133.5406
G1 X-192.6281 Y133.1636
G1 X-194.3418 Y132.8328
G1 X-195.8412 Y132.5426
G1 X-198.4647 Y132.0333
G1 X-200.432 Y131.65
G1 X-203.3826 Y131.0727
G1 X-204.1202 Y130.9279
G1 X-204.6734 Y130.8191
G1 X-205.0882 Y130.7375
G1 X-206.3325 Y130.4919
G3 X-206.8598 Y129.8954 I3.841 J-3.9269
G3 X-207.6538 Y128.6376 I6.3183 J-4.8679
G3 X-208.467 Y126.1782 I7.6069 J-3.8792
G3 X-208.5865 Y124.2427 I9.2424 J-1.5424
G3 X-208.4219 Y122.7988 I10.26 J0.4385
G3 X-207.8329 Y120.7027 I12.2132 J2.3014
G3 X-207.6318 Y120.1965 I15.7084 J5.9445
G3 X-207.2961 Y119.4517 I12.6476 J5.2527
G1 X-207.2062 Y119.2682
G3 X-206.9234 Y118.7246 I12.1104 J5.955
G0 Z5.0
G0 X-210.2933 Y153.6857
G1 Z0.0
G2 X-210.4002 Y154.0351 I31.0885 J9.7042
G1 X-210.4985 Y154.3753
G2 X-211.1349 Y157.0448 I31.835 J9.0007
G2 X-211.3165 Y158.0616 I27.5544 J5.4438
G1 X-211.3846 Y158.5089
G1 X-211.4416 Y158.9294
G2 X-211.5866 Y160.5151 I22.4723 J2.8556
G1 X-211.5999 Y160.8141
G2 X-211.6001 Y161.9368 I14.2068 J0.564
G1 X-211.5902 Y162.1474
G2 X-211.3849 Y163.7141 I9.7871 J-0.4855
G2 X-211.3393 Y163.907 I3.5666 J-0.741
G2 X-211.1352 Y164.5694 I6.0105 J-1.4897
G1 X-211.072 Y164.7309
G2 X-210.8494 Y165.2008 I4.8441 J-2.0073
G1 X-210.765 Y165.3542
G2 X-210.4285 Y165.9433 I27.993 J-15.5986
G2 X-210.1205 Y166.4511 I13.3038 J-7.7209
G2 X-209.5467 Y167.3183 I15.0051 J-9.3063
G2 X-208.5804 Y168.5442 I10.8642 J-7.5702
G1 X-208.4481 Y168.6883
G2 X-207.9583 Y169.1669 I5.8458 J-5.4907
G1 X-207.8281 Y169.2784
G2 X-207.6251 Y169.4363 I2.2599 J-2.6959
G2 X-207.4089 Y169.5757 I1.0327 J-1.3639
G1 X-207.0342 Y169.6466
G1 X-205.5404 Y169.924
G1 X-204.8048 Y170.0586
G2 X-201.8837 Y170.5829 I79.4485 J-434.2046
G1 X-201.1758 Y170.7079
G1 X-200.8246 Y170.7696
G1 X-199.4249 Y171.0137
G1 X-198.0466 Y171.2513
G2 X-176.2859 Y174.6721 I135.3492 J-790.0807
G1 X-174.2404 Y174.9613
G1 X-172.258 Y175.2359
G1 X-172.1379 Y175.2523
G1 X-171.8982 Y175.2851
G1 X-169.988 Y175.5433
G2 X-168.1367 Y175.7883 I88.9667 J-665.1157
G1 X-166.3427 Y176.0207
G1 X-165.4734 Y176.1315
G2 X-158.6226 Y176.961 I74.5588 J-587.055
G1 X-157.1225 Y177.1318
G2 X-145.4811 Y178.3048 I54.0966 J-478.509
G1 X-144.388 Y178.3996
G2 X-135.9084 Y179.0278 I31.6488 J-369.6484
G1 X-135.5104 Y179.0522
G1 X-135.1186 Y179.0757
G1 X-134.3473 Y179.1204
G1 X-132.8527 Y179.2016
G1 X-132.1519 Y179.237
G2 X-126.7181 Y179.4483 I12.7878 J-258.8825
G1 X-125.6988 Y179.4743
G1 X-124.743 Y179.4943
G2 X-121.1583 Y179.529 I3.8459 J-211.9583
G1 X-120.8222 Y179.5288
G1 X-120.171 Y179.5264
G2 X-115.2882 Y179.4217 I-0.651 J-144.2798
G2 X-112.849 Y179.3024 I-4.1171 J-109.2168
G2 X-112.7728 Y179.2979 I-0.0078 J-0.7695
G1 X-112.1824 Y179.2607
G1 X-111.2974 Y179.1986
G2 X-110.4131 Y179.1285 I-5.1412 J-70.4723
G1 X-109.2082 Y179.0278
G1 X-108.0408 Y178.9312
G1 X-106.9099 Y178.8384
G1 X-105.8142 Y178.7494
G1 X-104.7527 Y178.664
G1 X-103.7244 Y178.5821
G1 X-102.7281 Y178.5035
G1 X-100.7975 Y178.3536
G1 X-98.9874 Y178.2159
G1 X-97.2902 Y178.0896
G1 X-95.6989 Y177.9739
G1 X-94.9528 Y177.9205
G1 X-94.23 Y177.8694
G1 X-93.5298 Y177.8205
G1 X-92.8514 Y177.7737
G1 X-92.1941 Y177.7289
G1 X-91.5574 Y177.686
G1 X-90.9405 Y177.6449
G1 X-90.3429 Y177.6057
G3 X-85.7102 Y177.3203 I37.1728 J565.6682
G1 X-84.8413 Y177.271
G1 X-84.0265 Y177.2263
G3 X-77.9133 Y176.9481 I17.995 J328.1362
G3 X-77.7221 Y176.9416 I0.3569 J7.6229
G3 X-77.5369 Y176.9354 I0.3806 J8.627
G3 X-77.3574 Y176.9295 I0.4198 J10.1579
G1 X-76.6622 Y176.9085
G1 X-76.0538 Y176.8925
G1 X-75.5213 Y176.8804
G1 X-74.5895 Y176.8645
G1 X-73.8905 Y176.8581
G1 X-73.3663 Y176.8573
G1 X-72.9731 Y176.8596
G3 X-72.6782 Y176.8635 I0.0116 J10.381
G1 X-72.5676 Y176.8655
G3 X-71.7941 Y176.895 I-0.3031 J18.1389
G2 X-70.42 Y176.125 I-5.3008 J-11.0715
G1 X-70.1726 Y175.9619
G2 X-69.2816 Y175.2979 I-6.6731 J-9.8849
G2 X-68.6606 Y174.7399 I-5.6371 J-6.8983
G2 X-67.8435 Y173.7905 I-5.071 J-5.1907
G2 X-67.7985 Y173.7261 I-0.8719 J-0.6581
G2 X-67.4908 Y173.2245 I-3.9618 J-2.7748
G2 X-67.2459 Y172.6894 I-3.8454 J-2.0837
G1 X-67.1316 Y172.3783
G1 X-67.0249 Y172.0754
G2 X-66.9743 Y171.9283 I-3.0339 J-1.1259
G2 X-66.5919 Y170.7647 I-52.8388 J-18.0069
G2 X-66.2721 Y169.7418 I-59.7185 J-19.2332
G1 X-66.135 Y169.2935
G1 X-65.8814 Y168.4517
G2 X-65.7717 Y168.0831 I-17.0096 J-5.2628
G1 X-65.6695 Y167.7373
G2 X-65.6456 Y167.6562 I-0.9286 J-0.3178
G1 X-65.5518 Y167.3369
G1 X-65.377 Y166.738
G2 X-65.0742 Y165.6891 I-139.6745 J-40.8842
G1 X-64.8494 Y164.9017
G1 X-64.5156 Y163.7197
G1 X-64.3502 Y163.1282
G1 X-64.2679 Y162.8324
G1 X-64.186 Y162.5365
G0 Z5.0
G0 X-69.804 Y198.6058
G1 Z0.0
G3 X-69.8177 Y199.5645 I-15.0759 J0.2643
G3 X-69.8224 Y199.6772 I-1.7581 J-0.0182
G3 X-70.2159 Y203.2332 I-28.1686 J-1.3167
G1 X-70.278 Y203.5686
G3 X-70.3428 Y203.8931 I-10.686 J-1.9648
G1 X-70.3759 Y204.0502
G1 X-70.4443 Y204.359
G3 X-71.1433 Y206.7098 I-17.6806 J-3.978
G1 X-71.2275 Y206.9269
G3 X-72.0147 Y208.5512 I-10.7553 J-4.2096
G3 X-72.384 Y209.125 I-7.8667 J-4.6568
G3 X-72.7456 Y209.6014 I-6.264 J-4.3799
G3 X-73.473 Y210.355 I-4.9663 J-4.0657
G3 X-74.7923 Y211.2049 I-3.4662 J-3.9316
G3 X-76.3101 Y211.6039 I-1.9988 J-4.5173
G1 X-76.4098 Y211.6147
G2 X-77.203 Y211.7266 I2.0611 J17.4769
G1 X-77.595 Y211.7914
G1 X-77.79 Y211.825
G1 X-78.1791 Y211.8939
G1 X-78.9532 Y212.0359
G1 X-79.7207 Y212.1801
G1 X-81.2432 Y212.4691
G1 X-81.9927 Y212.6108
G1 X-83.4806 Y212.8886
G1 X-84.9465 Y213.1557
G1 X-86.3908 Y213.4113
G3 X-87.8139 Y213.6551 I-52.2345 J-300.6252
G3 X-90.6196 Y214.1109 I-33.3037 J-196.1233
G1 X-91.2999 Y214.2163
G1 X-92.6507 Y214.4196
G3 X-114.0509 Y216.5693 I-33.9075 J-229.9631
G3 X-130.1801 Y216.8879 I-12.7408 J-236.516
G3 X-142.2709 Y216.4117 I3.3193 J-237.986
G3 X-160.3247 Y214.5675 I15.6101 J-242.1027
G1 X-161.4479 Y214.4078
G3 X-165.653 Y213.7628 I32.1518 J-223.6741
G3 X-178.1932 Y211.3962 I39.5956 J-244.2128
G1 X-182.125 Y210.5769
G1 X-185.566 Y209.8641
G2 X-191.5905 Y208.6282 I-669.8916 J3250.3242
G1 X-192.7205 Y208.3986
G1 X-193.7801 Y208.1839
G1 X-195.7671 Y207.7835
G1 X-197.5063 Y207.4356
G1 X-199.0286 Y207.1335
G1 X-200.3609 Y206.8712
G1 X-200.944 Y206.7571
G1 X-201.4907 Y206.6506
G1 X-202.0034 Y206.5511
G1 X-202.484 Y206.4582
G2 X-206.092 Y205.7782 I-60.5604 J311.3958
G1 X-206.5436 Y205.6961
G1 X-206.9389 Y205.6251
G1 X-207.2849 Y205.5637
G1 X-207.8907 Y205.4582
G2 X-208.3455 Y205.3814 I-3.8933 J21.6599
G2 X-208.3669 Y205.3778 I-0.023 J0.0725
G2 X-208.388 Y205.3743 I-0.0226 J0.0713
G2 X-208.4087 Y205.3709 I-0.0223 J0.0702
G2 X-208.4291 Y205.3675 I-0.0219 J0.0692
G2 X-208.7497 Y205.3155 I-2.0412 J11.5564
G1 X-209.2313 Y205.2417
G1 X-209.2916 Y205.233
G1 X-209.5029 Y205.2044
G1 X-209.6087 Y205.1917
G1 X-209.7148 Y205.182
G3 X-211.9282 Y203.6918 I10.5819 J-18.1059
G3 X-213.4655 Y202.3765 I11.1777 J-14.6211
G3 X-214.5061 Y201.2524 I8.8239 J-9.2123
G3 X-215.1794 Y200.3113 I7.1998 J-5.8622
G3 X-215.5888 Y199.5416 I5.289 J-3.3068
G3 X-215.9613 Y198.2876 I4.3071 J-1.9617
G3 X-215.9148 Y196.9804 I3.5816 J-0.5272
G1 X-214.4667 Y190.4796
G0 Z5.0
G0 X-238.5191 Y197.5629
G1 Z0.0
G3 X-238.8377 Y197.7692 I-1.3139 J-1.6804
G3 X-239.5114 Y198.0816 I-2.6553 J-4.8434
G1 X-239.6788 Y198.145
G3 X-241.0437 Y198.5336 I-3.58 J-9.9824
G3 X-241.6947 Y198.6606 I-2.5608 J-11.3911
G3 X-242.967 Y198.8327 I-3.1267 J-18.3281
G3 X-244.166 Y198.9223 I-2.2644 J-22.2257
G3 X-246.4186 Y198.947 I-1.46 J-30.4805
G1 X-246.9109 Y198.9318
G3 X-248.8158 Y198.8155 I1.8328 J-45.6909
G1 X-249.0237 Y198.7978
G1 X-249.4329 Y198.7602
G1 X-249.4824 Y198.7555
G1 X-249.5318 Y198.7506
G1 X-249.9247 Y198.7106
G3 X-252.9581 Y198.3065 I6.2598 J-58.5834
G3 X-257.467 Y197.4501 I12.4178 J-77.6745
G1 X-258.0271 Y197.3258
G1 X-258.5166 Y197.2143
G3 X-259.3719 Y197.0132 I24.476 J-106.0206
G3 X-260.0122 Y196.8576 I88.5364 J-365.7302
G3 X-260.1321 Y196.828 I0.8727 J-3.7923
G1 X-261.0306 Y196.6016
G1 X-261.9272 Y196.3679
G3 X-267.6285 Y194.8087 I87.9262 J-332.7227
G1 X-267.7618 Y194.7709
G3 X-271.9845 Y193.5357 I68.9367 J-243.4896
G1 X-272.7739 Y193.2952
G1 X-273.513 Y193.0668
G1 X-274.2051 Y192.8499
G1 X-274.8533 Y192.644
G3 X-276.0661 Y192.2504 I63.6494 J-198.2172
G3 X-276.0993 Y192.2395 I0.0614 J-0.2422
G3 X-278.2045 Y191.5257 I39.6514 J-120.4184
G3 X-278.4013 Y191.4567 I2.3739 J-7.0836
G3 X-279.9206 Y190.9074 I26.0707 J-74.4808
G1 X-280.4876 Y190.6937
G3 X-282.4543 Y189.8998 I17.3721 J-45.8718
G1 X-282.576 Y189.8471
G1 X-282.69 Y189.7972
G1 X-283.1153 Y189.6061
G1 X-283.432 Y189.4576
G1 X-283.6678 Y189.3426
G1 X-283.7557 Y189.2985
G1 X-283.8325 Y189.2595
G3 X-283.966 Y189.1898 I1.4723 J-2.9875
G1 X-284.1643 Y189.0815
G3 X-284.3581 Y188.9653 I1.652 J-2.9726
G1 X-283.7187 Y184.2936
G0 Z5.0
G0 X-282.6053 Y154.0429
G1 Z0.0
G1 X-282.427 Y154.0872
G1 X-281.0061 Y154.4374
G1 X-279.6288 Y154.7738
G1 X-276.9588 Y155.4194
G1 X-276.3328 Y155.5696
G1 X-273.8669 Y156.1572
G1 X-273.5778 Y156.2257
G1 X-273.506 Y156.2427
G1 X-272.3607 Y156.513
G1 X-270.141 Y157.033
G1 X-268.0588 Y157.516
G1 X-267.0824 Y157.7408
G1 X-265.1901 Y158.1733
G2 X-258.0849 Y159.7568 I166.9523 J-732.3808
G1 X-257.4179 Y159.9018
G1 X-256.1253 Y160.1808
G1 X-254.913 Y160.4399
G2 X-254.7709 Y160.4701 I1.7026 J-7.66
G2 X-254.6299 Y160.5001 I1.3759 J-6.1333
G1 X-253.5104 Y160.7365
G1 X-252.4605 Y160.956
G1 X-251.4758 Y161.16
G1 X-250.5522 Y161.3494
G2 X-250.4439 Y161.3715 I0.3742 J-1.5581
G1 X-248.7248 Y161.7186
G1 X-248.3485 Y161.7936
G2 X-245.4302 Y162.3624 I76.3146 J-383.7621
G1 X-244.3346 Y162.5694
G1 X-243.855 Y162.6587
G2 X-240.2532 Y163.3006 I44.7112 J-240.4527
G2 X-239.3512 Y163.4519 I14.8278 J-85.6038
G1 X-238.6742 Y163.5626
G1 X-237.6579 Y163.7233
G1 X-237.1493 Y163.8011
G1 X-236.6405 Y163.877
G0 Z5.0
G0 X-279.6155 Y118.9944
G1 Z0.0
G1 X-279.5709 Y119.0151
G1 X-279.5247 Y119.0318
G2 X-279.5013 Y119.0394 I0.0584 J-0.139
G2 X-279.313 Y119.0929 I0.7557 J-2.301
G1 X-279.1239 Y119.1402
G1 X-278.7454 Y119.2268
G1 X-278.3688 Y119.3076
G1 X-277.9946 Y119.385
G1 X-277.2509 Y119.5334
G1 X-276.8846 Y119.6047
G1 X-276.7027 Y119.6398
G1 X-276.6574 Y119.6485
G1 X-275.9334 Y119.7861
G2 X-273.0794 Y120.3116 I82.1412 J-438.1365
G1 X-272.912 Y120.3418
G2 X-270.2444 Y120.8184 I147.8906 J-820.1738
G1 X-269.6189 Y120.9289
G1 X-267.1556 Y121.3609
G1 X-264.8457 Y121.7621
G1 X-262.6798 Y122.1357
G1 X-260.6488 Y122.4842
G1 X-258.7445 Y122.8095
G1 X-255.1736 Y123.4165
G1 X-252.0486 Y123.9448
G1 X-250.6812 Y124.1753
G1 X-245.5532 Y125.0363
G1 X-241.7067 Y125.6791
G1 X-235.9362 Y126.6389
G1 X-230.1649 Y127.5934
G0 Z5.0
G0 X-223.7306 Y78.8576
G1 Z0.0
G3 X-224.094 Y78.8696 I-0.604 J-12.7922
G3 X-224.2744 Y78.8741 I-0.2596 J-6.7227
G1 X-224.6336 Y78.8813
G3 X-227.4854 Y78.8782 I-1.3222 J-94.8718
G1 X-227.8195 Y78.8723
G3 X-230.4706 Y78.7914 I2.5365 J-126.7192
G1 X-230.7811 Y78.7783
G1 X-230.9352 Y78.7714
G3 X-235.8401 Y78.4634 I6.5089 J-142.8711
G3 X-252.8734 Y76.1273 I12.3864 J-153.5726
G3 X-261.2652 Y74.2464 I29.0046 J-149.0726
G3 X-265.4166 Y73.1236 I36.2185 J-142.149
G3 X-265.6749 Y73.0493 I3.0339 J-11.036
G1 X-266.6424 Y72.7664
G1 X-267.3666 Y72.5497
G3 X-268.4508 Y72.2173 I27.4943 J-91.6155
G1 X-268.5861 Y72.1751
G1 X-269.5322 Y71.8761
G0 Z5.0
G0 X-255.343 Y69.419
G1 Z0.0
G1 X-248.4747 Y70.3
G1 X-246.1852 Y70.5929
G1 X-243.1323 Y70.983
G1 X-239.0618 Y71.5023
G2 X-236.7357 Y71.7986 I137.6421 J-1071.1874
G1 X-236.4403 Y71.8362
G1 X-233.7397 Y72.1798
G1 X-232.2993 Y72.3629
G1 X-229.007 Y72.781
G1 X-227.2511 Y73.0037
G1 X-217.8858 Y74.1886
G1 X-212.5338 Y74.8632
G1 X-209.6794 Y75.2222
G1 X-206.6345 Y75.6045
G1 X-199.6746 Y76.4757
G1 X-195.9624 Y76.9386
G1 X-187.4768 Y77.9919
G1 X-186.3991 Y78.1251
G1 X-181.8012 Y78.6918
G1 X-176.8962 Y79.2931
G1 X-171.6639 Y79.9303
G1 X-166.0819 Y80.6041
G1 X-163.2005 Y80.9489
G1 X-162.4745 Y81.0354
G1 X-159.4763 Y81.3909
G1 X-156.3812 Y81.7544
G1 X-153.1855 Y82.1251
G1 X-149.886 Y82.5014
G1 X-148.2098 Y82.6894
G1 X-146.5065 Y82.8774
G1 X-145.6481 Y82.9708
G1 X-143.9035 Y83.1572
G1 X-142.1306 Y83.3402
G1 X-141.6855 Y83.3848
G1 X-140.788 Y83.4726
G1 X-139.8831 Y83.5572
G1 X-139.4287 Y83.5978
G2 X-139.3149 Y83.6077 I0.2349 J-2.0394
G2 X-136.0199 Y83.7509 I3.2411 J-36.6168
G2 X-134.9205 Y83.7268 I-0.0299 J-26.4937
G2 X-133.4575 Y83.6287 I-1.0723 J-26.9571
G2 X-131.5201 Y83.3643 I-2.1927 J-23.2981
G2 X-130.4259 Y83.1357 I-4.0188 J-21.9683
G2 X-127.592 Y82.2077 I-3.9856 J-16.9619
G2 X-124.1679 Y80.1699 I-5.8424 J-13.7125
G2 X-122.4916 Y78.6146 I-9.5822 J-12.0089
G2 X-120.8578 Y76.5707 I-13.1354 J-12.1744
G1 X-120.7645 Y76.4346
G2 X-120.0104 Y75.2467 I-18.441 J-12.5403
G2 X-119.2798 Y73.9376 I-25.7194 J-15.213
G1 X-119.1923 Y73.7702
G1 X-119.1051 Y73.601
G2 X-118.396 Y72.1445 I-39.0534 J-19.915
G2 X-118.0489 Y71.3851 I-34.3922 J-16.1777
G1 X-117.963 Y71.1932
G1 X-117.6131 Y70.4
G1 X-116.8801 Y68.7106
G1 X-116.8339 Y68.6047
G3 X-116.7406 Y68.3915 I6.6295 J2.7741
G3 X-115.9219 Y66.5929 I56.95 J24.8372
G3 X-115.8137 Y66.3688 I6.948 J3.2164
G3 X-115.1573 Y65.1369 I16.0185 J7.7442
G3 X-114.3731 Y63.9821 I8.4249 J4.878
G3 X-114.1132 Y63.6789 I5.1081 J4.1157
G3 X-114.0786 Y63.6417 I0.3252 J0.267
G3 X-113.7446 Y63.3194 I2.8165 J2.5844
G3 X-113.6525 Y63.2427 I0.8323 J0.9058
G3 X-113.1928 Y62.9404 I1.7327 J2.1347
G3 X-112.5836 Y62.7535 I0.8053 J1.5386
G3 X-111.8371 Y62.8735 I0.1428 J1.4938
G3 X-111.4752 Y63.0762 I-0.7757 J1.8091
G3 X-111.1292 Y63.361 I-1.8575 J2.6088
G3 X-110.8028 Y63.7124 I-3.1274 J3.233
G3 X-110.4952 Y64.1166 I-5.2861 J4.3412
G3 X-109.9117 Y65.0681 I-8.6855 J5.9812
G1 X-109.878 Y65.1296
G3 X-109.6033 Y65.6506 I-30.9002 J16.6232
G1 X-109.5865 Y65.6834
G1 X-109.3032 Y66.2362
G1 X-109.2298 Y66.3752
G1 X-109.2204 Y66.3926
G2 X-109.1433 Y66.5319 I2.3937 J-1.235
G1 X-109.0606 Y66.67
G1 X-108.8313 Y67.041
G1 X-108.6049 Y67.4138
G1 X-108.4542 Y67.6625
G1 X-107.8499 Y68.6563
G2 X-106.6239 Y70.6332 I173.6005 J-106.2884
G2 X-104.0724 Y74.5235 I100.1473 J-62.9008
G1 X-103.7194 Y75.0337
G2 X-102.8983 Y76.1897 I61.0 J-42.4586
G2 X-101.931 Y77.4902 I50.4511 J-36.5134
G2 X-100.7772 Y78.9396 I35.2623 J-26.8876
G2 X-99.3674 Y80.5205 I21.8877 J-18.0995
G2 X-99.1788 Y80.7125 I4.5573 J-4.2876
G1 X-98.9844 Y80.9048
G2 X-98.1158 Y81.6855 I9.6591 J-9.8744
G2 X-97.6355 Y82.0515 I5.643 J-6.9052
G3 X-97.2063 Y82.3843 I-3.4301 J4.8673
G3 X-96.8225 Y82.7688 I-2.0722 J2.4525
G3 X-96.727 Y82.8913 I-2.5498 J2.0868
G3 X-96.5247 Y83.2539 I-1.2654 J0.9437
G3 X-96.4645 Y83.8108 I-0.9383 J0.3831
G3 X-96.5722 Y84.1207 I-1.109 J-0.2118
G3 X-96.7873 Y84.4311 I-1.4502 J-0.7753
G3 X-97.0967 Y84.7276 I-1.7986 J-1.5665
G3 X-97.4869 Y85.0095 I-2.5985 J-3.1861
G1 X-97.5916 Y85.0754
G3 X-98.0726 Y85.3441 I-3.771 J-6.1836
G3 X-99.287 Y85.882 I-6.0874 J-12.1047
G3 X-100.7857 Y86.4117 I-9.4353 J-24.3084
G3 X-102.661 Y86.9792 I-16.615 J-51.5268
G1 X-103.1576 Y87.1196
G1 X-103.6821 Y87.2651
G1 X-104.8586 Y87.5841
G1 X-105.4816 Y87.7506
G1 X-106.8851 Y88.1248
G2 X-106.9735 Y88.1484 I0.3034 J1.3106
G2 X-107.7226 Y88.35 I24.3545 J91.9956
G2 X-107.9125 Y88.4015 I1.2188 J4.869
G1 X-108.3035 Y88.5083
G3 X-109.3182 Y88.7345 I-3.1864 J-11.9027
G1 X-109.6599 Y88.7926
G3 X-110.117 Y88.8599 I-3.0876 J-19.4042
G3 X-111.9553 Y89.0418 I-3.5718 J-26.7152
G1 X-112.4821 Y89.0745
G3 X-113.888 Y89.1314 I-2.374 J-41.2832
G3 X-113.9324 Y89.1325 I-0.031 J-0.3319
G3 X-113.9771 Y89.1337 I-0.0309 J-0.3343
G3 X-114.7936 Y89.1488 I-1.8129 J-75.866
G3 X-115.2291 Y89.1527 I-0.7016 J-54.0676
G3 X-115.6936 Y89.1539 I-0.2932 J-22.4402
G3 X-116.1891 Y89.1522 I-0.168 J-23.0982
G3 X-116.7175 Y89.1472 I0.139 J-42.2348
G3 X-119.5329 Y89.0731 I1.1824 J-98.4856
G3 X-119.5771 Y89.0714 I-0.0036 J-0.478
G3 X-119.6215 Y89.0697 I-0.0035 J-0.4802
G3 X-119.666 Y89.0679 I-0.0033 J-0.4823
G3 X-119.7107 Y89.0661 I-0.0031 J-0.4845
G3 X-119.7556 Y89.0643 I-0.003 J-0.4867
G3 X-119.8007 Y89.0625 I-0.0028 J-0.4889
G3 X-119.8459 Y89.0607 I-0.0026 J-0.4911
G3 X-119.8913 Y89.0588 I-0.0025 J-0.4934
G3 X-119.9369 Y89.0569 I-0.0023 J-0.4956
G3 X-123.8186 Y88.8461 I7.5481 J-174.7821
G3 X-128.9831 Y88.4472 I16.8494 J-251.8127
G3 X-129.0641 Y88.4401 I0.0608 J-1.1594
G1 X-130.4451 Y88.3156
G3 X-131.1576 Y88.2489 I4.7896 J-55.0167
G1 X-131.8928 Y88.1785
G1 X-132.2663 Y88.142
G3 X-133.8589 Y87.9823 I45.0059 J-456.8192
G1 X-135.5566 Y87.8046
G3 X-139.4333 Y87.3733 I43.7372 J-410.6918
G1 X-140.4331 Y87.2568
G3 X-142.5649 Y87.002 I32.8733 J-284.0661
G3 X-147.4329 Y86.3904 I81.4901 J-668.3197
G1 X-147.7394 Y86.3506
G1 X-149.0046 Y86.185
G1 X-150.3103 Y86.0118
G1 X-151.6577 Y85.8305
G1 X-153.0481 Y85.6411
G1 X-154.483 Y85.4432
G1 X-154.573 Y85.4307
G3 X-158.8908 Y84.7936 I50.3698 J-356.33
G1 X-160.3289 Y84.5735
G1 X-160.4203 Y84.5594
G1 X-162.3677 Y84.258
G1 X-164.9638 Y83.8523
G1 X-165.656 Y83.7435
G1 X-166.3943 Y83.6273
G1 X-170.3314 Y83.0041
G1 X-175.5799 Y82.1671
G1 X-178.5786 Y81.6866
G1 X-186.5744 Y80.3999
G1 X-197.2343 Y78.6766
G1 X-200.0768 Y78.2162
G1 X-203.1088 Y77.7248
G1 X-219.2789 Y75.1032
G1 X-228.5194 Y73.6079
G1 X-230.9042 Y73.2229
G1 X-235.9921 Y72.4034
G1 X-241.4198 Y71.5337
G1 X-242.7985 Y71.3139
G1 X-243.4934 Y71.2034
G1 X-246.3625 Y70.7489
G1 X-249.325 Y70.2847
G1 X-250.8301 Y70.052
G1 X-252.3598 Y69.8194
G2 X-253.9149 Y69.591 I-24.7145 J162.8308
G1 X-254.3057 Y69.5362
G2 X-255.0946 Y69.4358 I-4.2628 J30.334
G2 X-255.2931 Y69.4188 I-0.459 J4.2005
G1 X-255.343 Y69.419
G0 Z5.0
G0 X-214.4923 Y32.7359
G1 Z0.0
G1 X-210.8048 Y5.751
G3 X-202.5699 Y3.8589 I22.8155 J80.4313
G3 X-200.4696 Y3.5423 I7.9091 J45.3446
G3 X-198.8832 Y3.374 I4.793 J37.6131
G3 X-197.6871 Y3.3025 I2.1097 J25.2827
G3 X-196.7876 Y3.2916 I0.6656 J17.7797
G3 X-196.45 Y3.2997 I-0.1107 J11.7548
G1 X-196.1549 Y3.3132
G3 X-195.1265 Y3.4209 I-0.5494 J10.209
G3 X-194.6189 Y3.5219 I-0.8654 J5.6714
G3 X-194.1224 Y3.6683 I-1.0734 J4.5567
G2 X-193.9397 Y3.7233 I0.658 J-1.8565
G2 X-193.5672 Y3.7982 I0.8763 J-3.3932
G1 X-193.3803 Y3.8255
G1 X-193.2867 Y3.8375
G1 X-193.0996 Y3.8587
G2 X-192.3507 Y3.9188 I1.8311 J-18.1396
G1 X-192.1647 Y3.9294
G1 X-191.7932 Y3.9471
G1 X-191.6082 Y3.9545
G2 X-190.8692 Y3.9763 I2.3299 J-66.2595
G1 X-190.5025 Y3.9837
G1 X-190.1372 Y3.9892
G1 X-189.7733 Y3.9933
G1 X-189.0484 Y3.9979
G1 X-188.6888 Y3.9988
G1 X-188.3305 Y3.9989
G1 X-186.9031 Y3.9938
G1 X-185.498 Y3.9831
G1 X-182.7316 Y3.9556
G1 X-181.3916 Y3.942
G1 X-181.2266 Y3.9404
G1 X-178.5934 Y3.9177
G1 X-178.2745 Y3.9155
G3 X-168.1099 Y3.9341 I4.0929 J540.862
G1 X-167.5539 Y3.9412
G1 X-166.4507 Y3.9573
G1 X-165.3647 Y3.976
G1 X-165.2311 Y3.9785
G3 X-156.6986 Y4.2318 I-7.2248 J387.2069
G1 X-155.7656 Y4.2713
G3 X-155.3065 Y4.2917 I-1.0915 J29.8144
G3 X-155.0787 Y4.302 I-0.3802 J10.9133
G3 X-154.8518 Y4.3124 I-0.3042 J9.0954
G3 X-140.4077 Y5.2973 I-14.7428 J322.6289
G3 X-129.6134 Y6.4917 I-24.9903 J275.2109
G1 X-129.361 Y6.5248
G1 X-128.3596 Y6.6587
G3 X-120.6181 Y7.8316 I-34.3992 J253.1957
G3 X-119.1709 Y8.0791 I-31.7777 J190.1083
G1 X-118.8319 Y8.1385
G3 X-108.2058 Y10.2735 I-37.9636 J216.4551
G3 X-105.5674 Y10.892 I-55.2039 J241.4233
G1 X-104.5801 Y11.1332
G3 X-101.1351 Y12.0178 I-48.0207 J194.1587
G3 X-97.7074 Y12.9675 I-45.3148 J170.214
G1 X-97.2876 Y13.2069
G3 X-95.6927 Y14.1878 I-19.1788 J32.9694
G1 X-95.6067 Y14.2434
G1 X-95.4364 Y14.3543
G1 X-95.1025 Y14.5744
G1 X-94.7804 Y14.7898
G1 X-94.4697 Y15.0004
G1 X-94.1699 Y15.2061
G1 X-93.5921 Y15.6091
G1 X-93.4572 Y15.7043
G3 X-92.4017 Y16.4634 I-53.5594 J75.5881
G3 X-91.9433 Y16.8002 I-45.3395 J62.18
G1 X-91.7291 Y16.959
G1 X-91.3153 Y17.2682
G3 X-85.2645 Y22.1067 I-80.7767 J107.2195
G1 X-85.335 Y45.8495
G1 X-214.4923 Y32.7359
G0 Z5.0
G0 X-140.3732 Y-3.6373
G1 Z0.0
G1 X-102.1899 Y-183.5809
G1 X-101.3273
G1 X-101.4559 Y-182.8757
G1 X-101.7147 Y-181.4716
G1 X-101.9747 Y-180.079
G1 X-102.2353 Y-178.6978
G1 X-102.3655 Y-178.0127
G1 X-102.6263 Y-176.6483
G1 X-103.1492 Y-173.9418
G1 X-103.4089 Y-172.6101
G1 X-103.6678 Y-171.2891
G1 X-104.1849 Y-168.6684
G1 X-104.441 Y-167.3788
G1 X-104.5683 Y-166.7391
G1 X-104.6318 Y-166.4205
G1 X-105.1407 Y-163.8772
G1 X-105.3922 Y-162.6256
G1 X-105.6424 Y-161.384
G1 X-105.6735 Y-161.23
G1 X-105.9222 Y-159.9994
G1 X-106.4173 Y-157.5578
G1 X-107.3979 Y-152.752
G1 X-108.354 Y-148.0977
G3 X-108.4121 Y-147.8159 I-10.1658 J-1.9482
G1 X-109.3419 Y-143.3169
G3 X-109.7938 Y-141.138 I-867.8541 J-178.8593
G1 X-110.6861 Y-136.8489
G1 X-111.1196 Y-134.7716
G1 X-111.975 Y-130.6824
G1 X-112.0268 Y-130.4348
G3 X-112.4414 Y-128.4581 I-3868.6308 J-810.2531
G1 X-113.2591 Y-124.5669
G1 X-114.0532 Y-120.7978
G1 X-115.5966 Y-113.4961
G1 X-115.7779 Y-112.6404
G1 X-117.2193 Y-105.8499
G1 X-118.5747 Y-99.4845
G1 X-118.7338 Y-98.7386
G1 X-119.9981 Y-92.8184
G1 X-121.1859 Y-87.2688
G1 X-123.4192 Y-76.8647
G1 X-123.9087 Y-74.5889
G1 X-124.8581 Y-70.1799
G1 X-139.2298 Y-4.0739
G1 X-140.3732 Y-3.6373
G0 Z5.0
G0 X-66.6206 Y94.1756
G1 Z0.0
G1 X-67.1361 Y94.1592
G1 X-68.1631 Y94.1245
G1 X-70.2007 Y94.0515
G1 X-70.7021 Y94.0328
G1 X-71.7011 Y93.9948
G3 X-87.5542 Y93.2888 I54.1788 J-1394.8918
G1 X-89.2877 Y93.2012
G1 X-92.7003 Y93.023
G1 X-94.3531 Y92.934
G1 X-97.6068 Y92.7537
G1 X-100.7585 Y92.5726
G1 X-100.9494 Y92.5614
G1 X-103.9962 Y92.3798
G1 X-104.1807 Y92.3686
G1 X-107.1263 Y92.1868
G1 X-108.5529 Y92.0968
G1 X-109.2551 Y92.0519
G1 X-112.0415 Y91.8707
G1 X-114.7406 Y91.6901
G1 X-116.0478 Y91.6008
G1 X-117.3346 Y91.5117
G1 X-119.8677 Y91.3329
G1 X-122.3213 Y91.1553
G1 X-124.6979 Y90.979
G3 X-143.1046 Y89.4611 I92.7962 J-1237.6437
G1 X-143.9669 Y89.3828
G1 X-145.6643 Y89.2267
G1 X-147.3084 Y89.0729
G1 X-147.7066 Y89.0352
G3 X-160.3392 Y87.755 I87.7106 J-928.4761
G1 X-161.5226 Y87.6259
G1 X-163.8149 Y87.3711
G1 X-165.9632 Y87.1262
G3 X-166.0891 Y87.1117 I0.3574 J-3.6483
G3 X-170.0996 Y86.6376 I72.1468 J-627.5032
G1 X-170.9766 Y86.531
G3 X-184.5499 Y84.7264 I74.9823 J-615.9276
G1 X-184.9734 Y84.6649
G1 X-186.6138 Y84.4233
G1 X-188.0486 Y84.2076
G1 X-188.6761 Y84.1118
G3 X-188.7497 Y84.1006 I0.1869 J-1.465
G3 X-188.8227 Y84.0893 I0.1863 J-1.4572
G3 X-198.0713 Y82.5684 I63.5976 J-415.5971
G0 Z5.0
G0 X-64.4982 Y95.4531
G1 Z0.0
G3 X-63.9523 Y98.0338 I-19.5036 J5.4734
G3 X-63.7621 Y100.0134 I-19.3274 J2.8559
G3 X-63.7492 Y100.7624 I-13.8882 J0.6153
G1 X-63.75 Y100.8445
G3 X-63.8305 Y102.134 I-12.5812 J-0.1384
G3 X-63.8453 Y102.2545 I-1.6921 J-0.1458
G3 X-64.0088 Y103.1812 I-9.2043 J-1.1464
G3 X-64.1965 Y103.8625 I-7.6031 J-1.728
G3 X-64.3796 Y104.3603 I-5.5223 J-1.7491
G3 X-65.1817 Y105.7291 I-5.0886 J-2.0624
G3 X-65.2837 Y105.8235 I-0.4246 J-0.3567
G3 X-65.5216 Y105.9578 I-0.7996 J-1.1379
G3 X-66.0312 Y106.1379 I-1.5834 J-3.67
G1 X-66.1606 Y106.1735
G3 X-67.2086 Y106.394 I-3.0599 J-11.9403
G3 X-69.312 Y106.6743 I-5.4288 J-32.7055
G1 X-69.8312 Y106.7267
G1 X-70.3487 Y106.7745
G3 X-74.4807 Y107.0511 I-9.3775 J-109.1038
G1 X-74.9815 Y107.0755
G1 X-75.9793 Y107.1201
G3 X-79.9409 Y107.2515 I-10.2292 J-248.6048
G1 X-80.9005 Y107.2744
G1 X-81.8528 Y107.2942
G3 X-82.7976 Y107.3112 I-2.8953 J-134.5006
G3 X-90.2981 Y107.3686 I-7.0506 J-431.8155
G1 X-90.7376 Y107.3682
G1 X-91.6132 Y107.3666
G3 X-98.5627 Y107.3073 I2.1115 J-655.6552
G3 X-105.0772 Y107.1867 I9.0603 J-665.0493
G3 X-129.4935 Y106.2642 I19.7201 J-845.5521
G1 X-130.6375 Y106.2037
G1 X-132.8896 Y106.0801
G1 X-133.9804 Y106.018
G1 X-135.0541 Y105.9555
G1 X-137.1675 Y105.8284
G1 X-137.6794 Y105.7967
G1 X-139.7105 Y105.668
G1 X-141.6778 Y105.5383
G1 X-142.6307 Y105.4737
G3 X-157.6254 Y104.2907 I46.4633 J-684.5504
G3 X-159.0299 Y104.1625 I16.3893 J-187.2463
G1 X-160.3903 Y104.0351
G1 X-161.7079 Y103.9087
G3 X-162.346 Y103.8464 I5.7822 J-62.5189
G3 X-162.4246 Y103.8387 I0.1343 J-1.7703
G3 X-162.5029 Y103.831 I0.1341 J-1.7646
G3 X-162.5812 Y103.8233 I0.1339 J-1.759
G3 X-162.6593 Y103.8155 I0.1336 J-1.7533
G3 X-162.7372 Y103.8078 I0.1334 J-1.7477
G3 X-162.815 Y103.8001 I0.1332 J-1.7421
G3 X-162.8926 Y103.7925 I0.1329 J-1.7366
G3 X-162.9701 Y103.7848 I0.1327 J-1.7311
G3 X-163.0474 Y103.7771 I0.1325 J-1.7257
G3 X-167.9817 Y103.2633 I51.3064 J-516.7019
G1 X-169.0604 Y103.1446
G1 X-170.1053 Y103.0273
G1 X-171.1173 Y102.9114
G3 X-171.1786 Y102.9043 I0.1137 J-1.2519
G3 X-171.2397 Y102.8972 I0.1136 J-1.2489
G3 X-179.0417 Y101.9204 I44.9538 J-390.6802
G1 X-180.5024 Y101.7197
G1 X-181.8711 Y101.5259
G3 X-186.9957 Y100.7458 I44.0754 J-306.7895
G1 X-187.955 Y100.5893
G1 X-188.8538 Y100.4392
G1 X-189.0644 Y100.4036
G1 X-189.2717 Y100.3683
G1 X-189.4758 Y100.3334
G1 X-189.6766 Y100.2989
G3 X-195.9834 Y99.1158 I34.2675 J-200.0614
G1 X-196.7688 Y98.9529
G1 X-197.1123 Y98.8805
G1 X-197.7558 Y98.7427
G3 X-202.2407 Y97.6942 I27.2472 J-126.6637
G3 X-203.06 Y97.432 I1.7089 J-6.7515
G3 X-203.7839 Y97.0722 I1.5848 J-4.0968
G3 X-204.3797 Y96.6094 I1.7762 J-2.9015
G3 X-205.0928 Y95.4134 I1.8808 J-1.932
G3 X-205.2012 Y94.8034 I2.9203 J-0.8335
G3 X-205.2019 Y94.2115 I3.9105 J-0.3006
G3 X-204.9967 Y93.0939 I5.6131 J0.4527
G3 X-204.8351 Y92.5899 I6.5401 J1.8203
G3 X-204.4405 Y91.6457 I9.9331 J3.5965
G3 X-203.9991 Y90.7958 I12.1092 J5.7491
G3 X-203.7741 Y90.4079 I13.111 J7.3459
G3 X-203.3112 Y89.6726 I18.9666 J11.4265
G3 X-202.3677 Y88.3453 I21.0133 J13.9392
G3 X-200.5454 Y86.155 I26.768 J20.4171
G1 X-200.3656 Y85.9571
G1 X-200.0135 Y85.5772
G3 X-197.2229 Y82.8749 I29.5808 J27.7553
G3 X-197.1999 Y82.8548 I0.1529 J0.1516
G3 X-196.8337 Y82.5394 I36.7771 J42.3327
G3 X-196.1804 Y82.0017 I14.2147 J16.6047
G3 X-195.1613 Y81.2432 I10.7325 J13.355
G3 X-195.0953 Y81.1986 I0.4529 J0.5991
G3 X-194.5873 Y80.8839 I4.1879 J6.1938
G1 X-194.4551 Y80.8134
G1 X-194.354 Y80.7642
G1 X-194.2768 Y80.7301
G3 X-194.0356 Y80.6545 I0.4711 J1.0811
G0 Z5.0
G0 X-219.9665 Y227.7792
G1 Z0.0
G1 X-219.9748 Y227.9087
G2 X-219.9904 Y228.9382 I15.9106 J0.7557
G2 X-219.8713 Y230.8643 I21.2976 J-0.35
G2 X-219.2761 Y234.1875 I22.8984 J-2.3866
G2 X-218.5108 Y236.6038 I21.5968 J-5.5108
G2 X-216.8341 Y240.0135 I18.821 J-7.1379
G2 X-214.5297 Y243.0346 I16.3387 J-10.0732
G2 X-206.9869 Y244.4611 I68.0747 J-339.2937
G1 X-206.8762 Y244.4809
G1 X-206.7655 Y244.5006
G2 X-199.6841 Y245.7055 I81.0129 J-454.7365
G1 X-198.0217 Y245.973
G2 X-184.9024 Y247.8953 I86.3964 J-543.9121
G2 X-173.3846 Y249.3127 I69.1226 J-514.1799
G1 X-172.1226 Y249.4524
G1 X-170.8801 Y249.5868
G1 X-169.6567 Y249.7162
G1 X-169.5061 Y249.732
G1 X-169.3558 Y249.7476
G2 X-159.7478 Y250.651 I50.5061 J-485.6236
G1 X-158.6956 Y250.738
G1 X-157.6597 Y250.8213
G2 X-149.4956 Y251.3923 I33.3166 J-417.6828
G1 X-149.0488 Y251.419
G1 X-147.2751 Y251.5203
G2 X-145.5564 Y251.6109 I25.0128 J-457.9243
G1 X-145.1401 Y251.6318
G2 X-131.9129 Y252.0491 I17.872 J-356.5899
G2 X-131.7577 Y252.051 I0.16 J-6.7662
G2 X-131.6032 Y252.0528 I0.1548 J-6.6177
G2 X-131.4493 Y252.0546 I0.1497 J-6.4782
G1 X-130.2228 Y252.0657
G2 X-125.4699 Y252.0628 I2.2017 J-286.6068
G2 X-117.1546 Y251.8662 I-2.1332 J-266.1859
G1 X-116.3753 Y251.8342
G1 X-115.6205 Y251.8008
G1 X-114.8894 Y251.7661
G2 X-109.2279 Y251.4186 I-11.5975 J-235.2314
G1 X-108.1675 Y251.337
G2 X-100.2309 Y250.5394 I-14.5067 J-184.237
G1 X-99.2415 Y250.4148
G2 X-98.8089 Y250.3584 I-5.6494 J-45.0242
G2 X-95.5696 Y249.8975 I-18.0515 J-138.4757
G2 X-95.4685 Y249.8819 I-0.1912 J-1.5819
G2 X-95.0769 Y249.8211 I-2.5997 J-18.0317
G1 X-94.3922 Y249.7122
G1 X-93.366 Y249.5425
G1 X-92.3412 Y249.3652
G2 X-87.7786 Y248.7005 I-14.3451 J-114.4565
G1 X-87.3491 Y248.6273
G2 X-84.0347 Y247.9728 I-11.2692 J-65.7856
G2 X-82.7921 Y247.6739 I-9.6579 J-42.8895
G2 X-81.7087 Y247.3799 I-11.0071 J-42.698
G1 X-81.4721 Y247.3107
G2 X-79.6595 Y246.7025 I-7.2492 J-24.6098
G2 X-78.3314 Y246.1303 I-5.7379 J-15.1467
G2 X-77.8462 Y245.8792 I-4.0803 J-8.4763
G2 X-77.6375 Y245.7615 I-3.5843 J-6.6042
G2 X-76.8837 Y245.2711 I-4.3149 J-7.4571
G1 X-76.7486 Y245.1689
G2 X-76.5028 Y244.9674 I-2.5342 J-3.3416
G2 X-76.1027 Y244.5806 I-3.2704 J-3.7836
G2 X-75.6074 Y243.9086 I-2.6173 J-2.4472
G2 X-75.3051 Y243.1303 I-2.4237 J-1.3894
G1 X-74.1989 Y238.1582
G1 X-74.0605 Y237.5367
G1 X-73.576 Y235.3615
G1 X-73.0914 Y233.1864
G0 Z5.0
G0 X-291.7616 Y218.6211
G1 Z0.0
G1 X-291.3442 Y218.8366
G1 X-290.5129 Y219.2585
G2 X-288.8692 Y220.0754 I100.6875 J-200.5421
G2 X-285.665 Y221.6181 I114.6017 J-233.924
G2 X-273.4672 Y227.0092 I113.9319 J-241.2889
G1 X-272.3093 Y227.4829
G2 X-263.2543 Y230.9469 I86.5434 J-212.663
G1 X-262.826 Y231.0995
G2 X-259.4416 Y232.2678 I67.1252 J-188.9812
G2 X-253.4655 Y234.1517 I54.8257 J-163.488
G1 X-253.1836 Y234.2345
G2 X-252.906 Y234.3155 I4.6878 J-15.5603
G2 X-248.5127 Y235.5177 I37.8661 J-129.7452
G1 X-248.0988 Y235.6229
G1 X-247.6974 Y235.7236
G1 X-247.3083 Y235.8198
G1 X-246.9311 Y235.9119
G1 X-246.1994 Y236.0867
G2 X-240.6769 Y237.24 I24.7126 J-104.5347
G1 X-239.9823 Y237.3623
G2 X-239.9063 Y237.3754 I0.2403 J-1.1718
G2 X-235.0945 Y238.0547 I13.6862 J-79.5592
G0 Z5.0
G0 X-294.2827 Y253.3723
G1 Z0.0
G2 X-294.2684 Y253.3827 I0.0491 J-0.0529
G2 X-293.3507 Y254.0248 I38.7045 J-54.3414
G2 X-293.3227 Y254.044 I0.1697 J-0.2177
G2 X-292.8743 Y254.3485 I16.1086 J-23.2298
G1 X-292.7637 Y254.423
G1 X-292.3217 Y254.7181
G2 X-285.172 Y259.0656 I61.3069 J-92.7685
G1 X-284.8289 Y259.2564
G1 X-284.1517 Y259.6286
G2 X-278.8166 Y262.3484 I51.867 J-95.1464
G2 X-274.7133 Y264.1781 I40.6625 J-85.6745
G1 X-274.5187 Y264.259
G1 X-273.7508 Y264.5727
G1 X-273.0282 Y264.86
G2 X-270.2945 Y265.8751 I27.5215 J-69.9244
G1 X-270.0362 Y265.965
G2 X-265.9916 Y267.2283 I22.6055 J-65.268
G2 X-261.8703 Y268.2128 I15.1223 J-54.1849
G2 X-261.8333 Y268.2201 I0.0908 J-0.3611
G2 X-261.7964 Y268.2275 I0.0905 J-0.3604
G2 X-261.7596 Y268.2347 I0.0903 J-0.3597
G2 X-261.7228 Y268.242 I0.0901 J-0.359
G1 X-261.5762 Y268.271
G1 X-261.4307 Y268.2997
G2 X-256.8062 Y269.1764 I57.0833 J-288.459
G2 X-253.3271 Y269.7806 I42.2283 J-232.848
G1 X-252.6735 Y269.8873
G1 X-252.0602 Y269.985
G2 X-250.9093 Y270.1618 I39.3158 J-252.1335
G2 X-250.8777 Y270.1665 I0.0488 J-0.2189
G2 X-250.8463 Y270.1712 I0.0486 J-0.218
G2 X-250.8149 Y270.1759 I0.0484 J-0.2172
G2 X-250.7837 Y270.1805 I0.0481 J-0.2164
G2 X-250.7526 Y270.1851 I0.0479 J-0.2156
G2 X-250.7217 Y270.1897 I0.0476 J-0.2147
G2 X-250.6908 Y270.1943 I0.0474 J-0.2139
G2 X-250.6601 Y270.1988 I0.0472 J-0.2131
G2 X-246.7423 Y270.7024 I13.9129 J-92.7541
G1 X-246.2504 Y270.7514
G1 X-246.1427 Y270.7615
G2 X-244.471 Y270.8828 I3.4122 J-35.4477
G2 X-243.6325 Y270.9044 I0.9369 J-20.142
G1 X-243.58 Y270.9042
G2 X-243.3833 Y270.9015 I0.0412 J-4.1712
G1 X-243.2357 Y270.8967
G2 X-243.1251 Y270.8912 I-0.0974 J-3.0222
G1 X-243.0837 Y270.8885
G1 X-242.9389 Y270.8762
G2 X-242.7952 Y270.8551 I-0.1349 J-1.4234
G0 Z5.0
G0 X-295.1439 Y286.0854
G1 Z0.0
G2 X-294.9667 Y286.3071 I2.4885 J-1.8072
G1 X-294.9214 Y286.3602
G2 X-294.8299 Y286.4647 I2.4815 J-2.0801
G2 X-294.0613 Y287.2546 I9.8824 J-8.8474
G2 X-292.5037 Y288.6088 I16.2108 J-17.0732
G1 X-292.1495 Y288.8885
G1 X-291.8028 Y289.1546
G2 X-289.0189 Y291.0825 I25.6466 J-34.0617
G1 X-288.4817 Y291.4209
G2 X-287.9746 Y291.7324 I16.4483 J-26.2105
G2 X-284.0804 Y293.9127 I34.9539 J-57.8622
G1 X-283.5844 Y294.1679
G1 X-283.1488 Y294.3885
G1 X-282.9579 Y294.4842
G2 X-280.0666 Y295.864 I39.5878 J-79.2362
G1 X-280.0013 Y295.8937
G2 X-277.9089 Y296.8248 I54.0978 J-118.7614
G2 X-269.9377 Y300.0283 I62.517 J-144.0413
G1 X-269.18 Y300.3073
G1 X-268.4445 Y300.574
G1 X-267.7305 Y300.8289
G2 X-267.6439 Y300.8596 I0.9968 J-2.6783
G1 X-266.9535 Y301.1019
G2 X-266.8698 Y301.1311 I0.7197 J-1.9334
G2 X-266.7863 Y301.16 I0.7008 J-1.8833
G2 X-266.7032 Y301.1889 I0.6833 J-1.8367
G2 X-266.6203 Y301.2175 I0.6669 J-1.7933
G2 X-263.9724 Y302.1045 I42.775 J-123.3099
G1 X-263.3901 Y302.2916
G2 X-261.1247 Y302.9904 I32.7783 J-102.2427
G2 X-260.1281 Y303.282 I36.2683 J-122.0914
G1 X-259.6597 Y303.4155
G2 X-257.838 Y303.9111 I26.6776 J-94.4667
G2 X-254.6204 Y304.6793 I19.2015 J-73.3041
G2 X-252.1756 Y305.1437 I10.3673 J-47.91
G1 X-251.9445 Y305.1807
G2 X-250.146 Y305.4176 I5.0086 J-31.0772
G1 X-249.9763 Y305.4346
G1 X-249.8117 Y305.4499
G2 X-248.5332 Y305.5296 I2.0068 J-21.9015
G2 X-247.5703 Y305.5312 I0.5061 J-14.8627
G2 X-247.3895 Y305.5243 I-0.0656 J-4.0901
G2 X-246.0421 Y305.3715 I-0.3473 J-9.0789
G2 X-245.3841 Y305.2002 I-0.9567 J-5.0227
G2 X-244.7606 Y304.9286 I-1.06 J-3.2855
G1 X-244.6331 Y304.8577
G3 X-243.5974 Y304.3408 I7.7626 J14.2562
G3 X-242.6032 Y303.908 I10.495 J22.7504
G1 X-242.1323 Y303.7171
G3 X-241.6738 Y303.538 I15.1726 J38.1688
G3 X-239.8813 Y302.8865 I18.9448 J49.3291
G3 X-239.0913 Y302.6182 I23.3933 J67.5872
G3 X-236.1078 Y301.6766 I33.3604 J100.5093
G1 X-235.8268 Y301.5926
G1 X-235.2819 Y301.4316
G1 X-234.7704 Y301.2827
G1 X-233.8099 Y301.0083
G1 X-233.3891 Y300.8902
G1 X-233.1917 Y300.8352
G3 X-227.045 Y299.2414 I48.8943 J175.9169
G1 X-226.9973 Y299.5391
G2 X-226.8899 Y300.123 I31.0562 J-5.4125
G2 X-225.6801 Y304.5616 I31.7869 J-6.2801
G1 X-225.533 Y304.971
G1 X-225.4596 Y305.1686
G1 X-225.3108 Y305.5563
G2 X-224.6785 Y307.0369 I24.7684 J-9.7016
G2 X-223.3305 Y309.5168 I19.29 J-8.8793
G2 X-222.0776 Y311.2339 I13.6176 J-8.6209
G2 X-222.0131 Y311.3102 I1.7323 J-1.3998
G2 X-220.9243 Y312.4456 I9.5887 J-8.1052
G2 X-219.0276 Y313.8475 I7.2089 J-7.7691
G2 X-216.8501 Y314.7539 I4.5918 J-7.962
G2 X-216.6525 Y314.8069 I1.3502 J-4.6412
G2 X-215.8617 Y315.0122 I93.7928 J-359.6342
G2 X-212.7117 Y315.78 I45.583 J-180.1602
G1 X-211.9471 Y315.9592
G2 X-210.4286 Y316.3092 I55.4593 J-237.1871
G1 X-210.0546 Y316.3942
G1 X-208.5638 Y316.7294
G1 X-207.095 Y317.0538
G2 X-201.3007 Y318.2837 I111.027 J-508.8035
G2 X-201.1307 Y318.3187 I2.1216 J-9.8852
G1 X-200.4518 Y318.4577
G1 X-199.1041 Y318.7308
G1 X-197.7766 Y318.9961
G2 X-176.7814 Y322.7054 I97.0827 J-488.2181
G2 X-168.859 Y323.8501 I62.0851 J-401.7149
G1 X-167.9908 Y323.966
G1 X-167.5633 Y324.0223
G2 X-160.7693 Y324.8499 I48.8488 J-372.7121
G1 X-159.2805 Y325.0133
G1 X-157.8373 Y325.1651
G1 X-156.4384 Y325.3058
G1 X-155.0827 Y325.436
G1 X-153.7686 Y325.5562
G2 X-153.1318 Y325.6123 I6.47 J-69.8383
G2 X-150.6232 Y325.8188 I19.116 J-216.8821
G1 X-149.4465 Y325.9075
G1 X-148.8763 Y325.9485
G1 X-148.3149 Y325.9876
G1 X-147.2095 Y326.0608
G1 X-146.1381 Y326.1269
G2 X-141.9839 Y326.3345 I11.9805 J-198.006
G2 X-134.705 Y326.4849 I7.3001 J-177.1337
G2 X-134.6196 Y326.4848 I0.0415 J-1.2233
G2 X-134.5345 Y326.4847 I0.0407 J-1.2181
G2 X-134.4498 Y326.4845 I0.0399 J-1.2131
G2 X-134.3654 Y326.4843 I0.0391 J-1.208
G2 X-134.2813 Y326.484 I0.0383 J-1.203
G2 X-134.1976 Y326.4837 I0.0375 J-1.198
G2 X-128.8626 Y326.3619 I-0.3281 J-131.2689
G1 X-128.3627 Y326.3393
G2 X-127.3943 Y326.2892 I-11.7915 J-237.7111
G2 X-123.7676 Y326.0238 I-5.4716 J-99.6567
G1 X-123.0888 Y325.959
G2 X-123.0092 Y325.9511 I-0.0479 J-0.884
G2 X-122.9303 Y325.9431 I-0.0485 J-0.8787
G2 X-120.4296 Y325.6526 I-8.8181 J-86.8122
G1 X-120.1956 Y325.6213
G2 X-116.5847 Y325.035 I-8.7361 J-65.2105
G2 X-116.3602 Y324.9914 I-1.1449 J-6.499
G2 X-113.0179 Y324.222 I-9.7346 J-49.9334
G1 X-111.9728 Y323.9392
G1 X-110.9614 Y323.6601
G1 X-109.9827 Y323.3847
G1 X-109.0356 Y323.113
G1 X-108.1192 Y322.8451
G1 X-107.2326 Y322.5808
G2 X-100.414 Y320.3576 I-42.4279 J-141.6924
G2 X-97.8815 Y319.4254 I-37.5084 J-105.8084
G2 X-95.6829 Y318.555 I-39.5041 J-102.9943
G1 X-95.2042 Y318.3568
G2 X-91.5409 Y316.7123 I-27.4616 J-66.0778
G1 X-91.2016 Y316.5465
G2 X-89.897 Y315.8822 I-22.4103 J-45.6233
G2 X-88.7704 Y315.2691 I-28.0701 J-52.9271
G2 X-86.8446 Y314.1111 I-17.3299 J-31.0001
G2 X-86.8224 Y314.0968 I-0.09 J-0.1636
G2 X-85.4368 Y313.1409 I-13.9786 J-21.7446
G2 X-84.4421 Y312.3587 I-10.8935 J-14.8764
G1 X-84.3514 Y312.2819
G1 X-84.264 Y312.2069
G2 X-83.9304 Y311.9102 I-7.6642 J-8.954
G2 X-83.6458 Y311.6421 I-6.0559 J-6.7157
G2 X-82.7248 Y310.6305 I-6.9026 J-7.2086
G2 X-82.6208 Y310.494 I-1.8839 J-1.5444
G2 X-82.2875 Y309.9941 I-4.1507 J-3.1284
G2 X-82.1462 Y309.7283 I-2.5336 J-1.5171
G1 X-82.1149 Y309.6598
G2 X-82.0722 Y309.5553 I-3.0512 J-1.3076
G2 X-82.0374 Y309.4477 I-1.0139 J-0.3868
G0 Z5.0
M5
M30
