( Made using CamBam - http://www.cambam.co.uk )
( Elvis Mic 1/25/2014 12:19:32 AM )
( T0 : 0.0 )
G21 G90 G64 G40
G0 Z5.0
( T0 : 0.0 )
T0 M6
( Main )
G17
M3 S1000
G0 X-301.2734 Y313.614
G1 F1.0 Z0.0
G1 X-294.052 Y317.23
G1 X-294.2181 Y317.9961
G1 X-294.3798 Y318.7633
G1 X-294.4857 Y319.2751
G1 X-294.4993 Y319.3412
G1 X-294.6422 Y320.0462
G1 X-294.7226 Y320.4494
G2 X-294.8134 Y320.9104 I26.6179 J5.4772
G2 X-295.4861 Y324.608 I128.9433 J25.3697
G1 X-295.5256 Y324.8473
G1 X-295.5657 Y325.0944
G1 X-295.649 Y325.6219
G1 X-295.6907 Y325.8944
G2 X-295.7115 Y326.0328 I3.2086 J0.5529
G1 X-295.7972 Y326.624
G1 X-295.8825 Y327.2555
G2 X-295.8636 Y328.2735 I3.3395 J0.4471
G2 X-295.5509 Y329.2425 I3.6561 J-0.6447
G2 X-295.2148 Y329.8327 I4.2943 J-2.0549
G2 X-294.6627 Y330.5464 I5.4192 J-3.6219
G2 X-293.8147 Y331.3886 I7.2194 J-6.4212
G1 X-293.5738 Y331.5969
G2 X-292.236 Y332.6128 I11.5893 J-13.8726
G2 X-292.2142 Y332.6279 I0.1173 J-0.1462
G2 X-292.1924 Y332.6429 I0.1175 J-0.1469
G2 X-291.3897 Y333.1743 I13.1995 J-19.0692
G2 X-289.2048 Y334.4601 I21.2322 J-33.5796
G1 X-289.1348 Y334.4985
G1 X-289.0641 Y334.5371
G2 X-286.0457 Y336.0829 I33.7428 J-62.1684
G1 X-285.652 Y336.2727
G2 X-284.8112 Y336.6713 I36.1775 J-75.2273
G1 X-284.3765 Y336.8741
G1 X-283.4482 Y337.3003
G1 X-282.4566 Y337.7465
G2 X-277.1712 Y340.01 I87.735 J-197.565
G1 X-276.4858 Y340.2928
G2 X-269.1895 Y343.2095 I166.2848 J-405.3966
G1 X-268.2452 Y343.5774
G1 X-267.2704 Y343.9554
G1 X-266.2641 Y344.344
G1 X-265.2252 Y344.7434
G1 X-264.1528 Y345.1541
G1 X-262.9533 Y345.5297
G1 X-261.7532 Y345.9034
G2 X-260.9528 Y346.1515 I245.7568 J-791.4834
G1 X-260.7393 Y346.2175
G1 X-259.6004 Y346.5686
G1 X-258.081 Y347.0338
G1 X-256.0536 Y347.6492
G1 X-255.5127 Y347.8124
G1 X-254.2758 Y348.1838
G1 X-254.1186 Y348.2308
G1 X-252.6818 Y348.6589
G1 X-251.0385 Y349.1445
G1 X-249.1591 Y349.6947
G1 X-247.0093 Y350.3171
G2 X-229.738 Y355.0346 I176.745 J-613.1056
G1 X-229.4649 Y355.105
G2 X-224.4661 Y356.3679 I157.6853 J-613.6321
G1 X-224.309 Y356.4068
G1 X-224.1514 Y356.4458
G1 X-223.9931 Y356.4849
G1 X-223.8341 Y356.5241
G1 X-222.5215 Y356.8462
G2 X-216.511 Y358.2772 I134.1489 J-550.1255
G1 X-214.9572 Y358.6351
G2 X-198.3137 Y362.1366 I105.2341 J-458.897
G1 X-198.1829 Y362.1616
G1 X-198.0519 Y362.1865
G2 X-188.4457 Y363.8986 I75.7993 J-397.4915
G2 X-183.3055 Y364.7135 I63.5111 J-383.9988
G1 X-182.9826 Y364.7622
G1 X-182.6584 Y364.8108
G1 X-182.3329 Y364.8593
G2 X-170.3965 Y366.4152 I48.4745 J-325.3078
G2 X-156.6882 Y367.6075 I30.7415 J-274.0652
G1 X-156.2572 Y367.6334
G1 X-155.8245 Y367.6587
G1 X-155.39 Y367.6833
G1 X-154.9538 Y367.7072
G2 X-153.1808 Y367.7964 I8.7892 J-157.0987
G2 X-152.287 Y367.8363 I4.025 J-80.0999
G1 X-151.8383 Y367.8551
G1 X-151.3878 Y367.873
G1 X-150.9354 Y367.8901
G2 X-150.4813 Y367.9064 I1.0721 J-23.5446
G2 X-142.7254 Y368.0384 I7.5966 J-218.565
G2 X-134.4497 Y367.8447 I-0.1806 J-184.6014
G1 X-134.3203 Y367.8386
G2 X-132.2184 Y367.7267 I-6.7432 J-146.4435
G2 X-123.266 Y366.9358 I-8.9907 J-152.8334
G1 X-122.706 Y366.8681
G2 X-113.1904 Y365.341 I-15.4728 J-126.8242
G1 X-112.5976 Y365.2205
G1 X-112.003 Y365.0965
G2 X-109.5929 Y364.5601 I-24.6587 J-116.476
G2 X-104.652 Y363.2844 I-25.5261 J-109.076
G2 X-99.6105 Y361.7353 I-33.344 J-117.4909
G2 X-98.35 Y361.3128 I-37.0391 J-112.6111
G1 X-98.0347 Y361.2055
G1 X-97.7191 Y361.0973
G1 X-97.0856 Y360.8788
G1 X-96.4501 Y360.6579
G1 X-95.8123 Y360.4354
G1 X-95.1719 Y360.2121
G1 X-95.1319 Y360.1982
G1 X-94.4883 Y359.9753
G1 X-93.8413 Y359.7543
G1 X-93.1901 Y359.5373
G1 X-92.7059 Y359.3766
G2 X-92.2231 Y359.2123 I-6.8718 J-20.9789
G2 X-91.2614 Y358.8716 I-20.9504 J-60.6583
G1 X-90.9878 Y358.7711
G2 X-88.8204 Y357.911 I-16.222 J-44.0379
G1 X-88.7523 Y357.8819
G1 X-88.6832 Y357.8521
G2 X-88.5407 Y357.7904 I-1.861 J-4.4914
G1 X-88.2376 Y357.6569
G1 X-87.9154 Y357.5116
G1 X-87.7497 Y357.4354
G1 X-87.3976 Y357.2702
G1 X-87.3533 Y357.249
G2 X-86.55 Y356.8515 I-11.0359 J-23.3135
G2 X-84.4727 Y355.6685 I-11.7121 J-22.981
G2 X-83.3447 Y354.8963 I-9.8836 J-15.6473
G2 X-82.1313 Y353.9096 I-9.1136 J-12.4465
G1 X-81.9845 Y353.7757
G2 X-81.6874 Y353.4926 I-6.2029 J-6.8078
G2 X-81.3897 Y353.1909 I-9.7716 J-9.9432
G2 X-78.9371 Y349.3686 I-8.3358 J-8.0466
G2 X-78.5382 Y348.2142 I-14.1507 J-5.5356
G2 X-78.4947 Y348.0666 I-3.2598 J-1.0413
G2 X-78.3288 Y347.4527 I-14.9783 J-4.376
G2 X-78.0371 Y346.1276 I-22.766 J-5.7064
G2 X-78.0291 Y346.0858 I-0.602 J-0.1378
G1 X-77.9971 Y345.9175
G2 X-77.7508 Y344.4799 I-50.591 J-9.4077
G1 X-77.633 Y343.7377
G1 X-77.5779 Y343.3719
G2 X-77.5608 Y343.2497 I-1.7833 J-0.3119
G2 X-77.539 Y343.0866 I-2.9146 J-0.4713
G1 X-77.5121 Y342.8691
G1 X-77.4802 Y342.5785
G1 X-77.4642 Y342.4123
G2 X-77.4122 Y341.0772 I-11.6198 J-1.1218
G2 X-77.4876 Y340.1889 I-6.6372 J0.1163
G2 X-77.5299 Y339.9547 I-7.7564 J1.2803
G2 X-77.674 Y339.429 I-4.104 J0.8424
G2 X-77.7237 Y339.2971 I-1.3588 J0.4365
G2 X-78.0315 Y338.7276 I-2.455 J0.9591
G2 X-78.5635 Y338.1979 I-1.8375 J1.3133
G2 X-79.3593 Y337.8302 I-1.4684 J2.1327
G2 X-79.581 Y337.7766 I-0.6699 J2.2846
G2 X-80.0644 Y337.7077 I-0.8603 J4.307
G2 X-81.1723 Y337.7221 I-0.4731 J6.2371
G2 X-81.4557 Y337.7532 I0.9354 J9.8107
G2 X-82.0508 Y337.8456 I1.1132 J9.1381
G2 X-82.3544 Y337.9047 I3.3619 J18.0669
G2 X-83.6944 Y338.2411 I3.6759 J17.4806
G2 X-83.7779 Y338.2654 I0.2348 J0.9606
G1 X-84.1193 Y338.3685
G2 X-85.6034 Y338.8717 I8.549 J27.6498
G2 X-86.3666 Y339.1591 I18.8013 J51.091
G2 X-87.9981 Y339.8227 I19.9782 J51.4519
G3 X-96.2274 Y342.9922 I-44.8126 J-104.0849
G3 X-99.021 Y343.9086 I-37.4479 J-109.45
G1 X-99.1992 Y343.9644
G3 X-103.0191 Y345.0899 I-35.5196 J-113.5049
G3 X-108.165 Y346.3976 I-32.7901 J-118.2531
G3 X-115.1018 Y347.8071 I-29.2711 J-126.2867
G3 X-124.447 Y349.1152 I-23.8959 J-136.6765
G3 X-126.952 Y349.3577 I-13.0085 J-121.324
G1 X-127.2679 Y349.3851
G1 X-127.5863 Y349.4121
G1 X-127.9073 Y349.4386
G3 X-133.7847 Y349.7984 I-12.0518 J-148.6673
G3 X-149.4744 Y349.6419 I-6.3115 J-153.7741
G3 X-153.6482 Y349.3307 I8.9874 J-148.7064
G3 X-158.0885 Y348.8712 I13.6657 J-153.7296
G1 X-158.6469 Y348.8037
G1 X-159.2094 Y348.7334
G3 X-163.9957 Y348.0373 I16.3125 J-128.9629
G1 X-164.5966 Y347.9364
G3 X-164.6718 Y347.9236 I0.3869 J-2.491
G1 X-165.2776 Y347.8182
G1 X-165.8875 Y347.7084
G1 X-165.9256 Y347.7014
G1 X-166.5398 Y347.5866
G3 X-169.0659 Y347.06 I11.137 J-59.7441
G1 X-170.4646 Y346.8615
G3 X-171.8623 Y346.6566 I28.9593 J-202.3955
G1 X-172.7936 Y346.5165
G1 X-174.0347 Y346.3256
G3 X-178.9919 Y345.5171 I52.7836 J-339.2343
G3 X-188.8733 Y343.7116 I71.3742 J-418.5691
G1 X-190.1877 Y343.4541
G3 X-193.1893 Y342.8521 I70.1356 J-357.5187
G3 X-193.2835 Y342.8329 I0.5068 J-2.7276
G1 X-194.8891 Y342.503
G1 X-196.6006 Y342.1456
G3 X-196.708 Y342.123 I0.6614 J-3.4073
G3 X-196.8158 Y342.1003 I0.6675 J-3.4336
G1 X-198.6544 Y341.7093
G1 X-199.6028 Y341.5052
G1 X-201.6249 Y341.0644
G1 X-203.7801 Y340.5866
G3 X-204.0516 Y340.5259 I2.3523 J-11.1476
G3 X-204.3251 Y340.4645 I2.5326 J-11.9331
G3 X-204.6008 Y340.4026 I2.7552 J-12.9042
G3 X-216.3361 Y337.6516 I155.6049 J-690.1874
G1 X-217.8469 Y337.2822
G1 X-218.614 Y337.0934
G1 X-220.1971 Y336.7012
G3 X-237.0332 Y332.3265 I206.3028 J-828.5356
G1 X-237.5621 Y332.1834
G3 X-239.7449 Y331.5894 I137.3754 J-509.1151
G1 X-241.9966 Y330.9709
G1 X-244.3195 Y330.3268
G1 X-245.4987 Y329.9975
G1 X-246.6963 Y329.6615
G1 X-247.9125 Y329.3187
G3 X-273.753 Y321.6598 I290.793 J-1028.5278
G3 X-277.0725 Y320.6229 I420.6687 J-1352.6396
G1 X-278.7572 Y320.0916
G1 X-280.4675 Y319.5484
G3 X-287.7493 Y317.1834 I199.474 J-626.55
G1 X-288.6639 Y316.8768
G1 X-289.1224 Y316.7211
G3 X-292.6119 Y315.439 I26.2492 J-76.8311
G3 X-293.7601 Y314.9726 I31.8717 J-80.1076
G1 X-293.9077 Y314.9108
G3 X-298.5387 Y312.736 I22.6982 J-54.3512
G3 X-299.1404 Y312.4141 I24.758 J-47.0053
G3 X-299.7773 Y312.0617 I24.2019 J-44.4817
G3 X-299.8171 Y312.0392 I0.3354 J-0.6412
G3 X-299.8571 Y312.0166 I0.3388 J-0.646
G3 X-299.8972 Y311.9939 I0.3423 J-0.6509
G3 X-299.9779 Y311.948 I0.48 J-0.9383
G3 X-303.3234 Y309.8304 I20.2646 J-35.7167
G3 X-305.1276 Y308.4627 I19.5525 J-27.6662
G1 X-305.3496 Y308.2798
G3 X-307.2888 Y306.5013 I17.0041 J-20.4875
G1 X-307.5215 Y306.2612
G1 X-307.7543 Y306.0138
G1 X-307.987 Y305.7589
G1 X-308.2193 Y305.4961
G3 X-309.1599 Y304.3298 I15.3136 J-13.3128
G3 X-310.0585 Y303.0043 I13.924 J-10.407
G3 X-310.8736 Y301.4975 I13.3884 J-8.2164
G3 X-310.9643 Y301.3014 I11.8733 J-5.6083
G3 X-311.618 Y299.5699 I13.1197 J-5.9426
G3 X-311.6348 Y299.5143 I0.9285 J-0.3099
G3 X-312.1883 Y295.2601 I12.7628 J-3.8237
G3 X-312.1106 Y294.1467 I13.4037 J0.3755
G3 X-312.0948 Y294.0074 I2.1655 J0.1755
G3 X-311.627 Y291.6448 I15.7117 J1.8834
G3 X-311.1234 Y290.0352 I23.1036 J6.3448
G3 X-310.4974 Y288.4692 I19.7088 J6.9707
G3 X-310.003 Y287.4591 I16.4661 J7.4327
G3 X-309.2372 Y286.1697 I13.4054 J7.0901
G1 X-309.2109 Y286.1304
G3 X-307.9664 Y284.5441 I10.8151 J7.2034
G3 X-305.9198 Y282.795 I8.2117 J7.5365
G3 X-302.6257 Y281.3436 I5.9393 J9.0165
G3 X-300.5869 Y281.0046 I3.0204 J11.8631
G3 X-298.2263 Y281.0093 I1.1515 J14.2274
G3 X-295.5743 Y281.4546 I-1.3502 J16.1638
G3 X-294.2059 Y281.8799 I-2.9684 J11.9651
G1 X-297.0162 Y298.109
G2 X-297.1472 Y298.2588 I0.1339 J0.2491
G2 X-297.1565 Y298.4576 I0.3391 J0.1154
G2 X-297.1153 Y298.5831 I0.692 J-0.1577
G2 X-297.0327 Y298.734 I1.048 J-0.4753
G2 X-296.8994 Y298.9119 I1.5617 J-1.0308
G2 X-296.7034 Y299.1213 I1.8482 J-1.5341
G1 X-296.5856 Y299.2319
G2 X-296.4483 Y299.3517 I1.9777 J-2.127
G2 X-296.0762 Y299.6445 I4.3242 J-5.1121
G1 X-295.8587 Y299.8011
G2 X-295.2737 Y300.1885 I8.7767 J-12.6179
G2 X-294.4824 Y300.6624 I12.0779 J-19.2668
G1 X-294.3791 Y300.7213
G2 X-293.2756 Y301.3196 I14.7977 J-25.978
G1 X-293.1319 Y301.3941
G1 X-292.9834 Y301.4704
G1 X-292.83 Y301.5485
G1 X-292.6715 Y301.6286
G2 X-290.9774 Y302.4473 I25.6296 J-50.8725
G1 X-290.7573 Y302.5495
G1 X-290.53 Y302.6543
G1 X-290.2951 Y302.7618
G1 X-290.0524 Y302.8719
G2 X-288.2986 Y303.5946 I14.0628 J-31.6385
G2 X-286.5196 Y304.2529 I28.4392 J-74.1144
G2 X-286.2814 Y304.3378 I7.9143 J-21.8359
G2 X-282.4497 Y305.6371 I52.0191 J-147.1053
G1 X-281.3499 Y305.9933
G1 X-280.7627 Y306.1812
G2 X-277.6247 Y307.1624 I80.8652 J-253.1037
G1 X-277.4251 Y307.2237
G1 X-277.013 Y307.3498
G1 X-276.5874 Y307.4795
G1 X-276.148 Y307.6129
G1 X-275.6941 Y307.75
G1 X-275.2255 Y307.8911
G1 X-274.2254 Y308.1902
G2 X-268.8816 Y309.7493 I145.7339 J-489.5727
G1 X-268.1909 Y309.9465
G2 X-260.811 Y312.0027 I177.339 J-622.2313
G1 X-259.8571 Y312.2622
G1 X-259.6167 Y312.3274
G1 X-257.5646 Y312.8806
G1 X-255.3741 Y313.4647
G1 X-255.0979 Y313.5379
G1 X-254.8196 Y313.6115
G1 X-254.5391 Y313.6856
G1 X-252.1446 Y314.3144
G2 X-251.5361 Y314.473 I12.696 J-47.46
G1 X-248.9391 Y315.1448
G1 X-247.5979 Y315.4886
G1 X-246.213 Y315.8414
G1 X-244.7828 Y316.2033
G1 X-244.0561 Y316.3864
G1 X-243.3177 Y316.5717
G1 X-242.5675 Y316.7594
G2 X-194.2992 Y327.6151 I259.0511 J-1039.0938
G1 X-192.759 Y327.9233
G1 X-191.1939 Y328.2339
G1 X-190.4049 Y328.3895
G2 X-187.1464 Y329.0258 I184.3758 J-935.6784
G1 X-185.4904 Y329.3449
G1 X-183.8076 Y329.6664
G1 X-182.0976 Y329.9901
G2 X-174.7955 Y331.338 I182.8939 J-970.3458
G2 X-165.6701 Y332.7704 I35.7535 J-197.9932
G2 X-156.4866 Y333.7634 I25.0669 J-188.8603
G2 X-150.3415 Y334.1677 I14.9005 J-179.5786
G2 X-142.1328 Y334.3701 I8.2647 J-168.6104
G1 X-141.0732 Y334.3674
G2 X-136.2303 Y334.2686 I-0.8029 J-158.1663
G2 X-123.3516 Y333.292 I-5.4141 J-156.802
G2 X-116.0428 Y332.2509 I-17.7715 J-150.9404
G2 X-112.1682 Y331.5478 I-24.7455 J-147.3914
G1 X-111.1872 Y331.3527
G1 X-110.1921 Y331.1475
G2 X-89.3857 Y325.0997 I-29.0953 J-138.9125
G1 X-88.7465 Y324.8586
G2 X-83.3329 Y322.6972 I-66.3115 J-173.9486
G1 X-81.9668 Y322.127
G1 X-80.579 Y321.5479
G1 X-79.8781 Y321.2602
G1 X-79.7021 Y321.189
G1 X-79.3481 Y321.0477
G1 X-78.9917 Y320.9088
G1 X-78.9022 Y320.8746
G3 X-78.1765 Y320.6118 I6.7396 J17.4807
G3 X-78.1307 Y320.5964 I0.2739 J0.739
G1 X-78.0389 Y320.5662
G1 X-77.8542 Y320.5079
G1 X-77.6678 Y320.4535
G2 X-76.2252 Y319.9702 I-3.8502 J-13.8871
G2 X-74.8544 Y319.3104 I-3.8812 J-9.8178
G2 X-74.4824 Y319.0846 I-3.3235 J-5.895
G2 X-72.0082 Y316.6556 I-4.4181 J-6.9748
G2 X-71.5012 Y315.7963 I-7.6107 J-5.0699
G2 X-71.2662 Y315.3189 I-9.4591 J-4.9511
G2 X-71.2523 Y315.2885 I-0.3034 J-0.1582
G2 X-70.7988 Y314.1568 I-11.8455 J-5.4032
G2 X-70.3964 Y312.827 I-16.3921 J-5.6858
G2 X-70.0476 Y311.2853 I-25.2743 J-6.5278
G1 X-69.9719 Y310.885
G2 X-69.6796 Y309.0581 I-40.6232 J-7.4374
G2 X-69.4144 Y306.9776 I-76.68 J-10.8301
G2 X-69.4106 Y306.945 I-0.3428 J-0.0566
G2 X-69.4068 Y306.9122 I-0.3434 J-0.0567
G2 X-69.403 Y306.8795 I-0.3441 J-0.0567
G2 X-69.3991 Y306.8467 I-0.3447 J-0.0567
G2 X-69.3953 Y306.8138 I-0.3454 J-0.0567
G2 X-69.3915 Y306.7808 I-0.346 J-0.0568
G2 X-69.3877 Y306.7478 I-0.3467 J-0.0568
G2 X-69.3839 Y306.7147 I-0.3473 J-0.0568
G2 X-69.3801 Y306.6816 I-0.348 J-0.0569
G2 X-69.3762 Y306.6484 I-0.3486 J-0.0569
G2 X-69.2955 Y305.578 I-12.1926 J-1.4574
G2 X-69.3379 Y304.5054 I-6.9748 J-0.2616
G2 X-69.4872 Y303.8041 I-3.804 J0.4433
G1 X-69.517 Y303.7164
G2 X-69.6947 Y303.3303 I-2.1475 J0.7544
G2 X-70.5822 Y302.5911 I-1.411 J0.7915
G2 X-71.2546 Y302.4701 I-0.7459 J2.2162
G2 X-71.6204 Y302.4735 I-0.1521 J3.2789
G2 X-72.4364 Y302.5883 I0.3615 J5.5292
G2 X-73.327 Y302.8229 I2.0002 J9.3996
G2 X-74.2962 Y303.1579 I5.0773 J16.258
G2 X-75.3388 Y303.5764 I12.1773 J31.8519
G1 X-75.8752 Y303.8073
G2 X-75.9088 Y303.822 I0.0872 J0.2444
G1 X-76.4635 Y304.0693
G2 X-77.6545 Y304.6185 I39.4602 J87.1426
G2 X-77.9571 Y304.7606 I5.6197 J12.3522
G1 X-78.5868 Y305.0585
G1 X-79.2435 Y305.3708
G1 X-80.6878 Y306.0569
G3 X-82.2936 Y306.8073 I-69.8799 J-147.44
G3 X-83.1434 Y307.1952 I-36.936 J-79.7967
G3 X-90.3278 Y309.3224 I-34.3099 J-102.684
G1 X-90.8116 Y309.4471
G3 X-98.6125 Y311.1842 I-32.678 J-128.365
G3 X-103.8621 Y312.096 I-29.6346 J-155.0467
G3 X-104.5416 Y312.2006 I-8.916 J-55.6824
G1 X-105.2436 Y312.3055
G1 X-105.9686 Y312.4106
G1 X-106.7174 Y312.5158
G1 X-107.4909 Y312.6209
G1 X-108.2899 Y312.7257
G3 X-116.8355 Y313.6226 I-23.854 J-186.1347
G3 X-128.2713 Y314.249 I-17.3558 J-212.1271
G3 X-129.7487 Y314.2865 I-5.8775 J-202.5502
G1 X-130.1209 Y314.2945
G3 X-130.8774 Y314.3088 I-3.5689 J-168.6295
G1 X-131.6459 Y314.3208
G1 X-132.4266 Y314.3304
G3 X-149.0663 Y313.9379 I-2.5178 J-246.1672
G3 X-158.5479 Y313.2043 I13.6196 J-237.6478
G1 X-159.7495 Y313.0833
G1 X-160.9695 Y312.9536
G1 X-161.584 Y312.8856
G3 X-166.8181 Y312.2297 I22.9275 J-204.1669
G1 X-166.8999 Y312.2183
G3 X-172.4641 Y311.3455 I21.8768 J-157.6369
G1 X-173.1627 Y311.2209
G3 X-173.5131 Y311.1569 I3.3996 J-19.6201
G1 X-173.9945 Y311.0677
G3 X-174.1549 Y311.0377 I0.5459 J-3.362
G1 X-174.7963 Y310.9164
G1 X-176.078 Y310.6685
G3 X-178.6379 Y310.1554 I46.9882 J-241.0538
G3 X-178.6783 Y310.1471 I0.0621 J-0.4062
G1 X-180.3963 Y309.7918
G1 X-181.3774 Y309.5858
G1 X-182.4981 Y309.3479
G1 X-183.0956 Y309.22
G3 X-183.7329 Y309.083 I15.1957 J-72.1974
G1 X-185.1888 Y308.7672
G3 X-186.8518 Y308.4025 I71.1779 J-328.5229
G1 X-188.7515 Y307.9812
G1 X-189.2416 Y307.8717
G1 X-190.2869 Y307.6373
G1 X-192.6751 Y307.0973
G1 X-195.403 Y306.4736
G1 X-196.1068 Y306.3116
G1 X-199.3228 Y305.5663
G1 X-201.0372 Y305.1657
G1 X-202.8655 Y304.7363
G1 X-204.8152 Y304.2761
G1 X-206.8942 Y303.7828
G3 X-206.9593 Y303.7673 I0.2525 J-1.206
G3 X-207.4883 Y303.6413 I10.4524 J-45.0782
G1 X-209.7448 Y303.1024
G1 X-212.151 Y302.5248
G1 X-214.7169 Y301.9057
G1 X-216.0409 Y301.5851
G1 X-218.8649 Y300.8986
G1 X-219.582 Y300.7238
G3 X-265.3839 Y289.1748 I765.3245 J-3131.776
G1 X-268.3326 Y288.4054
G1 X-269.83 Y288.0132
G1 X-271.3509 Y287.6137
G1 X-272.8957 Y287.2066
G1 X-276.0836 Y286.3621
G1 X-276.2832 Y286.309
G1 X-277.0878 Y286.0947
G3 X-279.5746 Y285.4145 I47.5221 J-178.6235
G1 X-279.6547 Y285.392
G3 X-282.2114 Y284.653 I41.2567 J-147.5322
G3 X-287.2844 Y283.0419 I38.3867 J-129.6587
G1 X-287.9555 Y282.8112
G3 X-288.1257 Y282.7519 I3.6203 J-10.6713
G1 X-288.851 Y282.4958
G3 X-290.5012 Y281.8899 I40.1664 J-111.9423
G1 X-290.9252 Y281.7285
G1 X-291.1403 Y281.6457
G1 X-291.3586 Y281.5611
G1 X-291.4685 Y281.5182
G1 X-291.9217 Y281.3394
G1 X-292.3883 Y281.1521
G3 X-294.5054 Y280.2563 I24.4724 J-60.7845
G3 X-294.7721 Y280.1375 I22.4649 J-50.81
G3 X-295.9038 Y279.6169 I20.143 J-45.2757
G3 X-298.4453 Y278.3318 I21.0584 J-44.8021
G1 X-298.6029 Y278.2459
G3 X-299.9327 Y277.4861 I22.1453 J-40.3012
G3 X-302.8469 Y275.5399 I16.6077 J-28.0225
G3 X-302.9346 Y275.4735 I1.6225 J-2.2358
G3 X-304.3887 Y274.2825 I15.2057 J-20.0475
G1 X-304.5652 Y274.1244
G3 X-305.9999 Y272.694 I14.1215 J-15.5986
G3 X-307.3542 Y270.9992 I12.7839 J-11.6042
G1 X-307.393 Y270.9434
G3 X-308.5713 Y268.9291 I12.3781 J-8.5929
G3 X-309.0532 Y267.8188 I13.3168 J-6.4389
G3 X-309.7715 Y265.3142 I14.0703 J-5.3904
G3 X-310.0769 Y262.5223 I17.0225 J-3.2751
G3 X-310.0686 Y261.0653 I19.7103 J-0.6162
G3 X-309.7453 Y257.9567 I25.9764 J1.1304
G3 X-309.3631 Y256.1545 I18.0436 J2.8856
G1 X-309.2933 Y255.9005
G3 X-308.5858 Y253.9177 I14.7346 J4.1399
G3 X-307.9582 Y252.6614 I12.9503 J5.684
G3 X-306.9203 Y251.1024 I10.8734 J6.114
G3 X-305.1958 Y249.2952 I9.907 J7.7269
G3 X-302.4117 Y247.4686 I8.6592 J10.1635
G1 X-302.3173 Y247.4224
G3 X-300.5402 Y246.6955 I6.5474 J13.4723
G3 X-295.5493 Y245.769 I5.8083 J17.3829
G3 X-294.1936 Y245.7682 I0.6859 J13.2128
G2 X-295.36 Y254.2136 I460.176 J67.8619
G1 X-295.5119 Y255.4221
G1 X-295.5308 Y255.5756
G1 X-295.6104 Y256.2307
G1 X-295.6932 Y256.9298
G1 X-295.7788 Y257.6757
G1 X-295.8001 Y257.8652
G1 X-295.8214 Y258.0578
G1 X-295.9095 Y258.8797
G2 X-296.0857 Y260.7607 I90.5226 J9.4314
G2 X-296.1044 Y260.9999 I7.4433 J0.7021
G1 X-296.1222 Y261.243
G2 X-296.1539 Y261.7451 I19.0607 J1.4558
G2 X-296.1814 Y262.8188 I14.7035 J0.9141
G2 X-296.1682 Y263.0915 I3.6606 J-0.0414
G2 X-296.1529 Y263.2285 I1.3366 J-0.0797
G1 X-296.1475 Y263.2626
G2 X-296.1131 Y263.3983 I0.9066 J-0.1575
G2 X-295.9973 Y263.5934 I0.6965 J-0.2816
G2 X-295.9493 Y263.652 I0.7702 J-0.5822
G2 X-295.7353 Y263.865 I1.7798 J-1.5743
G2 X-295.2583 Y264.2297 I3.468 J-4.0416
G2 X-294.2361 Y264.8436 I6.6095 J-9.8463
G2 X-293.532 Y265.209 I11.0157 J-20.3642
G2 X-293.3424 Y265.3026 I3.5153 J-6.8873
G1 X-292.9069 Y265.5112
G2 X-291.7357 Y266.0395 I15.8464 J-33.5692
G2 X-291.0609 Y266.3274 I12.9175 J-29.3458
G1 X-290.6997 Y266.4775
G1 X-290.3137 Y266.6354
G1 X-289.9011 Y266.8013
G1 X-289.4603 Y266.9757
G1 X-288.9891 Y267.1591
G1 X-288.4857 Y267.3521
G1 X-287.9478 Y267.555
G1 X-287.3731 Y267.7684
G1 X-286.7592 Y267.9929
G2 X-285.353 Y268.4953 I53.8405 J-148.4752
G2 X-281.588 Y269.7764 I66.1936 J-188.3729
G2 X-276.5424 Y271.3893 I93.3465 J-283.3077
G1 X-275.8895 Y271.5914
G2 X-268.912 Y273.6807 I135.6217 J-440.2337
G1 X-267.0466 Y274.2209
G1 X-265.0553 Y274.7906
G1 X-262.9296 Y275.3913
G2 X-251.5726 Y278.4951 I232.3847 J-827.9738
G1 X-251.2142 Y278.5906
G1 X-250.8529 Y278.6867
G1 X-250.4888 Y278.7835
G1 X-250.1218 Y278.8809
G1 X-249.7519 Y278.9789
G1 X-249.0004 Y279.1776
G1 X-248.2368 Y279.379
G1 X-247.4609 Y279.583
G1 X-246.6727 Y279.7898
G2 X-245.045 Y280.2149 I84.1576 J-318.8652
G1 X-244.218 Y280.4301
G1 X-243.3778 Y280.648
G1 X-242.5242 Y280.8689
G1 X-241.6568 Y281.0927
G1 X-240.7756 Y281.3195
G1 X-240.3315 Y281.4336
G1 X-238.0943 Y281.9858
G1 X-237.3482 Y282.1684
G2 X-234.362 Y282.8913 I271.0371 J-1112.9968
G1 X-234.1692 Y282.9376
G1 X-233.2878 Y283.1483
G1 X-230.9363 Y283.7049
G1 X-230.7869 Y283.74
G1 X-229.4209 Y284.0593
G1 X-227.8591 Y284.421
G2 X-227.4559 Y284.5137 I9.8265 J-41.7848
G1 X-225.612 Y284.9348
G1 X-225.136 Y285.0427
G2 X-209.8635 Y288.3107 I142.4435 J-628.3757
G2 X-199.6379 Y290.2739 I115.2696 J-572.7785
G2 X-199.3153 Y290.3327 I2.7551 J-14.2065
G2 X-198.99 Y290.3917 I3.2971 J-17.2331
G2 X-198.3292 Y290.5111 I11.8925 J-63.9506
G2 X-195.5078 Y291.0111 I114.7823 J-639.4206
G2 X-180.4148 Y293.4062 I83.4243 J-476.9523
G1 X-180.1774 Y293.4399
G1 X-179.939 Y293.4736
G2 X-177.9704 Y293.7466 I39.0782 J-274.5098
G2 X-173.7666 Y294.2987 I54.8863 J-401.7009
G2 X-173.5026 Y294.3319 I2.3626 J-17.7095
G1 X-172.4298 Y294.4651
G1 X-171.3396 Y294.5975
G1 X-170.7901 Y294.663
G1 X-169.6733 Y294.7939
G1 X-169.1103 Y294.8587
G1 X-168.5428 Y294.9231
G2 X-158.1494 Y295.9464 I40.0334 J-353.3184
G2 X-152.5946 Y296.3628 I27.5085 J-329.7008
G2 X-139.8728 Y296.9269 I18.921 J-282.9788
G1 X-139.4733 Y296.935
G2 X-138.668 Y296.9494 I1.7055 J-72.631
G2 X-135.3424 Y296.9815 I4.1303 J-256.3369
G1 X-134.9251 Y296.9823
G2 X-134.506 I0.2161 J-45.3031
G1 X-133.6615 Y296.9802
G1 X-132.8102 Y296.9749
G2 X-125.5465 Y296.7962 I-1.7416 J-218.5487
G2 X-117.808 Y296.3161 I-8.035 J-192.1248
G2 X-113.823 Y295.9376 I-14.0303 J-168.8571
G2 X-112.8204 Y295.8271 I-134.6629 J-1226.2519
G2 X-108.6871 Y295.3025 I-18.6221 J-163.2748
G2 X-104.4357 Y294.6395 I-21.0342 J-148.8439
G1 X-103.9037 Y294.5472
G2 X-94.8771 Y292.6389 I-22.539 J-128.9168
G2 X-90.2719 Y291.4108 I-36.2681 J-145.2476
G1 X-89.9848 Y291.3291
G1 X-88.8285 Y290.9949
G1 X-87.6648 Y290.652
G1 X-87.5192 Y290.6087
G1 X-86.9349 Y290.4346
G1 X-86.3485 Y290.2594
G1 X-85.166 Y289.9073
G3 X-82.7545 Y289.2238 I24.4358 J81.626
G2 X-81.8244 Y288.9775 I-35.0871 J-134.3643
G1 X-80.8953 Y288.7277
G1 X-80.2766 Y288.5587
G1 X-80.1968 Y288.5367
G2 X-77.651 Y287.807 I-31.0935 J-113.2799
G2 X-75.966 Y287.2793 I-18.4021 J-61.7233
G2 X-73.7477 Y286.4906 I-13.12 J-40.4152
G2 X-73.1648 Y286.2571 I-7.3369 J-19.1607
G2 X-71.8531 Y285.6731 I-9.7722 J-23.7115
G1 X-71.5208 Y285.509
G2 X-70.8227 Y285.1371 I-10.4739 J-20.5021
G1 X-70.7794 Y285.1127
G2 X-69.2563 Y284.1194 I-6.6439 J-11.8527
G2 X-67.7171 Y282.7087 I-6.4715 J-8.6057
G2 X-66.3295 Y280.7444 I-8.1214 J-7.2093
G1 X-66.2565 Y280.6112
G2 X-65.6942 Y279.4396 I-12.4913 J-6.7157
G2 X-65.2005 Y278.1417 I-17.3179 J-7.331
G2 X-64.9805 Y277.4593 I-17.4787 J-6.0118
G1 X-64.8764 Y277.1104
G1 X-64.7753 Y276.7546
G2 X-64.5803 Y276.0169 I-52.4011 J-14.2478
G1 X-64.4875 Y275.6409
G1 X-64.397 Y275.2582
G1 X-64.3086 Y274.8689
G2 X-64.1706 Y274.1908 I-14.5293 J-3.3107
G1 X-64.153 Y274.0935
G1 X-64.1088 Y273.8336
G2 X-63.9772 Y272.7877 I-14.4726 J-2.3519
G2 X-63.9715 Y272.7198 I-1.036 J-0.122
G2 X-63.9339 Y271.9951 I-10.5806 J-0.9113
G2 X-63.9621 Y271.0277 I-9.8308 J-0.1979
G2 X-63.9873 Y270.7707 I-4.4591 J0.307
G2 X-64.2767 Y269.4231 I-6.5475 J0.7015
G2 X-64.581 Y268.6935 I-4.6961 J1.5298
G2 X-65.9668 Y267.0854 I-3.9206 J1.9775
G2 X-67.0586 Y266.5136 I-2.7319 J3.8877
G2 X-68.4362 Y266.189 I-1.9953 J5.3826
G2 X-69.1928 Y266.1583 I-0.5747 J4.836
G3 X-69.2806 Y266.2287 I-0.3698 J-0.3713
G3 X-69.294 Y266.2377 I-0.0313 J-0.032
G3 X-69.4038 Y266.3047 I-1.4842 J-2.3089
G3 X-69.4359 Y266.3227 I-0.1212 J-0.179
G3 X-69.6983 Y266.454 I-1.4879 J-2.6445
G1 X-69.7746 Y266.4887
G1 X-69.8625 Y266.5272
G3 X-70.5755 Y266.803 I-4.1378 J-9.637
G3 X-70.5985 Y266.8111 I-0.0396 J-0.0757
G3 X-70.6218 Y266.8193 I-0.0402 J-0.0769
G3 X-70.6455 Y266.8276 I-0.0407 J-0.0782
G3 X-71.1518 Y266.9969 I-12.6501 J-36.9916
G1 X-71.2875 Y267.0401
G1 X-71.5983 Y267.136
G3 X-74.1054 Y267.8119 I-13.9767 J-46.8537
G1 X-74.4419 Y267.8935
G1 X-74.8012 Y267.9789
G1 X-75.1847 Y268.0682
G3 X-77.2346 Y268.5189 I-25.0401 J-108.997
G3 X-78.409 Y268.7607 I-18.608 J-87.3837
G3 X-81.5472 Y269.3639 I-40.7363 J-203.4911
G1 X-82.3855 Y269.5164
G1 X-83.2803 Y269.6757
G3 X-85.3269 Y270.0285 I-40.8938 J-231.1158
G1 X-86.4193 Y270.2109
G1 X-87.5851 Y270.4014
G1 X-88.8291 Y270.6004
G1 X-90.1567 Y270.8083
G3 X-97.2434 Y271.8532 I-82.306 J-533.6791
G1 X-99.1352 Y272.1167
G1 X-101.1537 Y272.3918
G1 X-103.3075 Y272.679
G1 X-105.6056 Y272.9788
G1 X-108.0576 Y273.2918
G1 X-110.6738 Y273.6185
G1 X-113.4651 Y273.9596
G3 X-117.4542 Y274.3461 I-10.2681 J-85.2002
G3 X-118.787 Y274.4376 I-6.2801 J-81.7133
G1 X-119.1427 Y274.4592
G1 X-119.9558 Y274.5044
G3 X-122.1253 Y274.5981 I-7.1437 J-140.2276
G1 X-122.7041 Y274.6169
G3 X-125.7917 Y274.6775 I-4.3716 J-143.9966
G3 X-129.909 Y274.6664 I-1.6123 J-164.7125
G3 X-131.0068 Y274.6478 I1.7001 J-132.5231
G1 X-131.5734 Y274.6358
G1 X-132.7819 Y274.605
G3 X-135.5433 Y274.5096 I6.7999 J-236.7565
G3 X-137.0154 Y274.4453 I6.7561 J-171.7637
G1 X-137.7751 Y274.4088
G1 X-138.5592 Y274.3687
G3 X-140.2313 Y274.2754 I10.3776 J-201.12
G3 X-140.6559 Y274.2501 I5.4819 J-95.5584
G3 X-149.7018 Y273.5709 I20.1723 J-329.2648
G1 X-150.8675 Y273.4658
G1 X-152.0705 Y273.3535
G1 X-153.3119 Y273.2337
G1 X-154.5929 Y273.106
G1 X-155.2434 Y273.0396
G3 X-169.0915 Y271.4064 I50.734 J-489.6953
G3 X-169.5269 Y271.3489 I3.3985 J-27.4074
G3 X-169.9657 Y271.2906 I4.7179 J-37.1881
G1 X-170.8571 Y271.1711
G3 X-174.6579 Y270.6461 I96.7599 J-714.5986
G1 X-176.6182 Y270.366
G1 X-177.6136 Y270.2213
G1 X-179.6677 Y269.918
G1 X-181.7869 Y269.5983
G3 X-182.8631 Y269.4333 I19.9776 J-133.9527
G1 X-185.0837 Y269.0877
G1 X-187.3748 Y268.7238
G1 X-189.7384 Y268.3408
G3 X-190.035 Y268.2922 I2.4147 J-15.6695
G3 X-190.3327 Y268.2434 I2.7235 J-17.516
G1 X-192.7901 Y267.8354
G3 X-204.0054 Y265.8779 I135.7501 J-810.8739
G1 X-204.3569 Y265.8141
G3 X-205.0652 Y265.6852 I43.4603 J-240.7897
G1 X-206.5041 Y265.4216
G1 X-207.229 Y265.2878
G1 X-207.9595 Y265.1525
G3 X-214.1881 Y263.9749 I156.2263 J-843.3631
G1 X-215.7686 Y263.6694
G1 X-217.3738 Y263.3566
G3 X-232.0221 Y260.3791 I206.5768 J-1053.8165
G1 X-233.8791 Y259.9862
G1 X-235.7649 Y259.5836
G1 X-237.6797 Y259.1712
G1 X-239.6241 Y258.7487
G1 X-239.7458 Y258.7221
G1 X-239.8675 Y258.6955
G1 X-239.9894 Y258.6688
G1 X-241.9694 Y258.2339
G3 X-243.9799 Y257.788 I207.108 J-938.7504
G1 X-246.0214 Y257.331
G1 X-247.0498 Y257.0992
G1 X-249.1385 Y256.6247
G1 X-249.2692 Y256.5949
G3 X-258.176 Y254.5148 I220.5548 J-964.529
G1 X-258.7341 Y254.3813
G1 X-261.0011 Y253.8346
G1 X-261.5698 Y253.6963
G3 X-271.2561 Y251.2608 I142.6754 J-587.9109
G1 X-271.5587 Y251.1817
G3 X-276.5465 Y249.8404 I92.3866 J-353.4839
G1 X-276.7022 Y249.7971
G1 X-277.9561 Y249.4438
G1 X-278.5847 Y249.2634
G1 X-278.8993 Y249.1721
G1 X-279.7623 Y248.9193
G1 X-280.0498 Y248.8343
G1 X-281.1986 Y248.4911
G1 X-281.9634 Y248.259
G1 X-282.1672 Y248.1966
G1 X-283.2531 Y247.8602
G3 X-287.5725 Y246.4394 I43.6114 J-139.8537
G1 X-287.8495 Y246.3427
G1 X-288.4395 Y246.134
G1 X-288.5892 Y246.0804
G3 X-291.7594 Y244.8767 I29.0398 J-81.2563
G3 X-293.5455 Y244.1244 I23.136 J-57.4237
G3 X-295.5534 Y243.1884 I19.0917 J-43.5772
G3 X-297.7844 Y241.9886 I15.3677 J-31.25
G3 X-298.9337 Y241.2764 I14.1253 J-24.0797
G3 X-299.0758 Y241.1826 I1.6991 J-2.7282
G3 X-299.2185 Y241.0869 I1.9504 J-3.064
G3 X-299.8002 Y240.6809 I10.106 J-15.0978
G1 X-300.0907 Y240.4675
G1 X-300.382 Y240.2454
G3 X-301.576 Y239.2332 I10.7711 J-13.9169
G3 X-301.7198 Y239.098 I16.2944 J-17.4616
G3 X-302.874 Y237.865 I9.9715 J-10.4909
G3 X-304.857 Y234.5007 I9.221 J-7.7019
G3 X-305.4519 Y232.4762 I12.1754 J-4.677
G3 X-305.7573 Y230.2269 I15.9473 J-3.3106
G1 X-305.7666 Y230.0845
G3 X-305.7831 Y227.6411 I23.3649 J-1.3789
G1 X-305.7685 Y227.3334
G3 X-305.5303 Y224.7176 I36.547 J2.0093
G1 X-305.4882 Y224.3894
G3 X-304.9918 Y221.9283 I17.5917 J2.2672
G3 X-304.1244 Y219.5722 I14.348 J3.9447
G3 X-301.1839 Y215.5202 I11.8594 J5.5133
G3 X-298.4693 Y213.5541 I9.4883 J10.2432
G3 X-296.7415 Y212.7226 I7.813 J14.0249
G3 X-294.67 Y212.0194 I6.7149 J16.3767
G1 X-294.4015 Y211.9479
G1 X-294.3339 Y211.9306
G3 X-291.8357 Y211.4668 I4.8755 J19.3007
G3 X-290.4862 Y211.3599 I1.9806 J16.4357
G3 X-290.3157 Y211.3554 I0.159 J2.759
G3 X-290.1437 Y211.3543 I0.1136 J4.3688
G1 X-293.0404 Y227.9648
G2 X-291.6414 Y228.3523 I232.2476 J-835.8739
G1 X-291.1747 Y228.4804
G1 X-290.9079 Y228.5534
G1 X-288.7731 Y229.1334
G1 X-287.349 Y229.5169
G1 X-286.5349 Y229.735
G1 X-284.3632 Y230.3135
G1 X-284.0829 Y230.3878
G1 X-283.7935 Y230.4645
G1 X-280.7059 Y231.2778
G1 X-279.8821 Y231.4935
G1 X-279.0034 Y231.723
G1 X-276.9943 Y232.2454
G1 X-274.6973 Y232.8391
G1 X-273.4719 Y233.1544
G1 X-270.67 Y233.8715
G1 X-267.4664 Y234.6855
G1 X-263.8035 Y235.6087
G1 X-261.8491 Y236.0982
G1 X-261.3526 Y236.2222
G1 X-260.8483 Y236.348
G1 X-260.3359 Y236.4757
G1 X-258.1494 Y237.0191
G1 X-257.5939 Y237.1568
G1 X-257.0296 Y237.2964
G1 X-256.4563 Y237.4382
G1 X-255.8739 Y237.582
G1 X-255.2821 Y237.7279
G1 X-254.681 Y237.876
G1 X-254.0703 Y238.0263
G1 X-253.4498 Y238.1787
G1 X-252.8194 Y238.3334
G1 X-250.1296 Y238.9913
G1 X-247.2595 Y239.6895
G1 X-246.5304 Y239.8662
G1 X-245.7897 Y240.0455
G1 X-245.0372 Y240.2274
G1 X-244.2727 Y240.4119
G1 X-241.0101 Y241.1964
G1 X-237.5289 Y242.0282
G1 X-236.6445 Y242.2387
G1 X-235.7461 Y242.4522
G1 X-234.8333 Y242.6687
G2 X-226.4843 Y244.6328 I509.6043 J-2147.4794
G1 X-222.0289 Y245.6692
G1 X-219.7287 Y246.2011
G1 X-218.5601 Y246.4706
G1 X-217.3729 Y246.7438
G1 X-216.1667 Y247.0208
G1 X-214.9412 Y247.3016
G1 X-213.6961 Y247.5864
G1 X-211.1253 Y248.1724
G2 X-199.3664 Y250.8213 I640.1458 J-2814.2901
G1 X-198.6252 Y250.9866
G1 X-197.8782 Y251.1529
G2 X-169.3313 Y255.8902 I69.8217 J-332.3628
G1 X-169.1051 Y255.9179
G2 X-167.1738 Y256.1475 I40.904 J-335.8646
G2 X-136.1407 Y258.305 I38.8691 J-334.816
G2 X-115.3984 Y258.1315 I7.6363 J-327.1538
G2 X-103.5642 Y257.433 I-12.3282 J-309.4428
G2 X-97.2659 Y256.8751 I-24.3842 J-311.1298
G1 X-96.4733 Y256.7954
G1 X-95.6747 Y256.713
G2 X-88.8692 Y255.9204 I-30.3042 J-289.7947
G2 X-87.144 Y255.6933 I-22.8371 J-180.2198
G2 X-79.7988 Y254.61 I-39.8223 J-295.4561
G1 X-78.8751 Y254.4622
G1 X-78.6437 Y254.425
G1 X-77.7111 Y254.2746
G1 X-77.4775 Y254.237
G1 X-76.5354 Y254.0876
G2 X-74.878 Y253.8203 I-17.0129 J-110.7557
G2 X-74.7677 Y253.8016 I-0.4281 J-2.863
G2 X-73.0057 Y253.4819 I-12.7728 J-75.4182
G2 X-71.8365 Y253.2407 I-12.3416 J-62.7815
G1 X-71.7624 Y253.2244
G2 X-70.1907 Y252.8433 I-7.4669 J-34.2256
G2 X-69.7748 Y252.729 I-9.2803 J-34.5577
G2 X-67.5936 Y251.9963 I-5.9473 J-21.3202
G2 X-66.3922 Y251.4583 I-5.362 J-13.5834
G2 X-65.0874 Y250.7044 I-5.664 J-11.3096
G2 X-63.7325 Y249.6316 I-5.7724 J-8.6816
G2 X-62.4363 Y248.1258 I-6.6402 J-7.0268
G2 X-61.8746 Y247.2214 I-8.4308 J-5.8626
G2 X-61.3739 Y246.1984 I-10.4379 J-5.7433
G2 X-60.9431 Y245.0599 I-12.7105 J-5.4605
G2 X-60.5862 Y243.8106 I-15.5225 J-5.1102
G2 X-60.3032 Y242.4552 I-20.0611 J-4.895
G1 X-60.2625 Y242.2143
G1 X-60.2245 Y241.9731
G2 X-60.2007 Y241.812 I-4.6295 J-0.7654
G1 X-60.171 Y241.5968
G1 X-60.1551 Y241.4737
G2 X-60.0574 Y240.4859 I-17.0386 J-2.184
G2 X-60.024 Y239.825 I-16.3461 J-1.1569
G2 X-60.0241 Y238.9427 I-13.1471 J-0.4392
G2 X-60.0495 Y238.439 I-13.1839 J0.4117
G2 X-60.2199 Y237.1048 I-11.5603 J0.7978
G2 X-60.7211 Y235.381 I-8.9078 J1.6556
G2 X-61.1713 Y234.4559 I-6.9089 J2.7896
G2 X-61.8455 Y233.4882 I-5.943 J3.4219
G2 X-62.8281 Y232.5546 I-4.4629 J3.7137
G2 X-63.4434 Y232.1658 I-2.7442 J3.6617
G2 X-63.6114 Y232.0871 I-0.711 J1.2977
G3 X-64.8431 Y232.5557 I-11.8559 J-29.3082
G3 X-65.0203 Y232.6193 I-1.6679 J-4.3692
G3 X-65.2232 Y232.6912 I-1.8917 J-5.0118
G3 X-65.2756 Y232.7097 I-0.46 J-1.2231
G3 X-65.3297 Y232.7286 I-0.4735 J-1.2628
G3 X-65.3856 Y232.7482 I-0.4874 J-1.3037
G3 X-65.4433 Y232.7683 I-0.5017 J-1.3458
G3 X-65.5028 Y232.789 I-0.5163 J-1.3892
G3 X-65.5644 Y232.8104 I-0.5313 J-1.4339
G3 X-65.6279 Y232.8323 I-0.5466 J-1.4799
G3 X-65.6935 Y232.8549 I-0.5623 J-1.5273
G3 X-65.7613 Y232.8781 I-0.5783 J-1.576
G3 X-65.8312 Y232.902 I-0.5948 J-1.6262
G3 X-65.9035 Y232.9266 I-0.6116 J-1.6778
G3 X-65.9781 Y232.9519 I-0.6288 J-1.7309
G3 X-66.0551 Y232.978 I-0.6453 J-1.7823
G3 X-66.1347 Y233.0048 I-0.6632 J-1.8383
G3 X-68.6935 Y233.8186 I-25.6713 J-76.2864
G3 X-68.8594 Y233.8685 I-1.1861 J-3.637
G3 X-69.0308 Y233.9199 I-1.2122 J-3.7372
G3 X-70.863 Y234.4496 I-27.3111 J-91.0257
G3 X-71.9138 Y234.7392 I-45.7853 J-164.0919
G3 X-74.7267 Y235.4696 I-39.4656 J-146.2112
G3 X-78.4976 Y236.3595 I-41.9138 J-169.1645
G3 X-78.7377 Y236.4131 I-1.7083 J-7.0942
G3 X-78.8588 Y236.4399 I-1.3259 J-5.6882
G3 X-78.9808 Y236.4669 I-1.3254 J-5.7027
G3 X-79.1038 Y236.494 I-1.3262 J-5.7229
G1 X-80.1539 Y236.7219
G3 X-85.7742 Y237.8376 I-40.108 J-187.3168
G3 X-85.9517 Y237.8702 I-1.3218 J-6.7007
G3 X-86.1307 Y237.9029 I-1.3208 J-6.7233
G3 X-86.3111 Y237.9357 I-1.3201 J-6.748
G1 X-87.0562 Y238.0695
G1 X-87.8258 Y238.205
G1 X-88.6207 Y238.342
G1 X-89.4417 Y238.4805
G1 X-90.2896 Y238.6203
G1 X-91.1654 Y238.7615
G1 X-92.0699 Y238.9038
G3 X-101.7452 Y240.2206 I-40.0563 J-258.1099
G3 X-107.2919 Y240.8214 I-34.6088 J-293.6039
G3 X-110.6026 Y241.0302 I-4.8852 J-51.0995
G3 X-113.9196 Y241.0688 I-2.6143 J-82.1183
G1 X-114.362 Y241.0646
G1 X-114.8338 Y241.0581
G3 X-117.349 Y240.991 I1.8812 J-117.7376
G1 X-118.0195 Y240.9649
G1 X-118.3654 Y240.9503
G3 X-122.0531 Y240.7486 I7.6706 J-174.0641
G3 X-122.1109 Y240.7448 I0.0124 J-0.6377
G3 X-122.169 Y240.741 I0.0126 J-0.64
G3 X-122.2273 Y240.7372 I0.0129 J-0.6422
G3 X-127.1941 Y240.3548 I16.1676 J-242.3958
G1 X-127.8344 Y240.2982
G1 X-128.4952 Y240.2383
G1 X-129.1771 Y240.1748
G3 X-136.4404 Y239.4117 I34.6051 J-364.309
G1 X-137.3765 Y239.3031
G1 X-138.3426 Y239.189
G3 X-148.6289 Y237.8563 I63.7179 J-532.1761
G3 X-149.9543 Y237.671 I46.9491 J-340.7244
G3 X-156.008 Y236.792 I101.9371 J-723.2682
G1 X-156.3891 Y236.7349
G1 X-156.7732 Y236.6773
G3 X-163.7902 Y235.5921 I143.7725 J-952.9332
G1 X-164.6806 Y235.4504
G1 X-165.585 Y235.3056
G1 X-167.4517 Y235.004
G3 X-167.5686 Y234.985 I0.3487 J-2.5133
G3 X-167.6857 Y234.9659 I0.3507 J-2.5249
G3 X-167.8031 Y234.9468 I0.3528 J-2.5366
G3 X-167.9207 Y234.9276 I0.3549 J-2.5484
G3 X-168.0385 Y234.9084 I0.357 J-2.5603
G1 X-169.9834 Y234.5893
G1 X-170.9711 Y234.4258
G1 X-171.9743 Y234.2588
G1 X-174.0448 Y233.9113
G3 X-174.1745 Y233.8894 I0.506 J-3.3911
G3 X-174.3045 Y233.8674 I0.5103 J-3.4152
G3 X-196.4311 Y229.9324 I232.2498 J-1370.1452
G1 X-197.8339 Y229.6712
G1 X-200.7292 Y229.1281
G1 X-202.1995 Y228.8503
G1 X-205.234 Y228.2728
G1 X-208.3651 Y227.6712
G3 X-241.6877 Y220.9287 I362.7683 J-1878.599
G1 X-243.7993 Y220.4805
G1 X-245.9438 Y220.0225
G1 X-246.2124 Y219.9649
G3 X-248.3943 Y219.4954 I338.56 J-1578.7222
G1 X-249.4937 Y219.2576
G1 X-251.7267 Y218.7719
G1 X-253.9942 Y218.2746
G1 X-255.1366 Y218.0224
G1 X-256.2876 Y217.7671
G1 X-257.4475 Y217.5084
G1 X-259.8029 Y216.9782
G3 X-264.6591 Y215.8549 I97.0953 J-430.8244
G3 X-265.8801 Y215.5608 I44.8238 J-188.7891
G1 X-266.1857 Y215.4858
G1 X-267.3041 Y215.2121
G2 X-267.3787 Y215.194 I-0.2986 J1.0705
G1 X-267.7768 Y215.0981
G1 X-269.3701 Y214.719
G2 X-269.473 Y214.6948 I-0.4039 J1.4829
G1 X-272.7654 Y213.9248
G1 X-274.9598 Y213.4088
G3 X-277.8809 Y212.7011 I59.4065 J-251.6052
G1 X-278.2572 Y212.6073
G1 X-279.0595 Y212.4046
G1 X-279.9141 Y212.1843
G1 X-280.8243 Y211.944
G1 X-281.2935 Y211.8177
G3 X-283.4318 Y211.2164 I26.872 J-99.6614
G1 X-283.9816 Y211.0541
G3 X-285.1511 Y210.6966 I22.2834 J-74.998
G3 X-285.7527 Y210.5056 I14.5006 J-46.7191
G1 X-286.3722 Y210.3034
G1 X-286.5281 Y210.2516
G3 X-289.3542 Y209.236 I20.0511 J-60.2394
G3 X-290.0747 Y208.9502 I11.0484 J-28.8985
G3 X-290.8138 Y208.6433 I12.7774 J-31.8154
G1 X-291.1871 Y208.4825
G3 X-292.7628 Y207.7559 I14.567 J-33.6615
G3 X-292.959 Y207.6594 I2.7422 J-5.82
G3 X-293.1561 Y207.5609 I4.0403 J-8.3318
G1 X-293.5548 Y207.3569
G1 X-293.9571 Y207.1441
G3 X-294.7779 Y206.6864 I12.0408 J-22.5574
G3 X-296.477 Y205.6171 I13.6803 J-23.6219
G3 X-297.3185 Y205.0101 I11.0108 J-16.1538
G3 X-298.1557 Y204.3397 I13.8113 J-18.1023
G3 X-298.9796 Y203.597 I10.3137 J-12.2711
G3 X-300.5651 Y201.8232 I10.5218 J-11.0001
G3 X-301.9057 Y199.6385 I10.2087 J-7.7683
G3 X-302.8173 Y197.0158 I11.0856 J-5.3229
G3 X-303.1396 Y194.0148 I13.3278 J-2.9489
G3 X-303.0149 Y191.817 I18.7803 J-0.0372
G3 X-302.6143 Y189.6524 I15.8563 J1.8154
G1 X-302.5966 Y189.5846
G3 X-302.4203 Y188.97 I13.0548 J3.4115
G3 X-301.8169 Y187.3753 I13.3871 J4.1543
G3 X-301.7247 Y187.1753 I4.158 J1.7954
G3 X-300.5401 Y185.1488 I12.1073 J5.7182
G3 X-298.4399 Y182.8281 I11.0766 J7.9128
G3 X-297.0264 Y181.7278 I10.289 J11.76
G1 X-296.838 Y181.6
G3 X-296.0152 Y181.0853 I9.1819 J13.7621
G3 X-294.0393 Y180.0872 I9.2659 J15.889
G3 X-291.6663 Y179.2321 I8.0215 J18.5404
G3 X-290.3663 Y178.8936 I6.6834 J23.0021
G3 X-290.0332 Y178.8206 I6.2396 J27.6737
G3 X-288.6025 Y178.5729 I3.9466 J18.5413
G1 X-288.421 Y178.5501
G3 X-288.0513 Y178.5125 I0.796 J5.9854
G1 X-289.5845 Y192.6192
G1 X-288.3123 Y194.1057
G1 X-283.0907 Y195.204
G1 X-277.8676 Y196.2955
G1 X-276.375 Y196.6064
G1 X-272.3946 Y197.4335
G1 X-267.0864 Y198.5321
G1 X-264.0527 Y199.1577
G1 X-260.5852 Y199.8709
G2 X-232.8309 Y205.5046 I1245.9309 J-6066.8852
G1 X-231.0393 Y205.8634
G1 X-227.217 Y206.6269
G1 X-225.244 Y207.0199
G1 X-221.0343 Y207.8556
G1 X-219.9651 Y208.0673
G1 X-218.8788 Y208.2821
G1 X-214.2435 Y209.1957
G2 X-214.0983 Y209.2243 I0.7001 J-3.178
G1 X-209.1433 Y210.1952
G1 X-207.8847 Y210.4409
G1 X-205.286 Y210.9469
G1 X-202.6032 Y211.4675
G1 X-199.8335 Y212.0029
G2 X-199.4859 Y212.07 I3.6928 J-18.2106
G1 X-196.6151 Y212.6224
G1 X-193.6513 Y213.1902
G1 X-192.9044 Y213.3329
G1 X-191.3868 Y213.6223
G1 X-188.2534 Y214.2174
G2 X-186.6616 Y214.5185 I65.1723 J-340.1998
G1 X-183.3747 Y215.1374
G1 X-182.5464 Y215.2928
G1 X-179.1259 Y215.9316
G1 X-178.2639 Y216.0919
G1 X-174.7042 Y216.7506
G1 X-171.0285 Y217.425
G2 X-167.2331 Y218.1147 I215.6701 J-1175.9703
G1 X-166.9954 Y218.1577
G2 X-163.0685 Y218.8631 I389.31 J-2156.0161
G1 X-161.0733 Y219.2182
G1 X-159.8583 Y219.4304
G1 X-158.6422 Y219.6363
G1 X-157.8309 Y219.77
G1 X-157.367 Y219.8451
G1 X-156.1294 Y220.0409
G1 X-155.9696 Y220.0657
G1 X-155.8046 Y220.0912
G1 X-155.6343 Y220.1173
G2 X-155.271 Y220.1727 I2.5842 J-15.7352
G1 X-154.4402 Y220.2971
G2 X-152.2226 Y220.6141 I30.4065 J-204.7915
G2 X-143.3241 Y221.6644 I30.7535 J-222.3392
G1 X-142.1347 Y221.7777
G1 X-140.8654 Y221.8916
G1 X-140.21 Y221.9475
G1 X-139.5333 Y222.0032
G1 X-138.8347 Y222.0586
G1 X-138.1133 Y222.1133
G1 X-137.7467 Y222.1403
G1 X-137.3743 Y222.167
G2 X-133.9679 Y222.382 I14.1157 J-196.5263
G1 X-133.535 Y222.4055
G1 X-133.0953 Y222.4285
G2 X-123.7067 Y222.7056 I10.9243 J-210.9792
G2 X-111.1865 Y222.4269 I1.6263 J-208.3059
G2 X-107.8527 Y222.2246 I-10.9414 J-207.9457
G1 X-107.4329 Y222.1953
G1 X-107.0098 Y222.1648
G2 X-89.0448 Y220.03 I-14.2877 J-196.8919
G1 X-87.9118 Y219.8387
G2 X-77.6098 Y217.7808 I-33.1147 J-192.5948
G1 X-76.9647 Y217.6331
G1 X-76.3149 Y217.4822
G2 X-70.7873 Y216.124 I-67.3073 J-285.8513
G1 X-70.0924 Y215.9473
G1 X-69.9182 Y215.903
G1 X-69.2163 Y215.7252
G3 X-67.788 Y215.3728 I23.5358 J92.3203
G1 X-67.4286 Y215.2886
G1 X-67.2482 Y215.2475
G3 X-67.1578 Y215.2273 I0.7194 J3.0061
G3 X-66.4266 Y215.0775 I4.7645 J21.399
G1 X-66.2422 Y215.0457
G2 X-64.8319 Y214.7701 I-3.2791 J-20.5256
G2 X-63.4465 Y214.388 I-3.6362 J-15.8883
G2 X-63.0576 Y214.2558 I-5.0209 J-15.4065
G2 X-62.0419 Y213.8458 I-4.4675 J-12.5302
G2 X-60.7554 Y213.1532 I-4.576 J-10.0413
G1 X-60.6771 Y213.1031
G2 X-59.1387 Y211.8539 I-4.8236 J-7.5124
G2 X-57.5931 Y209.7026 I-6.3104 J-6.1644
G2 X-56.9996 Y208.304 I-9.3032 J-4.773
G2 X-56.5511 Y206.6287 I-12.4492 J-4.2311
G2 X-56.2815 Y204.6728 I-16.7281 J-3.302
G2 X-56.2123 Y202.433 I-23.3129 J-1.8408
G1 X-56.2188 Y202.1735
G1 X-56.231 Y201.9142
G2 X-56.2425 Y201.7415 I-6.7156 J0.3615
G1 X-56.2504 Y201.6429
G2 X-56.3517 Y200.8585 I-8.4024 J0.6866
G2 X-56.4637 Y200.343 I-6.0869 J1.0515
G2 X-56.6815 Y199.6739 I-5.377 J1.3808
G1 X-56.7547 Y199.501
G2 X-57.2688 Y198.6402 I-3.8193 J1.6969
G2 X-58.2748 Y197.7501 I-2.9532 J2.3242
G2 X-58.9667 Y197.4069 I-2.3797 J3.9293
G2 X-59.809 Y197.1457 I-2.212 J5.6436
G2 X-60.7978 Y196.9786 I-1.8543 J7.963
G2 X-61.9309 Y196.9075 I-1.3166 J11.92
G1 X-62.2232 Y196.9044
G2 X-62.8428 Y196.9143 I-0.0539 J16.1193
G2 X-62.9998 Y196.9199 I0.031 J3.0528
G2 X-63.1591 Y196.9268 I0.0694 J3.4432
G2 X-63.3205 Y196.9349 I0.1253 J4.0859
G2 X-64.0029 Y196.981 I1.2539 J23.6462
G2 X-65.5274 Y197.1386 I2.7392 J33.9495
G1 X-65.72 Y197.1628
G1 X-65.9151 Y197.1882
G1 X-66.1128 Y197.2147
G1 X-66.5184 Y197.2713
G2 X-68.3259 Y197.5554 I10.9486 J75.5742
G2 X-68.5544 Y197.5942 I1.799 J11.2764
G2 X-69.0233 Y197.6755 I5.6899 J34.1982
G1 X-70.0123 Y197.8532
G1 X-70.5198 Y197.947
G2 X-70.5516 Y197.953 I0.0458 J0.334
G2 X-70.5835 Y197.9589 I0.046 J0.3346
G2 X-70.6154 Y197.9649 I0.0462 J0.3353
G2 X-72.8973 Y198.4026 I37.9733 J204.152
G1 X-74.103 Y198.6393
G1 X-76.8139 Y199.1736
G1 X-78.2507 Y199.4539
G1 X-79.7749 Y199.7463
G1 X-80.5599 Y199.8944
G3 X-80.7576 Y199.9314 I-1.6479 J-8.2561
G3 X-80.9568 Y199.9686 I-1.7264 J-8.7014
G3 X-81.1575 Y200.0059 I-1.8101 J-9.1784
G3 X-81.3597 Y200.0434 I-1.91 J-9.7471
G3 X-88.3092 Y201.1641 I-29.3115 J-159.6442
G3 X-95.2975 Y202.0106 I-27.3182 J-196.2606
G3 X-109.3381 Y203.0066 I-22.854 J-222.7084
G3 X-137.4681 Y202.4745 I-9.5257 J-240.2164
G3 X-145.4749 Y201.7167 I17.8692 J-231.4849
G3 X-154.5873 Y200.5157 I26.1158 J-233.313
G3 X-164.9327 Y198.6975 I33.8735 J-223.0871
G1 X-171.1664 Y197.4539
G1 X-173.2445 Y197.0401
G1 X-181.557 Y195.3863
G1 X-198.1819 Y192.0787
G1 X-209.2641 Y189.8683
G1 X-215.5962 Y188.6018
G1 X-218.973 Y187.925
G1 X-226.6907 Y186.3741
G1 X-230.8063 Y185.5443
G1 X-232.9303 Y185.1152
G1 X-237.461 Y184.1976
G1 X-239.7992 Y183.7228
G1 X-240.3884 Y183.603
G1 X-241.5853 Y183.3595
G1 X-246.6915 Y182.3174
G1 X-252.1368 Y181.1995
G1 X-252.8228 Y181.0582
G1 X-254.2164 Y180.7706
G1 X-255.6319 Y180.4778
G1 X-258.5539 Y179.8715
G1 X-261.5695 Y179.2424
G1 X-264.6816 Y178.5891
G1 X-267.893 Y177.9097
G1 X-269.5237 Y177.5624
G1 X-270.3454 Y177.3867
G3 X-273.7368 Y176.6558 I170.2769 J-798.3088
G1 X-274.591 Y176.47
G1 X-276.3259 Y176.0903
G1 X-277.2 Y175.8976
G1 X-278.9751 Y175.5028
G1 X-279.8693 Y175.302
G3 X-283.5571 Y174.4546 I82.5567 J-367.7343
G3 X-283.6723 Y174.4275 I0.3465 J-1.7305
G1 X-284.6008 Y174.207
G1 X-285.0666 Y174.095
G3 X-286.9562 Y173.6267 I29.49 J-123.0524
G3 X-287.4293 Y173.5048 I7.6664 J-30.7232
G1 X-287.9037 Y173.3798
G3 X-288.8569 Y173.1167 I19.1966 J-71.4206
G3 X-290.9082 Y172.4363 I6.7958 J-23.9185
G1 X-291.1961 Y172.3244
G3 X-293.4335 Y171.2785 I7.296 J-18.5244
G3 X-293.7208 Y171.1172 I4.3694 J-8.1224
G3 X-295.1954 Y170.161 I7.8825 J-13.7707
G3 X-295.9843 Y169.5383 I7.5338 J-10.3545
G3 X-297.8293 Y167.5922 I7.8159 J-9.2574
G3 X-299.4912 Y164.414 I8.7075 J-6.577
G3 X-299.9538 Y162.4051 I10.7235 J-3.5271
G3 X-300.0598 Y160.0482 I12.9153 J-1.7617
G3 X-299.6959 Y157.3794 I15.0258 J0.6899
G3 X-298.7475 Y154.464 I16.6151 J3.7931
G3 X-298.1831 Y153.4251 I6.1055 J2.6439
G3 X-297.4584 Y152.4911 I7.0989 J4.7595
G3 X-296.9103 Y151.9247 I7.3603 J6.5747
G3 X-296.1205 Y151.2329 I8.5485 J8.9643
G3 X-294.9916 Y150.409 I10.0532 J12.5881
G1 X-294.8409 Y150.3098
G3 X-293.1853 Y149.3413 I11.33 J17.4682
G1 X-292.9658 Y149.2267
G3 X-291.9511 Y148.7303 I12.1154 J23.4802
G3 X-289.1762 Y147.5931 I14.2681 J30.8624
G1 X-288.8119 Y147.4632
G1 X-288.766 Y147.4471
G1 X-288.7199 Y147.431
G1 X-288.5328 Y147.3663
G1 X-288.1458 Y147.2355
G1 X-287.9487 Y147.1706
G3 X-286.1376 Y146.6215 I14.3881 J44.1949
G3 X-284.0442 Y146.097 I9.6937 J34.2537
G2 X-284.7108 Y149.0252 I62.194 J15.699
G2 X-285.2386 Y151.9815 I55.0656 J11.3575
G2 X-285.2526 Y152.0759 I2.0761 J0.3543
G2 X-285.4898 Y154.0962 I33.142 J4.9163
G1 X-285.5101 Y154.3579
G2 X-285.5586 Y155.5576 I19.4668 J1.3882
G1 X-285.556 Y155.8676
G2 X-285.5444 Y156.1874 I10.6505 J-0.2245
G1 X-285.5346 Y156.3497
G2 X-285.453 Y157.04 I7.4442 J-0.5299
G2 X-285.3762 Y157.3914 I4.2272 J-0.7397
G2 X-285.2583 Y157.7453 I2.482 J-0.6302
G2 X-285.0731 Y158.0876 I1.6046 J-0.6467
G2 X-284.7726 Y158.3741 I0.8497 J-0.5903
G2 X-284.5593 Y158.4654 I0.5793 J-1.0586
G2 X-284.3384 Y158.5364 I1.1604 J-3.2357
G1 X-284.1898 Y158.5793
G1 X-284.1046 Y158.6028
G2 X-283.42 Y158.7756 I5.7888 J-21.4984
G1 X-283.2236 Y158.8217
G1 X-282.6992 Y158.9407
G1 X-281.9987 Y159.0926
G1 X-281.8116 Y159.1322
G1 X-280.8135 Y159.3383
G1 X-280.6846 Y159.3645
G2 X-276.5552 Y160.1651 I58.5252 J-290.8093
G1 X-276.004 Y160.2685
G1 X-274.7438 Y160.5029
G2 X-274.4184 Y160.563 I4.582 J-23.8846
G1 X-274.0826 Y160.6249
G2 X-263.3301 Y162.5557 I277.6782 J-1515.5038
G1 X-260.2562 Y163.0969
G1 X-258.6166 Y163.3844
G1 X-254.8687 Y164.0396
G1 X-250.5849 Y164.7857
G1 X-245.6888 Y165.6362
G1 X-232.6325 Y167.9009
G1 X-225.1722 Y169.1975
G1 X-216.6472 Y170.685
G1 X-212.1012 Y171.4818
G3 X-211.9588 Y171.5068 I-0.6496 J4.1167
G3 X-211.8161 Y171.5318 I-0.6572 J4.1603
G1 X-206.9487 Y172.3887
G1 X-201.7575 Y173.3073
G1 X-200.4393 Y173.5414
G1 X-194.8155 Y174.5447
G1 X-191.9135 Y175.0655
G3 X-185.7239 Y176.1845 I-363.3665 J2027.7172
G1 X-184.1523 Y176.4705
G1 X-180.9082 Y177.0638
G1 X-179.2607 Y177.3666
G1 X-175.8599 Y177.9952
G1 X-175.0032 Y178.1543
G3 X-171.4664 Y178.8151 I-1032.1764 J5534.6941
G1 X-170.5754 Y178.9825
G2 X-159.7714 Y180.741 I41.7531 J-222.4605
G2 X-148.8984 Y182.0043 I34.6174 J-250.5209
G1 X-148.1951 Y182.07
G2 X-140.6851 Y182.6579 I25.6851 J-279.8408
G2 X-138.6801 Y182.7809 I18.8325 J-290.4988
G1 X-138.4274 Y182.7955
G1 X-138.1727 Y182.8099
G1 X-137.9159 Y182.8242
G1 X-137.6572 Y182.8384
G2 X-126.6103 Y183.2392 I16.7005 J-307.8524
G2 X-123.6628 Y183.2811 I5.8855 J-310.3682
G1 X-122.1414 Y183.2925
G1 X-120.5708 Y183.297
G1 X-119.7731 Y183.2965
G1 X-118.9627 Y183.2941
G2 X-101.6856 Y182.8063 I-1.6598 J-365.0191
G1 X-101.1419 Y182.778
G2 X-91.2091 Y182.1295 I-20.6834 J-393.185
G2 X-85.9191 Y181.6862 I-34.2015 J-440.0022
G1 X-85.253 Y181.6258
G1 X-83.9 Y181.5
G1 X-82.526 Y181.368
G1 X-81.8338 Y181.2999
G1 X-80.4276 Y181.1585
G1 X-78.9996 Y181.0106
G2 X-76.0529 Y180.6926 I-39.4476 J-379.3297
G1 X-75.3107 Y180.6099
G2 X-72.2473 Y180.2596 I-60.0757 J-538.8796
G1 X-70.6918 Y180.0773
G1 X-67.4809 Y179.7003
G1 X-67.0778 Y179.654
G1 X-66.265 Y179.5629
G1 X-66.1633 Y179.5518
G1 X-65.9594 Y179.5297
G1 X-65.5499 Y179.4866
G2 X-63.9147 Y179.2731 I-2.7011 J-27.065
G2 X-63.6823 Y179.2347 I-1.054 J-7.1006
G1 X-63.6223 Y179.2244
G2 X-63.4945 Y179.2021 I-0.4322 J-2.8419
G2 X-63.2029 Y179.1483 I-1.7527 J-10.3255
G2 X-60.9032 Y178.57 I-3.5102 J-18.8212
G2 X-59.4259 Y178.0037 I-4.2322 J-13.2508
G2 X-57.5942 Y176.9522 I-4.2414 J-9.5098
G2 X-56.6657 Y176.1748 I-4.9998 J-6.9143
G2 X-55.7559 Y175.1254 I-5.5237 J-5.7078
G2 X-54.9531 Y173.7478 I-6.8372 J-4.907
G2 X-54.3484 Y172.0224 I-9.1522 J-4.1763
G2 X-54.1443 Y171.0679 I-13.0441 J-3.2895
G1 X-54.1035 Y170.8234
G2 X-53.9731 Y169.7755 I-18.2331 J-2.8
G2 X-53.8995 Y168.6548 I-20.0342 J-1.8787
G2 X-53.878 Y167.4619 I-32.6006 J-1.1841
G1 X-53.88 Y167.1593
G2 X-53.892 Y166.536 I-22.7884 J0.1247
G2 X-53.9453 Y165.2149 I-47.9142 J1.2728
G2 X-54.1607 Y164.0525 I-4.2018 J0.1774
G2 X-54.7399 Y163.022 I-3.0527 J1.0379
G2 X-55.3159 Y162.4793 I-2.6128 J2.1956
G2 X-56.2278 Y161.9555 I-2.7114 J3.6649
G2 X-56.7885 Y161.7423 I-2.7547 J6.4023
G2 X-57.4449 Y161.5584 I-2.4942 J7.6416
G2 X-57.5293 Y161.5389 I-0.2928 J1.0708
G2 X-58.3006 Y161.3941 I-2.1756 J9.4639
G2 X-58.3992 Y161.3795 I-0.2172 J1.1249
G1 X-58.6025 Y161.3517
G2 X-58.8124 Y161.3263 I-1.3653 J10.3842
G2 X-59.0288 Y161.3032 I-3.3594 J30.4788
G1 X-59.2521 Y161.2825
G1 X-59.4823 Y161.2643
G2 X-60.5244 Y161.2153 I-1.634 J23.6504
G2 X-60.5572 Y161.2145 I-0.0222 J0.2531
G2 X-60.5901 Y161.2138 I-0.022 J0.2542
G2 X-60.6231 Y161.2132 I-0.0217 J0.2553
G2 X-60.6562 Y161.2125 I-0.0215 J0.2564
G2 X-61.8509 Y161.2154 I-0.5201 J31.7502
G2 X-62.0024 Y161.219 I0.024 J4.2531
G2 X-62.156 Y161.2232 I0.0642 J5.1029
G2 X-62.3119 Y161.2282 I0.1309 J6.5828
G2 X-62.6326 Y161.2403 I0.2313 J10.3889
G1 X-62.9627 Y161.2553
G2 X-64.4512 Y161.3499 I3.5266 J67.1896
G2 X-65.2396 Y161.4149 I8.9094 J113.0132
G1 X-65.4394 Y161.4327
G1 X-65.6421 Y161.4512
G1 X-66.5019 Y161.5351
G1 X-67.4135 Y161.6319
G1 X-68.3804 Y161.7416
G1 X-69.4062 Y161.8643
G2 X-70.4951 Y161.9998 I12.2931 J103.2661
G1 X-71.0558 Y162.0711
G1 X-71.6334 Y162.1454
G1 X-72.2284 Y162.2225
G1 X-73.4928 Y162.3877
G1 X-74.8369 Y162.5635
G1 X-75.0062 Y162.5856
G1 X-75.1768 Y162.6078
G1 X-75.88 Y162.6989
G1 X-77.376 Y162.8895
G1 X-77.5645 Y162.9131
G1 X-78.3417 Y163.0095
G1 X-79.1432 Y163.1068
G3 X-82.793 Y163.5151 I-24.3444 J-201.0819
G3 X-86.9565 Y163.8876 I-15.6983 J-152.0011
G3 X-90.0229 Y164.0789 I-10.232 J-139.342
G1 X-90.4614 Y164.1006
G1 X-90.9625 Y164.1239
G3 X-94.9733 Y164.2559 I-8.0015 J-182.2211
G3 X-102.9984 Y164.2873 I-4.9597 J-241.3714
G3 X-103.5162 Y164.2807 I0.1364 J-30.8155
G3 X-103.7792 Y164.277 I0.4431 J-40.5378
G3 X-106.1832 Y164.2323 I7.3271 J-458.8591
G3 X-106.8036 Y164.2178 I1.0457 J-57.9638
G1 X-107.4439 Y164.2016
G3 X-108.8098 Y164.163 I3.2653 J-139.6852
G1 X-110.2666 Y164.1159
G1 X-111.0184 Y164.0894
G3 X-119.0332 Y163.7198 I15.4981 J-423.1297
G1 X-120.0668 Y163.6615
G3 X-131.0829 Y162.9121 I31.8513 J-549.5515
G1 X-132.5032 Y162.7998
G1 X-132.8611 Y162.771
G1 X-133.2217 Y162.7417
G1 X-134.7105 Y162.6186
G1 X-135.4666 Y162.5548
G1 X-137.0274 Y162.4201
G1 X-137.4207 Y162.3856
G1 X-139.0439 Y162.2405
G1 X-140.7192 Y162.0865
G3 X-148.372 Y161.3303 I67.639 J-723.5575
G1 X-148.8539 Y161.2798
G1 X-150.8427 Y161.0679
G1 X-152.8951 Y160.8431
G1 X-153.9259 Y160.7258
G3 X-154.9562 Y160.6031 I32.589 J-278.097
G1 X-155.6427 Y160.5189
G1 X-156.035 Y160.47
G1 X-157.0806 Y160.337
G1 X-158.4741 Y160.1548
G1 X-158.8456 Y160.1053
G1 X-159.6946 Y159.9912
G1 X-160.6646 Y159.8589
G1 X-161.1819 Y159.7875
G3 X-162.3639 Y159.6228 I26.9828 J-197.8849
G3 X-171.8103 Y158.2385 I131.7178 J-931.797
G1 X-173.0688 Y158.0473
G1 X-175.9446 Y157.6055
G3 X-175.9897 Y157.5986 I0.0871 J-0.7123
G1 X-179.2817 Y157.0857
G1 X-183.0428 Y156.4918
G1 X-184.0132 Y156.3373
G1 X-185.0148 Y156.1773
G1 X-185.5236 Y156.0958
G1 X-186.0404 Y156.0129
G1 X-188.2452 Y155.6579
G3 X-199.9981 Y153.7304 I414.483 J-2564.0632
G1 X-203.1308 Y153.2077
G1 X-204.7475 Y152.9366
G1 X-206.4161 Y152.6559
G1 X-208.1385 Y152.3652
G1 X-211.8121 Y151.7418
G3 X-212.0427 Y151.7026 I1.3431 J-8.5823
G1 X-215.9758 Y151.0301
G1 X-220.1702 Y150.3076
G1 X-224.6431 Y149.5309
G1 X-229.4131 Y148.6956
G3 X-240.3108 Y146.7581 I483.1975 J-2749.4654
G1 X-240.9971 Y146.6346
G1 X-243.8302 Y146.1229
G1 X-244.1857 Y146.0585
G1 X-247.121 Y145.5243
G1 X-250.1502 Y144.9688
G1 X-253.2762 Y144.3907
G1 X-256.502 Y143.7881
G1 X-259.8304 Y143.1591
G1 X-259.9346 Y143.1393
G1 X-261.6262 Y142.8161
G1 X-263.3442 Y142.4852
G1 X-263.5594 Y142.4436
G1 X-265.3075 Y142.1034
G1 X-266.1881 Y141.9306
G1 X-267.9768 Y141.5765
G1 X-269.7929 Y141.2118
G1 X-271.6365 Y140.8349
G1 X-272.1368 Y140.7313
G1 X-272.2083 Y140.7165
G1 X-272.399 Y140.6769
G1 X-273.1613 Y140.5181
G1 X-274.6852 Y140.1976
G3 X-277.7298 Y139.5411 I68.9838 J-327.3001
G1 X-277.8264 Y139.5198
G1 X-278.2384 Y139.4287
G1 X-278.6776 Y139.3309
G1 X-279.681 Y139.1045
G1 X-280.8265 Y138.8402
G1 X-281.4368 Y138.6966
G1 X-281.5137 Y138.6783
G3 X-281.8309 Y138.6026 I9.5401 J-40.6752
G1 X-282.5072 Y138.439
G1 X-283.2276 Y138.261
G1 X-283.3184 Y138.2383
G3 X-284.9738 Y137.8108 I25.2113 J-101.0458
G3 X-286.8563 Y137.2865 I22.0703 J-82.8925
G1 X-287.3399 Y137.1434
G3 X-289.5341 Y136.4347 I14.0925 J-47.3784
G3 X-290.6882 Y136.0089 I9.9671 J-28.7933
G1 X-290.9788 Y135.8939
G3 X-292.2034 Y135.3648 I8.5434 J-21.4556
G3 X-293.4702 Y134.7129 I7.6223 J-16.3695
G3 X-294.7451 Y133.8773 I5.9021 J-10.3954
G3 X-295.9448 Y132.7606 I4.627 J-6.1734
G1 X-296.0771 Y132.6011
G3 X-296.2053 Y132.4357 I4.0267 J-3.253
G3 X-297.0557 Y130.824 I4.6082 J-3.4619
G3 X-297.294 Y129.8959 I6.2562 J-2.101
G1 X-297.3145 Y129.777
G3 X-297.4136 Y128.772 I8.3257 J-1.3278
G3 X-297.4023 Y127.7167 I11.6323 J-0.4042
G3 X-297.2998 Y126.6228 I16.8725 J1.0303
G3 X-297.2209 Y126.0687 I18.2823 J2.3191
G3 X-297.0156 Y124.9283 I23.1225 J3.5751
G3 X-296.8943 Y124.3522 I21.3574 J4.1943
G3 X-296.8298 Y124.0625 I18.2443 J3.9142
G1 X-296.7627 Y123.7711
G1 X-296.6208 Y123.1804
G3 X-296.6117 Y123.1435 I0.2913 J0.0522
G3 X-296.6026 Y123.1065 I0.2918 J0.0525
G3 X-296.5934 Y123.0695 I0.2924 J0.0528
G1 X-296.4417 Y122.4702
G3 X-295.7792 Y120.5038 I13.6239 J3.4949
G3 X-294.8094 Y118.6693 I10.9633 J4.6219
G3 X-291.9661 Y115.6648 I9.4824 J6.126
G3 X-289.5674 Y114.2873 I7.6337 J10.516
G1 X-289.4875 Y114.2521
G3 X-287.9957 Y113.693 I6.2152 J14.3132
G1 X-287.8025 Y113.6329
G3 X-286.0116 Y113.1896 I5.07 J16.6454
G3 X-281.1628 Y112.822 I4.0536 J21.304
G3 X-279.8699 Y112.9165 I-0.5268 J16.0965
G1 X-281.274 Y121.0317
G1 X-279.8307 Y121.7532
G3 X-224.2414 Y130.5392 I-983.3341 J6401.792
G1 X-223.804 Y130.6104
G1 X-220.0719 Y131.2194
G1 X-216.0914 Y131.8722
G1 X-211.8462 Y132.5724
G3 X-207.3189 Y133.3239 I-490.1916 J2967.1026
G1 X-202.4906 Y134.1313
G1 X-199.999 Y134.5506
G1 X-197.4274 Y134.9854
G1 X-194.7732 Y135.4365
G1 X-193.4251 Y135.6665
G1 X-192.0558 Y135.9009
G1 X-191.3657 Y136.0192
G1 X-188.517 Y136.5098
G1 X-185.5771 Y137.0197
G1 X-184.084 Y137.2802
G1 X-183.3317 Y137.4118
G1 X-180.2257 Y137.9583
G1 X-178.6484 Y138.2379
G1 X-178.2526 Y138.3082
G1 X-174.9844 Y138.893
G1 X-173.3249 Y139.1926
G3 X-169.8999 Y139.8175 I-155.2955 J860.8717
G1 X-169.4702 Y139.8966
G1 X-169.0389 Y139.9761
G1 X-167.2865 Y140.301
G1 X-165.5068 Y140.634
G1 X-164.6101 Y140.803
G1 X-162.7889 Y141.1493
G1 X-162.675 Y141.1711
G1 X-160.8239 Y141.5277
G1 X-158.9444 Y141.8949
G1 X-158.709 Y141.9413
G1 X-156.7972 Y142.3219
G1 X-156.0243 Y142.4745
G1 X-155.2504 Y142.6222
G1 X-154.734 Y142.718
G1 X-154.0449 Y142.8425
G2 X-151.2823 Y143.3049 I25.3916 J-143.1924
G1 X-150.4913 Y143.4272
G1 X-149.5865 Y143.5618
G2 X-149.4716 Y143.5785 I0.2978 J-1.6454
G1 X-148.4201 Y143.7273
G2 X-148.3538 Y143.7364 I0.2114 J-1.2877
G2 X-148.287 Y143.7456 I0.2121 J-1.295
G1 X-147.7169 Y143.8229
G1 X-147.1085 Y143.9031
G2 X-137.3435 Y144.9115 I24.9841 J-194.149
G2 X-130.8128 Y145.3373 I18.9037 J-239.65
G1 X-129.9694 Y145.3799
G1 X-129.0987 Y145.4211
G1 X-128.1997 Y145.4607
G2 X-118.6068 Y145.7148 I12.891 J-305.5141
G1 X-118.3045 Y145.7181
G2 X-115.7255 Y145.7362 I3.156 J-265.7039
G1 X-114.3943 Y145.7384
G1 X-113.0202 Y145.7356
G1 X-111.6019 Y145.7275
G1 X-110.1379 Y145.7138
G2 X-94.5333 Y145.2619 I-5.4996 J-459.5249
G1 X-92.5212 Y145.1669
G1 X-90.4446 Y145.061
G1 X-89.3899 Y145.0042
G1 X-88.3187 Y144.9445
G1 X-87.2307 Y144.8818
G2 X-77.2901 Y144.2207 I-36.3274 J-621.274
G1 X-76.0286 Y144.1264
G1 X-74.7472 Y144.0285
G1 X-74.1015 Y143.9784
G1 X-73.4508 Y143.9275
G1 X-72.7949 Y143.8756
G1 X-72.6306 Y143.8625
G1 X-69.9181 Y143.643
G1 X-64.1332 Y143.1623
G1 X-62.6638 Y143.0436
G1 X-61.9231 Y142.9862
G3 X-60.4175 Y142.8809 I8.6093 J112.2818
G1 X-60.0394 Y142.859
G3 X-59.6596 Y142.8404 I0.8748 J14.008
G1 X-59.278 Y142.8276
G1 X-59.1824 Y142.8258
G3 X-58.9909 Y142.825 I0.1146 J4.6046
G2 X-57.9168 Y142.7454 I0.0631 J-6.4335
G2 X-56.8794 Y142.4555 I-0.7996 J-4.8618
G2 X-55.1765 Y141.1535 I-1.5493 J-3.7912
G2 X-54.4658 Y139.9031 I-4.2674 J-3.2527
G2 X-54.1991 Y139.1269 I-6.4876 J-2.6633
G2 X-53.9928 Y138.2176 I-8.8688 J-2.4895
G2 X-53.8593 Y137.1695 I-12.0193 J-2.0637
G2 X-53.81 Y135.9761 I-15.091 J-1.2216
G1 X-53.8119 Y135.6687
G1 X-53.8133 Y135.5912
G1 X-53.8224 Y135.2727
G2 X-53.8375 Y134.9451 I-20.6219 J0.784
G1 X-53.8587 Y134.6083
G2 X-54.0207 Y133.0976 I-22.2351 J1.62
G3 X-54.5362 Y127.3727 I64.867 J-8.7266
G3 X-54.5688 Y126.5518 I31.7914 J-1.6747
G3 X-59.034 Y126.9636 I-30.4656 J-305.9438
G1 X-60.5233 Y127.0894
G1 X-62.5098 Y127.2503
G1 X-63.0396 Y127.292
G1 X-64.2508 Y127.3853
G3 X-65.6352 Y127.4887 I-43.0601 J-566.8817
G3 X-76.7182 Y128.2027 I-44.1579 J-599.0827
G3 X-98.9134 Y129.0385 I-34.1077 J-610.6197
G3 X-99.2631 Y129.0451 I-0.6926 J-27.6974
G1 X-99.6733 Y129.0294
G1 X-100.0835 Y129.0132
G1 X-100.9038 Y128.9788
G3 X-102.544 Y128.9031 I8.8819 J-210.0864
G1 X-103.6372 Y128.8476
G1 X-105.0946 Y128.768
G1 X-105.9272 Y128.7196
G1 X-106.8786 Y128.662
G1 X-107.9657 Y128.5932
G1 X-109.2079 Y128.5108
G1 X-109.5284 Y128.4889
G1 X-110.9934 Y128.3856
G1 X-112.6673 Y128.2616
G1 X-113.0992 Y128.2286
G1 X-114.0205 Y128.1568
G1 X-115.0031 Y128.0783
G1 X-116.0509 Y127.9925
G3 X-116.5917 Y127.9474 I4.5472 J-57.7315
G3 X-116.8664 Y127.9242 I2.4363 J-30.5541
G3 X-117.1454 Y127.9006 I1.5968 J-20.4894
G3 X-117.4288 Y127.8764 I1.2808 J-16.684
G3 X-123.4721 Y127.327 I50.7511 J-591.7805
G3 X-123.5669 Y127.3179 I0.0904 J-1.4403
G1 X-124.3494 Y127.2422
G1 X-126.0182 Y127.0778
G1 X-127.7979 Y126.8979
G1 X-129.6956 Y126.7012
G1 X-131.7194 Y126.4862
G1 X-133.8775 Y126.2512
G3 X-145.3766 Y124.9097 I103.8967 J-940.5436
G3 X-145.4666 Y124.8986 I0.2035 J-2.032
G3 X-145.5568 Y124.8876 I0.2043 J-2.0375
G3 X-145.6471 Y124.8765 I0.2051 J-2.0431
G3 X-145.7376 Y124.8654 I0.2058 J-2.0487
G3 X-146.4729 Y124.7747 I11.5461 J-96.677
G1 X-147.2198 Y124.6821
G1 X-148.7615 Y124.4893
G1 X-150.3527 Y124.2881
G1 X-151.1609 Y124.1851
G1 X-151.9818 Y124.0798
G1 X-153.6762 Y123.8608
G1 X-155.425 Y123.6322
G1 X-156.3132 Y123.5152
G1 X-158.1465 Y123.2717
G3 X-160.0386 Y123.0176 I55.7023 J-422.0247
G3 X-161.9914 Y122.7526 I60.1048 J-450.2182
G3 X-182.7975 Y119.7703 I220.6286 J-1613.3022
G1 X-183.4522 Y119.6722
G1 X-186.1551 Y119.2647
G1 X-187.5278 Y119.0562
G1 X-187.8723 Y119.0037
G1 X-190.7168 Y118.5679
G1 X-191.0737 Y118.5129
G1 X-191.4321 Y118.4577
G3 X-192.1543 Y118.3461 I17.6408 J-116.5739
G1 X-193.6215 Y118.1186
G1 X-196.6499 Y117.6456
G3 X-210.4852 Y115.4287 I315.8287 J-2015.3014
G3 X-217.8582 Y114.2117 I350.4444 J-2146.0994
G1 X-218.7868 Y114.0567
G1 X-220.6733 Y113.7408
G1 X-224.5672 Y113.0838
G1 X-228.5856 Y112.3991
G1 X-229.5979 Y112.2255
G1 X-230.6182 Y112.0502
G1 X-234.8299 Y111.3216
G1 X-239.1761 Y110.5618
G1 X-241.3831 Y110.1729
G1 X-243.6248 Y109.7757
G1 X-245.9016 Y109.37
G1 X-248.2143 Y108.9555
G1 X-250.5632 Y108.532
G1 X-251.7467 Y108.3176
G1 X-252.9394 Y108.1009
G1 X-255.3623 Y107.6585
G1 X-255.9704 Y107.547
G1 X-258.4407 Y107.0919
G3 X-259.6853 Y106.8613 I124.7491 J-676.9
G1 X-260.9396 Y106.6281
G1 X-261.5691 Y106.5106
G1 X-262.8379 Y106.2732
G1 X-263.4748 Y106.1536
G1 X-264.1141 Y106.0333
G1 X-266.7112 Y105.5414
G1 X-266.7924 Y105.5259
G1 X-268.1014 Y105.2758
G1 X-269.4205 Y105.0222
G3 X-274.8624 Y103.9524 I140.7435 J-730.283
G1 X-276.2317 Y103.6734
G1 X-276.9185 Y103.5306
G3 X-277.2624 Y103.458 I3.4901 J-17.3911
G1 X-277.9521 Y103.3093
G1 X-278.1245 Y103.2711
G3 X-280.5027 Y102.6866 I11.2371 J-50.851
G3 X-280.8399 Y102.5933 I4.1607 J-15.6932
G1 X-281.2244 Y102.4832
G1 X-281.2732 Y102.4689
G3 X-282.308 Y102.1483 I10.7199 J-36.4283
G1 X-282.5821 Y102.0571
G1 X-282.8736 Y101.957
G3 X-284.4072 Y101.3657 I8.4265 J-24.1404
G3 X-286.3681 Y100.3844 I6.501 J-15.4401
G1 X-286.6102 Y100.2375
G3 X-287.6711 Y99.4928 I5.7416 J-9.307
G3 X-288.7526 Y98.4733 I5.2783 J-6.683
G3 X-289.7298 Y97.0693 I5.3582 J-4.7713
G3 X-290.4066 Y95.2123 I6.5694 J-3.4462
G3 X-290.5037 Y94.7089 I9.931 J-2.1759
G3 X-290.5742 Y94.1834 I10.0065 J-1.6111
G3 X-290.5993 Y93.915 I6.4904 J-0.7427
G3 X-290.6349 Y92.7635 I11.6595 J-0.9368
G3 X-290.5673 Y91.5372 I15.7779 J0.2551
G1 X-290.5361 Y91.2269
G3 X-290.3533 Y89.9145 I22.5404 J2.4717
G1 X-290.2958 Y89.5833
G3 X-290.0132 Y88.1859 I33.8776 J6.1254
G3 X-288.3477 Y84.8097 I7.6653 J1.6822
G3 X-287.4675 Y83.9005 I6.7862 J5.6898
G3 X-286.1269 Y82.8812 I6.992 J7.8046
G3 X-284.1521 Y81.8318 I7.4958 J11.7227
G3 X-282.9648 Y81.3658 I7.5363 J17.4563
G3 X-282.6536 Y81.2592 I7.3183 J20.8643
G1 X-282.3308 Y81.1548
G1 X-282.2491 Y81.1293
G1 X-282.1668 Y81.104
G3 X-281.4615 Y80.9018 I4.9282 J15.8592
G3 X-279.8351 Y80.525 I6.2383 J23.2305
G1 X-279.4122 Y80.4452
G3 X-277.4754 Y80.1641 I5.3693 J30.1845
G1 X-277.2284 Y80.1377
G1 X-277.1039 Y80.1251
G3 X-274.8331 Y79.9913 I2.7523 J27.3632
G1 X-274.5443 Y79.9904
G1 X-276.9291 Y87.0861
G2 X-276.2915 Y87.2159 I12.2918 J-58.746
G2 X-276.2813 Y87.2179 I0.0124 J-0.0357
G1 X-275.6325 Y87.3444
G1 X-274.3337 Y87.5914
G1 X-273.4674 Y87.7535
G1 X-272.3119 Y87.9675
G2 X-272.2755 Y87.9742 I0.0517 J-0.178
G2 X-272.2387 Y87.981 I0.052 J-0.1794
G2 X-272.2017 Y87.9878 I0.0524 J-0.1808
G2 X-272.1644 Y87.9947 I0.0528 J-0.1823
G2 X-272.1268 Y88.0016 I0.0533 J-0.1837
G2 X-272.0889 Y88.0086 I0.0537 J-0.1851
G2 X-272.0508 Y88.0156 I0.0541 J-0.1866
G2 X-272.0123 Y88.0227 I0.0545 J-0.188
G2 X-271.9735 Y88.0298 I0.0549 J-0.1895
G2 X-271.9344 Y88.037 I0.0553 J-0.191
G1 X-270.2672 Y88.3419
G1 X-268.0436 Y88.7448
G1 X-267.4505 Y88.8517
G1 X-264.287 Y89.4184
G1 X-260.0678 Y90.1677
G1 X-254.4408 Y91.1586
G2 X-254.3967 Y91.1663 I0.0984 J-0.4316
G2 X-254.3525 Y91.1741 I0.0986 J-0.4324
G2 X-254.3082 Y91.1818 I0.0988 J-0.4333
G2 X-254.2638 Y91.1896 I0.099 J-0.4341
G2 X-254.2194 Y91.1974 I0.0992 J-0.435
G2 X-254.1748 Y91.2052 I0.0994 J-0.4358
G2 X-254.1302 Y91.2131 I0.0996 J-0.4367
G2 X-254.0855 Y91.2209 I0.0998 J-0.4375
G2 X-254.0407 Y91.2288 I0.0999 J-0.4384
G2 X-253.9958 Y91.2366 I0.1001 J-0.4392
G1 X-250.7161 Y91.8105
G1 X-248.9668 Y92.1158
G1 X-247.1008 Y92.4409
G1 X-245.1103 Y92.7871
G1 X-240.5603 Y93.5764
G1 X-235.3599 Y94.4755
G1 X-232.5861 Y94.9539
G1 X-226.2456 Y96.0448
G1 X-224.6092 Y96.3258
G1 X-222.92 Y96.6156
G1 X-221.1762 Y96.9146
G1 X-213.2046 Y98.2787
G1 X-208.9528 Y99.0047
G1 X-207.6331 Y99.2148
G1 X-206.3132 Y99.4232
G1 X-206.1372 Y99.4509
G1 X-203.3203 Y99.8892
G1 X-203.1385 Y99.9172
G1 X-201.1992 Y100.214
G1 X-198.6127 Y100.6038
G2 X-188.2563 Y102.0941 I149.416 J-1001.5901
G1 X-186.8742 Y102.2843
G1 X-185.3998 Y102.4848
G1 X-183.8266 Y102.6962
G1 X-182.1481 Y102.9186
G1 X-181.2817 Y103.0322
G2 X-172.0328 Y104.1914 I121.6043 J-932.8227
G1 X-171.8876 Y104.2088
G2 X-166.5762 Y104.828 I92.1746 J-767.4784
G1 X-166.4095 Y104.8469
G1 X-166.2421 Y104.8659
G1 X-164.86 Y105.0208
G1 X-164.6865 Y105.0401
G1 X-164.5123 Y105.0595
G1 X-164.3375 Y105.0788
G1 X-164.1619 Y105.0982
G1 X-163.9857 Y105.1177
G2 X-157.5383 Y105.8021 I86.804 J-786.9762
G1 X-155.8735 Y105.9702
G2 X-154.1548 Y106.14 I28.7476 J-282.2179
G1 X-152.3802 Y106.3113
G1 X-150.5478 Y106.4837
G1 X-148.656 Y106.6569
G2 X-147.6949 Y106.7431 I13.2991 J-142.9419
G1 X-145.7103 Y106.917
G2 X-144.702 Y107.0033 I12.5014 J-140.193
G2 X-135.4785 Y107.725 I57.7771 J-679.0677
G1 X-134.8972 Y107.7663
G1 X-133.7159 Y107.8487
G1 X-133.1206 Y107.8894
G2 X-122.2285 Y108.5363 I42.1285 J-617.3552
G1 X-122.0578 Y108.5449
G1 X-120.6712 Y108.613
G1 X-119.9723 Y108.6461
G2 X-117.0864 Y108.7738 I18.701 J-389.7577
G1 X-116.9057 Y108.7814
G1 X-115.4366 Y108.8403
G1 X-113.9442 Y108.8963
G2 X-107.5745 Y109.0891 I18.054 J-491.1506
G1 X-106.7719 Y109.1079
G2 X-92.0909 Y109.2165 I10.8106 J-469.4128
G1 X-91.9761 Y109.2154
G1 X-91.8611 Y109.2143
G1 X-90.9344 Y109.2045
G2 X-90.0006 Y109.1925 I-0.7267 J-92.9342
G2 X-82.0323 Y108.9991 I-4.9973 J-369.9717
G2 X-73.5389 Y108.591 I-11.5468 J-328.9638
G2 X-64.4948 Y107.8741 I-15.6484 J-254.7983
G1 X-64.2121 Y107.8461
G1 X-63.0726 Y107.7301
G1 X-62.5008 Y107.6699
G2 X-61.9269 Y107.6084 I-6.4067 J-62.4622
G1 X-60.7701 Y107.4831
G1 X-60.1892 Y107.4232
G1 X-59.8978 Y107.3971
G1 X-59.7517 Y107.3869
G1 X-59.6784 Y107.3834
G3 X-59.5315 Y107.388 I0.0448 J0.911
G2 X-59.0587 Y107.4713 I1.4494 J-6.8465
G1 X-58.9907 Y107.4805
G1 X-58.8091 Y107.5022
G2 X-58.0794 Y107.5532 I1.011 J-9.2217
G2 X-56.6197 Y107.4826 I0.2937 J-9.0459
G2 X-55.6637 Y107.2897 I-0.8873 J-6.8636
G2 X-55.5425 Y107.255 I-0.4131 J-1.6728
G2 X-54.3069 Y106.7265 I-1.5676 J-5.3739
G2 X-52.9573 Y105.5348 I-2.2862 J-3.9491
G2 X-52.4243 Y104.6434 I-3.8509 J-2.9078
G2 X-52.0398 Y103.5174 I-5.3125 J-2.4425
G2 X-51.8473 Y102.1753 I-7.698 J-1.7888
G2 X-51.8635 Y100.6403 I-11.0185 J-0.6515
G1 X-51.8794 Y100.4462
G1 X-51.8983 Y100.2496
G2 X-52.1811 Y98.5395 I-13.4308 J1.3423
G2 X-52.7081 Y96.8884 I-10.5939 J2.4718
G1 X-52.7293 Y96.8376
G2 X-52.9371 Y96.3788 I-11.5455 J4.9525
G2 X-53.6143 Y95.2189 I-7.614 J3.668
G2 X-54.7904 Y93.8667 I-6.7459 J4.6797
G2 X-56.7511 Y92.5 I-6.0836 J6.638
G2 X-58.0019 Y91.947 I-4.9581 J9.5226
G2 X-59.4931 Y91.4926 I-4.5862 J12.3759
G2 X-61.2359 Y91.1654 I-3.9023 J15.9829
G2 X-63.2402 Y90.9883 I-2.9184 J21.5948
G2 X-65.5175 Y90.9792 I-1.2557 J29.146
G2 X-66.7243 Y91.0397 I1.3054 J38.0595
G2 X-68.0012 Y91.1449 I2.8896 J42.8782
G2 X-68.0812 Y91.1528 I0.0422 J0.8389
G2 X-68.1615 Y91.1609 I0.0441 J0.8451
G2 X-68.2421 Y91.1691 I0.0461 J0.8513
G1 X-69.2612 Y91.2073
G1 X-70.2806 Y91.2393
G1 X-70.9603 Y91.2573
G1 X-71.1416 Y91.2617
G1 X-71.335 Y91.2662
G1 X-72.3662 Y91.2868
G3 X-72.4318 Y91.2879 I-0.0452 J-0.7227
G1 X-73.0305 Y91.2972
G3 X-74.6271 Y91.3137 I-2.1929 J-134.6178
G3 X-75.5395 Y91.3181 I-1.0937 J-133.4811
G1 X-75.7751 Y91.3186
G3 X-83.3091 Y91.2284 I-0.3729 J-283.3175
G3 X-83.795 Y91.2162 I1.0032 J-49.8081
G1 X-84.0419 Y91.2098
G1 X-84.2926 Y91.2031
G3 X-89.6404 Y91.0203 I10.7556 J-393.0098
G1 X-90.3302 Y90.9916
G1 X-91.0423 Y90.9609
G1 X-92.5612 Y90.8917
G1 X-93.345 Y90.854
G1 X-94.154 Y90.8139
G3 X-94.9892 Y90.7711 I3.9964 J-86.1199
G1 X-96.7704 Y90.6753
G1 X-98.6701 Y90.5667
G1 X-100.696 Y90.444
G3 X-105.3248 Y90.1388 I39.8026 J-638.9724
G1 X-105.6163 Y90.1185
G3 X-110.9451 Y89.7265 I60.4926 J-858.8153
G1 X-112.3197 Y89.6194
G1 X-113.7385 Y89.5063
G1 X-115.2029 Y89.3871
G3 X-130.809 Y87.9755 I82.8642 J-1003.0822
G3 X-130.9311 Y87.9635 I0.1947 J-2.6185
G1 X-132.9471 Y87.7643
G1 X-135.0278 Y87.5551
G1 X-136.0846 Y87.4475
G1 X-138.2659 Y87.2227
G3 X-161.508 Y84.6224 I162.2511 J-1555.4097
G1 X-164.5042 Y84.2632
G1 X-167.5964 Y83.8875
G1 X-168.3755 Y83.792
G1 X-169.1607 Y83.6955
G3 X-183.5099 Y81.8783 I247.7199 J-2013.7293
G1 X-187.2109 Y81.3943
G1 X-191.0305 Y80.8887
G1 X-194.9724 Y80.3605
G1 X-195.2192 Y80.3272
G1 X-199.2952 Y79.774
G1 X-203.5017 Y79.1964
G3 X-222.7187 Y76.4759 I386.2914 J-2797.8393
G1 X-223.9286 Y76.3003
G3 X-228.9236 Y75.5705 I236.2988 J-1634.6356
G1 X-231.4602 Y75.1967
G1 X-232.7384 Y75.0076
G1 X-234.0266 Y74.8165
G1 X-236.6436 Y74.4266
G1 X-239.3018 Y74.0284
G1 X-242.0018 Y73.6218
G1 X-242.6795 Y73.5193
G1 X-245.4327 Y73.1018
G1 X-248.2292 Y72.6753
G1 X-251.0698 Y72.2397
G1 X-252.5011 Y72.0193
G1 X-255.4088 Y71.5698
G1 X-258.3623 Y71.1108
G1 X-261.3623 Y70.6421
G1 X-267.5549 Y69.6688
G1 X-270.7005 Y69.176
G1 X-271.4906 Y69.0557
G2 X-273.6502 Y68.7763 I-8.9462 J60.6643
G1 X-274.3717 Y68.6959
G1 X-274.7841 Y68.6512
G1 X-275.8839 Y68.5326
G1 X-276.512 Y68.4619
G1 X-276.8468 Y68.4224
G3 X-278.6271 Y68.1707 I4.512 J-38.3269
G1 X-278.8557 Y68.1306
G1 X-279.0912 Y68.0868
G3 X-279.2106 Y68.0635 I0.2794 J-1.7478
G3 X-279.3318 Y68.039 I0.4171 J-2.3764
G3 X-279.4547 Y68.0132 I1.1236 J-5.6759
G1 X-279.7079 Y67.9572
G3 X-280.8507 Y67.6388 I2.5219 J-11.2593
G3 X-280.9932 Y67.5893 I0.7184 J-2.3015
G3 X-281.5909 Y67.3494 I2.2561 J-6.4838
G3 X-282.2022 Y67.0315 I2.4206 J-5.4015
G3 X-282.8063 Y66.6058 I2.5471 J-4.2566
G3 X-283.8611 Y65.24 I2.4724 J-2.9995
G3 X-284.1622 Y64.3461 I4.1426 J-1.8931
G3 X-284.2986 Y63.334 I5.7224 J-1.2868
G3 X-284.2826 Y62.2354 I8.1293 J-0.4304
G3 X-284.2579 Y61.9571 I6.5186 J0.4364
G3 X-284.0822 Y60.7798 I12.8917 J1.3224
G3 X-283.801 Y59.5539 I16.8786 J3.2268
G1 X-283.7602 Y59.401
G1 X-283.718 Y59.2474
G3 X-283.5349 Y58.6208 I22.0113 J6.0917
G3 X-283.1038 Y57.3179 I30.6141 J9.4072
G3 X-283.0458 Y57.1552 I5.6125 J1.9107
G1 X-282.926 Y56.8267
G3 X-282.3903 Y55.4502 I42.2738 J15.6589
G1 X-282.2479 Y55.104
G1 X-282.101 Y54.754
G3 X-281.7919 Y54.0377 I41.72 J17.5734
G1 X-281.7127 Y53.858
G3 X-279.0856 Y48.9161 I35.8329 J15.8801
G3 X-275.7944 Y44.3892 I34.9199 J21.9275
G1 X-275.7378 Y44.3215
G3 X-273.199 Y41.5456 I34.3219 J28.8408
G3 X-269.4752 Y38.189 I33.192 J33.0791
G3 X-264.0073 Y34.3539 I30.4056 J37.536
G3 X-262.4627 Y33.465 I25.3576 J42.2735
G3 X-260.7741 Y32.5918 I17.9494 J32.6434
G3 X-259.8815 Y32.1833 I9.6563 J19.9188
G2 X-265.8012 Y38.987 I390.9624 J346.1408
G1 X-266.6359 Y39.9684
G2 X-268.8408 Y42.6033 I179.2047 J152.1994
G2 X-270.0801 Y44.1259 I100.0311 J82.6818
G1 X-270.3961 Y44.5219
G2 X-271.063 Y45.3727 I57.2235 J45.5373
G1 X-271.2303 Y45.5904
G1 X-271.3142 Y45.7004
G1 X-271.6573 Y46.1572
G1 X-271.7427 Y46.273
G1 X-271.9148 Y46.5096
G2 X-273.252 Y48.6097 I16.6222 J12.06
G1 X-273.3313 Y48.7557
G2 X-273.7273 Y49.5481 I12.7874 J6.8857
G2 X-273.7748 Y49.6521 I3.3155 J1.5772
G2 X-274.2189 Y50.7878 I9.9382 J4.5415
G2 X-274.4093 Y51.4589 I7.3141 J2.4377
G2 X-274.5502 Y52.2446 I6.7629 J1.618
G1 X-274.5701 Y52.4499
G1 X-274.5773 Y52.5545
G2 X-274.5324 Y53.5157 I4.3918 J0.2767
G2 X-274.1648 Y54.5687 I3.096 J-0.4903
G2 X-273.2671 Y55.5284 I2.5544 J-1.4895
G2 X-272.6406 Y55.8754 I2.2168 J-3.2632
G2 X-272.0079 Y56.0196 I0.6787 J-1.5188
G2 X-271.3652 Y55.9301 I0.0484 J-2.0056
G2 X-271.1888 Y55.871 I-1.3571 J-4.34
G2 X-270.7412 Y55.6636 I-1.2486 J-3.282
G2 X-270.1919 Y55.3112 I-2.26 J-4.1277
G2 X-269.8977 Y55.0844 I-4.064 J-5.5755
G2 X-269.1711 Y54.4292 I-6.1998 J-7.6054
G2 X-268.2915 Y53.4898 I-11.909 J-12.0328
G1 X-268.068 Y53.2306
G1 X-267.8342 Y52.9516
G1 X-267.715 Y52.8066
G1 X-267.593 Y52.6564
G2 X-266.3533 Y51.0401 I-37.1183 J-29.7529
G2 X-266.1981 Y50.8283 I-6.8908 J-5.2103
G2 X-264.6005 Y48.5643 I-87.7699 J-63.6331
G1 X-264.5009 Y48.4193
G1 X-264.0783 Y47.8009
G2 X-263.1229 Y46.3879 I-1297.4481 J-878.2434
G1 X-262.8775 Y46.0228
G3 X-260.279 Y42.1529 I1467.5239 J982.6164
G3 X-260.238 Y42.0923 I0.6331 J0.3839
G3 X-258.7341 Y39.8882 I309.6214 J209.6422
G3 X-258.3426 Y39.3221 I62.3355 J42.6896
G1 X-257.9368 Y38.7393
G3 X-250.4523 Y31.3625 I33.5251 J26.5296
G3 X-247.5835 Y29.3385 I26.4966 J34.5112
G3 X-243.5257 Y27.0071 I24.1635 J37.3596
G3 X-237.7893 Y24.5608 I21.5239 J42.5234
G3 X-229.7528 Y22.4657 I16.7342 J47.7271
G3 X-225.042 Y21.8765 I8.2455 J46.8052
G3 X-223.8184 Y21.8049 I2.5703 J33.4058
G3 X-223.5098 Y21.7929 I0.6127 J11.7836
G3 X-222.2345 Y21.7735 I1.1073 J30.9063
G1 X-221.9131 Y21.7777
G1 X-221.5892 Y21.7867
G3 X-220.9316 Y21.8264 I-0.3048 J10.517
G3 X-220.6021 Y21.8712 I-0.2747 J3.2558
G3 X-220.5228 Y21.8989 I-0.032 J0.2192
G3 X-220.5196 Y21.9105 I-0.0045 J0.0075
G3 X-220.5403 Y21.9224 I-0.036 J-0.0387
G3 X-220.5694 Y21.9298 I-0.0373 J-0.0858
G1 X-220.6451 Y21.9404
G2 X-220.7395 Y21.9544 I0.2705 J2.1483
G1 X-220.7707 Y21.9605
G1 X-220.8946 Y21.9896
G2 X-221.1383 Y22.0625 I0.7074 J2.8075
G1 X-221.2986 Y22.1179
G1 X-221.3411 Y22.1333
G1 X-221.5663 Y22.2192
G1 X-221.8634 Y22.3409
G1 X-222.032 Y22.4134
G1 X-222.2237 Y22.4982
G2 X-223.7306 Y23.2278 I12.8952 J28.5559
G1 X-223.929 Y23.33
G2 X-224.1402 Y23.44 I3.0728 J6.1551
G1 X-224.6208 Y23.6949
G1 X-224.8762 Y23.8326
G2 X-225.4574 Y24.1515 I19.497 J36.2216
G1 X-226.118 Y24.5225
G1 X-226.2879 Y24.6193
G1 X-226.6494 Y24.827
G1 X-227.0339 Y25.0505
G1 X-227.4427 Y25.291
G1 X-227.6533 Y25.416
G1 X-227.8703 Y25.5456
G1 X-228.0939 Y25.6799
G2 X-235.0573 Y30.2603 I55.5493 J92.0312
G1 X-235.494 Y30.5744
G2 X-237.4681 Y32.0394 I56.2993 J77.927
G2 X-237.5295 Y32.0862 I1.0193 J1.4
G2 X-237.591 Y32.1332 I1.047 J1.4341
G2 X-237.6528 Y32.1805 I1.0766 J1.4706
G1 X-238.1609 Y32.5726
G2 X-240.4462 Y34.4128 I48.3893 J62.4308
G1 X-241.0248 Y34.9012
G2 X-243.6 Y37.2142 I42.1576 J49.5267
G2 X-244.2428 Y37.8348 I46.1943 J48.4915
G1 X-244.5654 Y38.1542
G2 X-245.9074 Y39.5508 I30.6402 J30.7854
G2 X-246.2383 Y39.9149 I13.7623 J12.8408
G2 X-248.622 Y42.6466 I89.5194 J80.5198
G1 X-248.9551 Y43.0432
G1 X-249.3329 Y43.4988
G2 X-250.3243 Y44.7271 I69.0865 J56.7762
G1 X-250.4504 Y44.8872
G1 X-250.5799 Y45.0528
G2 X-251.1651 Y45.8153 I44.3393 J34.6325
G2 X-252.6563 Y47.9 I38.9171 J29.4136
G1 X-252.8396 Y48.1754
G2 X-253.6429 Y49.457 I25.6248 J16.9549
G2 X-254.4704 Y50.9757 I19.4826 J11.6
G2 X-254.663 Y51.3786 I32.7965 J15.9235
G2 X-254.8506 Y51.8 I10.1749 J4.7814
G2 X-255.2047 Y52.719 I11.287 J4.877
G1 X-255.2441 Y52.8368
G1 X-255.3199 Y53.0774
G2 X-255.5696 Y54.128 I7.9726 J2.4501
G1 X-255.5909 Y54.2626
G1 X-255.6097 Y54.3987
G2 X-255.638 Y55.5803 I5.4183 J0.7209
G2 X-255.3187 Y56.8282 I3.8718 J-0.3259
G2 X-254.4858 Y57.9947 I3.3602 J-1.5185
G2 X-253.8925 Y58.472 I3.2169 J-3.3917
G2 X-253.198 Y58.8761 I3.4518 J-5.1338
G1 X-253.1071 Y58.9204
G2 X-252.7283 Y59.0889 I4.4635 J-9.529
G2 X-251.9106 Y59.3792 I3.1854 J-7.6741
G2 X-251.0361 Y59.6078 I3.4472 J-11.4001
G2 X-249.9425 Y59.6907 I0.8308 J-3.7042
G2 X-248.8665 Y59.4785 I-0.3256 J-4.4835
G2 X-248.1869 Y59.2078 I-1.7321 J-5.3366
G2 X-247.3375 Y58.7347 I-3.0755 J-6.522
G2 X-246.2971 Y57.9728 I-5.7797 J-8.9832
G2 X-245.741 Y57.4922 I-8.0198 J-9.8415
G1 X-245.672 Y57.4293
G2 X-244.2848 Y56.0279 I-15.3448 J-16.5763
G2 X-243.5436 Y55.1855 I-26.2743 J-23.8647
G2 X-243.1599 Y54.7277 I-16.1548 J-13.9311
G2 X-242.3097 Y53.6679 I-40.8064 J-33.6061
G1 X-242.2038 Y53.5318
G2 X-241.2557 Y52.2814 I-50.632 J-39.3729
G1 X-241.1372 Y52.1213
G1 X-240.6364 Y51.437
G1 X-240.3803 Y51.0825
G1 X-239.8393 Y50.3252
G1 X-239.5622 Y49.9333
G1 X-238.9756 Y49.0966
G1 X-238.6747 Y48.6641
G1 X-238.0362 Y47.7416
G2 X-237.9962 Y47.6836 I-0.5614 J-0.4301
G2 X-237.956 Y47.6254 I-0.5643 J-0.4322
G1 X-237.2736 Y46.6339
G1 X-235.7202 Y44.3753
G1 X-234.8895 Y43.175
G1 X-234.4591 Y42.5571
G1 X-234.0136 Y41.921
G1 X-233.7866 Y41.5985
G1 X-233.3165 Y40.9344
G1 X-232.829 Y40.2512
G1 X-232.5802 Y39.9051
G3 X-232.3268 Y39.5542 I29.5011 J21.0422
G1 X-231.801 Y38.8323
G3 X-229.3451 Y35.5819 I111.3817 J81.6035
G3 X-227.9788 Y33.9177 I33.5036 J26.1138
G1 X-227.7772 Y33.6853
G3 X-226.1097 Y31.8757 I33.4738 J29.1719
G3 X-222.5037 Y28.529 I34.4973 J33.5542
G3 X-221.4131 Y27.6412 I28.3738 J33.7399
G3 X-218.3895 Y25.4252 I32.0133 J40.509
G3 X-216.5928 Y24.2582 I31.9877 J47.2842
G3 X-211.5922 Y21.5035 I28.6666 J46.1225
G3 X-208.6158 Y20.1662 I24.8239 J51.266
G3 X-205.1241 Y18.859 I20.8155 J50.2857
G3 X-201.0272 Y17.688 I14.8067 J44.0508
G3 X-198.7978 Y17.2393 I7.8129 J33.0534
G3 X-198.7275 Y17.2277 I0.1717 J0.8282
G1 X-197.458 Y17.222
G1 X-196.1885 Y17.2191
G1 X-195.3422 Y17.2188
G3 X-194.8585 Y17.2192 I0.2177 J30.0298
G1 X-193.5689 Y17.2223
G1 X-191.8494 Y17.2311
G3 X-184.9719 Y17.3213 I-4.0285 J569.4533
G1 X-184.7535 Y17.3256
G1 X-182.7576 Y17.3695
G1 X-182.2425 Y17.3821
G1 X-181.7108 Y17.3956
G1 X-181.1621 Y17.4101
G3 X-163.6136 Y18.2014 I-12.5879 J474.1295
G3 X-151.9371 Y19.106 I-27.6373 J432.5746
G3 X-151.5697 Y19.1397 I-1.5263 J18.6281
G3 X-151.1995 Y19.1741 I-2.0729 J24.3512
G1 X-149.6713 Y19.3195
G1 X-148.8953 Y19.3956
G3 X-132.3818 Y21.3941 I-36.5945 J371.6086
G1 X-131.8632 Y21.4692
G1 X-131.7333 Y21.4882
G1 X-131.6031 Y21.5072
G3 X-129.4551 Y21.8287 I-110.0788 J742.7477
G1 X-129.3207 Y21.8493
G3 X-127.1014 Y22.1972 I-36.8249 J242.2014
G1 X-125.975 Y22.3796
G1 X-125.834 Y22.4027
G3 X-115.5479 Y24.2643 I-52.1184 J317.3241
G3 X-103.879 Y26.8324 I-55.306 J279.0855
G3 X-90.6974 Y30.4093 I-58.2546 J240.7585
G1 X-89.874 Y30.6595
G1 X-89.0451 Y30.9148
G3 X-87.364 Y31.4432 I-122.1122 J391.428
G3 X-83.9066 Y32.5765 I-72.4651 J226.905
G1 X-83.474 Y32.7229
G3 X-76.1417 Y35.3679 I-65.1388 J192.0569
G1 X-75.2254 Y35.7214
G3 X-67.4818 Y38.9357 I-64.7382 J166.8996
G3 X-65.5398 Y39.8101 I-54.3939 J123.3864
G1 X-64.5653 Y40.2601
G3 X-62.5943 Y41.194 I-68.351 J146.8131
G1 X-61.6056 Y41.6747
G1 X-61.3585 Y41.7962
G3 X-53.0529 Y46.2118 I-65.7001 J133.5998
G3 X-44.5238 Y51.521 I-69.1785 J120.6375
G1 X-44.4587 Y51.5649
G3 X-40.9206 Y54.428 I-14.6385 J21.7072
G3 X-37.933 Y57.8616 I-18.2987 J18.9382
G3 X-36.2793 Y60.4077 I-23.2891 J16.937
G1 X-36.0858 Y60.7486
G3 X-34.3013 Y64.523 I-27.6722 J15.3924
G3 X-33.5006 Y66.7702 I-32.2005 J12.7398
G3 X-33.3184 Y67.3583 I-25.2828 J8.1546
G3 X-32.6073 Y70.0783 I-39.0286 J11.6565
G3 X-32.0238 Y73.2337 I-41.203 J9.2512
G3 X-31.8053 Y74.9301 I-45.0374 J6.6638
G3 X-31.6207 Y83.9923 I-51.4003 J5.5798
G3 X-31.8512 Y86.3987 I-42.5952 J-2.8647
G1 X-31.8915 Y86.7005
G1 X-31.9368 Y87.0041
G1 X-38.349 Y88.2992
G1 X-39.0031 Y88.4327
G2 X-39.6562 Y88.5704 I23.7643 J114.2803
G1 X-40.0907 Y88.6665
G1 X-40.3385 Y88.7237
G1 X-40.6211 Y88.7916
G1 X-40.943 Y88.8735
G2 X-41.792 Y89.1265 I3.0815 J11.8904
G2 X-42.2652 Y89.3073 I2.1333 J6.2954
G2 X-42.3848 Y89.3602 I0.859 J2.1017
G2 X-42.9102 Y89.6482 I1.6784 J3.6857
G2 X-43.4318 Y90.1001 I1.3856 J2.1261
G2 X-43.8492 Y90.7853 I1.9019 J1.6284
G1 X-43.887 Y90.8805
G2 X-43.9561 Y91.0812 I3.3209 J1.2554
G2 X-44.0692 Y91.5216 I5.3991 J1.6206
G2 X-44.213 Y92.5463 I8.9695 J1.7819
G2 X-44.2543 Y93.0929 I23.1403 J2.0203
G2 X-44.2625 Y93.2317 I7.0836 J0.4919
G1 X-44.2775 Y93.5171
G1 X-44.3029 Y94.1219
G1 X-44.3138 Y94.4332
G1 X-44.3575 Y95.8398
G1 X-44.3632 Y96.0181
G1 X-44.3752 Y96.3848
G1 X-44.4035 Y97.1588
G2 X-44.4049 Y98.7793 I20.8579 J0.8283
G2 X-44.2379 Y100.3912 I12.2427 J-0.4541
G2 X-43.9807 Y101.4418 I7.5929 J-1.3025
G2 X-43.8849 Y101.7142 I3.8145 J-1.1885
G2 X-43.6119 Y102.3163 I4.4863 J-1.6705
G2 X-43.1928 Y102.9485 I3.5674 J-1.9101
G2 X-42.5596 Y103.5511 I2.6963 J-2.1991
G2 X-41.6667 Y104.0252 I2.1735 J-3.0157
G2 X-41.1469 Y104.1823 I1.5249 J-4.1062
G2 X-40.5764 Y104.2888 I1.3681 J-5.7503
G2 X-40.5402 Y104.2937 I0.0518 J-0.2482
G2 X-39.9218 Y104.3491 I1.11 J-8.9127
G2 X-39.2622 Y104.3616 I0.5616 J-12.2111
G1 X-39.1791 Y104.3605
G2 X-38.8373 Y104.3507 I-0.0892 J-9.137
G1 X-38.4859 Y104.3332
G2 X-38.4418 Y104.3305 I0.0019 J-0.3334
G1 X-38.0797 Y104.3052
G2 X-37.8961 Y104.2903 I-0.3642 J-5.6388
G1 X-37.5191 Y104.2564
G1 X-37.1319 Y104.2179
G1 X-37.0445 Y104.2091
G1 X-36.957 Y104.2006
G3 X-36.7818 Y104.1846 I0.3913 J3.3141
G1 X-36.4313 Y104.1568
G3 X-36.1975 Y104.1417 I0.4578 J5.2802
G1 X-35.8853 Y104.1264
G3 X-34.6354 Y104.133 I0.5552 J13.1995
G3 X-33.8061 Y104.2189 I-0.5571 J9.419
G3 X-32.7253 Y104.4847 I-0.8476 J5.7765
G3 X-32.1408 Y104.7411 I-1.4002 J3.987
G3 X-31.5318 Y105.1487 I-1.6122 J3.0674
G3 X-30.9574 Y105.7685 I-2.0673 J2.4921
G3 X-30.5038 Y106.6325 I-3.0036 J2.1279
G3 X-30.2354 Y107.7208 I-4.8373 J1.7701
G3 X-30.1777 Y108.3158 I-6.2544 J0.9067
G3 X-30.2015 Y109.6673 I-10.0555 J0.4987
G3 X-30.2166 Y109.8381 I-2.8907 J-0.1686
G2 X-30.286 Y111.9906 I16.8143 J1.6196
G2 X-30.2558 Y112.7082 I28.3567 J-0.8321
G2 X-30.2315 Y113.1179 I41.2413 J-2.2475
G1 X-30.2175 Y113.3364
G3 X-30.1867 Y113.8357 I-33.5969 J2.3248
G3 X-30.1731 Y114.1022 I-22.5656 J1.2856
G1 X-30.163 Y114.3865
G3 X-30.1596 Y114.69 I-7.4863 J0.2346
G3 X-30.1972 Y115.3833 I-6.4474 J-0.0022
G3 X-30.8147 Y117.1448 I-4.0005 J-0.4134
G3 X-31.4839 Y117.9954 I-4.9044 J-3.1696
G3 X-31.8938 Y118.4034 I-5.6078 J-5.2254
G3 X-32.9047 Y119.2467 I-8.5639 J-9.2377
G3 X-34.1273 Y120.1078 I-13.7444 J-18.2181
G1 X-34.2861 Y120.2119
G1 X-34.6153 Y120.4236
G1 X-35.1698 Y120.7778
G1 X-35.7225 Y121.1348
G1 X-36.0897 Y121.3747
G1 X-36.299 Y121.5127
G1 X-36.8547 Y121.884
G2 X-37.5891 Y122.3888 I29.0857 J43.097
G1 X-38.0044 Y122.6835
G2 X-39.0905 Y123.4989 I20.6446 J28.6308
G2 X-39.3734 Y123.7252 I17.2424 J21.8416
G2 X-40.0057 Y124.2598 I15.5568 J19.0419
G2 X-40.698 Y124.9056 I11.574 J13.1013
G2 X-41.0505 Y125.2675 I11.6937 J11.7421
G2 X-41.801 Y126.1464 I9.1392 J8.5638
G2 X-43.3013 Y128.8504 I8.0576 J6.2388
G2 X-43.7999 Y130.5559 I11.9878 J4.4304
G2 X-44.1236 Y132.561 I18.1399 J3.9572
G2 X-44.127 Y132.5927 I0.2417 J0.0425
G2 X-44.2199 Y133.8903 I15.7081 J1.7757
G2 X-44.1811 Y135.1907 I9.9976 J0.3529
G1 X-44.162 Y135.3632
G2 X-43.9807 Y136.2716 I5.5457 J-0.6346
G2 X-43.7996 Y136.7704 I4.2203 J-1.2495
G1 X-43.7413 Y136.8947
G2 X-43.4026 Y137.4259 I2.4977 J-1.2188
G2 X-42.8591 Y137.9121 I1.8092 J-1.4758
G2 X-42.0767 Y138.2416 I1.3734 J-2.1672
G2 X-41.6268 Y138.3221 I0.8585 J-3.5013
G2 X-41.5695 Y138.3284 I0.0848 J-0.5079
G2 X-41.5117 Y138.334 I0.0796 J-0.5236
G2 X-41.0162 Y138.3537 I0.4793 J-5.794
G1 X-40.8902 Y138.3521
G2 X-40.631 Y138.3419 I-1.3901 J-38.6803
G1 X-40.3648 Y138.3237
G2 X-40.0916 Y138.2992 I-0.765 J-10.0516
G1 X-39.9532 Y138.2852
G2 X-39.5215 Y138.2121 I-0.4359 J-3.8845
G1 X-39.379 Y138.1801
G2 X-38.8129 Y138.0373 I-3.7514 J-16.0628
G1 X-38.437 Y137.9368
G1 X-37.9357 Y137.8035
G3 X-37.2649 Y137.6352 I5.9123 J22.1536
G1 X-37.0853 Y137.5933
G1 X-36.8934 Y137.5503
G3 X-35.8617 Y137.3588 I3.0392 J13.5005
G3 X-34.4658 Y137.2493 I1.4393 J9.3931
G3 X-33.6653 Y137.3 I0.0112 J6.1695
G3 X-32.7675 Y137.5043 I-0.5815 J4.6289
G3 X-31.8193 Y137.9857 I-1.1681 J3.4749
G3 X-30.9579 Y138.8764 I-2.0548 J2.8492
G3 X-30.6279 Y139.4593 I-3.333 J2.2718
G3 X-30.4915 Y139.7786 I-4.9579 J2.3078
G3 X-30.2679 Y140.4881 I-5.3231 J2.0675
G3 X-30.1158 Y141.2671 I-7.763 J1.92
G3 X-30.031 Y142.1057 I-10.0419 J1.4391
G1 X-30.0199 Y142.3191
G1 X-30.0124 Y142.5357
G3 X-30.0751 Y144.1809 I-12.4856 J0.3479
G3 X-30.3779 Y145.7994 I-10.0075 J-1.0347
G3 X-31.8056 Y148.7568 I-8.6569 J-2.3557
G3 X-32.3987 Y149.4902 I-7.979 J-5.8472
G3 X-33.1533 Y150.2592 I-8.6151 J-7.6982
G3 X-34.0927 Y151.0531 I-9.6388 J-10.4523
G3 X-35.2357 Y151.8647 I-10.9319 J-14.1844
G3 X-36.5969 Y152.6974 I-14.259 J-21.7818
G3 X-36.9545 Y152.9006 I-8.4499 J-14.4498
G1 X-37.3252 Y153.1067
G1 X-37.5139 Y153.2102
G1 X-37.7059 Y153.3145
G1 X-38.5253 Y153.7534
G1 X-39.3976 Y154.2178
G1 X-39.8458 Y154.4592
G1 X-40.3058 Y154.7116
G1 X-40.7766 Y154.9772
G2 X-41.7612 Y155.5696 I14.0139 J24.4094
G2 X-42.7415 Y156.2686 I5.4831 J8.7256
G2 X-43.622 Y157.0897 I5.0862 J6.3368
G2 X-44.9046 Y159.1214 I4.9092 J4.52
G2 X-45.1365 Y159.7712 I7.8109 J3.1529
G2 X-45.2387 Y160.1247 I8.4762 J2.6433
G2 X-45.3334 Y160.5054 I7.5727 J2.0857
G2 X-45.4201 Y160.9144 I12.5519 J2.8734
G2 X-45.5739 Y161.8553 I17.9855 J3.4237
G2 X-45.6979 Y162.934 I26.734 J3.6203
G1 X-45.7504 Y163.5095
G2 X-45.7751 Y163.8065 I36.1712 J3.166
G1 X-45.8246 Y164.4387
G1 X-45.875 Y165.1116
G1 X-45.9289 Y165.8274
G1 X-45.9894 Y166.5885
G1 X-46.0597 Y167.3975
G3 X-46.2525 Y169.2322 I-69.3738 J-6.3608
G1 X-46.3109 Y169.704
G1 X-46.3751 Y170.19
G2 X-46.4923 Y171.4299 I14.113 J1.9586
G2 X-46.473 Y172.6751 I9.1479 J0.4812
G2 X-46.4654 Y172.7552 I1.2399 J-0.077
G2 X-46.4185 Y173.12 I4.8839 J-0.4423
G2 X-46.1722 Y174.0701 I4.5836 J-0.6813
G2 X-45.9281 Y174.5778 I3.0563 J-1.1571
G2 X-45.5321 Y175.0913 I2.256 J-1.3301
G2 X-44.9241 Y175.5322 I1.686 J-1.6856
G2 X-44.0909 Y175.7926 I1.241 J-2.5069
G2 X-43.6233 Y175.8324 I0.525 J-3.4019
G2 X-42.5585 Y175.7304 I0.0617 J-4.9637
G2 X-41.4049 Y175.3771 I-1.193 J-5.9555
G1 X-31.3931 Y170.1225
G1 X-32.4774 Y178.0459
G3 X-32.6971 Y179.5132 I-47.4121 J-6.3489
G3 X-32.9692 Y180.9716 I-31.854 J-5.1882
G3 X-33.0113 Y181.1649 I-5.4902 J-1.0939
G3 X-33.2687 Y182.1884 I-16.351 J-3.5685
G3 X-33.7369 Y183.5161 I-10.2132 J-2.8547
G1 X-33.7732 Y183.5979
G3 X-33.9389 Y183.942 I-4.8538 J-2.1256
G3 X-35.1675 Y185.5773 I-5.2264 J-2.6474
G3 X-36.0897 Y186.3105 I-5.314 J-5.7374
G3 X-37.2343 Y187.0178 I-8.7805 J-12.9289
G1 X-37.5371 Y187.1873
G3 X-37.851 Y187.3589 I-5.9246 J-10.4667
G3 X-38.0109 Y187.4451 I-3.4535 J-6.2166
G3 X-39.4697 Y188.2153 I-66.5164 J-124.2196
G1 X-40.245 Y188.6257
G1 X-40.6434 Y188.8393
G1 X-41.053 Y189.0614
G2 X-42.2835 Y189.7917 I9.1276 J16.779
G1 X-42.4543 Y189.9041
G2 X-43.7587 Y190.8903 I7.0516 J10.6827
G2 X-44.5452 Y191.6463 I6.7901 J7.8512
G2 X-44.9547 Y192.1171 I5.9599 J5.5962
G2 X-45.8727 Y193.5055 I6.7482 J5.46
G2 X-46.2762 Y194.3688 I8.2439 J4.3785
G2 X-46.6406 Y195.3949 I10.731 J4.3893
G2 X-46.9612 Y196.5955 I18.2193 J5.5078
G2 X-47.1038 Y197.242 I47.6739 J10.8529
G2 X-47.1122 Y197.2827 I0.3106 J0.086
G2 X-47.1207 Y197.3236 I0.3108 J0.0858
G2 X-47.1292 Y197.3646 I0.3111 J0.0855
G2 X-47.1973 Y197.7031 I17.5067 J3.6982
G2 X-47.2057 Y197.7457 I0.3138 J0.0838
G2 X-47.214 Y197.7885 I0.3142 J0.0837
G2 X-47.2224 Y197.8314 I0.3146 J0.0836
G1 X-47.2391 Y197.9178
G1 X-47.3069 Y198.2744
G1 X-47.6044 Y199.8991
G1 X-47.6425 Y200.1052
G1 X-47.7221 Y200.5301
G3 X-48.1156 Y202.4546 I-55.8831 J-10.4249
G2 X-48.2927 Y203.4716 I9.6382 J2.2023
G2 X-48.3454 Y204.5026 I6.8155 J0.865
G2 X-48.2795 Y205.1886 I4.7616 J-0.1116
G2 X-48.0081 Y206.0687 I3.3109 J-0.5389
G2 X-47.2219 Y207.0279 I2.2719 J-1.0605
G2 X-46.5888 Y207.3727 I1.6326 J-2.2436
G2 X-45.7883 Y207.5814 I1.3204 J-3.424
G2 X-44.8488 Y207.6302 I0.735 J-5.0897
G2 X-43.7946 Y207.4976 I-0.1769 J-5.663
G1 X-36.2288 Y201.0188
G3 X-36.1251 Y202.3167 I-39.0972 J3.7763
G1 X-36.1193 Y202.4034
G3 X-36.0902 Y202.8654 I-55.2873 J3.7134
G1 X-36.0829 Y202.9887
G3 X-36.067 Y203.2705 I-11.7241 J0.804
G3 X-35.9713 Y205.5258 I-89.3771 J4.9242
G3 X-35.9205 Y210.0398 I-122.6428 J3.6377
G1 X-35.9263 Y210.6417
G1 X-35.9357 Y211.2838
G1 X-35.9492 Y211.9686
G3 X-36.1557 Y214.1018 I-13.757 J-0.2548
G3 X-36.735 Y216.1653 I-10.6061 J-1.8646
G3 X-37.3612 Y217.452 I-8.8032 J-3.4882
G3 X-37.8098 Y218.137 I-6.7795 J-3.9506
G3 X-39.3228 Y219.7121 I-6.3804 J-4.6146
G3 X-39.7986 Y220.0522 I-3.9354 J-5.0038
G3 X-40.3396 Y220.3653 I-2.9302 J-4.4383
G1 X-40.4832 Y220.4338
G1 X-40.5569 Y220.4652
G2 X-41.9266 Y221.4101 I17.6892 J27.1066
G1 X-42.3737 Y221.7386
G1 X-42.6273 Y221.9289
G1 X-42.9154 Y222.1486
G1 X-43.2424 Y222.4026
G2 X-44.1023 Y223.0949 I25.7543 J32.8661
G2 X-45.2198 Y224.053 I23.9534 J29.0687
G2 X-45.8419 Y224.6193 I18.1404 J20.5543
G2 X-46.5364 Y225.2842 I19.2499 J20.8023
G2 X-46.8988 Y225.6468 I23.0439 J23.392
G2 X-47.2788 Y226.0402 I19.5294 J19.2454
G2 X-48.1189 Y226.9663 I18.0595 J17.2252
G2 X-48.2224 Y227.0868 I2.3844 J2.1547
G2 X-48.3268 Y227.2098 I3.76 J3.2965
G2 X-49.2406 Y228.368 I17.7106 J14.913
G1 X-49.3508 Y228.5196
G2 X-50.2832 Y229.9585 I14.0576 J10.1311
G1 X-50.3903 Y230.1481
G2 X-51.2167 Y231.9656 I10.2986 J5.7792
G2 X-51.512 Y232.9933 I8.4452 J2.983
G2 X-51.257 Y241.06 I15.8626 J3.536
G2 X-50.2788 Y243.5933 I14.5159 J-4.1497
G2 X-49.9302 Y244.2297 I7.1063 J-3.4788
G3 X-45.2393 Y239.5168 I91.8498 J86.7308
G3 X-43.6133 Y238.0101 I54.5619 J57.2516
G1 X-43.1722 Y237.6166
G1 X-42.943 Y237.4152
G1 X-42.8261 Y237.3133
G3 X-41.7425 Y236.4002 I27.7182 J31.7955
G1 X-41.6025 Y236.287
G1 X-41.4597 Y236.1728
G3 X-41.3875 Y236.1155 I0.7416 J0.8612
G3 X-40.0281 Y235.1191 I12.6773 J15.8704
G3 X-39.2566 Y234.6551 I5.6089 J8.4529
G3 X-38.8355 Y234.456 I1.9875 J3.6571
G3 X-38.6127 Y234.3745 I1.362 J3.3784
G3 X-38.3781 Y234.3145 I0.672 J2.1405
G3 X-38.1299 Y234.2942 I0.2219 J1.1837
G3 X-37.8749 Y234.3567 I-0.0127 J0.6027
G3 X-37.6676 Y234.5733 I-0.2221 J0.42
G3 X-37.6112 Y234.7289 I-0.6338 J0.3176
G3 X-37.5283 Y235.2797 I-3.4902 J0.8074
G1 X-37.5223 Y235.3591
G3 X-37.5168 Y235.45 I-0.9214 J0.1019
G3 X-37.507 Y236.1771 I-9.2952 J0.4893
G3 X-37.5236 Y236.6615 I-19.2131 J-0.417
G3 X-37.5302 Y236.7906 I-2.175 J-0.0472
G3 X-37.5382 Y236.9282 I-2.3183 J-0.0649
G3 X-37.5476 Y237.075 I-2.5963 J-0.0927
G3 X-37.611 Y237.856 I-22.4886 J-1.4336
G1 X-37.6311 Y238.0639
G3 X-37.7553 Y239.1703 I-40.4234 J-3.9768
G3 X-37.9542 Y240.6404 I-73.2049 J-9.1548
G3 X-38.0803 Y241.4784 I-46.6743 J-6.5992
G1 X-38.1507 Y241.9249
G1 X-38.1877 Y242.1552
G3 X-38.3628 Y243.2066 I-191.1443 J-31.2888
G3 X-38.8676 Y246.0018 I-142.8422 J-24.3543
G1 X-38.9361 Y246.3619
G3 X-39.2576 Y248.0057 I-220.9013 J-42.3545
G1 X-39.4344 Y248.8812
G1 X-39.6267 Y249.8142
G1 X-39.8364 Y250.8083
G1 X-40.0661 Y251.8673
G1 X-43.8836 Y253.7419
G2 X-45.1854 Y254.5306 I3.8764 J7.8666
G2 X-46.3542 Y255.5056 I6.7841 J9.3208
G1 X-46.4253 Y255.5734
G2 X-47.153 Y256.3268 I9.516 J9.9203
G2 X-48.0433 Y257.401 I13.8614 J12.3942
G2 X-49.1072 Y258.9239 I17.8738 J13.6203
G2 X-49.6607 Y259.8289 I27.4413 J17.4026
G2 X-50.9723 Y262.3265 I27.6271 J16.1013
G2 X-50.9912 Y262.3666 I0.4192 J0.2225
G2 X-51.0102 Y262.4068 I0.421 J0.2229
G2 X-51.0292 Y262.4472 I0.4229 J0.2232
G2 X-52.4797 Y265.951 I39.1133 J18.2449
G2 X-53.1802 Y267.9981 I51.2035 J18.665
G1 X-53.3052 Y268.3983
G1 X-53.4251 Y268.8002
G1 X-53.5021 Y269.069
G2 X-53.7859 Y270.1506 I31.8448 J8.935
G2 X-53.9529 Y270.8771 I22.9867 J5.6663
G2 X-54.4206 Y273.8211 I24.856 J5.4577
G2 X-54.5105 Y275.8076 I18.4468 J1.8309
G2 X-54.448 Y276.9434 I13.0205 J-0.1475
G2 X-54.3668 Y277.5453 I11.5079 J-1.2457
G2 X-54.2297 Y278.1796 I7.0245 J-1.1869
G2 X-54.0007 Y278.8358 I4.1114 J-1.0663
G2 X-53.8334 Y279.1555 I2.5265 J-1.1183
G2 X-53.6083 Y279.4571 I1.6159 J-0.9712
G2 X-53.2979 Y279.7063 I0.9199 J-0.8282
G2 X-52.8795 Y279.8277 I0.4696 J-0.8366
G2 X-52.3904 Y279.742 I0.0413 J-1.203
G2 X-50.4139 Y278.759 I-4.547 J-11.6212
G2 X-48.6234 Y277.468 I-7.9185 J-12.8691
G2 X-47.5365 Y276.4756 I-11.2181 J-13.3774
G2 X-46.953 Y275.8699 I-14.6042 J-14.6533
G2 X-45.5256 Y274.1441 I-15.4892 J-14.2642
G2 X-43.8897 Y271.6531 I-20.9224 J-15.5231
G2 X-43.0766 Y270.1584 I-27.0694 J-15.6937
G2 X-42.2439 Y268.4042 I-29.2846 J-14.9764
G1 X-42.0443 Y267.9447
G2 X-41.2067 Y265.8181 I-36.9657 J-15.7881
G1 X-41.0089 Y265.2627
G3 X-40.8512 Y266.0754 I-8.6458 J2.0992
G3 X-40.8136 Y266.3488 I-7.2992 J1.144
G3 X-40.7143 Y267.4479 I-16.2575 J2.0226
G1 X-40.6982 Y267.7627
G3 X-40.711 Y270.2819 I-27.8384 J1.1181
G3 X-40.7288 Y270.6174 I-18.4977 J-0.8119
G3 X-41.4288 Y275.9335 I-37.8517 J-2.2804
G3 X-42.3111 Y279.3972 I-35.0499 J-7.0836
G1 X-42.4502 Y279.8371
G3 X-43.1652 Y281.8208 I-31.2088 J-10.1285
G3 X-44.1532 Y284.0192 I-25.9583 J-10.3448
G3 X-45.533 Y286.4056 I-20.528 J-10.277
G3 X-47.4827 Y288.8891 I-15.8664 J-10.4487
G3 X-48.0548 Y289.4718 I-10.6124 J-9.8466
G3 X-49.3742 Y290.616 I-10.5729 J-10.8598
G2 X-50.3851 Y291.4226 I27.6671 J35.7142
G1 X-50.4516 Y291.4776
G2 X-50.8039 Y291.7732 I23.8187 J28.7432
G2 X-52.176 Y292.9983 I24.4848 J28.8036
G2 X-54.7193 Y295.6548 I23.2649 J24.819
G2 X-56.2429 Y297.5768 I23.5956 J20.2693
G2 X-58.028 Y300.317 I24.2958 J17.7786
G2 X-59.9193 Y304.2459 I25.4394 J14.6659
G2 X-61.51 Y309.8366 I28.1195 J11.0225
G2 X-61.5265 Y309.9264 I2.2918 J0.4661
G2 X-61.9543 Y313.2366 I31.8508 J5.7998
G1 X-61.9851 Y313.6594
G2 X-61.0355 Y313.2347 I-4.6818 J-11.7419
G1 X-60.9022 Y313.1688
G1 X-60.549 Y312.9887
G2 X-59.1652 Y312.2158 I-12.4301 J-23.8815
G2 X-58.2658 Y311.6612 I-15.3697 J-25.9283
G2 X-58.0291 Y311.5084 I-5.1226 J-8.2002
G2 X-54.4281 Y308.8048 I-18.3666 J-28.2125
G2 X-52.2543 Y306.7328 I-19.9441 J-23.1007
G1 X-52.1236 Y306.5939
G2 X-51.5769 Y305.991 I-17.0552 J-16.0164
G1 X-51.4409 Y305.8353
G2 X-50.2565 Y304.3624 I-20.0819 J-17.361
G1 X-50.1142 Y304.169
G1 X-49.9716 Y303.9712
G2 X-48.7665 Y302.0939 I-18.4784 J-13.1871
G1 X-48.6273 Y301.8471
G2 X-47.5139 Y299.5049 I-17.5504 J-9.7789
G2 X-46.6375 Y296.667 I-17.1988 J-6.8652
G3 X-46.3021 Y296.9923 I-0.8297 J1.1911
G3 X-46.0593 Y297.3916 I-1.8775 J1.4148
G3 X-45.9362 Y297.6774 I-3.4326 J1.6485
G3 X-45.8075 Y298.0708 I-3.8159 J1.4658
G3 X-45.7484 Y298.2996 I-6.0218 J1.677
G1 X-45.7206 Y298.4224
G3 X-45.6933 Y298.5538 I-4.8094 J1.0647
G3 X-45.5853 Y299.2574 I-8.8065 J1.7124
G3 X-45.5142 Y300.1986 I-12.5601 J1.4214
G3 X-45.5092 Y301.4496 I-19.109 J0.7029
G1 X-45.5144 Y301.6109
G1 X-45.521 Y301.7772
G1 X-45.539 Y302.1314
G3 X-45.7127 Y304.0033 I-29.9433 J-1.8346
G3 X-47.3489 Y311.2143 I-38.4994 J-4.9448
G3 X-47.6709 Y312.1468 I-26.8962 J-8.7659
G1 X-47.7134 Y312.2637
G3 X-48.5678 Y314.3653 I-29.0548 J-10.587
G3 X-49.7623 Y316.6641 I-20.3861 J-9.1336
G1 X-49.9345 Y316.9447
G3 X-50.0234 Y317.0848 I-2.8869 J-1.732
G3 X-50.8441 Y318.2399 I-12.0165 J-7.6692
G3 X-51.8706 Y319.3567 I-7.7462 J-6.0891
G3 X-52.4769 Y319.8582 I-4.993 J-5.4197
G2 X-53.8198 Y321.1387 I64.9721 J69.4828
G2 X-54.2615 Y321.5717 I21.7825 J22.6634
G2 X-55.9951 Y323.3367 I55.8722 J56.6099
G2 X-59.2695 Y327.0458 I46.1684 J44.0579
G2 X-61.27 Y329.6694 I39.4266 J32.1368
G1 X-61.3302 Y329.7542
G1 X-61.3907 Y329.8398
G1 X-61.4514 Y329.9262
G2 X-63.8478 Y333.7408 I35.6145 J25.0334
G2 X-64.4157 Y334.8004 I28.3305 J15.8654
G1 X-64.4849 Y334.9351
G1 X-64.5542 Y335.0711
G2 X-66.99 Y341.1125 I34.0159 J17.2267
G2 X-67.4646 Y342.786 I36.9086 J11.3703
G1 X-67.5737 Y343.2141
G2 X-67.9898 Y345.0531 I42.1399 J10.5004
G2 X-68.3497 Y347.0319 I49.2083 J9.9734
G2 X-68.6474 Y349.1563 I56.8772 J9.0528
G1 X-68.6791 Y349.4247
G1 X-68.7099 Y349.6953
G1 X-68.7686 Y350.2456
G2 X-66.7667 Y348.889 I-20.6718 J-32.6607
G1 X-66.7035 Y348.8432
G2 X-64.7324 Y347.3114 I-21.7027 J-29.9604
G2 X-64.6088 Y347.208 I-2.0743 J-2.6043
G2 X-64.4818 Y347.1007 I-2.8646 J-3.5202
G1 X-64.2125 Y346.8698
G2 X-62.8174 Y345.5922 I-23.8015 J-27.3915
G2 X-62.6427 Y345.4217 I-4.7625 J-5.0527
G2 X-60.8634 Y343.5208 I-21.42 J-21.8334
G1 X-60.6458 Y343.2646
G1 X-60.4242 Y342.9976
G2 X-59.9624 Y342.4191 I-24.4734 J-20.0135
G2 X-59.7299 Y342.1159 I-11.1863 J-8.8158
G2 X-57.5298 Y338.6866 I-20.6566 J-15.6732
G2 X-56.5378 Y336.5765 I-20.5403 J-10.944
G2 X-56.1014 Y335.4108 I-17.7532 J-7.3119
G2 X-55.383 Y332.6538 I-18.1092 J-6.1908
G2 X-55.1836 Y331.1438 I-15.2099 J-2.7763
G2 X-55.1385 Y329.5154 I-14.1222 J-1.2062
G2 X-55.1581 Y329.1015 I-12.9948 J0.408
G1 X-55.1615 Y329.0497
G1 X-55.1651 Y328.9978
G2 X-55.4325 Y327.2342 I-10.9005 J0.7508
G2 X-55.6942 Y326.3464 I-8.2449 J1.9475
G2 X-55.8648 Y325.9065 I-6.5739 J2.2972
G3 X-53.4438 Y329.9962 I-6.3545 J6.5232
G3 X-53.1346 Y331.5662 I-10.2247 J2.8296
G3 X-53.068 Y333.6938 I-12.4212 J1.4531
G3 X-53.1777 Y334.9041 I-16.203 J-0.8575
G3 X-53.4099 Y336.2699 I-16.9057 J-2.1712
G3 X-53.4188 Y336.3125 I-0.4219 J-0.0663
G3 X-53.8044 Y337.8491 I-21.0375 J-4.4629
G1 X-53.9213 Y338.2406
G1 X-54.0485 Y338.6422
G3 X-54.7057 Y340.4429 I-26.2897 J-8.5739
G1 X-54.8936 Y340.8999
G3 X-55.8294 Y342.9412 I-32.2035 J-13.5276
G3 X-57.0283 Y345.1915 I-40.8768 J-20.3334
G3 X-58.529 Y347.6653 I-45.7363 J-26.0519
G3 X-58.936 Y348.2898 I-85.9186 J-55.5589
G3 X-60.8726 Y351.0621 I-54.6285 J-36.0972
G3 X-63.2208 Y354.0935 I-62.0886 J-45.6704
G1 X-63.5288 Y354.4701
G3 X-64.8613 Y356.0519 I-63.6778 J-52.2889
G3 X-66.316 Y357.6999 I-76.1696 J-65.7703
G3 X-67.08 Y358.5359 I-75.5181 J-68.247
G3 X-75.62 Y366.7808 I-77.7729 J-72.0115
G3 X-75.9035 Y367.0246 I-51.7477 J-59.9002
G1 X-76.4349 Y367.4765
G1 X-76.9694 Y367.925
G1 X-77.0409 Y367.9845
G1 X-77.2046 Y368.1204
G1 X-77.6422 Y368.481
G1 X-78.2285 Y368.9584
G3 X-80.6048 Y370.8289 I-74.9799 J-92.8059
G3 X-85.491 Y374.3927 I-79.581 J-103.9817
G3 X-95.7213 Y380.8387 I-77.8689 J-112.2415
G3 X-117.6534 Y390.9657 I-69.8263 J-122.4107
G3 X-133.1035 Y395.5479 I-47.1591 J-130.6708
G3 X-154.3333 Y398.8012 I-31.4784 J-134.523
G3 X-166.6086 Y399.1774 I-10.4402 J-140.1749
G1 X-167.3823 Y399.1655
G3 X-170.576 Y399.0721 I2.495 J-139.963
G3 X-177.3775 Y398.6384 I5.9034 J-146.1158
G3 X-192.7958 Y396.4919 I13.3678 J-152.4753
G3 X-200.9083 Y394.7258 I30.0031 J-157.3335
G3 X-209.4493 Y392.3994 I41.1066 J-167.7559
G1 X-211.0306 Y391.9229
G1 X-212.6108 Y391.4427
G1 X-213.6637 Y391.1204
G1 X-213.7995 Y391.0787
G1 X-215.2477 Y390.6322
G3 X-221.0298 Y388.8124 I190.0438 J-613.9313
G3 X-232.5357 Y384.993 I164.1042 J-513.6071
G1 X-233.275 Y384.7374
G1 X-234.0376 Y384.4724
G1 X-235.6631 Y383.9025
G1 X-237.3945 Y383.2879
G3 X-238.2872 Y382.9679 I82.6972 J-232.0849
G3 X-247.7615 Y379.4252 I129.8586 J-361.7306
G1 X-248.9769 Y378.9494
G1 X-249.5936 Y378.706
G3 X-252.2191 Y377.6533 I148.5452 J-374.291
G1 X-252.8844 Y377.3823
G1 X-254.2559 Y376.8177
G3 X-255.6688 Y376.2278 I173.945 J-418.5922
G1 X-256.3852 Y375.9253
G1 X-257.1122 Y375.616
G1 X-257.4782 Y375.4593
G1 X-257.8469 Y375.3008
G1 X-258.2183 Y375.1406
G1 X-258.9719 Y374.8133
G3 X-265.8118 Y371.7049 I97.4007 J-223.4034
G3 X-269.4157 Y369.9524 I93.192 J-196.227
G1 X-270.3253 Y369.4956
G3 X-274.1772 Y367.4889 I79.5358 J-157.3681
G1 X-275.1471 Y366.9635
G3 X-279.2425 Y364.6421 I72.7831 J-133.1764
G1 X-279.4969 Y364.4919
G1 X-280.0087 Y364.1874
G1 X-280.5231 Y363.8782
G3 X-284.8513 Y361.1364 I61.5426 J-101.9357
G3 X-289.3209 Y357.9847 I54.9034 J-82.6092
G3 X-293.8691 Y354.3199 I48.2383 J-64.5205
G3 X-296.1029 Y352.2905 I42.7996 J-49.3534
G1 X-296.1713 Y352.2254
G3 X-298.3781 Y350.0167 I44.0422 J-46.2109
G1 X-298.4453 Y349.9458
G3 X-300.6003 Y347.5377 I41.9198 J-39.6822
G3 X-301.6414 Y346.2665 I39.7234 J-33.5948
G3 X-305.6362 Y340.4667 I40.3524 J-32.0699
G3 X-307.3861 Y337.2655 I45.9097 J-27.1756
G3 X-308.5766 Y334.5927 I26.6436 J-13.4686
G3 X-308.6462 Y334.4103 I5.1689 J-2.0753
G3 X-309.557 Y331.4252 I21.6211 J-8.2288
G3 X-309.9172 Y329.3745 I18.6822 J-4.3381
G3 X-310.0197 Y326.5987 I16.7036 J-2.0069
G3 X-309.8584 Y325.0168 I15.0723 J0.7379
G3 X-308.5875 Y320.9678 I14.0873 J2.198
G3 X-307.3431 Y318.8736 I13.435 J6.566
G3 X-305.5415 Y316.7475 I13.3152 J9.457
G3 X-303.0977 Y314.7081 I12.8555 J12.9203
G3 X-301.6554 Y313.8111 I8.9622 J12.8025
G1 X-301.4665 Y313.7105
G3 X-301.2734 Y313.614 I1.6094 J2.9785
G0 Z5.0
M5
M30
