( Made using CamBam - http://www.cambam.co.uk )
( Elvis Mic 1/25/2014 12:24:52 AM )
( T0 : 0.0 )
G21 G90 G64 G40
G0 Z5.0
( T0 : 0.0 )
T0 M6
( Detail4 )
G17
M3 S1000
G0 X-60.0638 Y345.1704
G1 F1.0 Z0.0
G3 X-60.5083 Y345.7398 I-9.2358 J-6.7514
G1 X-60.6626 Y345.9247
G1 X-60.8723 Y346.168
G1 X-60.9939 Y346.3054
G1 X-61.1346 Y346.461
G3 X-62.3175 Y347.6496 I-14.565 J-13.3122
G3 X-62.337 Y347.6675 I-0.1368 J-0.1291
G3 X-63.1897 Y348.4044 I-11.6597 J-12.6315
G3 X-64.399 Y349.2964 I-9.8799 J-12.129
G3 X-66.1438 Y350.2823 I-7.3072 J-10.8941
G3 X-66.6342 Y350.4966 I-4.7458 J-10.1946
G3 X-67.7926 Y350.8931 I-3.8544 J-9.3711
G3 X-67.8672 Y350.9133 I-0.2542 J-0.7901
G3 X-69.2572 Y351.1712 I-2.3038 J-8.5425
G3 X-69.5976 Y351.1824 I-0.2522 J-2.4826
G3 X-69.9354 Y351.1381 I0.0904 J-2.0
G3 X-70.5508 Y350.8513 I0.3514 J-1.5576
G3 X-70.8731 Y350.5301 I1.1337 J-1.46
G3 X-71.1818 Y350.0117 I2.0417 J-1.5668
G3 X-71.432 Y349.2601 I3.8826 J-1.7102
G3 X-71.5919 Y348.2432 I6.8209 J-1.5933
G3 X-71.6357 Y346.9153 I12.0236 J-1.061
G3 X-71.5329 Y345.204 I20.8364 J0.3929
G3 X-71.2385 Y343.0021 I32.4854 J3.2219
G3 X-71.2154 Y342.8631 I3.3653 J0.4884
G3 X-70.6435 Y339.9811 I53.7722 J9.1721
G1 X-70.6023 Y339.7993
G3 X-69.6267 Y336.0137 I71.4746 J16.4015
G1 X-69.4859 Y335.53
G1 X-69.3357 Y335.0329
G1 X-54.982 Y135.8815
G1 X-45.9368 Y100.4211
G1 X-32.2605 Y104.2699
G1 X-45.2709 Y115.5584
G1 X-44.5438 Y133.0147
G3 X-43.4282 Y133.3714 I-19.2638 J62.1683
G1 X-43.354 Y133.396
G1 X-42.9592 Y133.5283
G1 X-42.4339 Y133.7082
G1 X-42.3662 Y133.7317
G3 X-41.6456 Y133.9863 I-23.9236 J68.8492
G1 X-41.2351 Y134.1351
G3 X-37.9869 Y135.4201 I-21.8433 J59.9616
G1 X-37.78 Y135.5096
G3 X-35.6027 Y136.5294 I-17.0174 J39.1712
G3 X-35.4667 Y136.5988 I-1.2987 J2.7113
G1 X-35.3289 Y136.67
G3 X-34.088 Y137.3573 I-12.996 J24.928
G1 X-33.9334 Y137.4499
G1 X-33.6171 Y137.6457
G3 X-32.9568 Y138.0867 I-8.2326 J13.0411
G3 X-32.2829 Y138.6012 I-7.2257 J10.1628
G3 X-31.953 Y138.8898 I-5.1748 J6.2473
G3 X-31.6311 Y139.2087 I-3.9435 J4.3028
G3 X-31.3266 Y139.5657 I-3.4765 J3.2739
G3 X-31.187 Y139.7598 I-2.9782 J2.2885
G3 X-30.945 Y140.1946 I-2.4827 J1.6664
G3 X-30.7965 Y140.6964 I-1.7994 J0.8053
G3 X-30.8154 Y141.2587 I-1.5444 J0.2295
G2 X-32.1031 Y142.519 I52.3421 J54.7665
G1 X-32.526 Y142.9455
G2 X-34.1916 Y144.6765 I81.0088 J79.6144
G1 X-34.6601 Y145.1782
G2 X-35.8927 Y146.5312 I83.7789 J77.559
G1 X-36.2172 Y146.8959
G2 X-37.9152 Y148.8689 I67.2548 J59.599
G2 X-40.081 Y151.581 I61.0055 J50.9378
G1 X-40.3508 Y151.9385
G1 X-40.6267 Y152.3095
G2 X-40.7658 Y152.4988 I5.3536 J4.0802
G1 X-40.9064 Y152.6916
G1 X-41.194 Y153.0915
G1 X-41.3389 Y153.2956
G1 X-41.6348 Y153.7189
G1 X-41.7836 Y153.9351
G2 X-42.0871 Y154.3838 I39.9025 J27.3214
G2 X-43.4052 Y156.4811 I36.099 J24.1502
G2 X-44.0512 Y157.6343 I26.185 J15.425
G1 X-44.2075 Y157.9314
G2 X-44.8329 Y159.221 I22.4547 J11.6862
G2 X-45.1249 Y159.9013 I15.494 J7.0538
G1 X-45.1598 Y159.9874
G1 X-45.1945 Y160.074
G2 X-45.715 Y161.5813 I15.9341 J6.3457
G1 X-45.629 Y161.6255
G1 X-45.543 Y161.6697
G1 X-45.4857 Y161.6993
G1 X-45.2565 Y161.8177
G1 X-44.7991 Y162.0558
G1 X-44.7382 Y162.0878
G1 X-44.6731 Y162.1219
G1 X-44.327 Y162.3042
G1 X-43.8664 Y162.5491
G3 X-42.0355 Y163.5498 I-48.3844 J90.6892
G3 X-41.7929 Y163.686 I-7.1501 J13.0196
G3 X-37.9729 Y165.9709 I-39.3929 J70.1954
G1 X-37.4745 Y166.2931
G3 X-34.879 Y168.1061 I-25.6515 J39.4873
G3 X-33.4656 Y169.2368 I-18.5238 J24.6046
G3 X-33.1138 Y169.5442 I-10.006 J11.8044
G3 X-32.3894 Y170.2301 I-11.6569 J13.0369
G3 X-32.0361 Y170.6052 I-7.2916 J7.2202
G3 X-31.6998 Y171.0187 I-3.609 J3.2796
G3 X-31.681 Y171.0464 I-0.1945 J0.1519
G1 X-31.9022 Y171.31
G1 X-31.9756 Y171.3983
G1 X-32.2681 Y171.7519
G1 X-32.849 Y172.4627
G1 X-32.9261 Y172.5577
G2 X-33.1021 Y172.7752 I10.7086 J8.8438
G1 X-33.3027 Y173.0242
G1 X-33.5315 Y173.3091
G1 X-34.1387 Y174.0712
G1 X-34.2999 Y174.275
G1 X-34.6676 Y174.7414
G2 X-35.086 Y175.2757 I66.69 J52.665
G2 X-38.3774 Y179.5941 I198.6494 J154.8191
G1 X-38.8091 Y180.1753
G1 X-39.2677 Y180.7967
G2 X-46.3543 Y190.9162 I214.0264 J157.4212
G2 X-48.2903 Y193.868 I184.4877 J123.1094
G1 X-48.0465 Y193.923
G1 X-47.803 Y193.9794
G1 X-47.6409 Y194.0177
G3 X-47.4249 Y194.0698 I-1.1909 J5.4124
G1 X-47.1374 Y194.141
G3 X-45.9929 Y194.4469 I-8.7925 J35.1919
G3 X-43.7383 Y195.1745 I-8.9488 J31.5842
G3 X-42.2722 Y195.7631 I-8.3551 J22.9303
G3 X-41.8883 Y195.9366 I-7.4646 J17.0343
G1 X-41.7913 Y195.9818
G3 X-39.7893 Y197.0805 I-7.2485 J15.5819
G3 X-38.7278 Y197.8432 I-6.6416 J10.3639
G3 X-38.1988 Y198.2986 I-5.9481 J7.4448
G3 X-37.1307 Y199.4917 I-5.3473 J5.8612
G3 X-36.6802 Y200.2234 I-4.7646 J3.4383
G1 X-36.6557 Y200.2715
G3 X-36.3263 Y201.1407 I-3.9016 J1.9758
G3 X-36.2522 Y201.6207 I-2.2438 J0.5923
G1 X-36.3361 Y201.9358
G3 X-36.4236 Y202.2499 I-10.4555 J-2.7434
G3 X-36.6057 Y202.876 I-132.3717 J-38.1426
G1 X-36.6591 Y203.0545
G3 X-37.1067 Y204.4761 I-53.7396 J-16.1377
G3 X-37.1689 Y204.6649 I-5.9637 J-1.8583
G3 X-38.2338 Y207.6604 I-69.8272 J-23.1367
G3 X-40.7482 Y213.4984 I-67.1967 J-25.4809
G3 X-40.77 Y213.5433 I-0.5015 J-0.2159
G3 X-42.7586 Y217.3053 I-54.5845 J-26.4472
G3 X-44.0166 Y219.3868 I-49.7274 J-28.6337
G3 X-45.5742 Y221.6896 I-39.3488 J-24.9363
G1 X-45.7817 Y221.9754
G3 X-47.7888 Y224.5056 I-33.4115 J-24.4419
G3 X-48.0583 Y224.8148 I-18.5725 J-15.913
G1 X-48.3356 Y225.1259
G1 X-48.6211 Y225.4387
G3 X-49.8826 Y226.7335 I-23.2972 J-21.4359
G3 X-50.5617 Y227.3739 I-19.3559 J-19.8464
G1 X-50.2986 Y227.417
G1 X-50.0361 Y227.4632
G1 X-49.9612 Y227.477
G1 X-49.8756 Y227.4931
G1 X-49.7778 Y227.5118
G3 X-48.9995 Y227.6777 I-3.1938 J16.8955
G3 X-47.4639 Y228.0955 I-4.9127 J21.0879
G1 X-47.2617 Y228.16
G3 X-46.1954 Y228.5393 I-6.3683 J19.5927
G3 X-42.1997 Y230.6506 I-6.8987 J17.8925
G3 X-39.869 Y232.5675 I-10.0805 J14.6314
G3 X-38.7004 Y233.8387 I-10.6416 J10.9551
G1 X-38.5629 Y234.0097
G3 X-38.0152 Y234.7699 I-6.7044 J5.4074
G3 X-38.1765 Y235.351 I-25.2965 J-6.7101
G1 X-38.1878 Y235.3897
G1 X-38.1998 Y235.4308
G3 X-38.2649 Y235.6502 I-9.8505 J-2.8033
G1 X-38.3536 Y235.9419
G3 X-38.4053 Y236.1084 I-4.415 J-1.2791
G3 X-38.8397 Y237.4333 I-47.5737 J-14.8665
G1 X-38.97 Y237.8097
G3 X-39.3294 Y238.8093 I-83.0912 J-29.3066
G1 X-39.5421 Y239.3778
G3 X-41.4177 Y243.855 I-67.6857 J-25.7232
G3 X-46.0049 Y252.4034 I-70.059 J-32.0897
G3 X-49.6529 Y257.7463 I-62.9005 J-39.03
G1 X-49.9003 Y258.0744
G3 X-49.4573 Y258.2733 I-11.3865 J25.9558
G1 X-49.3102 Y258.3408
G3 X-48.7245 Y258.6168 I-9.9576 J21.8845
G1 X-48.3368 Y258.8066
G1 X-48.1163 Y258.9172
G3 X-46.3861 Y259.8652 I-12.7281 J25.2838
G3 X-45.275 Y260.5698 I-11.0576 J18.6649
G3 X-43.8719 Y261.6233 I-9.8456 J14.5738
G3 X-43.128 Y262.2969 I-7.821 J9.3843
G1 X-43.0375 Y262.3868
G3 X-42.2628 Y263.2593 I-6.8043 J6.822
G3 X-41.5373 Y264.3843 I-5.5865 J4.3993
G3 X-41.2545 Y265.044 I-4.6837 J2.3979
G3 X-41.0662 Y265.7922 I-4.064 J1.4208
G3 X-41.0412 Y266.6265 I-3.2337 J0.5143
G3 X-41.1315 Y267.0553 I-1.953 J-0.1874
G3 X-41.8314 Y269.6118 I-77.1874 J-19.7562
G1 X-41.9375 Y269.9753
G1 X-41.9946 Y270.1691
G1 X-42.0559 Y270.3756
G1 X-42.1976 Y270.8471
G1 X-42.2346 Y270.9687
G3 X-42.637 Y272.2631 I-73.0281 J-21.9964
G3 X-42.747 Y272.6074 I-26.7415 J-8.3515
G1 X-43.0025 Y273.393
G1 X-43.0695 Y273.5955
G1 X-43.2135 Y274.027
G3 X-44.0127 Y276.3173 I-95.7336 J-32.1199
G3 X-44.0256 Y276.3531 I-0.3957 J-0.1231
G3 X-45.1836 Y279.3865 I-92.1073 J-33.4215
G3 X-46.9082 Y283.3577 I-71.7456 J-28.7981
G1 X-47.1482 Y283.8622
G3 X-47.6755 Y284.9312 I-55.9004 J-26.9099
G1 X-47.9563 Y285.4787
G1 X-48.2527 Y286.0405
G3 X-49.7036 Y288.5567 I-38.0863 J-20.2838
G1 X-49.9004 Y288.8688
G1 X-50.1036 Y289.1838
G3 X-51.0105 Y290.502 I-27.365 J-17.8577
G1 X-51.1297 Y290.6647
G1 X-51.2511 Y290.8277
G1 X-51.5014 Y291.1562
G3 X-49.6654 Y292.4788 I-11.3876 J17.743
G3 X-48.0104 Y294.0219 I-9.7168 J12.0806
G3 X-47.0554 Y295.1914 I-9.3546 J8.6138
G3 X-46.8268 Y295.5233 I-8.9406 J6.4031
G3 X-45.8414 Y297.4348 I-7.9416 J5.3034
G3 X-45.4924 Y298.6177 I-8.0345 J3.0139
G3 X-45.4697 Y301.916 I-7.8695 J1.7034
G3 X-46.0579 Y303.7256 I-7.8577 J-1.5539
G3 X-46.2849 Y304.1634 I-4.804 J-2.2128
G1 X-46.3169 Y304.2164
G3 X-49.3687 Y309.8049 I-332.3322 J-177.855
G3 X-52.5248 Y315.335 I-241.1228 J-133.9488
G3 X-53.4538 Y316.8992 I-153.1285 J-89.8787
G1 X-53.6962 Y317.3012
G1 X-54.2179 Y318.1563
G3 X-55.4396 Y320.0926 I-87.2277 J-53.6774
G1 X-55.5183 Y320.2135
G1 X-55.8461 Y320.7108
G1 X-56.1899 Y321.2203
G1 X-56.3671 Y321.4775
G1 X-56.5492 Y321.7372
G1 X-56.6419 Y321.8675
G3 X-57.4664 Y322.9553 I-16.8491 J-11.9152
G1 X-57.48 Y322.9719
G3 X-57.9475 Y323.5011 I-6.855 J-5.5845
G1 X-58.0737 Y323.6267
G3 X-57.1709 Y324.4463 I-11.0005 J13.0232
G3 X-56.3336 Y325.3325 I-9.8275 J10.1239
G3 X-54.9085 Y327.3091 I-9.6927 J8.4909
G3 X-54.1888 Y328.7677 I-10.1465 J5.913
G3 X-53.5708 Y330.8473 I-10.3066 J4.1942
G3 X-53.3894 Y333.7343 I-11.3687 J2.1639
G3 X-53.5953 Y335.3771 I-13.3649 J-0.8416
G3 X-53.7871 Y336.239 I-12.4277 J-2.3123
G3 X-54.4136 Y338.1524 I-14.8581 J-3.806
G3 X-57.1159 Y342.7113 I-16.1383 J-6.4856
G3 X-58.0706 Y343.7565 I-10.9469 J-9.0406
G3 X-58.6086 Y344.2509 I-7.4247 J-7.5389
G3 X-59.2054 Y344.7133 I-4.5881 J-5.3054
G1 X-59.3639 Y344.8188
G3 X-59.6994 Y345.0136 I-2.4605 J-3.8531
G3 X-60.0638 Y345.1704 I-1.3439 J-2.6204
G0 Z5.0
G0 X-111.6254 Y77.5267
G1 Z0.0
G3 X-112.2977 Y77.6445 I-3.8161 J-19.8082
G3 X-113.7702 Y77.8464 I-5.0965 J-31.6934
G1 X-113.9666 Y77.868
G1 X-114.3593 Y77.9044
G1 X-114.5551 Y77.9199
G3 X-116.1206 Y77.998 I-2.708 J-38.5188
G1 X-116.506 Y78.0083
G3 X-119.5781 Y78.0171 I-1.7795 J-85.1457
G3 X-121.0656 Y77.9898 I1.1805 J-104.7703
G1 X-121.7976 Y77.9711
G1 X-122.5238 Y77.9496
G1 X-122.884 Y77.938
G3 X-124.319 Y77.8858 I4.4865 J-143.1615
G1 X-125.7312 Y77.8265
G1 X-126.0787 Y77.8109
G1 X-127.463 Y77.7448
G1 X-127.8037 Y77.7277
G1 X-128.4823 Y77.6927
G1 X-129.1555 Y77.6568
G1 X-130.4913 Y77.5824
G1 X-131.8059 Y77.5054
G1 X-131.8868 Y77.5005
G1 X-133.1793 Y77.4213
G1 X-133.8155 Y77.3812
G3 X-143.9084 Y76.6684 I51.403 J-799.6426
G1 X-146.1152 Y76.4972
G3 X-163.2067 Y75.046 I120.1991 J-1516.9953
G1 X-166.4097 Y74.7545
G1 X-169.4121 Y74.4767
G3 X-169.588 Y74.4602 I0.444 J-5.711
G3 X-180.7995 Y73.3867 I197.2557 J-2119.1096
G1 X-185.0025 Y72.9712
G1 X-186.8412 Y72.7873
G1 X-188.5648 Y72.6137
G1 X-190.1806 Y72.45
G1 X-193.2098 Y72.1405
G1 X-193.8724 Y72.0723
G3 X-204.1407 Y70.994 I225.1163 J-2193.2084
G1 X-206.707 Y70.7176
G3 X-206.7673 Y70.711 I0.0296 J-0.5541
G3 X-207.006 Y70.6851 I0.7019 J-7.5867
G1 X-208.8557 Y70.4835
G1 X-209.5494 Y70.4075
G1 X-210.7631 Y70.2737
G1 X-211.6734 Y70.1727
G1 X-212.356 Y70.0966
G1 X-214.4036 Y69.8662
G1 X-216.3407 Y69.6496
G1 X-216.81 Y69.5982
G1 X-218.6728 Y69.3971
G1 X-220.4779 Y69.2067
G1 X-220.9152 Y69.1611
G1 X-222.6507 Y68.982
G1 X-222.8609 Y68.9605
G1 X-226.2111 Y68.6221
G1 X-227.7819 Y68.4657
G1 X-239.9575 Y67.2685
G1 X-242.2414 Y67.0411
G1 X-244.3825 Y66.8254
G1 X-246.3897 Y66.6202
G1 X-248.2714 Y66.4247
G1 X-250.0354 Y66.238
G1 X-250.8623 Y66.1493
G1 X-252.4641 Y65.9746
G1 X-253.9657 Y65.8073
G1 X-255.3733 Y65.6469
G1 X-256.6927 Y65.4929
G1 X-257.3112 Y65.4193
G3 X-257.3861 Y65.4104 I0.054 J-0.7691
G3 X-257.4608 Y65.4014 I0.0539 J-0.7652
G1 X-258.6495 Y65.257
G1 X-259.7636 Y65.1181
G3 X-263.9375 Y64.5594 I29.6417 J-237.2912
G3 X-265.5017 Y64.3295 I16.5449 J-117.9962
G3 X-266.8692 Y64.116 I41.1025 J-267.7875
G3 X-269.2577 Y63.7059 I18.7201 J-116.1904
G3 X-270.1518 Y63.5361 I8.1091 J-45.1403
G1 X-270.2496 Y63.5169
G1 X-270.3458 Y63.4978
G3 X-271.8566 Y63.1765 I12.8965 J-64.3516
G1 X-272.1391 Y63.1109
G3 X-272.6678 Y62.9824 I4.5444 J-19.8426
G1 X-273.1289 Y62.8629
G1 X-273.5309 Y62.7518
G1 X-273.8813 Y62.6486
G3 X-274.1865 Y62.5529 I2.1063 J-7.2493
G3 X-274.7157 Y62.3701 I4.4732 J-13.809
G1 X-274.9122 Y62.2952
G1 X-274.9977 Y62.2611
G3 X-275.6242 Y61.9717 I2.1027 J-5.3741
G1 X-275.7748 Y61.8864
G3 X-276.1904 Y61.5772 I1.0894 J-1.8986
G1 X-276.3675 Y61.405
G2 X-277.0804 Y60.7525 I-14.3403 J14.9534
G1 X-277.2459 Y60.6095
G1 X-277.5718 Y60.3355
G1 X-277.6106 Y60.3035
G1 X-277.9202 Y60.0518
G1 X-278.2143 Y59.8165
G1 X-278.493 Y59.5936
G3 X-279.0112 Y59.1569 I6.4232 J-8.1465
G1 X-279.0391 Y59.1313
G1 X-279.1481 Y59.0279
G1 X-279.25 Y58.924
G3 X-279.4317 Y58.7091 I1.7299 J-1.6472
G3 X-279.5715 Y58.4877 I1.5608 J-1.1403
G3 X-279.702 Y58.024 I1.0054 J-0.5333
G3 X-279.6646 Y57.6139 I1.4379 J-0.0753
G3 X-279.5572 Y57.2729 I2.2062 J0.5074
G3 X-279.2847 Y56.7115 I4.0593 J1.6234
G3 X-279.0439 Y56.3105 I7.642 J4.3172
G1 X-278.9488 Y56.1632
G3 X-278.2423 Y55.1593 I20.2493 J13.5003
G2 X-277.7137 Y54.4008 I-16.5143 J-12.0732
G1 X-277.4675 Y54.0267
G1 X-277.2288 Y53.656
G1 X-276.9964 Y53.2895
G1 X-276.7694 Y52.9274
G1 X-276.6581 Y52.7488
G1 X-276.219 Y52.0389
G1 X-275.7957 Y51.3495
G1 X-274.9764 Y50.0129
G1 X-274.784 Y49.6996
G1 X-274.4043 Y49.0833
G1 X-274.2198 Y48.785
G3 X-272.751 Y46.4459 I153.8253 J94.9628
G1 X-272.4245 Y45.9368
G3 X-269.8082 Y42.046 I92.611 J59.4488
G3 X-267.7055 Y39.2176 I57.0528 J40.2206
G3 X-267.6542 Y39.1526 I0.7613 J0.547
G3 X-265.973 Y37.1329 I36.2093 J28.4318
G3 X-264.626 Y35.69 I25.137 J22.1156
G1 X-264.3634 Y35.4286
G3 X-263.3457 Y34.4822 I17.2739 J17.5546
G3 X-262.9491 Y34.1435 I11.2742 J12.7989
G3 X-262.7728 Y33.9986 I3.8376 J4.49
G3 X-261.3897 Y32.9914 I9.5103 J11.6059
G3 X-261.2084 Y32.8774 I2.8634 J4.3521
G3 X-259.8815 Y32.1833 I5.1975 J8.3212
G1 X-258.9805 Y31.804
G1 X-255.5971 Y30.3924
G1 X-250.5199 Y28.2798
G1 X-245.4419 Y26.1693
G1 X-229.6983 Y21.8932
G1 X-213.0688 Y21.4412
G3 X-212.4293 Y20.9987 I5.1391 J6.7431
G3 X-211.785 Y20.6107 I7.3962 J11.5535
G1 X-211.4671 Y20.4334
G3 X-210.1865 Y19.791 I11.1554 J20.6418
G3 X-208.9541 Y19.2601 I10.9585 J23.7433
G3 X-206.5827 Y18.4245 I11.3762 J28.5009
G3 X-204.4616 Y17.8451 I10.5876 J34.589
G1 X-204.2276 Y17.7897
G1 X-203.766 Y17.6849
G1 X-203.3175 Y17.5888
G3 X-199.8114 Y17.0149 I8.6034 J41.5636
G3 X-197.1586 Y16.7673 I5.7601 J47.3897
G1 X-196.66 Y16.737
G3 X-194.788 Y16.6659 I2.9346 J52.59
G1 X-194.4368 Y16.6598
G3 X-193.7782 Y16.6544 I0.5971 J32.7962
G3 X-191.4736 Y16.6949 I0.1447 J57.389
G3 X-190.3222 Y16.7482 I-2.5608 J67.7737
G1 X-189.747 Y16.7828
G1 X-189.1721 Y16.8225
G1 X-188.9721 Y16.8373
G1 X-188.5731 Y16.8682
G1 X-187.7785 Y16.9341
G1 X-187.6799 Y16.9426
G1 X-186.8928 Y17.0128
G1 X-186.1122 Y17.0859
G3 X-179.9238 Y17.7457 I-32.9615 J338.5296
G1 X-179.8331 Y17.7561
G1 X-178.3856 Y17.925
G1 X-176.961 Y18.0951
G1 X-176.26 Y18.1801
G1 X-175.5646 Y18.2653
G1 X-174.1849 Y18.4366
G1 X-172.827 Y18.6081
G1 X-172.1587 Y18.6935
G1 X-170.8329 Y18.8648
G1 X-169.528 Y19.0357
G1 X-168.2438 Y19.2061
G1 X-165.7161 Y19.5476
G1 X-163.2683 Y19.8858
G1 X-160.8977 Y20.2202
G1 X-159.7496 Y20.3845
G3 X-141.6979 Y23.1749 I-120.6369 J840.2146
G1 X-140.0072 Y23.4574
G1 X-139.1883 Y23.5956
G3 X-126.3152 Y25.9072 I-104.8632 J620.9748
G1 X-125.1096 Y26.1389
G1 X-123.9421 Y26.3662
G1 X-122.8115 Y26.5891
G1 X-122.264 Y26.6981
G3 X-113.6605 Y28.5137 I-74.6399 J374.9903
G1 X-113.4591 Y28.5589
G3 X-110.2664 Y29.2952 I-57.9838 J258.6941
G1 X-110.0919 Y29.3366
G1 X-109.9188 Y29.3779
G3 X-107.1756 Y30.0495 I-63.6639 J265.9719
G1 X-106.5762 Y30.2012
G3 X-104.2582 Y30.8078 I-37.3694 J147.5453
G1 X-103.7519 Y30.9448
G1 X-103.2617 Y31.0792
G3 X-99.4806 Y32.1833 I-34.5378 J125.3166
G3 X-99.1274 Y32.2936 I-16.2647 J52.6776
G3 X-98.7857 Y32.4018 I-6.298 J20.4895
G3 X-98.455 Y32.5078 I-4.5764 J14.8375
G3 X-98.1349 Y32.6118 I-3.8057 J12.2557
G1 X-97.98 Y32.6627
G3 X-96.7639 Y33.0741 I-35.0034 J105.473
G3 X-95.7055 Y33.4525 I-17.2196 J49.8284
G3 X-95.4747 Y33.538 I-2.6748 J7.5793
G3 X-95.2514 Y33.6217 I-2.8488 J7.9333
G3 X-93.5356 Y34.3079 I-15.1805 J40.4489
G3 X-92.8997 Y34.5859 I-19.5746 J45.6463
G1 X-92.6232 Y34.7118
G1 X-92.3652 Y34.8325
G3 X-91.4098 Y35.311 I-8.7382 J18.6376
G3 X-91.3876 Y35.3228 I-0.0721 J0.1621
G3 X-90.0227 Y36.1409 I-6.6299 J12.6094
G3 X-89.3863 Y36.6209 I-4.9629 J7.2412
G3 X-88.8134 Y37.1751 I-3.2005 J3.8819
G2 X-88.4762 Y37.5415 I6.4764 J-5.6231
G2 X-86.9425 Y38.8243 I7.168 J-7.0117
G2 X-85.2983 Y39.7667 I7.133 J-10.5387
G2 X-83.7527 Y40.4105 I6.9408 J-14.4863
G2 X-82.2574 Y40.8867 I7.2373 J-20.1403
G1 X-82.0612 Y40.9411
G2 X-81.2626 Y41.1466 I5.9806 J-21.5808
G2 X-79.5502 Y41.5214 I9.2665 J-38.2438
G1 X-79.3277 Y41.5653
G1 X-78.8881 Y41.6499
G1 X-77.1762 Y41.9684
G1 X-76.7601 Y42.0482
G1 X-76.5507 Y42.0896
G1 X-76.1321 Y42.176
G1 X-75.9251 Y42.2211
G1 X-75.8228 Y42.244
G1 X-75.7213 Y42.2673
G1 X-75.5202 Y42.3152
G3 X-75.3229 Y42.3647 I-0.9609 J4.2478
G1 X-75.1295 Y42.4161
G3 X-74.3806 Y42.6551 I-2.1462 J8.0184
G3 X-73.7185 Y42.966 I-1.4398 J3.927
G3 X-73.4474 Y43.1545 I-1.3498 J2.2303
G3 X-73.226 Y43.372 I-0.9327 J1.1706
G3 X-72.9787 Y43.8927 I-0.8604 J0.7278
G3 X-72.9934 Y44.4096 I-1.3135 J0.2214
G3 X-73.1476 Y44.8715 I-2.1867 J-0.4734
G3 X-73.2502 Y45.0815 I-3.7689 J-1.7113
G1 X-73.3054 Y45.1822
G1 X-73.3338 Y45.2316
G3 X-73.5792 Y45.6125 I-4.2426 J-2.4637
G3 X-74.1198 Y46.3017 I-8.0061 J-5.7233
G1 X-74.2547 Y46.4561
G1 X-74.322 Y46.5313
G1 X-74.457 Y46.6791
G3 X-75.0052 Y47.2451 I-14.8872 J-13.8697
G3 X-76.0821 Y48.2559 I-19.6278 J-19.8329
G1 X-76.2026 Y48.3634
G3 X-78.1471 Y50.0028 I-35.4782 J-40.1066
G3 X-78.8923 Y50.5978 I-38.7714 J-47.797
G1 X-79.5496 Y51.112
G1 X-80.128 Y51.5577
G1 X-80.6362 Y51.9447
G3 X-84.237 Y54.5971 I-114.9108 J-152.2298
G1 X-85.1896 Y55.287
G2 X-86.1081 Y55.9618 I86.7436 J119.0494
G1 X-86.5515 Y56.291
G2 X-86.9869 Y56.6165 I46.7312 J62.9484
G1 X-87.8408 Y57.262
G1 X-88.047 Y57.4193
G2 X-89.6734 Y58.681 I103.4677 J135.0601
G1 X-90.0522 Y58.9805
G1 X-90.4241 Y59.2767
G1 X-90.7892 Y59.5698
G2 X-93.6234 Y61.9286 I75.0981 J93.116
G2 X-93.9294 Y62.1932 I38.5584 J44.9035
G2 X-94.2298 Y62.455 I11.7066 J13.7334
G2 X-96.5563 Y64.5616 I61.8104 J70.6015
G2 X-100.4404 Y68.4792 I50.2419 J53.6967
G2 X-101.8354 Y70.044 I49.9788 J45.9617
G2 X-101.9109 Y70.1312 I1.2174 J1.1299
G2 X-101.9856 Y70.2178 I1.216 J1.125
G2 X-102.0597 Y70.3039 I1.2156 J1.1211
G2 X-102.1331 Y70.3894 I1.2161 J1.1181
G2 X-102.2059 Y70.4743 I1.2184 J1.1168
G2 X-102.2779 Y70.5587 I1.2219 J1.1165
G1 X-102.8467 Y71.2312
G1 X-103.9067 Y72.5018
G1 X-104.3745 Y73.058
G1 X-104.5962 Y73.3173
G3 X-104.8129 Y73.5671 I-14.6026 J-12.4518
G1 X-104.8657 Y73.6273
G3 X-105.0771 Y73.865 I-7.3279 J-6.3028
G3 X-105.9289 Y74.7564 I-12.7809 J-11.3608
G3 X-106.7364 Y75.4726 I-7.9607 J-8.1622
G3 X-108.324 Y76.4878 I-5.5108 J-6.8689
G3 X-109.6303 Y77.0202 I-4.5745 J-9.3547
G3 X-110.6464 Y77.3124 I-4.0 J-11.9999
G1 X-110.8391 Y77.3589
G3 X-111.6254 Y77.5267 I-4.6023 J-19.6404
G0 Z5.0
G0 X-135.4766 Y-1.4382
G1 Z0.0
G3 X-136.032 Y-1.3989 I-0.6826 J-5.7035
G1 X-136.3058 Y-1.3924
G1 X-136.4416 Y-1.391
G3 X-136.5092 Y-1.3906 I-0.0381 J-0.8144
G1 X-136.6443 Y-1.3905
G1 X-136.9131 Y-1.3926
G1 X-137.4467 Y-1.4034
G1 X-137.5779 Y-1.4071
G1 X-138.1008 Y-1.4254
G1 X-138.6152 Y-1.4478
G3 X-140.6393 Y-1.5648 I4.4624 J-94.6945
G3 X-142.5349 Y-1.7031 I14.9108 J-217.5849
G1 X-142.979 Y-1.7384
G3 X-143.853 Y-1.8108 I6.4313 J-82.9128
G3 X-143.9589 Y-1.8199 I0.2315 J-3.3439
G1 X-144.802 Y-1.8934
G3 X-157.8373 Y-3.3622 I25.7578 J-287.1816
G1 X-158.65 Y-3.4749
G1 X-159.0308 Y-3.5288
G1 X-159.7683 Y-3.6351
G3 X-162.5303 Y-4.0599 I28.3255 J-193.377
G3 X-166.6561 Y-4.804 I16.9154 J-105.5911
G3 X-166.7845 Y-4.8303 I0.397 J-2.2696
G3 X-168.7671 Y-5.2739 I10.3999 J-51.1252
G1 X-169.2595 Y-5.3991
G1 X-169.6274 Y-5.4982
G3 X-170.72 Y-5.8338 I4.378 J-16.2035
G3 X-171.0549 Y-5.9 I0.5917 J-3.8697
G3 X-172.3186 Y-6.3377 I1.6494 J-6.8049
G3 X-174.3878 Y-7.7018 I3.2419 J-7.1693
G3 X-175.7615 Y-9.3431 I5.4784 J-5.9809
G3 X-176.0011 Y-9.7417 I5.9237 J-3.8325
G3 X-176.7343 Y-11.3826 I8.4988 J-4.7814
G3 X-177.1406 Y-12.8958 I11.0096 J-3.7674
G3 X-177.3429 Y-14.2493 I14.5903 J-2.8725
G3 X-177.4184 Y-16.6396 I17.7248 J-1.7566
G3 X-177.3715 Y-17.5349 I26.9582 J0.9643
G3 X-176.9572 Y-20.6434 I27.5816 J2.0941
G3 X-176.6319 Y-22.1777 I31.5244 J5.8824
G1 X-176.5404 Y-22.5589
G1 X-176.4692 Y-22.8442
G3 X-176.4145 Y-23.0579 I6.8441 J1.6388
G3 X-176.2436 Y-23.6971 I27.5343 J7.0177
G1 X-176.1642 Y-23.986
G1 X-175.8511 Y-25.1378
G2 X-175.5473 Y-26.2728 I-130.7423 J-35.6143
G1 X-175.2513 Y-27.3909
G1 X-174.9624 Y-28.4921
G1 X-174.3993 Y-30.6616
G2 X-173.8593 Y-32.7647 I-387.759 J-100.6834
G1 X-173.5993 Y-33.7838
G1 X-173.0899 Y-35.7909
G1 X-172.5991 Y-37.7358
G1 X-172.5399 Y-37.9714
G2 X-168.811 Y-53.0008 I-2716.0124 J-681.841
G1 X-167.43 Y-58.6411
G1 X-167.1289 Y-59.8752
G1 X-165.9645 Y-64.6577
G1 X-164.9489 Y-68.8433
G1 X-163.1778 Y-76.1695
G2 X-157.9063 Y-98.1579 I-6918.3505 J-1670.2587
G1 X-120.4889 Y-97.7399
G1 X-137.5823 Y-18.3186
G2 X-138.1742 Y-16.1695 I30.5214 J9.5627
G1 X-138.2311 Y-15.9307
G2 X-138.9173 Y-12.1243 I34.2736 J8.1435
G1 X-138.939 Y-11.9413
G1 X-138.9782 Y-11.5805
G1 X-139.0118 Y-11.2299
G1 X-139.04 Y-10.8894
G2 X-139.0816 Y-10.228 I17.8405 J1.4538
G1 X-139.0948 Y-9.9168
G2 X-139.031 Y-7.502 I18.2752 J0.7257
G2 X-138.9119 Y-6.5936 I13.1531 J-1.2637
G2 X-138.9035 Y-6.544 I0.4861 J-0.0567
G2 X-138.5188 Y-4.9958 I10.0069 J-1.6643
G2 X-138.3052 Y-4.4333 I8.6433 J-2.961
G2 X-137.8219 Y-3.4971 I6.3144 J-2.6666
G2 X-136.8076 Y-2.2873 I4.653 J-2.8712
G2 X-135.4766 Y-1.4382 I3.3802 J-3.8305
G0 Z5.0
G0 X-172.8804 Y-2.4118
G1 Z0.0
G3 X-172.9889 Y-2.3473 I-0.1564 J-0.1396
G3 X-173.2261 Y-2.3314 I-0.1656 J-0.6901
G3 X-173.6801 Y-2.4134 I0.2418 J-2.6334
G3 X-174.1063 Y-2.543 I1.9924 J-7.322
G3 X-174.9098 Y-2.8565 I3.6233 J-10.4716
G3 X-176.3655 Y-3.5639 I8.1678 J-18.6607
G3 X-177.5992 Y-4.2696 I12.3543 J-23.0293
G3 X-179.665 Y-5.6714 I13.1432 J-21.5923
G3 X-181.1176 Y-6.8807 I11.8373 J-15.6953
G3 X-181.1504 Y-6.9111 I0.2785 J-0.3334
G3 X-181.6588 Y-7.4061 I13.0038 J-13.8649
G3 X-182.4828 Y-8.3399 I7.9804 J-7.8724
G3 X-183.0217 Y-9.1098 I6.063 J-4.8171
G3 X-183.3569 Y-9.7332 I4.7099 J-2.9343
G3 X-183.6846 Y-10.7436 I3.8309 J-1.8011
G3 X-183.6912 Y-11.8059 I2.923 J-0.5493
G3 X-182.8671 Y-16.0879 I301.4495 J55.8004
G3 X-182.8439 Y-16.2049 I2.0763 J0.3503
G1 X-182.4725 Y-18.0686
G1 X-182.1215 Y-19.8153
G1 X-181.7905 Y-21.4524
G1 X-181.6349 Y-22.2197
G1 X-181.0292 Y-25.1924
G1 X-180.4967 Y-27.793
G1 X-179.5603 Y-32.3431
G1 X-178.8552 Y-35.7549
G1 X-177.7935 Y-40.8721
G1 X-176.7274 Y-45.9883
G1 X-176.6836 Y-46.053
G3 X-176.286 Y-46.5237 I3.1128 J2.2258
G3 X-175.8618 Y-46.8711 I1.9106 J1.9007
G3 X-175.4273 Y-47.0787 I0.9512 J1.4319
G3 X-174.6095 Y-47.0413 I0.3584 J1.1225
G3 X-174.1129 Y-46.7048 I-0.6609 J1.5102
G3 X-173.8165 Y-46.369 I-2.0381 J2.0973
G1 X-173.7185 Y-46.2328
G1 X-173.6375 Y-46.1102
G3 X-173.3842 Y-45.6632 I-4.5787 J2.8898
G1 X-173.3271 Y-45.5481
G3 X-173.2453 Y-45.3736 I-3.2667 J1.6367
G1 X-173.1679 Y-45.1972
G1 X-180.163 Y-12.0259
G2 X-180.068 Y-11.2415 I6.23 J-0.3565
G2 X-179.6973 Y-9.8109 I10.0391 J-1.8381
G2 X-178.598 Y-7.4777 I10.7769 J-3.6518
G1 X-178.4691 Y-7.2729
G2 X-177.337 Y-5.7805 I10.2801 J-6.6222
G2 X-175.268 Y-3.8854 I10.2264 J-9.0881
G2 X-172.8804 Y-2.4118 I9.7127 J-13.0665
G0 Z5.0
M5
M30
