( Made using CamBam - http://www.cambam.co.uk )
( Elvis Mic 1/25/2014 12:25:00 AM )
( T0 : 0.0 )
G21 G90 G64 G40
G0 Z5.0
( T0 : 0.0 )
T0 M6
( Detail5 )
G17
M3 S1000
G0 X-95.9673 Y33.5966
G1 F1.0 Z0.0
G1 X-95.91 Y33.1894
G2 X-92.3632 Y7.3198 I-4055.6513 J-569.2166
G1 X-91.9338 Y4.0839
G1 X-91.7474 Y2.668
G1 X-91.6604 Y2.0043
G1 X-91.4924 Y0.7181
G1 X-91.3357 Y-0.4877
G1 X-91.2626 Y-1.0531
G1 X-90.9813 Y-3.2438
G1 X-90.8594 Y-4.2025
G1 X-90.7458 Y-5.1013
G1 X-90.5349 Y-6.7868
G1 X-90.4436 Y-7.5243
G1 X-90.2744 Y-8.9075
G1 X-90.2013 Y-9.5128
G1 X-90.1672 Y-9.7966
G1 X-90.1016 Y-10.3464
G1 X-89.9801 Y-11.3775
G2 X-89.9539 Y-11.6031 I-7.6136 J-1.0003
G1 X-89.8534 Y-12.4775
G1 X-89.7673 Y-13.2427
G1 X-89.6221 Y-14.5826
G1 X-89.5699 Y-15.0854
G1 X-89.5256 Y-15.5254
G1 X-89.452 Y-16.2959
G1 X-89.4389 Y-16.4405
G2 X-89.4151 Y-16.7116 I-10.2472 J-1.0368
G1 X-89.3763 Y-17.1863
G1 X-89.363 Y-17.3645
G1 X-89.3419 Y-17.6763
G1 X-89.3285 Y-17.9104
G2 X-89.3147 Y-18.2619 I-11.5546 J-0.6302
G1 X-89.3126 Y-18.4377
G1 X-89.313 Y-18.4818
G1 X-89.3174 Y-18.6136
G3 X-89.3241 Y-18.7588 I1.8922 J-0.16
G3 X-89.3278 Y-19.0476 I4.7861 J-0.2044
G3 X-89.2686 Y-20.1844 I15.9897 J0.262
G1 X-89.1783 Y-21.2549
G2 X-89.1119 Y-22.2649 I-27.0755 J-2.287
G1 X-89.1024 Y-22.5028
G1 X-89.0961 Y-22.7372
G2 X-89.0937 Y-23.199 I-11.4799 J-0.2901
G2 X-89.1346 Y-24.0932 I-12.5979 J0.1281
G2 X-89.2395 Y-24.9258 I-9.9058 J0.8245
G2 X-89.3142 Y-25.3117 I-6.0618 J0.9734
G2 X-89.7769 Y-26.7588 I-7.5023 J1.6014
G2 X-91.2456 Y-28.9479 I-6.8135 J2.9839
G2 X-91.5969 Y-29.2936 I-7.8724 J7.649
G2 X-93.0618 Y-30.4144 I-6.8825 J7.4778
G2 X-94.2666 Y-31.0917 I-7.3406 J11.6481
G2 X-95.2089 Y-31.523 I-6.5248 J13.0111
G2 X-95.2986 Y-31.5604 I-0.5591 J1.2128
G2 X-95.6478 Y-31.7009 I-5.6356 J13.499
G2 X-95.9556 Y-31.8182 I-4.0488 J10.1607
G2 X-98.1541 Y-32.51 I-8.2338 J22.3303
G1 X-98.2696 Y-32.5406
G2 X-99.191 Y-32.7807 I-41.9105 J158.9312
G2 X-102.7738 Y-33.6603 I-48.3498 J189.1859
G1 X-103.5596 Y-33.8439
G1 X-104.3215 Y-34.0192
G1 X-104.5061 Y-34.0614
G1 X-105.239 Y-34.2271
G1 X-106.6603 Y-34.5427
G1 X-107.9941 Y-34.8324
G1 X-109.2457 Y-35.099
G1 X-110.4198 Y-35.345
G1 X-110.9704 Y-35.4591
G1 X-112.0377 Y-35.6778
G1 X-113.0388 Y-35.8805
G1 X-114.917 Y-36.2543
G1 X-115.7392 Y-36.4154
G1 X-117.2815 Y-36.7139
G1 X-117.619 Y-36.7786
G1 X-118.2731 Y-36.9033
G1 X-118.5798 Y-36.9615
G1 X-119.174 Y-37.0737
G1 X-120.2884 Y-37.2823
G1 X-120.7762 Y-37.3729
G1 X-121.2335 Y-37.4574
G1 X-122.9489 Y-37.771
G1 X-124.2362 Y-38.0028
G1 X-126.168 Y-38.3444
G1 X-127.1344 Y-38.5123
G1 X-128.1014 Y-38.6774
G3 X-128.2366 Y-39.286 I2.9616 J-0.9771
G3 X-128.1992 Y-40.4619 I3.5586 J-0.4756
G3 X-127.8173 Y-41.4471 I3.0241 J0.6059
G3 X-127.2079 Y-42.1869 I2.8518 J1.7281
G3 X-126.4966 Y-42.7084 I2.7902 J3.0601
G3 X-125.7612 Y-43.0694 I2.9595 J5.0999
G3 X-125.0385 Y-43.3189 I2.5819 J6.3053
G3 X-124.3444 Y-43.4911 I2.7715 J9.6901
G3 X-123.0207 Y-43.6906 I2.4785 J11.9547
G3 X-122.4375 Y-43.7378 I2.105 J22.3523
G3 X-120.2451 Y-43.7574 I1.2919 J21.9482
G1 X-119.8344 Y-43.7388
G3 X-119.0655 Y-43.6887 I-1.9901 J36.4813
G1 X-118.7294 Y-43.661
G3 X-117.4721 Y-43.5298 I-2.776 J32.683
G3 X-115.5946 Y-43.2639 I-5.9583 J48.8338
G1 X-115.3607 Y-43.2257
G1 X-114.9517 Y-43.1564
G1 X-114.3392 Y-43.047
G3 X-114.1863 Y-43.0186 I-0.664 J4.0125
G3 X-113.7279 Y-42.9314 I-3.6281 J20.3186
G2 X-113.6475 Y-42.9159 I0.2104 J-0.8748
G2 X-113.5672 Y-42.9005 I0.2099 J-0.8736
G2 X-113.4871 Y-42.8851 I0.2095 J-0.8724
G2 X-113.4072 Y-42.8697 I0.209 J-0.8712
G2 X-113.3274 Y-42.8543 I0.2085 J-0.87
G2 X-113.2477 Y-42.8391 I0.208 J-0.8688
G1 X-111.976 Y-42.5968
G2 X-109.5082 Y-42.1323 I276.2494 J-1461.0873
G1 X-107.1895 Y-41.6947
G1 X-106.1009 Y-41.4858
G1 X-105.5732 Y-41.3832
G1 X-105.0538 Y-41.2811
G1 X-104.5424 Y-41.1795
G1 X-103.5361 Y-40.9755
G1 X-103.0486 Y-40.8744
G1 X-102.5689 Y-40.7734
G1 X-102.3328 Y-40.723
G3 X-98.5999 Y-39.8539 I-20.1395 J94.955
G1 X-98.3962 Y-39.8016
G3 X-97.9924 Y-39.696 I-4.2393 J17.0398
G3 X-94.8382 Y-38.7706 I-14.8598 J56.487
G1 X-94.667 Y-38.7143
G3 X-91.9829 Y-37.7276 I-13.4313 J40.6768
G1 X-91.6935 Y-37.6077
G1 X-91.4097 Y-37.4873
G1 X-91.1314 Y-37.3664
G1 X-90.8584 Y-37.2449
G3 X-88.7507 Y-36.1996 I-12.9923 J28.8443
G3 X-85.2985 Y-33.9599 I-12.5373 J23.1062
G3 X-84.1038 Y-32.9817 I-15.9067 J20.6448
G3 X-82.1673 Y-31.0992 I-16.4999 J18.9105
G3 X-79.6506 Y-27.9288 I-20.3676 J18.7525
G3 X-78.5624 Y-26.2213 I-28.0238 J19.0599
G3 X-77.5783 Y-24.4516 I-30.0484 J17.8672
G3 X-77.0172 Y-23.1368 I-10.2917 J5.1693
G3 X-76.6286 Y-21.8592 I-12.8721 J4.613
G3 X-76.1836 Y-19.4018 I-18.1686 J4.5592
G3 X-76.0246 Y-17.2265 I-25.3118 J2.9436
G3 X-76.0157 Y-15.3195 I-33.1737 J1.1075
G1 X-76.027 Y-14.9026
G3 X-76.1087 Y-13.2889 I-45.6979 J-1.5038
G3 X-76.121 Y-13.1126 I-9.4044 J-0.565
G3 X-76.1336 Y-12.9391 I-5.0769 J-0.2829
G3 X-76.1466 Y-12.7683 I-3.8644 J-0.2085
G3 X-76.2029 Y-12.0965 I-71.4148 J-5.6494
G1 X-76.2627 Y-11.4673
G3 X-76.3909 Y-10.2893 I-65.9139 J-6.5759
G1 X-76.4215 Y-10.0318
G1 X-76.4519 Y-9.7825
G1 X-76.482 Y-9.5411
G3 X-76.7365 Y-7.6732 I-102.3227 J-12.9857
G1 X-76.8395 Y-6.9738
G3 X-76.8452 Y-6.9355 I-0.4117 J-0.0421
G3 X-76.8509 Y-6.8976 I-0.4082 J-0.0418
G3 X-77.2236 Y-4.4904 I-368.8217 J-55.866
G1 X-77.3174 Y-3.8887
G1 X-77.4549 Y-2.9857
G2 X-77.4716 Y-2.8727 I1.5944 J0.2941
G1 X-77.5006 Y-2.675
G1 X-77.5845 Y-2.0815
G1 X-77.6263 Y-1.7673
G2 X-77.9203 Y0.7312 I168.9264 J21.1453
G1 X-78.0485 Y1.9035
G1 X-78.1699 Y3.0394
G1 X-78.2856 Y4.14
G1 X-78.5059 Y6.2729
G1 X-78.5569 Y6.7729
G1 X-78.7562 Y8.7416
G1 X-78.9409 Y10.5876
G1 X-79.2833 Y14.049
G1 X-79.4318 Y15.5636
G1 X-79.7083 Y18.4035
G1 X-79.7685 Y19.0248
G1 X-80.2323 Y23.8398
G1 X-80.5773 Y27.4514
G1 X-80.7061 Y28.8058
G1 X-80.9308 Y31.1761
G1 X-81.5995 Y38.2873
G1 X-95.9673 Y33.5966
G0 Z5.0
G0 X-129.2717 Y13.6647
G1 Z0.0
G1 X-179.4733 Y2.4927
G1 X-175.3026 Y-16.2354
G1 X-125.1041 Y-5.0603
G1 X-129.2717 Y13.6647
G0 Z5.0
M5
M30
