( Made using CamBam - http://www.cambam.co.uk )
( Elvis Mic 1/25/2014 12:24:37 AM )
( T0 : 0.0 )
G21 G90 G64 G40
G0 Z5.0
( T0 : 0.0 )
T0 M6
( Detail2 )
G17
M3 S1000
G0 X-208.3985 Y-16.9838
G1 F1.0 Z0.0
G1 X-208.3411 Y-17.5406
G1 X-208.2818 Y-18.0972
G1 X-208.1586 Y-19.21
G1 X-208.1222 Y-19.5278
G1 X-208.0228 Y-20.3749
G3 X-207.5752 Y-23.7573 I123.5014 J14.6203
G1 X-207.5066 Y-24.2071
G1 X-207.4886 Y-24.3213
G3 X-207.4092 Y-24.8078 I25.604 J3.928
G1 X-207.3662 Y-25.0586
G3 X-207.1415 Y-26.2001 I22.1996 J3.7775
G3 X-206.9829 Y-26.8004 I8.3564 J1.8869
G3 X-206.867 Y-27.1001 I2.3267 J0.7274
G3 X-206.6396 Y-27.4115 I1.1909 J0.6309
G3 X-206.3569 Y-27.6736 I1.9949 J1.8676
G1 X-206.2712 Y-27.7427
G3 X-205.5467 Y-28.2354 I4.6433 J6.0489
G1 X-205.3311 Y-28.3626
G3 X-205.2151 Y-28.4287 I1.2419 J2.0468
G3 X-205.0908 Y-28.4978 I1.4333 J2.4327
G1 X-204.8044 Y-28.6511
G1 X-204.4738 Y-28.8194
G1 X-204.2963 Y-28.9065
G3 X-203.3394 Y-29.3438 I11.3251 J23.5148
G3 X-202.7856 Y-29.5766 I9.1721 J21.0446
G3 X-202.7505 Y-29.5909 I0.1209 J0.246
G3 X-202.1077 Y-29.8449 I18.2433 J45.2205
G3 X-201.7629 Y-29.9751 I5.0518 J12.8566
G3 X-196.1372 Y-31.6091 I14.0542 J37.8866
G3 X-195.3708 Y-31.7625 I5.9477 J27.726
G2 X-194.2141 Y-32.0139 I-3.5332 J-19.0435
G1 X-193.8319 Y-32.1119
G2 X-192.3214 Y-32.5688 I-5.998 J-22.5532
G2 X-191.3319 Y-32.9264 I-6.9603 J-20.8125
G1 X-191.0705 Y-33.0283
G1 X-191.0043 Y-33.0546
G2 X-186.9208 Y-35.07 I-10.9544 J-27.3405
G2 X-185.8216 Y-35.7683 I-9.9234 J-16.8348
G2 X-186.0005 Y-36.1992 I-0.9514 J0.1426
G2 X-186.3354 Y-36.5241 I-1.1888 J0.8902
G2 X-186.5984 Y-36.6889 I-1.3345 J1.8367
G2 X-186.9704 Y-36.8628 I-1.9593 J3.707
G1 X-187.0723 Y-36.9024
G1 X-187.1817 Y-36.942
G2 X-187.7708 Y-37.1144 I-2.2032 J6.4357
G2 X-187.9298 Y-37.1518 I-0.7583 J2.869
G2 X-188.7765 Y-37.3051 I-2.5041 J11.4131
G2 X-189.904 Y-37.4248 I-2.3422 J16.6964
G2 X-191.3986 Y-37.4852 I-1.7136 J23.8635
G2 X-191.7968 Y-37.4869 I-0.285 J20.7597
G2 X-193.8998 Y-37.4155 I0.2026 J36.9732
G2 X-196.6711 Y-37.1476 I2.5199 J40.5394
G2 X-200.3052 Y-36.5133 I5.1644 J40.3152
G1 X-200.5336 Y-36.4614
G2 X-202.5984 Y-35.91 I6.8138 J29.657
G2 X-203.6783 Y-35.5465 I7.0283 J22.6621
G2 X-204.803 Y-35.0853 I5.3786 J14.7172
G2 X-205.9475 Y-34.471 I4.0105 J8.8459
G2 X-206.2168 Y-34.2366 I0.696 J1.0715
G2 X-206.4304 Y-33.9508 I1.4834 J1.3315
G2 X-206.7532 Y-33.3186 I3.52 J2.1958
G1 X-206.8286 Y-33.1305
G1 X-206.9082 Y-32.9132
G2 X-207.0928 Y-32.3267 I9.767 J3.3964
G1 X-207.1366 Y-32.1688
G1 X-207.1813 Y-31.9999
G2 X-207.3886 Y-31.0954 I17.144 J4.4051
G2 X-207.3944 Y-31.0667 I0.1998 J0.0557
G2 X-207.6127 Y-29.8439 I24.3564 J4.9796
G1 X-207.6626 Y-29.5167
G2 X-207.6872 Y-29.3477 I5.8601 J0.9392
G2 X-207.9086 Y-27.5462 I50.8788 J7.1666
G2 X-207.9573 Y-27.0649 I42.5059 J4.5423
G1 X-208.0052 Y-26.5515
G2 X-208.2032 Y-23.8171 I80.71 J7.2202
G2 X-208.3539 Y-20.1743 I115.9884 J6.6199
G1 X-208.3762 Y-19.2028
G2 X-208.3985 Y-16.9838 I108.9772 J2.201
G0 Z5.0
G0 X-213.9009 Y-17.5885
G1 Z0.0
G1 X-212.522 Y-30.1349
G3 X-212.4516 Y-31.2854 I7.3972 J-0.125
G3 X-211.9608 Y-33.3809 I10.8178 J1.4286
G3 X-210.2098 Y-36.6908 I11.224 J3.8198
G3 X-208.291 Y-38.7329 I10.2834 J7.7398
G3 X-206.6052 Y-39.9844 I9.8283 J11.4775
G3 X-206.2712 Y-40.1927 I7.408 J11.5052
G3 X-204.9779 Y-40.9038 I9.1592 J15.1279
G3 X-202.9445 Y-41.776 I9.162 J18.5528
G3 X-200.8345 Y-42.442 I8.5646 J23.4599
G3 X-199.9352 Y-42.6786 I13.8735 J50.901
G1 X-199.8261 Y-42.7067
G1 X-198.9561 Y-42.9262
G3 X-198.1117 Y-43.1322 I26.9551 J108.6489
G1 X-197.7021 Y-43.2298
G3 X-194.4667 Y-43.9539 I33.7342 J143.1537
G1 X-193.757 Y-44.1028
G1 X-193.0688 Y-44.2443
G1 X-192.4016 Y-44.3787
G1 X-191.7549 Y-44.5067
G3 X-186.7291 Y-45.4292 I42.0592 J214.9651
G1 X-185.7846 Y-45.5901
G1 X-185.3417 Y-45.6643
G1 X-184.4831 Y-45.8059
G3 X-182.8722 Y-46.0641 I25.1882 J151.9794
G1 X-181.4615 Y-46.2825
G1 X-180.8439 Y-46.376
G1 X-180.2648 Y-46.4624
G1 X-179.1785 Y-46.6215
G1 X-178.7031 Y-46.6899
G1 X-178.4802 Y-46.7217
G3 X-175.0225 Y-47.1939 I39.1937 J274.0915
G1 X-174.1573 Y-47.3057
G1 X-173.5081 Y-47.3877
G1 X-173.3863 Y-47.4029
G3 X-172.9297 Y-47.4593 I3.6813 J27.9155
G1 X-172.5872 Y-47.501
G1 X-171.5592 Y-47.6221
G1 X-171.4385 Y-47.4255
G1 X-171.2096 Y-47.0413
G1 X-170.9997 Y-46.6783
G3 X-170.6175 Y-45.9905 I-23.802 J13.6777
G1 X-170.455 Y-45.6865
G1 X-170.38 Y-45.5434
G1 X-170.2367 Y-45.2649
G3 X-169.7281 Y-44.2054 I-20.5508 J10.5163
G3 X-169.6831 Y-44.1045 I-1.6114 J0.7796
G1 X-169.5974 Y-43.9082
G3 X-169.5777 Y-43.862 I-0.4887 J0.2365
G3 X-169.2855 Y-43.1273 I-15.5143 J6.5958
G3 X-169.0959 Y-42.5639 I-8.2851 J3.1013
G3 X-168.9779 Y-42.1331 I-10.0499 J2.9839
G3 X-168.8625 Y-41.4723 I-4.6611 J1.1541
G3 X-168.8557 Y-41.3885 I-1.2267 J0.1423
G3 X-168.8514 Y-41.094 I-2.6608 J0.1858
G3 X-168.8887 Y-40.802 I-1.6144 J-0.0574
G2 X-168.9843 Y-40.2465 I10.1749 J2.0368
G1 X-169.0656 Y-39.6977
G1 X-169.085 Y-39.5626
G1 X-169.2343 Y-38.4848
G1 X-169.2696 Y-38.2237
G1 X-169.4075 Y-37.1871
G1 X-169.6688 Y-35.1779
G1 X-169.7895 Y-34.2358
G2 X-169.8186 Y-34.0076 I15.4626 J2.0889
G1 X-170.0483 Y-32.1963
G1 X-170.4739 Y-28.7997
G1 X-170.5202 Y-28.4282
G1 X-170.8828 Y-25.502
G1 X-170.9619 Y-24.8619
G1 X-171.571 Y-19.9005
G1 X-171.6847 Y-18.9702
G1 X-172.1039 Y-15.5233
G1 X-133.7034 Y-6.9747
G1 X-133.556 Y-7.7382
G1 X-133.188 Y-9.667
G1 X-132.5043 Y-13.2847
G1 X-132.3557 Y-14.0763
G1 X-131.7826 Y-17.1443
G1 X-131.5333 Y-18.4868
G2 X-129.7014 Y-28.5624 I-1254.651 J-233.3247
G2 X-129.259 Y-31.0843 I-1919.0985 J-337.9294
G2 X-128.6207 Y-34.8718 I-330.1628 J-57.5871
G2 X-128.6016 Y-34.9904 I-2.1742 J-0.4121
G1 X-128.4559 Y-35.9092
G1 X-128.4028 Y-36.2541
G1 X-128.3913 Y-36.3296
G1 X-128.3803 Y-36.4028
G1 X-128.3696 Y-36.4737
G2 X-128.2131 Y-37.5728 I-54.0059 J-8.2516
G2 X-128.2041 Y-37.6417 I-0.6225 J-0.1165
G2 X-128.1419 Y-38.1584 I-15.0297 J-2.069
G1 X-128.1351 Y-38.2232
G2 X-128.1014 Y-38.6774 I-6.7586 J-0.7301
G1 X-128.0986 Y-38.9436
G2 X-128.101 Y-39.2027 I-20.4881 J0.0586
G1 X-128.1129 Y-39.7065
G1 X-128.1228 Y-40.1827
G1 X-128.1236 Y-40.2953
G1 X-128.1224 Y-40.517
G3 X-128.0564 Y-41.3752 I5.9968 J0.0291
G1 X-128.0406 Y-41.4683
G3 X-127.827 Y-42.1791 I2.9897 J0.5107
G3 X-127.0209 Y-43.1667 I2.2246 J0.9929
G3 X-126.6184 Y-43.4162 I1.8765 J2.5789
G3 X-125.853 Y-43.7266 I2.1025 J4.0844
G3 X-125.2538 Y-43.881 I2.0494 J6.715
G3 X-124.3375 Y-44.026 I1.9353 J9.263
G3 X-124.1068 Y-44.0498 I1.1722 J10.2391
G3 X-123.76 Y-44.0779 I0.8662 J8.5402
G1 X-123.4125 Y-44.0978
G3 X-122.3459 Y-44.1015 I0.5792 J13.3379
G1 X-122.088 Y-44.0923
G1 X-121.8323 Y-44.0803
G3 X-119.8069 Y-43.9186 I-2.1397 J39.5431
G1 X-119.3335 Y-43.8683
G1 X-118.8679 Y-43.8154
G1 X-118.4099 Y-43.7604
G1 X-118.1845 Y-43.7323
G3 X-114.6173 Y-43.2183 I-13.745 J108.0166
G3 X-113.0615 Y-42.9614 I-28.8548 J179.5941
G3 X-112.8794 Y-42.9302 I-1.2453 J7.8277
G3 X-101.386 Y-40.5749 I-32.0972 J185.8492
G1 X-101.2075 Y-40.5323
G1 X-101.0319 Y-40.4901
G1 X-100.3409 Y-40.3222
G1 X-99.6938 Y-40.1618
G1 X-99.3907 Y-40.0857
G3 X-97.0479 Y-39.4714 I-31.0284 J123.1097
G1 X-96.8288 Y-39.4113
G3 X-93.4537 Y-38.4123 I-21.5176 J78.8932
G3 X-91.7874 Y-37.8444 I-16.155 J50.1317
G1 X-91.3746 Y-37.6915
G3 X-91.2974 Y-37.6623 I-0.3151 J0.9474
G1 X-91.0087 Y-37.5506
G1 X-90.9007 Y-37.5079
G3 X-90.5245 Y-37.3547 I-10.6742 J26.7358
G1 X-90.3375 Y-37.2755
G1 X-90.2443 Y-37.2352
G3 X-90.1513 Y-37.1944 I-0.5709 J1.4276
G3 X-86.9666 Y-35.5659 I-13.4498 J30.2308
G3 X-85.6244 Y-34.7448 I-15.7075 J27.183
G3 X-83.2118 Y-33.0368 I-18.3095 J28.4209
G1 X-83.0839 Y-32.9367
G3 X-81.1285 Y-31.2575 I-17.6595 J22.5433
G3 X-79.5475 Y-29.6391 I-17.9246 J19.0914
G3 X-78.2903 Y-28.1039 I-17.0317 J15.2286
G3 X-77.3095 Y-26.6679 I-15.4478 J11.6044
G3 X-75.9285 Y-23.9559 I-14.8222 J9.2555
G3 X-75.5408 Y-22.8801 I-13.4207 J5.4451
G3 X-74.8421 Y-18.9501 I-14.1494 J4.5425
G3 X-74.8972 Y-16.9509 I-14.8942 J0.5899
G3 X-75.2107 Y-14.9756 I-15.5232 J-1.4513
G2 X-75.2334 Y-14.8731 I1.8104 J0.4542
G1 X-75.3213 Y-14.4638
G1 X-75.3635 Y-14.2605
G1 X-75.4453 Y-13.8551
G1 X-75.4849 Y-13.6537
G1 X-75.5237 Y-13.4529
G1 X-75.5428 Y-13.3529
G2 X-75.6906 Y-12.5538 I109.5524 J20.681
G1 X-75.8293 Y-11.7659
G1 X-75.9605 Y-10.9895
G1 X-75.9684 Y-10.9416
G2 X-76.4459 Y-7.881 I176.6133 J29.1186
G1 X-76.6545 Y-6.4442
G2 X-77.0392 Y-3.6576 I314.4024 J44.8263
G2 X-77.3818 Y-1.0428 I466.233 J62.4054
G1 X-77.5375 Y0.1835
G1 X-77.6857 Y1.3719
G1 X-77.7567 Y1.9476
G1 X-78.0313 Y4.215
G1 X-78.0472 Y4.3479
G1 X-78.063 Y4.4803
G1 X-78.3115 Y6.5903
G1 X-78.4262 Y7.5796
G1 X-78.6454 Y9.4967
G2 X-79.4369 Y16.6888 I1088.8735 J123.4754
G1 X-79.7232 Y19.387
G2 X-81.5995 Y38.2873 I1590.4031 J167.4321
G1 X-90.1448 Y37.3096
G1 X-106.1671 Y35.4778
G1 X-107.9196 Y35.2775
G1 X-135.5211 Y32.1262
G1 X-156.2227 Y29.7668
G2 X-156.344 Y29.753 I-0.4843 J3.7135
G1 X-171.8402 Y27.9902
G1 X-177.6514 Y27.3301
G1 X-187.8212 Y26.1769
G1 X-195.4488 Y25.3141
G1 X-198.3093 Y24.9912
G1 X-203.3151 Y24.4273
G1 X-205.1924 Y24.2164
G1 X-211.7632 Y23.4817
G1 X-212.5846 Y23.3905
G2 X-212.7644 Y23.3706 I-0.5576 J4.2076
G1 X-214.157 Y23.2165
G1 X-216.2461 Y22.9873
G1 X-216.7684 Y22.9306
G1 X-217.552 Y22.8462
G1 X-217.748 Y22.8253
G1 X-218.0419 Y22.7941
G1 X-218.3358 Y22.7633
G1 X-213.9009 Y-17.5885
G0 Z5.0
G0 X-219.8973 Y32.7703
G1 Z0.0
G2 X-221.8446 Y33.9475 I7.3743 J14.3978
G2 X-223.6381 Y35.3481 I12.6325 J18.0242
G1 X-223.7491 Y35.4443
G2 X-224.901 Y36.5051 I20.537 J23.4545
G1 X-225.0456 Y36.6463
G2 X-226.5348 Y38.2024 I26.0944 J26.4643
G2 X-227.3463 Y39.1275 I27.6931 J25.1103
G2 X-227.3965 Y39.1865 I0.8669 J0.7884
G2 X-227.447 Y39.2461 I0.8846 J0.8012
G2 X-227.4979 Y39.3063 I0.9031 J0.8145
G2 X-227.549 Y39.367 I0.9225 J0.8286
G1 X-227.7589 Y39.6186
G2 X-228.696 Y40.7858 I38.9659 J32.245
G2 X-228.7539 Y40.8602 I2.1575 J1.7369
G2 X-228.8711 Y41.0118 I3.5196 J2.8418
G2 X-231.2444 Y44.331 I46.3109 J35.6218
G2 X-234.0697 Y48.969 I55.8294 J37.1883
G1 X-234.4067 Y49.5835
G2 X-235.8534 Y52.439 I50.3333 J27.2949
G1 X-236.0242 Y52.8079
G1 X-236.0665 Y52.9008
G2 X-236.4065 Y53.6716 I42.2769 J19.1029
G2 X-236.7357 Y54.4766 I28.0707 J11.9514
G1 X-236.8143 Y54.6813
G2 X-237.0173 Y55.3452 I5.0825 J1.9173
G2 X-237.1225 Y56.0313 I4.5461 J1.0482
G2 X-236.9756 Y57.4083 I3.8084 J0.29
G2 X-236.6108 Y58.2601 I4.0096 J-1.2132
G2 X-235.8745 Y59.2476 I4.5095 J-2.5939
G2 X-235.3673 Y59.7339 I4.6693 J-4.3631
G2 X-234.7386 Y60.227 I5.4311 J-6.2769
G1 X-234.6556 Y60.2855
G1 X-234.5708 Y60.344
G2 X-233.7766 Y60.8358 I6.2904 J-9.2693
G1 X-233.6731 Y60.8937
G1 X-233.5675 Y60.9514
G2 X-233.1134 Y61.1859 I7.1482 J-13.2825
G2 X-232.6228 Y61.4175 I5.5081 J-11.0349
G1 X-232.3672 Y61.5302
G2 X-231.1923 Y61.9904 I8.0902 J-18.9244
G2 X-231.1549 Y62.0037 I0.1516 J-0.3683
G2 X-230.8468 Y62.1101 I6.0054 J-16.8949
G2 X-229.4397 Y62.537 I7.6788 J-22.7744
G2 X-228.6849 Y62.7314 I5.7828 J-20.8944
G1 X-228.2945 Y62.8235
G1 X-227.8916 Y62.913
G1 X-227.6868 Y62.9563
G2 X-226.8156 Y63.1255 I5.5492 J-26.246
G2 X-226.3657 Y63.2036 I4.0103 J-21.7575
G2 X-224.3246 Y63.4844 I6.2418 J-37.8165
G2 X-224.2357 Y63.4939 I0.2826 J-2.2175
G2 X-224.1468 Y63.5032 I0.3297 J-2.7413
G2 X-223.9689 Y63.5208 I0.9041 J-8.2413
G1 X-223.6127 Y63.5521
G2 X-222.899 Y63.5976 I1.7914 J-22.5024
G2 X-221.4689 Y63.5989 I0.7285 J-14.5035
G2 X-220.5193 Y63.5075 I-0.5057 J-10.2384
G2 X-219.2794 Y63.2183 I-1.039 J-7.2571
G2 X-217.7664 Y62.4336 I-1.6759 J-5.0821
G2 X-217.0358 Y61.779 I-3.3586 J-4.4836
G2 X-216.3329 Y60.9027 I-5.3715 J-5.0284
G2 X-216.0068 Y60.3999 I-10.1925 J-6.9675
G2 X-215.3538 Y59.2037 I-13.1917 J-7.9776
G1 X-215.2775 Y59.0485
G1 X-215.2012 Y58.8903
G1 X-215.1248 Y58.7292
G1 X-215.0482 Y58.5653
G2 X-214.3884 Y57.066 I-43.6234 J-20.0922
G1 X-214.0521 Y56.2646
G1 X-213.6985 Y55.4137
G3 X-211.9326 Y51.8825 I25.4564 J10.5234
G3 X-209.684 Y48.6372 I24.4752 J14.5568
G3 X-207.9601 Y46.6471 I25.9395 J20.7277
G3 X-207.9318 Y46.6169 I0.3144 J0.2663
G3 X-205.4094 Y44.1591 I29.954 J28.2179
G3 X-204.704 Y43.539 I39.4365 J44.1481
G3 X-203.0507 Y42.1718 I32.7295 J37.894
G3 X-202.9448 Y42.0878 I3.3566 J4.1249
G3 X-202.8379 Y42.0034 I2.9989 J3.6905
G3 X-202.7299 Y41.9186 I2.7489 J3.3891
G3 X-202.6208 Y41.8334 I2.5575 J3.1595
G3 X-202.1688 Y41.4842 I34.5434 J44.2586
G1 X-201.699 Y41.1282
G1 X-201.2108 Y40.7652
G3 X-200.7035 Y40.3951 I58.6472 J79.8415
G3 X-199.6116 Y39.6206 I37.6254 J51.8917
G3 X-197.0721 Y37.9199 I51.2305 J73.7495
G1 X-196.4079 Y37.4948
G1 X-196.0693 Y37.2809
G3 X-194.6168 Y36.3831 I65.6441 J104.5787
G2 X-197.7984 Y38.7624 I14.7339 J23.0197
G2 X-200.6379 Y41.5412 I21.6869 J25.0008
G2 X-201.3891 Y42.3929 I25.844 J23.5508
G2 X-203.2678 Y44.7658 I30.5981 J26.1565
G2 X-205.5052 Y48.1207 I36.5666 J26.8091
G1 X-205.5709 Y48.2295
G2 X-208.1027 Y53.0135 I41.8029 J25.1857
G2 X-209.3025 Y55.8639 I40.9716 J18.9227
G1 X-209.3714 Y56.0461
G2 X-209.6467 Y56.802 I25.9037 J9.863
G1 X-209.7806 Y57.1881
G1 X-209.9124 Y57.5817
G1 X-210.0416 Y57.9832
G1 X-210.1677 Y58.3926
G2 X-210.6388 Y60.1592 I26.3094 J7.9618
G2 X-210.828 Y61.0844 I17.254 J4.0116
G2 X-210.9671 Y62.0504 I13.636 J2.4559
G2 X-211.0132 Y63.0601 I7.7841 J0.8617
G2 X-211.0078 Y63.1871 I1.8729 J-0.0158
G2 X-210.9988 Y63.3145 I2.4439 J-0.1089
G2 X-210.9095 Y63.8299 I2.677 J-0.1985
G2 X-210.8128 Y64.0788 I1.3705 J-0.3892
G2 X-210.6423 Y64.3354 I1.2059 J-0.6166
G2 X-210.4265 Y64.5552 I1.5453 J-1.3007
G2 X-210.359 Y64.6119 I0.6793 J-0.7411
G2 X-209.7667 Y64.9848 I2.0584 J-2.6128
G2 X-209.3415 Y65.1753 I2.34 J-4.6522
G2 X-209.0929 Y65.2692 I2.8701 J-7.2216
G1 X-208.9591 Y65.3156
G1 X-208.8157 Y65.3625
G2 X-208.0437 Y65.5755 I3.3227 J-10.5378
G2 X-207.0034 Y65.7881 I3.8574 J-16.2228
G2 X-205.6101 Y65.9879 I4.0572 J-23.3327
G1 X-205.2375 Y66.0294
G2 X-203.2554 Y66.1893 I4.6974 J-45.8656
G2 X-202.7264 Y66.218 I1.6356 J-25.3202
G2 X-199.9161 Y66.2981 I3.4154 J-70.4927
G1 X-199.5534 Y66.3011
G2 X-197.8988 Y66.2982 I0.6488 J-101.5459
G1 X-197.0171 Y66.2868
G2 X-196.0775 Y66.2684 I-1.8432 J-117.9786
G1 X-195.5927 Y66.2568
G1 X-195.3465 Y66.2504
G1 X-194.2972 Y66.2218
G1 X-194.0307 Y66.2149
G2 X-193.2462 Y66.1514 I-0.1871 J-7.19
G2 X-192.4759 Y65.9903 I-0.807 J-5.7786
G2 X-191.0456 Y65.3405 I-1.455 J-5.1026
G2 X-190.2152 Y64.6989 I-3.6205 J-5.5431
G2 X-189.2577 Y63.6854 I-6.5224 J-7.1214
G2 X-189.2016 Y63.617 I-0.8937 J-0.7904
G2 X-188.7094 Y62.977 I-11.4049 J-9.2807
G2 X-188.1848 Y62.2224 I-18.2645 J-13.2576
G2 X-188.1688 Y62.1984 I-0.1626 J-0.1254
G2 X-187.6039 Y61.3139 I-29.2422 J-19.2985
G1 X-187.3138 Y60.8368
G2 X-186.6729 Y59.7412 I-44.3372 J-26.6717
G1 X-186.5108 Y59.457
G3 X-185.4563 Y57.7692 I23.8826 J13.7478
G3 X-184.3033 Y56.147 I33.4034 J22.5221
G1 X-183.9611 Y55.6929
G3 X-183.0275 Y54.4982 I45.5346 J34.622
G1 X-182.774 Y54.1832
G3 X-181.3967 Y52.5246 I61.5303 J49.6942
G1 X-181.0233 Y52.0875
G1 X-180.6225 Y51.6233
G1 X-180.1926 Y51.1304
G1 X-179.7315 Y50.6069
G1 X-179.4927 Y50.3375
G1 X-179.3711 Y50.2008
G3 X-178.2544 Y48.9568 I237.1347 J211.7391
G1 X-177.6558 Y48.2961
G1 X-177.3463 Y47.9555
G3 X-177.2683 Y47.8697 I1.7251 J1.4901
G2 X-175.8449 Y46.2991 I-177.9742 J-162.72
G1 X-175.4806 Y45.891
G1 X-175.4578 Y45.8654
G3 X-174.9352 Y45.3229 I6.302 J5.5488
G1 X-174.8551 Y45.2509
G3 X-174.628 Y45.0749 I1.3096 J1.4562
G3 X-174.4814 Y44.9996 I0.4518 J0.6985
G3 X-174.393 Y44.9856 I0.0795 J0.2162
G3 X-174.3036 Y45.0465 I-0.0053 J0.1039
G3 X-174.2782 Y45.1883 I-0.3034 J0.1275
G3 X-174.2953 Y45.3558 I-0.8221 J0.0007
G3 X-174.3879 Y45.7148 I-2.6091 J-0.4821
G1 X-174.4422 Y45.875
G3 X-174.695 Y46.4988 I-7.623 J-2.7259
G3 X-175.1294 Y47.3901 I-14.2577 J-6.3974
G3 X-175.4078 Y47.902 I-29.0609 J-15.4782
G3 X-176.4969 Y49.6237 I-17.0611 J-9.5863
G3 X-177.3271 Y50.6662 I-9.5084 J-6.7204
G2 X-177.516 Y50.8898 I5.1078 J4.5082
G2 X-177.6932 Y51.1227 I3.3962 J2.767
G2 X-178.0256 Y51.6042 I9.9995 J7.2596
G1 X-178.1169 Y51.7443
G1 X-178.2195 Y51.9054
G2 X-178.9985 Y53.2189 I28.1316 J17.572
G2 X-179.0103 Y53.2398 I0.1448 J0.0957
G2 X-179.0223 Y53.261 I0.146 J0.0964
G2 X-179.0343 Y53.2823 I0.1473 J0.0971
G2 X-180.507 Y56.0372 I73.8834 J41.2672
G1 X-180.6969 Y56.4079
G2 X-181.694 Y58.3919 I136.9148 J70.0535
G1 X-182.2552 Y59.5298
G1 X-182.5527 Y60.1374
G1 X-182.7059 Y60.4513
G2 X-184.3299 Y63.8022 I1070.2042 J520.7243
G1 X-184.7626 Y64.6959
G1 X-185.2258 Y65.6484
G1 X-185.4659 Y66.1394
G1 X-185.7149 Y66.6458
G3 X-185.8419 Y66.9027 I-9.5374 J-4.5559
G3 X-185.8739 Y66.9672 I-0.7164 J-0.315
G1 X-186.139 Y67.4987
G1 X-186.4157 Y68.0459
G1 X-186.4332 Y68.0801
G1 X-186.7246 Y68.6434
G1 X-186.8753 Y68.928
G3 X-187.0313 Y69.2157 I-11.5399 J-6.0719
G1 X-187.1114 Y69.3599
G3 X-187.8007 Y70.2009 I-2.6179 J-1.4427
G3 X-188.7394 Y70.7497 I-2.1285 J-2.5639
G3 X-189.4342 Y70.9582 I-1.6022 J-4.0762
G3 X-190.3859 Y71.0941 I-1.3907 J-6.3394
G3 X-190.933 Y71.1196 I-0.7058 J-9.2516
G3 X-192.3753 Y71.0685 I-0.2027 J-14.669
G1 X-192.5607 Y71.0528
G1 X-192.7517 Y71.0349
G3 X-194.7501 Y70.7694 I3.3239 J-32.6771
G3 X-195.2791 Y70.6824 I4.6195 J-29.7587
G3 X-198.0521 Y70.1761 I24.652 J-142.8538
G1 X-199.6265 Y69.8794
G1 X-200.0326 Y69.8043
G2 X-201.883 Y69.4774 I-25.1246 J136.8173
G2 X-201.9412 Y69.4676 I-0.1366 J0.6362
G2 X-201.9996 Y69.4579 I-0.1369 J0.64
G2 X-202.0582 Y69.4481 I-0.1372 J0.6438
G2 X-202.117 Y69.4383 I-0.1376 J0.6477
G2 X-202.3561 Y69.3991 I-1.3066 J7.2178
G2 X-202.5988 Y69.36 I-1.8002 J10.3992
G1 X-202.8454 Y69.321
G1 X-203.3545 Y69.2431
G1 X-203.8801 Y69.1665
G1 X-204.4229 Y69.0918
G1 X-204.6987 Y69.0557
G1 X-205.2627 Y68.9836
G1 X-205.8271 Y68.9134
G1 X-206.9563 Y68.7781
G1 X-207.7095 Y68.6909
G2 X-210.7242 Y68.3602 I-41.6201 J365.5617
G1 X-212.7352 Y68.1507
G1 X-215.4173 Y67.8785
G1 X-218.9938 Y67.519
G1 X-219.9474 Y67.4224
G1 X-222.1268 Y67.1982
G1 X-223.2888 Y67.076
G3 X-229.4801 Y66.3653 I32.5412 J-310.8294
G3 X-230.2776 Y66.2625 I15.1981 J-120.9862
G1 X-230.6826 Y66.2088
G1 X-231.518 Y66.0946
G1 X-231.9421 Y66.0346
G3 X-233.7492 Y65.7607 I13.9562 J-98.1535
G1 X-234.2072 Y65.6855
G1 X-234.4379 Y65.6465
G1 X-234.9819 Y65.5528
G1 X-235.5259 Y65.4583
G1 X-236.6134 Y65.2674
G1 X-238.7873 Y64.8788
G1 X-239.4082 Y64.7665
G1 X-241.0638 Y64.4662
G1 X-241.1689 Y64.4471
G1 X-241.2758 Y64.4277
G1 X-243.5543 Y64.0169
G1 X-244.1622 Y63.9088
G1 X-245.5522 Y63.6655
G2 X-249.2648 Y63.0498 I-39.999 J229.6869
G1 X-250.2563 Y62.895
G2 X-250.3813 Y62.8758 I-0.6274 J3.6676
G2 X-255.7218 Y62.1148 I-41.1795 J269.8342
G1 X-256.0016 Y62.0779
G1 X-256.2815 Y62.0417
G1 X-256.8415 Y61.9712
G1 X-257.9622 Y61.8354
G1 X-258.7094 Y61.7454
G3 X-259.7047 Y61.6185 I9.0403 J-74.8219
G1 X-259.9698 Y61.5815
G3 X-260.1065 Y61.5617 I0.4045 J-3.2678
G3 X-260.7299 Y61.4617 I3.6944 J-25.0372
G3 X-261.4374 Y61.3187 I1.9531 J-11.483
G1 X-261.6183 Y61.2743
G1 X-261.7099 Y61.2502
G1 X-261.8026 Y61.2245
G3 X-262.1938 Y61.0994 I2.1245 J-7.3112
G3 X-262.2915 Y61.0628 I0.3283 J-1.0269
G3 X-262.6981 Y60.8787 I1.275 J-3.3571
G3 X-262.8978 Y60.7625 I1.1105 J-2.1378
G3 X-263.6454 Y59.9845 I1.1484 J-1.8519
G3 X-263.8739 Y59.4375 I2.3315 J-1.2951
G3 X-264.0045 Y58.8082 I4.0743 J-1.1735
G3 X-264.0572 Y58.1199 I6.6995 J-0.8595
G3 X-264.0578 Y58.0982 I0.1144 J-0.0141
G3 X-264.0522 Y57.3614 I10.4961 J-0.2878
G3 X-264.0484 Y57.2687 I1.9768 J0.0335
G3 X-264.0441 Y57.1754 I4.2952 J0.1525
G1 X-264.0338 Y56.9864
G1 X-264.0213 Y56.795
G1 X-263.9905 Y56.4033
G1 X-263.9818 Y56.3049
G1 X-263.9632 Y56.1059
G3 X-263.7552 Y54.3483 I51.6925 J5.2242
G3 X-263.6264 Y53.4188 I72.4348 J9.5677
G1 X-263.5573 Y52.9405
G3 X-263.2386 Y50.8073 I243.5213 J35.2927
G3 X-262.328 Y47.0266 I21.9037 J3.2756
G3 X-260.7326 Y43.4802 I19.0791 J6.4514
G3 X-255.6123 Y37.6706 I16.7999 J9.6453
G3 X-253.7556 Y36.4409 I10.7199 J14.1699
G3 X-252.6963 Y35.8998 I5.5096 J9.4782
G1 X-252.8983 Y36.0313
G1 X-253.0974 Y36.1671
G2 X-253.4855 Y36.4529 I7.4905 J10.5824
G2 X-254.2123 Y37.0856 I4.7356 J6.1733
G2 X-255.3985 Y38.6013 I5.139 J5.2439
G2 X-255.9769 Y39.7487 I8.2587 J4.8825
G2 X-256.2491 Y40.4302 I12.3765 J5.3383
G1 X-256.3143 Y40.608
G1 X-256.4478 Y40.9888
G2 X-256.7317 Y41.8646 I31.0027 J10.5329
G1 X-256.8017 Y42.0915
G1 X-256.9482 Y42.5757
G2 X-257.102 Y43.0921 I48.0249 J14.5839
G1 X-257.4522 Y44.2689
G1 X-257.6423 Y44.8944
G3 X-257.7419 Y45.2166 I-14.1406 J-4.1974
G1 X-257.9586 Y45.9013
G3 X-258.4788 Y47.4524 I-53.1984 J-16.9785
G2 X-258.8995 Y48.8617 I14.7897 J5.1827
G1 X-258.948 Y49.0662
G2 X-258.9994 Y49.3009 I6.2108 J1.4834
G2 X-259.2314 Y51.2073 I10.4392 J2.2374
G2 X-259.1672 Y52.488 I8.0056 J0.241
G2 X-258.7359 Y54.1455 I6.619 J-0.8376
G2 X-257.5027 Y56.0784 I5.881 J-2.3923
G2 X-256.5231 Y56.9605 I5.4747 J-5.0949
G2 X-255.2485 Y57.7614 I5.4845 J-7.3136
G2 X-253.6765 Y58.4399 I5.5035 J-10.5907
G2 X-251.8117 Y58.9693 I5.4163 J-15.5281
G2 X-250.7066 Y59.1906 I5.4359 J-24.278
G2 X-249.5911 Y59.3515 I2.8958 J-16.124
G2 X-248.8419 Y59.4121 I1.5665 J-14.7083
G2 X-247.8394 Y59.4131 I0.5106 J-9.4754
G2 X-246.5151 Y59.2218 I-0.3471 J-7.0823
G2 X-244.8608 Y58.5359 I-1.4283 J-5.7828
G2 X-244.0224 Y57.9399 I-3.6443 J-6.014
G2 X-243.1648 Y57.1357 I-6.1848 J-7.4549
G2 X-242.2908 Y56.1205 I-10.5811 J-9.993
G2 X-241.8586 Y55.5538 I-14.7679 J-11.7114
G1 X-241.7517 Y55.4078
G1 X-241.6442 Y55.2589
G1 X-241.5361 Y55.107
G1 X-241.4273 Y54.9522
G1 X-241.3178 Y54.7944
G1 X-241.2076 Y54.6336
G2 X-240.2406 Y53.1555 I-38.916 J-26.5144
G1 X-239.9985 Y52.7705
G3 X-239.1232 Y51.396 I72.4422 J45.1633
G1 X-238.8255 Y50.9416
G1 X-238.4233 Y50.3392
G3 X-238.315 Y50.1793 I3.8934 J2.5201
G3 X-238.2874 Y50.1387 I0.4565 J0.2806
G1 X-238.0338 Y49.7688
G3 X-235.9094 Y46.8779 I48.8303 J33.6593
G3 X-235.8745 Y46.8334 I0.4561 J0.322
G1 X-235.5749 Y46.4555
G3 X-230.3453 Y40.7899 I42.8032 J34.2626
G3 X-228.7131 Y39.3079 I42.3735 J45.0266
G3 X-224.1195 Y35.6436 I43.9479 J50.3815
G3 X-223.9698 Y35.5346 I5.2659 J7.0764
G3 X-223.8187 Y35.4251 I4.5191 J6.0818
G3 X-223.6661 Y35.3152 I4.0171 J5.4163
G1 X-223.0332 Y34.8655
G3 X-222.873 Y34.7532 I2.876 J3.9325
G3 X-219.8973 Y32.7703 I46.4334 J66.4562
G0 Z5.0
G0 X-221.6506 Y78.5211
G1 Z0.0
G3 X-216.7441 Y78.9225 I-10.8411 J162.7122
G1 X-216.2847 Y78.9671
G3 X-209.1795 Y79.7934 I-20.8842 J210.5433
G1 X-208.2934 Y79.9135
G1 X-207.9059 Y79.9673
G3 X-207.1796 Y80.0699 I-9.0569 J66.7372
G1 X-206.5444 Y80.1617
G1 X-205.4334 Y80.3271
G3 X-203.7687 Y80.5873 I-19.8813 J132.6547
G1 X-203.5608 Y80.6209
G1 X-203.1971 Y80.6805
G3 X-202.6518 Y80.7716 I-6.3943 J39.9292
G1 X-202.1071 Y80.8658
G2 X-203.7019 Y82.8583 I16.1788 J14.5843
G2 X-204.9301 Y84.7425 I20.9009 J14.9663
G2 X-205.1771 Y85.1718 I36.6285 J21.3515
G2 X-206.0428 Y86.8865 I18.5606 J10.4469
G2 X-206.6626 Y88.4571 I16.9058 J7.5798
G2 X-207.0734 Y89.8814 I14.1619 J4.8556
G2 X-207.3104 Y91.1596 I12.7522 J3.025
G2 X-207.3728 Y91.7257 I11.3398 J1.5372
G2 X-207.3503 Y93.8593 I10.5836 J0.9552
G2 X-206.4719 Y96.9284 I9.5264 J-1.0661
G2 X-205.6674 Y98.312 I8.9827 J-4.2976
G2 X-204.6661 Y99.5608 I9.5329 J-6.6182
G3 X-210.045 Y98.4914 I73.1528 J-382.0031
G1 X-210.5486 Y98.3873
G1 X-211.0363 Y98.2859
G1 X-211.5087 Y98.1871
G1 X-212.4234 Y97.994
G1 X-213.2805 Y97.811
G1 X-214.8865 Y97.4625
G3 X-215.2377 Y97.3854 I6.2617 J-29.3269
G1 X-216.5975 Y97.0831
G3 X-217.1921 Y96.9491 I16.0479 J-72.64
G3 X-218.3063 Y96.6953 I53.3213 J-236.5798
G1 X-218.7935 Y96.583
G1 X-219.2501 Y96.4771
G3 X-220.9608 Y96.0741 I60.838 J-262.0505
G1 X-222.2423 Y95.7652
G1 X-222.7225 Y95.6478
G1 X-223.5622 Y95.44
G1 X-223.7196 Y95.4007
G1 X-224.3095 Y95.2523
G1 X-225.1934 Y95.0263
G1 X-225.6348 Y94.9113
G1 X-226.0757 Y94.7943
G2 X-225.3755 Y93.939 I-18.789 J-16.0948
G2 X-223.0173 Y90.5189 I-26.4299 J-20.7472
G1 X-222.9162 Y90.3491
G2 X-222.1623 Y88.9872 I-25.3562 J-14.9277
G1 X-222.0075 Y88.6819
G2 X-221.4507 Y87.4764 I-21.011 J-10.4348
G2 X-220.6837 Y85.2736 I-15.2877 J-6.558
G1 X-220.6288 Y85.06
G1 X-220.579 Y84.8522
G2 X-220.4207 Y84.0387 I-11.58 J-2.6767
G2 X-220.301 Y82.5918 I-9.5851 J-1.5214
G2 X-220.375 Y81.5024 I-7.784 J-0.0183
G2 X-220.809 Y79.9246 I-6.2044 J0.8584
G2 X-221.6506 Y78.5211 I-5.532 J2.3628
G0 Z5.0
G0 X-227.3639 Y113.4723
G1 Z0.0
G2 X-218.0491 Y114.9264 I105.926 J-647.9979
G1 X-216.8372 Y115.1064
G1 X-215.7749 Y115.2633
G1 X-213.9121 Y115.5388
G3 X-213.5603 Y115.5914 I-4.8989 J33.9989
G1 X-213.23 Y115.641
G1 X-212.9197 Y115.6881
G1 X-212.6281 Y115.7326
G3 X-210.4398 Y116.0938 I-11.8009 J78.3075
G1 X-210.1463 Y116.1497
G3 X-209.8843 Y116.2026 I-2.0584 J10.8624
G1 X-209.6491 Y116.2535
G1 X-209.4368 Y116.303
G3 X-209.0519 Y116.4065 I-1.2279 J5.3359
G3 X-208.8905 Y116.4582 I-0.5417 J1.9664
G3 X-208.6008 Y116.5766 I-0.811 J2.3984
G3 X-208.3923 Y116.7173 I-0.3497 J0.743
G3 X-208.3051 Y116.888 I-0.183 J0.2012
G3 X-208.3336 Y117.0237 I-0.2818 J0.0116
G3 X-208.4521 Y117.1918 I-0.576 J-0.2802
G3 X-208.6009 Y117.3337 I-1.0493 J-0.9509
G1 X-208.6974 Y117.42
G1 X-208.7902 Y117.5088
G2 X-209.4675 Y118.2691 I6.3097 J6.3033
G2 X-210.5665 Y119.8328 I12.0726 J9.6524
G1 X-210.6215 Y119.9225
G1 X-210.7288 Y120.1015
G2 X-211.4932 Y121.5562 I13.4531 J7.9979
G2 X-212.0342 Y122.8951 I12.8768 J5.9811
G2 X-212.3902 Y124.1114 I11.6113 J4.0588
G2 X-212.5951 Y125.2035 I10.8947 J2.6095
G2 X-212.6668 Y127.1468 I9.4431 J1.3212
G2 X-211.9743 Y129.9728 I8.3115 J-0.5389
G2 X-211.2707 Y131.2515 I7.8848 J-3.5056
G2 X-210.3718 Y132.4013 I7.9029 J-5.2519
G3 X-215.2674 Y131.9746 I8.2235 J-122.6548
G1 X-215.7254 Y131.925
G3 X-222.8015 Y130.9699 I16.6399 J-149.9755
G3 X-226.321 Y130.369 I25.1529 J-157.9208
G3 X-226.5405 Y130.3287 I1.3203 J-7.8034
G3 X-228.1845 Y130.0148 I28.2541 J-152.4718
G1 X-228.3897 Y129.9741
G1 X-228.7487 Y129.9018
G1 X-229.2865 Y129.791
G1 X-229.8235 Y129.6761
G3 X-229.9141 Y129.6657 I-0.0148 J-0.2698
G3 X-230.0278 Y129.5601 I0.0451 J-0.1626
G3 X-230.0497 Y129.4256 I0.3467 J-0.1254
G3 X-230.0141 Y129.1631 I1.2111 J0.0302
G1 X-229.9816 Y129.0374
G3 X-229.8156 Y128.55 I6.4093 J1.9118
G3 X-229.7245 Y128.3175 I5.1071 J1.8664
G3 X-229.344 Y127.4104 I47.3075 J19.3113
G1 X-228.9821 Y126.5595
G1 X-228.9402 Y126.4593
G2 X-228.3073 Y124.8549 I-36.1314 J-15.1801
G1 X-228.2426 Y124.6768
G1 X-228.1801 Y124.5011
G2 X-227.9456 Y123.8045 I-19.149 J-6.8334
G1 X-227.9194 Y123.7223
G1 X-227.8937 Y123.6406
G2 X-227.5288 Y122.3316 I-19.2546 J-6.0727
G2 X-227.2865 Y121.1644 I-18.1136 J-4.3696
G2 X-227.0868 Y119.0851 I-13.2641 J-2.323
G2 X-227.1746 Y117.5166 I-10.5809 J-0.1942
G2 X-227.401 Y116.359 I-9.0588 J1.1705
G2 X-228.9645 Y113.2084 I-8.3654 J2.1882
G1 X-227.6821 Y113.4203
G2 X-227.3639 Y113.4723 I106.2441 J-647.9458
G0 Z5.0
G0 X-232.8812 Y149.1746
G1 Z0.0
G1 X-215.2446 Y152.6918
G1 X-215.3516 Y152.9449
G1 X-215.3771 Y153.0077
G2 X-216.0819 Y155.0453 I21.5252 J8.5863
G2 X-216.8747 Y158.7468 I22.7731 J6.8134
G1 X-216.9172 Y159.1021
G2 X-217.0136 Y161.8731 I17.4152 J1.9931
G2 X-216.7592 Y163.9459 I13.6593 J-0.6245
G2 X-216.3419 Y165.4589 I10.93 J-2.2012
G2 X-215.8864 Y166.5453 I9.8681 J-3.4983
G2 X-213.7832 Y169.3636 I8.4871 J-4.1399
G1 X-214.1592 Y169.3919
G3 X-220.0947 Y169.4189 I-3.1769 J-45.9295
G3 X-224.522 Y168.9663 I3.2031 J-53.2074
G3 X-226.17 Y168.7031 I9.2286 J-63.084
G3 X-226.215 Y168.6953 I0.0623 J-0.4881
G3 X-229.0669 Y168.123 I10.393 J-59.1879
G3 X-229.1001 Y168.1155 I0.0623 J-0.3536
G3 X-231.2114 Y167.6012 I15.9267 J-69.965
G3 X-234.3455 Y166.7069 I18.4188 J-70.4931
G1 X-235.123 Y166.4633
G1 X-235.7048 Y166.2762
G1 X-236.5757 Y165.9903
G1 X-236.6845 Y165.9543
G1 X-237.4457 Y165.7018
G2 X-234.5253 Y162.2903 I-30.8826 J-29.3929
G2 X-233.2368 Y160.4447 I-19.7514 J-15.1622
G2 X-232.9462 Y159.9618 I-21.1399 J-13.0516
G1 X-232.8418 Y159.7779
G2 X-232.5021 Y159.1208 I-9.5457 J-5.3522
G2 X-232.2163 Y158.4385 I-7.4616 J-3.5267
G2 X-232.0544 Y157.871 I-4.9274 J-1.712
G2 X-231.9006 Y156.7793 I-7.5887 J-1.626
G2 X-231.8708 Y155.8169 I-12.7463 J-0.8754
G1 X-231.8738 Y155.6064
G1 X-231.8763 Y155.5044
G2 X-231.917 Y154.7026 I-15.7217 J0.3968
G2 X-232.0621 Y153.3054 I-24.6382 J1.8519
G2 X-232.8812 Y149.1746 I-34.0429 J4.6042
G0 Z5.0
G0 X-236.8588 Y184.6909
G1 Z0.0
G1 X-221.3913 Y187.3315
G2 X-221.6608 Y188.5774 I30.5494 J7.2616
G2 X-222.3305 Y193.3182 I44.1944 J8.6601
G1 X-222.3664 Y193.7702
G2 X-222.3962 Y194.209 I22.4195 J1.7419
G2 X-222.4609 Y195.9131 I36.8662 J2.254
G1 X-222.4634 Y196.2876
G1 X-222.463 Y196.4691
G2 X-222.2951 Y199.3227 I25.2017 J-0.0513
G2 X-221.9153 Y201.4475 I17.3597 J-2.0062
G2 X-221.8654 Y201.6447 I5.2813 J-1.2337
G2 X-221.3772 Y203.1431 I12.3619 J-3.1984
G2 X-220.8746 Y204.2163 I9.2147 J-3.6612
G2 X-219.859 Y205.6744 I6.9399 J-3.751
G2 X-218.5117 Y206.833 I4.8945 J-4.329
G3 X-221.4517 Y206.628 I2.8965 J-62.7315
G1 X-222.0934 Y206.5665
G3 X-222.2487 Y206.5507 I0.2757 J-3.4939
G3 X-227.1612 Y205.896 I8.7267 J-84.2335
G1 X-227.3905 Y205.8585
G1 X-227.8417 Y205.7832
G3 X-231.3253 Y205.1291 I16.7908 J-99.0286
G3 X-236.5057 Y203.9353 I22.9977 J-111.6355
G1 X-236.8276 Y203.8526
G1 X-237.4305 Y203.6951
G3 X-239.5333 Y203.1172 I33.3532 J-125.4755
G1 X-240.057 Y202.966
G1 X-240.2533 Y202.9085
G3 X-240.3391 Y202.8832 I0.2543 J-1.0223
G1 X-240.6607 Y202.7878
G1 X-240.7812 Y202.7517
G1 X-240.992 Y202.6881
G1 X-241.3077 Y202.5918
G1 X-241.4655 Y202.5432
G1 X-241.5443 Y202.5188
G1 X-241.6231 Y202.4943
G1 X-241.561 Y202.445
G2 X-241.0828 Y202.0365 I-6.5553 J-8.1589
G2 X-239.4356 Y200.3495 I-11.9313 J-13.2972
G2 X-238.8774 Y199.6601 I-13.1209 J-11.1941
G1 X-238.7603 Y199.5052
G2 X-237.9231 Y198.2546 I-10.9907 J-8.2626
G2 X-237.3919 Y197.2569 I-9.7761 J-5.8464
G2 X-236.7983 Y195.6691 I-8.7103 J-4.161
G2 X-236.521 Y193.9968 I-7.5895 J-2.1174
G2 X-236.4565 Y191.667 I-47.5284 J-2.482
G2 X-236.4793 Y189.9193 I-53.7626 J-0.1714
G1 X-236.4897 Y189.5917
G2 X-236.6231 Y187.1375 I-63.1903 J2.205
G1 X-236.6288 Y187.0609
G1 X-236.6765 Y186.4674
G1 X-236.6813 Y186.4117
G2 X-236.7621 Y185.5505 I-67.8075 J5.9301
G1 X-236.7732 Y185.4429
G2 X-236.8588 Y184.6909 I-36.0236 J3.7203
G0 Z5.0
G0 X-238.0181 Y224.1632
G1 Z0.0
G1 X-237.5545 Y224.2786
G1 X-237.1052 Y224.3899
G1 X-236.6698 Y224.4973
G2 X-233.2909 Y225.3104 I80.1359 J-325.5731
G1 X-232.0209 Y225.6049
G1 X-230.908 Y225.8566
G1 X-230.6643 Y225.9108
G1 X-230.428 Y225.9631
G1 X-230.1991 Y226.0133
G2 X-228.4226 Y226.3904 I32.2201 J-147.4014
G1 X-227.7546 Y226.5251
G1 X-227.1691 Y226.6389
G1 X-226.656 Y226.7349
G1 X-226.2061 Y226.8156
G2 X-225.417 Y226.9473 I9.745 J-55.9729
G2 X-224.2267 Y227.1086 I4.119 J-25.9325
G2 X-223.6255 Y227.1559 I0.9795 J-8.593
G2 X-223.3221 Y227.1582 I0.1767 J-3.2669
G2 X-223.2457 Y227.1538 I-0.0621 J-1.748
G2 X-223.1883 Y227.1482 I-0.0439 J-0.7347
G2 X-223.103 Y227.1331 I-0.0381 J-0.4664
G2 X-223.0612 Y227.1199 I-0.0302 J-0.1673
G2 X-223.0255 Y227.0944 I-0.02 J-0.0658
G2 X-223.1567 Y227.673 I17.118 J4.1849
G2 X-223.8139 Y232.2253 I35.4668 J7.4441
G2 X-223.8457 Y232.6599 I24.8298 J2.0321
G2 X-223.9124 Y234.3488 I29.3334 J2.0047
G2 X-223.8882 Y235.8329 I27.068 J0.3017
G2 X-223.6141 Y238.4229 I20.5155 J-0.862
G2 X-223.1552 Y240.3328 I14.6031 J-2.4989
G2 X-222.9118 Y241.0311 I9.9109 J-3.0619
G2 X-222.3756 Y242.2096 I9.7828 J-3.74
G2 X-221.2725 Y243.807 I7.3033 J-3.8638
G2 X-219.8002 Y245.0724 I5.3218 J-4.7029
G1 X-220.5579 Y244.9269
G1 X-220.9247 Y244.8555
G3 X-222.3678 Y244.568 I49.3343 J-251.4314
G1 X-222.7057 Y244.4993
G1 X-224.0354 Y244.2238
G1 X-225.2805 Y243.9588
G1 X-225.5722 Y243.8957
G1 X-225.8592 Y243.8333
G1 X-226.9885 Y243.5847
G3 X-235.4256 Y241.5755 I67.3156 J-301.3959
G3 X-236.4762 Y241.3078 I28.0115 J-112.1224
G1 X-236.591 Y241.2783
G1 X-237.4951 Y241.0445
G3 X-237.8904 Y240.9414 I16.1038 J-62.5536
G1 X-239.3716 Y240.5502
G1 X-239.9266 Y240.4016
G3 X-240.1693 Y240.3362 I1.9572 J-7.752
G1 X-240.2831 Y240.3055
G1 X-241.1643 Y240.066
G1 X-242.4843 Y239.7009
G1 X-243.1435 Y239.5154
G1 X-243.8019 Y239.3269
G2 X-243.6314 Y239.133 I-3.902 J-3.6019
G2 X-243.3097 Y238.7396 I-8.9555 J-7.6529
G2 X-242.721 Y237.9508 I-13.5719 J-10.7426
G2 X-240.8308 Y234.7859 I-20.0965 J-14.1493
G2 X-238.0181 Y224.1632 I-24.0387 J-12.0487
G0 Z5.0
G0 X-241.6451 Y260.2722
G1 Z0.0
G1 X-227.8806 Y263.337
G2 X-228.1561 Y264.6903 I23.4656 J5.4812
G1 X-228.2107 Y265.0099
G2 X-228.6667 Y270.0927 I33.596 J5.5755
G2 X-228.629 Y272.0211 I30.3992 J0.3712
G1 X-228.617 Y272.2322
G1 X-228.5883 Y272.6478
G2 X-228.5721 Y272.8489 I6.547 J-0.4271
G1 X-228.5635 Y272.9479
G2 X-228.374 Y274.5135 I23.1795 J-2.0119
G1 X-228.3468 Y274.6842
G2 X-227.7313 Y277.3334 I19.3875 J-3.1083
G2 X-227.0066 Y279.2453 I14.8664 J-4.5419
G1 X-226.9258 Y279.4194
G2 X-226.22 Y280.7287 I12.4985 J-5.8925
G2 X-224.891 Y282.5193 I10.6542 J-6.5193
G2 X-223.2513 Y284.0305 I8.554 J-7.636
G1 X-226.3607 Y283.3373
G1 X-227.7209 Y283.0329
G3 X-227.8006 Y283.0151 I0.3789 J-1.8763
G3 X-227.8801 Y282.9972 I0.3688 J-1.8303
G3 X-232.9378 Y281.8492 I161.9946 J-725.4174
G1 X-234.8326 Y281.409
G1 X-235.6611 Y281.2139
G1 X-237.2134 Y280.8434
G1 X-237.8921 Y280.6789
G3 X-240.4331 Y280.0459 I49.6034 J-204.5364
G1 X-240.671 Y279.9849
G3 X-242.5111 Y279.5 I32.3446 J-126.4773
G1 X-242.6834 Y279.4532
G1 X-242.7669 Y279.4304
G1 X-242.849 Y279.4079
G1 X-242.9298 Y279.3857
G3 X-244.1993 Y279.0271 I22.6876 J-82.724
G3 X-244.229 Y279.0184 I0.0467 J-0.2159
G3 X-244.2585 Y279.0098 I0.0465 J-0.2142
G3 X-246.1192 Y278.4326 I15.0737 J-51.8781
G1 X-246.5801 Y278.2747
G1 X-246.9239 Y278.1508
G3 X-247.9382 Y277.7356 I4.665 J-12.8427
G2 X-247.7991 Y277.6737 I-0.2496 J-0.7483
G2 X-247.5514 Y277.5065 I-0.8971 J-1.5964
G2 X-247.1276 Y277.1058 I-2.3735 J-2.9347
G1 X-247.0806 Y277.0535
G2 X-246.7297 Y276.618 I-4.6307 J-4.0896
G2 X-246.1408 Y275.7119 I-7.6992 J-5.6483
G2 X-245.6645 Y274.8201 I-14.0196 J-8.0598
G2 X-244.9024 Y273.0866 I-20.3397 J-9.977
G1 X-244.753 Y272.7006
G2 X-243.7436 Y269.6562 I-38.5348 J-14.466
G2 X-243.4183 Y268.4984 I-52.8736 J-15.4828
G2 X-242.9013 Y266.4584 I-70.1873 J-18.8705
G1 X-242.8899 Y266.4103
G2 X-242.2214 Y263.3506 I-92.3769 J-21.7881
G1 X-242.1829 Y263.1586
G2 X-242.1117 Y262.7986 I-14.6287 J-3.08
G1 X-241.9899 Y262.1679
G2 X-241.9452 Y261.9312 I-7.5007 J-1.5405
G2 X-241.7924 Y261.1022 I-82.4882 J-15.6347
G1 X-241.7181 Y260.6873
G2 X-241.6814 Y260.4798 I-10.0243 J-1.8767
G2 X-241.6451 Y260.2722 I-6.1599 J-1.1842
G0 Z5.0
G0 X-245.0975 Y295.6237
G1 Z0.0
G1 X-229.8884 Y299.4094
G2 X-230.0984 Y300.0576 I17.6965 J6.0913
G1 X-230.1928 Y300.3743
G2 X-231.2284 Y305.4721 I30.5186 J8.8539
G2 X-231.3257 Y306.4565 I25.7889 J3.0462
G2 X-231.4066 Y308.3129 I25.4102 J2.0369
G2 X-231.352 Y309.9442 I21.0966 J0.1104
G2 X-231.1907 Y311.3675 I17.712 J-1.2865
G2 X-231.0823 Y311.9862 I14.7655 J-2.2688
G2 X-230.4398 Y314.2516 I13.403 J-2.5771
G2 X-230.0918 Y315.0662 I11.9143 J-4.6084
G2 X-229.3299 Y316.4158 I9.6707 J-4.5697
G2 X-227.8237 Y318.1828 I8.1694 J-5.4384
G2 X-225.947 Y319.5499 I6.9193 J-7.5269
G1 X-226.3436 Y319.4714
G1 X-226.734 Y319.3936
G3 X-232.8657 Y318.0907 I51.2602 J-256.3231
G3 X-241.9947 Y315.8385 I48.6724 J-216.9133
G1 X-242.5619 Y315.6844
G1 X-243.624 Y315.3907
G1 X-244.5519 Y315.1287
G3 X-247.788 Y314.171 I51.9501 J-181.4905
G1 X-248.1912 Y314.0466
G3 X-248.8958 Y313.8265 I16.9048 J-55.3552
G1 X-249.0279 Y313.7849
G1 X-250.0171 Y313.47
G1 X-250.5116 Y313.3123
G1 X-250.7594 Y313.2349
G2 X-251.0092 Y313.1642 I-1.247 J3.9268
G2 X-250.3968 Y312.1709 I-15.5408 J-10.2668
G1 X-250.3283 Y312.0525
G2 X-249.3095 Y310.1367 I-30.9337 J-17.679
G2 X-248.8994 Y309.2806 I-30.6953 J-15.2327
G2 X-247.5368 Y305.9932 I-39.1328 J-18.1462
G2 X-245.0975 Y295.6237 I-41.2127 J-15.1663
G0 Z5.0
G0 X-247.3209 Y330.8419
G1 Z0.0
G1 X-229.5193 Y335.6066
G1 X-229.5991 Y335.9171
G2 X-230.1015 Y338.3918 I31.5233 J7.6881
G2 X-230.2663 Y339.4915 I31.5342 J5.2885
G2 X-230.4814 Y341.5711 I33.068 J4.4717
G2 X-230.5334 Y342.4897 I31.3468 J2.2343
G1 X-230.5377 Y342.5977
G2 X-230.5481 Y344.3139 I25.833 J1.0147
G2 X-230.4575 Y345.82 I20.9455 J-0.5039
G1 X-230.4234 Y346.1496
G2 X-230.236 Y347.4208 I19.2171 J-2.183
G2 X-230.1236 Y347.9734 I13.2425 J-2.4063
G2 X-229.5075 Y349.9965 I12.8307 J-2.8017
G2 X-228.8058 Y351.4257 I9.2388 J-3.649
G2 X-228.1249 Y352.409 I7.3391 J-4.3547
G2 X-225.3203 Y354.6019 I6.0098 J-4.7963
G3 X-225.7458 Y354.5065 I21.6796 J-97.6725
G1 X-226.5823 Y354.3151
G1 X-226.9872 Y354.2206
G1 X-227.7835 Y354.0316
G1 X-228.554 Y353.8448
G1 X-228.927 Y353.753
G3 X-234.7746 Y352.2087 I47.3456 J-191.123
G1 X-235.3205 Y352.0553
G1 X-236.3771 Y351.7542
G1 X-236.8718 Y351.6113
G3 X-244.5007 Y349.2644 I68.2661 J-235.4747
G3 X-248.285 Y347.9964 I74.0559 J-227.3106
G3 X-252.041 Y346.6468 I47.582 J-138.3206
G2 X-251.4923 Y346.8354 I1.3677 J-3.0872
G2 X-250.4172 Y346.9607 I0.9756 J-3.6958
G2 X-249.4959 Y346.7895 I-0.0891 J-3.0446
G2 X-248.7828 Y346.4098 I-0.9155 J-2.5794
G2 X-248.2695 Y345.9347 I-1.9402 J-2.6108
G2 X-248.0793 Y345.6968 I-3.0389 J-2.6239
G2 X-247.5279 Y344.7017 I-3.8731 J-2.7965
G2 X-247.3769 Y344.3033 I-4.7912 J-2.0437
G1 X-247.3187 Y344.1263
G2 X-247.2212 Y343.7909 I-5.5756 J-1.8034
G2 X-246.9792 Y342.5932 I-10.2276 J-2.6894
G2 X-246.8556 Y341.3776 I-14.8749 J-2.1262
G1 X-246.8174 Y340.718
G1 X-246.7869 Y340.0992
G2 X-246.7853 Y340.0629 I-0.2719 J-0.0303
G2 X-246.7837 Y340.0267 I-0.2709 J-0.03
G2 X-246.7248 Y337.7223 I-56.699 J-2.6043
G2 X-246.8274 Y334.2651 I-44.6602 J-0.4037
G2 X-247.0003 Y332.5429 I-27.5046 J1.8911
G1 X-247.03 Y332.3285
G1 X-247.0578 Y332.1411
G1 X-247.0837 Y331.9774
G1 X-247.1326 Y331.6914
G2 X-247.2168 Y331.2645 I-13.3943 J2.4191
G2 X-247.3209 Y330.8419 I-7.0649 J1.5157
G0 Z5.0
G0 X-252.539 Y349.9249
G1 Z0.0
G2 X-252.3986 Y349.9633 I47.1173 J-172.3098
G1 X-252.0186 Y350.0672
G1 X-251.2074 Y350.2868
G2 X-246.8712 Y351.4203 I92.0856 J-343.4072
G1 X-245.7127 Y351.7139
G2 X-239.5248 Y353.2393 I158.3706 J-629.1109
G2 X-239.4276 Y353.2629 I0.3823 J-1.3654
G1 X-235.8734 Y354.1193
G1 X-234.956 Y354.3393
G1 X-232.9988 Y354.8084
G1 X-228.5261 Y355.8829
G1 X-226.1418 Y356.4605
G1 X-223.6001 Y357.0825
G1 X-222.289 Y357.4066
G3 X-216.3048 Y358.9238 I-131.657 J531.8552
G1 X-215.5461 Y359.1216
G1 X-213.9812 Y359.5342
G2 X-212.9859 Y359.7963 I76.111 J-286.9363
G2 X-212.8436 Y359.8334 I1.7826 J-6.5444
G2 X-212.681 Y359.8758 I1.9537 J-7.1782
G1 X-211.3789 Y360.2101
G2 X-211.2052 Y360.2542 I2.7855 J-10.6224
G2 X-211.0198 Y360.301 I3.0689 J-11.7517
G2 X-210.822 Y360.3508 I3.4362 J-13.2222
G2 X-210.3699 Y360.4641 I6.2811 J-24.1118
G2 X-209.8529 Y360.5926 I11.7589 J-46.2184
G1 X-208.4729 Y360.9301
G1 X-207.6836 Y361.1197
G1 X-206.7808 Y361.3335
G1 X-205.7482 Y361.5744
G1 X-205.1971 Y361.7013
G1 X-204.609 Y361.8355
G1 X-203.2639 Y362.1379
G1 X-201.725 Y362.4764
G1 X-201.3275 Y362.5625
G1 X-200.4795 Y362.7447
G1 X-199.5743 Y362.9366
G1 X-198.6082 Y363.1387
G1 X-198.3628 Y363.1896
G1 X-198.1134 Y363.2411
G1 X-197.86 Y363.2933
G1 X-197.6025 Y363.3461
G1 X-197.341 Y363.3996
G1 X-196.2246 Y363.6258
G1 X-195.033 Y363.8634
G1 X-193.7613 Y364.113
G1 X-192.404 Y364.3749
G1 X-190.9553 Y364.6497
G1 X-190.2073 Y364.7898
G1 X-189.4348 Y364.9331
G1 X-187.7864 Y365.235
G2 X-178.9812 Y366.7684 I117.6141 J-649.3183
G1 X-177.8438 Y366.9588
G1 X-175.4168 Y367.3612
G1 X-172.8272 Y367.7859
G1 X-172.5009 Y367.8391
G1 X-166.5344 Y368.8109
G1 X-163.3532 Y369.3341
G1 X-162.5454 Y369.4684
G1 X-160.8784 Y369.7484
G2 X-154.4237 Y370.7082 I21.7274 J-123.9354
G1 X-154.3208 Y370.7207
G1 X-153.38 Y370.8307
G2 X-150.8672 Y371.0859 I13.2328 J-117.7849
G1 X-150.5425 Y371.1147
G1 X-149.8497 Y371.1729
G1 X-149.492 Y371.2013
G2 X-145.6711 Y371.4279 I7.9068 J-100.9902
G2 X-140.5681 Y371.5037 I4.0019 J-97.5558
G2 X-133.7711 Y371.1744 I-1.0008 J-90.9773
G1 X-133.6647 Y371.1652
G2 X-124.6406 Y369.9239 I-8.0842 J-92.1875
G2 X-119.5475 Y368.8431 I-20.3059 J-108.2403
G1 X-119.3885 Y368.8056
G2 X-116.6827 Y368.1353 I-32.9092 J-138.6513
G1 X-116.5133 Y368.0916
G2 X-113.6298 Y367.3225 I-52.9949 J-204.4685
G1 X-112.1453 Y366.9125
G1 X-111.3919 Y366.7024
G1 X-109.8373 Y366.2667
G1 X-108.2325 Y365.8185
G3 X-109.7486 Y366.8472 I-9.1385 J-11.8364
G3 X-111.3611 Y367.7171 I-11.0922 J-18.6318
G3 X-112.4693 Y368.2306 I-11.4892 J-23.345
G3 X-112.5046 Y368.246 I-0.1711 J-0.3424
G3 X-112.5401 Y368.2616 I-0.1718 J-0.3449
G1 X-112.8441 Y368.3923
G1 X-113.1696 Y368.5285
G1 X-113.5183 Y368.6703
G3 X-115.3977 Y369.3719 I-15.43 J-38.4666
G3 X-116.484 Y369.7371 I-16.8064 J-48.1879
G3 X-116.5527 Y369.7594 I-0.2595 J-0.6841
G3 X-117.1398 Y369.9457 I-11.626 J-35.6106
G1 X-117.768 Y370.138
G3 X-121.1424 Y371.065 I-21.6335 J-72.1415
G3 X-125.6861 Y372.1003 I-26.9313 J-107.7121
G1 X-126.2753 Y372.2206
G1 X-126.8839 Y372.3421
G1 X-127.5125 Y372.4646
G3 X-128.162 Y372.5881 I-19.9775 J-103.2525
G1 X-128.4921 Y372.6498
G1 X-129.1738 Y372.7748
G1 X-129.2594 Y372.7903
G1 X-129.3454 Y372.8058
G3 X-130.8126 Y373.0634 I-40.6532 J-227.2768
G1 X-131.5707 Y373.1915
G3 X-135.0395 Y373.7401 I-31.6031 J-188.5739
G1 X-135.4806 Y373.806
G1 X-135.9287 Y373.8721
G1 X-136.8541 Y374.0065
G1 X-137.8095 Y374.1426
G1 X-139.8476 Y374.4285
G3 X-141.7187 Y374.6289 I-3.9688 J-28.2216
G3 X-143.5982 Y374.721 I-2.7959 J-37.8084
G1 X-144.1358 Y374.7333
G1 X-145.5691 Y374.7573
G1 X-145.9513 Y374.7668
G1 X-146.3588 Y374.7817
G1 X-146.569 Y374.7922
G1 X-146.7859 Y374.8056
G1 X-146.8405 Y374.8095
G1 X-147.0659 Y374.8277
G2 X-148.0891 Y374.9807 I0.6487 J7.8337
G2 X-148.3481 Y375.0472 I0.7758 J3.5638
G2 X-148.6114 Y375.132 I1.176 J4.099
G2 X-149.15 Y375.3817 I1.0582 J2.9887
G2 X-149.6616 Y375.7692 I1.3798 J2.3531
G2 X-150.0977 Y376.3151 I1.9141 J1.9762
G2 X-150.4281 Y377.0003 I3.2732 J2.0004
G2 X-150.4922 Y377.1836 I2.658 J1.0332
G2 X-150.6044 Y377.5708 I5.6443 J1.845
G2 X-150.7696 Y378.4202 I8.4912 J2.0922
G2 X-150.8105 Y379.5634 I5.8912 J0.7833
G2 X-150.6786 Y380.6998 I9.361 J-0.5106
G2 X-150.529 Y381.4474 I14.6377 J-2.5399
G1 X-150.4828 Y381.6454
G2 X-150.201 Y382.6911 I23.0056 J-5.6386
G1 X-150.1173 Y382.9674
G2 X-149.9152 Y383.5953 I31.5422 J-9.8086
G2 X-149.902 Y383.6347 I0.4372 J-0.1245
G2 X-149.2994 Y385.2985 I39.511 J-13.3702
G2 X-149.2589 Y385.4034 I1.7448 J-0.6138
G2 X-149.2175 Y385.5098 I2.1011 J-0.7555
G1 X-149.0388 Y385.9626
G1 X-148.9452 Y386.1957
G2 X-148.7431 Y386.6917 I23.4818 J-9.2811
G1 X-148.5242 Y387.2192
G1 X-148.4102 Y387.491
G2 X-148.352 Y387.6289 I2.7049 J-1.0591
G1 X-148.2316 Y387.9134
G1 X-147.9735 Y388.5195
G1 X-147.3843 Y389.9036
G1 X-147.2344 Y390.2617
G3 X-146.5861 Y391.9117 I-32.6224 J13.7702
G3 X-146.3003 Y392.8133 I-10.3581 J3.779
G3 X-146.2711 Y392.9289 I-1.7724 J0.5103
G3 X-146.2572 Y392.9871 I-1.0301 J0.2752
G3 X-146.1758 Y393.476 I-3.1436 J0.7748
G3 X-146.1742 Y393.7293 I-1.3356 J0.1353
G3 X-146.2404 Y393.984 I-0.6605 J-0.0359
G3 X-146.4783 Y394.1703 I-0.3148 J-0.157
G3 X-146.6526 Y394.184 I-0.1353 J-0.6026
G3 X-148.0858 Y393.6398 I0.0975 J-2.4158
G3 X-148.4599 Y393.2809 I2.154 J-2.6201
G3 X-148.875 Y392.7322 I3.3094 J-2.9348
G3 X-149.3239 Y391.9414 I6.7187 J-4.336
G1 X-149.4305 Y391.7242
G3 X-149.5398 Y391.491 I36.4949 J-17.2539
G1 X-149.6523 Y391.2412
G3 X-149.8971 Y390.6692 I16.7118 J-7.4915
G1 X-150.1649 Y390.0154
G1 X-150.1985 Y389.9323
G1 X-150.2326 Y389.8479
G2 X-150.3776 Y389.4889 I-22.9231 J9.0503
G1 X-150.5325 Y389.1074
G1 X-150.6992 Y388.7025
G2 X-151.0908 Y387.7877 I-39.4563 J16.3485
G1 X-151.1955 Y387.5536
G1 X-151.3496 Y387.2194
G1 X-151.5082 Y386.8874
G1 X-151.6163 Y386.6672
G2 X-152.0641 Y385.7942 I-31.4804 J15.5986
G2 X-152.1963 Y385.547 I-15.0351 J7.8786
G2 X-152.5571 Y384.8923 I-33.5983 J18.0912
G2 X-154.1166 Y382.3419 I-35.7808 J20.1261
G1 X-154.3388 Y382.0108
G2 X-154.8602 Y381.2635 I-25.7839 J17.4348
G2 X-156.3547 Y379.3474 I-24.0655 J17.2286
G2 X-157.2904 Y378.3204 I-16.1866 J13.8089
G1 X-157.5436 Y378.0663
G2 X-158.7758 Y376.9819 I-10.0299 J10.1553
G1 X-158.942 Y376.8559
G2 X-159.6815 Y376.3577 I-5.9087 J7.9718
G1 X-159.8773 Y376.2435
G2 X-160.756 Y375.8293 I-3.0472 J5.3253
G2 X-161.7705 Y375.5702 I-1.6306 J4.2684
G1 X-162.0177 Y375.5468
G1 X-162.2651 Y375.5253
G1 X-162.7602 Y375.4881
G1 X-163.0907 Y375.4678
G2 X-164.414 Y375.4253 I-1.5148 J26.5808
G2 X-167.0577 Y375.5677 I-0.225 J20.4377
G2 X-167.2273 Y375.5895 I0.9011 J7.7007
G2 X-169.017 Y375.9393 I1.8659 J14.2995
G2 X-169.4849 Y376.0734 I2.2858 J8.8554
G2 X-170.531 Y376.4555 I3.3219 J10.7182
G2 X-171.6668 Y377.0353 I3.4992 J8.2576
G2 X-172.8444 Y377.9036 I4.1902 J6.915
G2 X-173.9617 Y379.162 I4.8337 J5.4169
G2 X-174.8671 Y380.876 I6.481 J4.5199
G2 X-175.1843 Y381.8649 I8.8461 J3.3828
G2 X-175.4087 Y382.9515 I9.9654 J2.6238
G2 X-175.5347 Y384.1278 I12.4929 J1.9336
G2 X-175.5611 Y385.3864 I14.7083 J0.9378
G2 X-175.4899 Y386.7216 I18.1888 J-0.3001
G2 X-175.3295 Y388.1299 I26.9991 J-2.3614
G1 X-175.2266 Y388.8514
G1 X-175.2008 Y389.033
G3 X-175.192 Y389.1022 I-0.7559 J0.1305
G3 X-175.1896 Y389.1254 I-0.1486 J0.0273
G1 X-175.1828 Y389.2182
G3 X-175.1918 Y389.404 I-1.0361 J0.0428
G3 X-175.2374 Y389.5203 I-0.2589 J-0.0342
G3 X-175.2995 Y389.562 I-0.0887 J-0.0652
G3 X-175.3929 Y389.5531 I-0.0317 J-0.1619
G3 X-175.4899 Y389.501 I0.1633 J-0.42
G3 X-175.6802 Y389.3291 I0.7145 J-0.9825
G3 X-175.7714 Y389.224 I1.5007 J-1.3955
G3 X-175.8567 Y389.1153 I1.4265 J-1.2063
G1 X-175.9373 Y389.004
G3 X-176.3198 Y388.3739 I4.9571 J-3.441
G3 X-176.8556 Y387.1907 I9.3813 J-4.9604
G3 X-177.4939 Y384.798 I11.228 J-4.2772
G3 X-177.6249 Y383.1653 I10.3419 J-1.6512
G3 X-177.3663 Y381.011 I8.767 J-0.0401
G3 X-176.1398 Y378.3997 I7.2674 J1.8195
G3 X-175.0214 Y377.176 I6.3408 J4.6723
G3 X-173.4874 Y376.0682 I6.3352 J7.1567
G3 X-171.545 Y375.1508 I6.3524 J10.9354
G1 X-171.2889 Y375.0569
G2 X-170.5797 Y374.772 I-2.7217 J-7.8015
G2 X-169.9094 Y374.4053 I-1.9258 J-4.3162
G2 X-169.7329 Y374.2761 I-1.4976 J-2.2301
G2 X-169.5472 Y374.1083 I-1.173 J-1.4851
G2 X-169.3702 Y373.8816 I-0.8895 J-0.8769
G2 X-169.2564 Y373.5674 I-0.6753 J-0.4222
G2 X-169.3131 Y373.1725 I-0.7607 J-0.0923
G2 X-169.416 Y372.9794 I-1.0302 J0.4246
G2 X-169.4819 Y372.8867 I-0.8734 J0.5516
G2 X-169.6428 Y372.7035 I-1.6864 J1.3189
G2 X-170.0589 Y372.3529 I-2.2277 J2.2214
G2 X-170.2938 Y372.1928 I-2.0991 J2.8286
G2 X-170.8365 Y371.8766 I-4.0146 J6.2647
G1 X-170.9792 Y371.8019
G2 X-171.6079 Y371.5015 I-5.4437 J10.5853
G2 X-172.2767 Y371.2186 I-8.8475 J19.978
G2 X-173.7826 Y370.6663 I-10.7994 J27.1197
G2 X-175.5932 Y370.0972 I-16.4951 J49.3112
G2 X-177.866 Y369.4708 I-21.4171 J73.2715
G1 X-178.4687 Y369.3164
G1 X-179.1065 Y369.1574
G1 X-179.7822 Y368.9934
G2 X-183.2916 Y368.2012 I-33.9896 J142.3955
G2 X-185.2858 Y367.7863 I-29.9149 J138.8035
G2 X-190.541 Y366.7822 I-49.2594 J243.5464
G1 X-191.9424 Y366.5322
G1 X-192.2983 Y366.4698
G1 X-193.8144 Y366.2083
G1 X-195.4299 Y365.9374
G1 X-195.8403 Y365.8698
G1 X-196.687 Y365.7318
G1 X-197.5606 Y365.5916
G2 X-201.5469 Y364.9802 I-63.8527 J403.0208
G1 X-202.5763 Y364.8316
G3 X-209.5949 Y363.2478 I67.4217 J-315.1219
G1 X-210.5949 Y363.0095
G1 X-211.7367 Y362.7337
G1 X-212.3454 Y362.5851
G3 X-222.0489 Y360.0701 I93.1891 J-379.5356
G1 X-222.2012 Y360.0286
G3 X-228.6838 Y358.2004 I105.5539 J-386.696
G3 X-254.3113 Y349.9051 I125.3942 J-431.1262
G1 X-255.9467 Y349.3164
G3 X-259.4265 Y348.036 I127.4807 J-351.8354
G1 X-260.3081 Y347.705
G3 X-260.3633 Y347.6842 I0.211 J-0.6429
G1 X-261.2587 Y347.3447
G3 X-263.1033 Y346.6336 I78.6106 J-206.6562
G1 X-263.5671 Y346.4516
G1 X-264.0337 Y346.2662
G1 X-263.7366 Y346.3808
G1 X-263.4388 Y346.4938
G1 X-262.8417 Y346.7159
G1 X-262.4426 Y346.861
G2 X-260.839 Y347.4208 I28.9651 J-80.3979
G2 X-259.7644 Y347.7779 I22.2047 J-65.0299
G1 X-259.1487 Y347.9768
G1 X-258.4436 Y348.2001
G2 X-258.2614 Y348.2571 I1.5379 J-4.5993
G2 X-252.539 Y349.9249 I52.8397 J-170.6419
G0 Z5.0
G0 X-78.2486 Y279.7936
G1 Z0.0
G3 X-78.5019 Y279.8862 I-4.1253 J-10.8954
G3 X-80.5302 Y280.5969 I-45.6207 J-126.9474
G3 X-88.4679 Y283.116 I-66.3268 J-195.2342
G3 X-102.5697 Y286.8083 I-64.5375 J-217.7052
G1 X-102.7365 Y286.8462
G3 X-108.0675 Y287.9797 I-44.7124 J-197.1856
G1 X-108.6526 Y288.0949
G3 X-117.9119 Y289.6589 I-34.1589 J-174.046
G3 X-119.6576 Y289.8951 I-23.5149 J-167.1761
G1 X-120.0672 Y289.9477
G1 X-120.4705 Y289.9983
G1 X-120.8677 Y290.0471
G1 X-121.6499 Y290.1401
G1 X-122.4082 Y290.2262
G1 X-122.7756 Y290.2665
G3 X-124.2235 Y290.4158 I-10.4798 J-94.535
G1 X-124.9028 Y290.4805
G1 X-125.5611 Y290.54
G1 X-126.1992 Y290.5946
G1 X-126.8175 Y290.6445
G3 X-127.1172 Y290.6676 I-1.5591 J-18.2718
G3 X-129.4784 Y290.8244 I-9.3409 J-122.7879
G3 X-131.5467 Y290.9234 I-6.9006 J-122.4417
G3 X-138.793 Y290.9538 I-4.0432 J-100.3223
G3 X-142.4118 Y290.7565 I2.8901 J-86.3227
G3 X-142.5248 Y290.7478 I0.0812 J-1.7836
G3 X-142.9623 Y290.7124 I2.0471 J-28.0015
G3 X-146.0176 Y290.3924 I5.8614 J-70.7186
G1 X-146.5586 Y290.3234
G1 X-147.0952 Y290.2542
G1 X-148.1598 Y290.1145
G1 X-149.2073 Y289.9741
G1 X-149.3362 Y289.9566
G1 X-150.3649 Y289.8156
G1 X-150.8711 Y289.7453
G1 X-151.1222 Y289.7102
G3 X-159.1153 Y288.5216 I67.2116 J-479.4585
G3 X-166.0946 Y287.3885 I102.5598 J-653.806
G1 X-167.6197 Y287.131
G3 X-170.573 Y286.6229 I101.2551 J-597.4458
G1 X-171.265 Y286.5022
G1 X-172.6268 Y286.2628
G1 X-173.9458 Y286.0287
G1 X-176.5001 Y285.5694
G3 X-177.6971 Y285.3515 I34.0817 J-190.6448
G1 X-178.8563 Y285.139
G1 X-181.1016 Y284.7231
G1 X-183.2057 Y284.3285
G1 X-185.1775 Y283.9545
G1 X-187.0254 Y283.6004
G1 X-188.7573 Y283.2656
G1 X-190.3803 Y282.9492
G1 X-191.9015 Y282.6503
G1 X-194.7528 Y282.0845
G1 X-197.2464 Y281.5835
G1 X-198.3371 Y281.3626
G1 X-198.8483 Y281.2587
G1 X-199.8386 Y281.0567
G1 X-201.6948 Y280.6758
G1 X-202.5067 Y280.5082
G1 X-204.0287 Y280.1925
G1 X-205.3602 Y279.9145
G1 X-206.5249 Y279.6699
G3 X-214.6695 Y277.9182 I168.9862 J-805.497
G3 X-215.248 Y277.8393 I0.6458 J-6.8963
G3 X-219.3728 Y276.0858 I1.805 J-9.9741
G3 X-221.6672 Y273.6475 I5.3096 J-7.2948
G3 X-222.7367 Y271.3875 I8.4744 J-5.3932
G3 X-223.1875 Y269.5705 I11.7977 J-3.8919
G3 X-223.3573 Y268.1776 I15.4072 J-2.5846
G3 X-223.3891 Y266.074 I18.7225 J-1.3355
G3 X-223.2054 Y263.9782 I22.49 J0.9154
G0 Z5.0
G0 X-170.8205 Y70.2052
G1 Z0.0
G3 X-171.2183 Y70.095 I8.6726 J-32.0802
G1 X-171.6498 Y69.9704
G1 X-171.7935 Y69.9282
G1 X-171.9849 Y69.8713
G1 X-172.2398 Y69.7942
G3 X-173.2528 Y69.4662 I7.7308 J-25.6063
G3 X-173.9189 Y69.2204 I4.2047 J-12.4185
G3 X-174.0944 Y69.1494 I1.9941 J-5.1784
G3 X-174.2803 Y69.0703 I3.5059 J-8.5041
G1 X-174.4768 Y68.9818
G3 X-174.6838 Y68.8817 I2.2972 J-5.015
G3 X-175.143 Y68.6253 I2.2507 J-4.5702
G3 X-175.6279 Y68.2674 I1.9678 J-3.1746
G3 X-176.0805 Y67.7402 I1.6169 J-1.8459
G3 X-176.3739 Y66.9848 I1.8868 J-1.1676
G3 X-176.4274 Y66.5499 I3.1856 J-0.6123
G3 X-176.4266 Y66.08 I4.6501 J-0.2268
G1 X-176.4232 Y66.0208
G1 X-176.4191 Y65.9611
G3 X-176.363 Y65.4553 I8.3997 J0.6761
G3 X-176.2721 Y64.9234 I12.8248 J1.9182
G3 X-176.2454 Y64.7893 I3.1849 J0.5648
G1 X-176.2171 Y64.6535
G3 X-176.0866 Y64.0825 I16.0463 J3.3641
G1 X-176.0514 Y63.9383
G3 X-175.7111 Y62.648 I59.0462 J14.8834
G1 X-175.5219 Y61.9674
G1 X-175.3204 Y61.2495
G2 X-175.295 Y61.1592 I-1.4069 J-0.4439
G1 X-175.0826 Y60.3998
G3 X-172.8793 Y54.5419 I35.0116 J9.8251
G3 X-171.9301 Y52.6817 I35.1058 J16.7426
G3 X-170.5061 Y50.2892 I31.4349 J17.0897
G1 X-170.3087 Y49.989
G3 X-169.3588 Y48.6486 I21.0671 J13.9235
G3 X-169.3431 Y48.6281 I0.0979 J0.0588
G1 X-169.2141 Y48.4636
G3 X-169.6109 Y50.5128 I-58.2241 J-10.2109
G1 X-169.7574 Y51.193
G3 X-170.4115 Y53.898 I-61.5576 J-13.4535
G3 X-170.6204 Y54.6653 I-41.3892 J-10.8533
G3 X-171.2358 Y56.6946 I-48.7658 J-13.6813
G3 X-171.4169 Y57.2304 I-22.8202 J-7.4123
G1 X-171.5136 Y57.5059
G3 X-171.9884 Y58.7533 I-27.2011 J-9.6409
G3 X-172.6149 Y60.1449 I-18.0311 J-7.2798
G1 X-172.7702 Y60.4544
G1 X-172.9254 Y60.7639
G1 X-173.2325 Y61.3846
G1 X-173.4322 Y61.8008
G1 X-173.5435 Y62.0401
G1 X-173.6674 Y62.3149
G2 X-173.9739 Y63.0583 I11.7493 J5.2791
G1 X-174.0478 Y63.2596
G1 X-174.0844 Y63.3641
G2 X-174.3798 Y64.5085 I6.3388 J2.2466
G2 X-174.4316 Y65.1844 I4.1308 J0.6568
G2 X-174.3249 Y65.958 I3.0322 J-0.0242
G2 X-173.9322 Y66.7764 I2.5559 J-0.7229
G2 X-173.6163 Y67.1518 I2.4932 J-1.7775
G2 X-173.2199 Y67.5001 I2.6273 J-2.5906
G2 X-172.7512 Y67.8162 I3.0622 J-4.0348
G1 X-172.627 Y67.8883
G2 X-172.0806 Y68.1638 I3.78 J-6.8161
G2 X-171.4796 Y68.4091 I3.3005 J-7.2277
G2 X-170.0864 Y68.8319 I4.5688 J-12.5487
G2 X-168.4896 Y69.1637 I5.4012 J-21.9814
G1 X-168.0766 Y69.2317
G1 X-167.8671 Y69.2639
G1 X-167.437 Y69.3255
G1 X-167.1126 Y69.3667
G2 X-167.0042 Y69.3789 I0.2323 J-1.5749
G1 X-166.8595 Y69.3939
G1 X-166.6665 Y69.4118
G2 X-166.5561 Y69.4209 I0.2136 J-1.9241
G2 X-165.671 Y69.4612 I1.0221 J-12.7021
G2 X-163.9036 Y69.345 I0.1557 J-11.1301
G2 X-162.7478 Y69.097 I-1.3634 J-9.1695
G2 X-161.2761 Y68.5302 I-2.2462 J-8.027
G2 X-159.519 Y67.3728 I-3.9844 J-7.9612
G2 X-158.6442 Y66.5452 I-6.5023 J-7.7496
G2 X-157.7562 Y65.4961 I-9.9102 J-9.2888
G2 X-157.7039 Y65.4271 I-0.7672 J-0.6365
G2 X-156.8131 Y64.1251 I-13.7278 J-10.3476
G1 X-156.6003 Y63.7785
G2 X-156.1658 Y63.0301 I-25.0679 J-15.0548
G2 X-156.1126 Y62.9349 I-1.4107 J-0.8513
G1 X-155.8963 Y62.541
G1 X-155.678 Y62.1326
G2 X-155.5686 Y61.9245 I-7.0588 J-3.8423
G1 X-155.3459 Y61.4944
G1 X-155.2338 Y61.2756
G1 X-155.0045 Y60.824
G1 X-154.947 Y60.7102
G2 X-154.8304 Y60.4791 I-21.3415 J-10.9149
G1 X-154.3336 Y59.4983
G1 X-154.074 Y58.9952
G3 X-153.504 Y57.9373 I35.2171 J18.2939
G3 X-153.4297 Y57.8055 I3.2598 J1.7515
G3 X-153.1155 Y57.2671 I15.214 J8.516
G3 X-150.4948 Y53.3851 I36.4428 J21.7764
G1 X-150.3042 Y53.1376
G3 X-149.2449 Y51.8513 I23.3525 J18.153
G1 X-149.102 Y51.6907
G3 X-148.4197 Y50.9824 I9.247 J8.2251
G3 X-148.328 Y50.8976 I2.0804 J2.1571
G3 X-148.2327 Y50.8136 I0.9959 J1.0348
G1 X-148.1835 Y50.7725
G3 X-147.9655 Y50.6214 I0.7621 J0.8668
G3 X-147.8994 Y50.6046 I0.0643 J0.114
G3 X-147.8729 Y50.6435 I-0.006 J0.0325
G3 X-147.8773 Y50.675 I-0.0918 J0.0032
G3 X-147.9052 Y50.753 I-0.4356 J-0.112
G3 X-148.0059 Y50.939 I-1.6194 J-0.7559
G3 X-148.1414 Y51.1473 I-2.9351 J-1.7604
G2 X-148.5261 Y51.7684 I7.849 J5.2919
G1 X-148.6469 Y51.9799
G1 X-148.8044 Y52.2637
G1 X-149.0099 Y52.6448
G2 X-149.7958 Y54.1873 I55.5111 J29.2567
G2 X-150.2977 Y55.2264 I53.734 J26.5933
G2 X-152.1789 Y59.4395 I91.3808 J43.3295
G1 X-152.4155 Y60.0075
G1 X-152.5362 Y60.3012
G1 X-152.7905 Y60.9291
G2 X-154.06 Y64.3109 I70.084 J28.239
G2 X-154.6981 Y66.2744 I44.9734 J15.6997
G1 X-154.7727 Y66.5258
G3 X-155.5849 Y68.2272 I-5.5472 J-1.6036
G3 X-156.9133 Y69.5651 I-4.6954 J-3.3336
G3 X-157.996 Y70.2075 I-4.142 J-5.7468
G3 X-159.564 Y70.785 I-3.943 J-8.2889
G3 X-159.9962 Y70.8938 I-3.0279 J-11.1206
G3 X-160.993 Y71.0817 I-2.6864 J-11.5092
G3 X-162.1398 Y71.208 I-2.3134 J-15.7415
G3 X-162.7526 Y71.2423 I-1.0338 J-12.9714
G3 X-163.4054 Y71.2566 I-0.7098 J-17.5338
G3 X-164.8867 Y71.2135 I-0.1062 J-21.8273
G3 X-166.5601 Y71.0549 I1.5662 J-25.4442
G3 X-166.6651 Y71.0415 I0.1564 J-1.6348
G1 X-167.0973 Y70.9819
G3 X-169.0437 Y70.6335 I4.5514 J-31.044
G3 X-170.8205 Y70.2052 I6.8958 J-32.5085
G0 Z5.0
G0 X-117.3412 Y62.4128
G1 Z0.0
G3 X-116.35 Y60.8658 I12.2626 J6.7659
G3 X-116.0912 Y60.5238 I10.175 J7.4292
G3 X-114.9884 Y59.2472 I13.2232 J10.3089
G1 X-114.9202 Y59.1759
G3 X-113.7861 Y58.0883 I15.1759 J14.688
G1 X-113.5092 Y57.8463
G3 X-112.953 Y57.3831 I17.5875 J20.5552
G3 X-110.6834 Y55.7395 I17.5497 J21.8454
G3 X-108.5878 Y54.4716 I20.0035 J30.6944
G3 X-108.1192 Y54.2122 I23.794 J42.4385
G1 X-107.6624 Y53.9666
G3 X-107.4401 Y53.8495 I9.6227 J17.9975
G3 X-107.2206 Y53.7354 I3.3892 J6.2497
G3 X-107.1124 Y53.6796 I1.8334 J3.4265
G3 X-107.0048 Y53.6245 I1.6217 J3.0352
G1 X-106.5769 Y53.4087
G1 X-106.1604 Y53.2034
G1 X-105.7552 Y53.008
G3 X-102.5701 Y51.5932 I29.039 J61.0849
G3 X-102.4946 Y51.5619 I0.3561 J0.7515
G3 X-100.0857 Y50.6016 I41.2671 J100.015
G3 X-99.1771 Y50.2552 I26.3759 J67.8289
G3 X-98.7789 Y50.1054 I16.5765 J43.4478
G1 X-98.0315 Y49.8265
G1 X-96.7222 Y49.3421
G1 X-95.7406 Y48.9778
G1 X-95.0057 Y48.7009
G1 X-94.456 Y48.4893
G2 X-94.4302 Y48.4793 I-0.057 J-0.1843
G2 X-94.4048 Y48.4694 I-0.0565 J-0.1821
G2 X-93.6102 Y48.1512 I-12.7711 J-33.0457
G2 X-93.2155 Y47.9854 I-9.2442 J-22.5555
G1 X-93.1172 Y47.943
G1 X-93.0436 Y47.9109
G1 X-92.8236 Y47.8131
G2 X-91.5208 Y47.1192 I-4.3547 J-9.7458
G2 X-90.4445 Y46.3259 I-4.4264 J-7.1317
G2 X-90.0101 Y45.9135 I-4.0495 J-4.7012
G2 X-89.3064 Y45.0293 I-4.0897 J-3.9766
G2 X-88.8675 Y44.134 I-3.6766 J-2.3579
G2 X-88.6863 Y43.281 I-3.2567 J-1.1376
G2 X-88.9601 Y41.8029 I-2.8632 J-0.234
G2 X-89.2473 Y41.3221 I-3.0111 J1.4725
G2 X-89.9223 Y40.6191 I-2.9503 J2.1571
G2 X-90.5245 Y40.2073 I-3.1579 J3.9719
G2 X-91.5165 Y39.7492 I-3.1451 J5.5076
G2 X-92.0365 Y39.581 I-2.5923 J7.1232
G2 X-92.1683 Y39.5444 I-0.5909 J1.874
G1 X-92.2674 Y39.5184
G1 X-92.4167 Y39.4814
G1 X-92.5665 Y39.447
G1 X-93.2495 Y39.2971
G2 X-93.3034 Y39.2856 I-0.4746 J2.0935
G1 X-93.4169 Y39.2616
G1 X-93.5633 Y39.2314
G2 X-93.7683 Y39.1911 I-1.4685 J6.9269
G1 X-93.8237 Y39.1809
G1 X-93.8808 Y39.1709
G2 X-93.9657 Y39.158 I-0.1622 J0.7825
G1 X-93.9908 Y39.1552
G2 X-94.0191 Y39.1536 I-0.0243 J0.179
G2 X-94.0285 Y39.1542 I-0.0031 J0.024
G2 X-94.0344 Y39.1583 I-0.0007 J0.0054
G2 X-94.0099 Y39.1739 I0.0489 J-0.0495
G2 X-93.7929 Y39.2497 I0.9941 J-2.4978
G2 X-93.7663 Y39.2581 I0.1747 J-0.5103
G1 X-93.5541 Y39.3224
G1 X-93.451 Y39.3527
G2 X-91.8214 Y39.806 I32.0486 J-112.0371
G2 X-91.6683 Y39.8475 I1.5594 J-5.4562
G1 X-90.4812 Y40.1658
G1 X-88.699 Y40.6369
G1 X-86.9155 Y41.1029
G1 X-86.6858 Y41.1472
G1 X-85.7673 Y41.3078
G1 X-84.8634 Y41.4685
G3 X-77.7897 Y42.9661 I-21.9739 J121.2482
G3 X-74.7185 Y43.7545 I-27.5877 J113.8338
G3 X-69.0171 Y45.4588 I-28.7834 J106.6788
G3 X-66.549 Y46.3033 I-29.0826 J89.0272
G3 X-61.9811 Y48.0619 I-32.6695 J91.6678
G3 X-61.7337 Y48.1651 I-4.0264 J9.9986
G1 X-61.611 Y48.2166
G3 X-57.7456 Y49.958 I-32.9911 J78.3946
G3 X-56.9116 Y50.3663 I-59.177 J121.9193
G1 X-56.7103 Y50.4668
G3 X-53.5579 Y52.1441 I-31.2028 J62.4433
G1 X-53.2181 Y52.3376
G3 X-52.5526 Y52.7243 I-18.4806 J32.5742
G3 X-50.0192 Y54.2992 I-32.239 J54.6842
G3 X-49.7467 Y54.4792 I-12.8809 J19.7944
G3 X-47.6389 Y55.9515 I-30.5763 J46.0208
G3 X-44.1362 Y58.7771 I-28.3944 J38.7809
G3 X-44.0574 Y58.8474 I-2.0263 J2.3534
G3 X-41.6474 Y61.1761 I-27.2723 J30.6351
G3 X-39.9722 Y63.0512 I-26.8064 J25.6348
G3 X-37.7139 Y66.071 I-26.9537 J22.5113
G3 X-35.8143 Y69.3286 I-26.2013 J17.4612
G2 X-34.9739 Y70.8714 I15.4118 J-7.3952
G2 X-34.2159 Y71.9762 I12.3171 J-7.6376
G2 X-32.8072 Y73.5228 I9.3159 J-7.0706
G1 X-32.6526 Y73.6613
G2 X-31.9804 Y74.2103 I8.0595 J-9.1828
G2 X-31.9624 Y74.224 I0.0572 J-0.0562
G1 X-31.6707 Y74.4435
G3 X-31.5931 Y74.5018 I-0.8352 J1.1913
G3 X-31.3058 Y74.7354 I-2.0376 J2.8
G3 X-31.1973 Y74.8653 I-0.4025 J0.4463
G3 X-31.189 Y75.0009 I-0.1155 J0.0751
G3 X-31.2645 Y75.0818 I-0.2119 J-0.1221
G3 X-31.4434 Y75.1795 I-0.5413 J-0.7785
G3 X-31.7767 Y75.3042 I-1.5461 J-3.624
G1 X-32.0309 Y75.3857
G1 X-32.4141 Y75.5015
G1 X-32.798 Y75.6147
G3 X-33.38 Y75.6823 I-0.497 J-1.7404
G3 X-33.9368 Y75.6021 I0.1134 J-2.7621
G3 X-34.4614 Y75.4413 I1.1292 J-4.6198
G3 X-34.7119 Y75.3429 I1.8823 J-5.1614
G1 X-34.8345 Y75.2906
G3 X-35.3145 Y75.0632 I4.938 J-11.0434
G3 X-36.2278 Y74.5559 I6.6801 J-13.1018
G1 X-36.4443 Y74.4251
G3 X-37.2913 Y73.8865 I15.7889 J-25.7678
G1 X-37.6965 Y73.6176
G1 X-38.093 Y73.3494
G1 X-38.4817 Y73.0828
G3 X-38.5772 Y73.0169 I1.1326 J-1.7427
G3 X-39.336 Y72.4888 I212.7208 J-306.4836
G1 X-40.803 Y71.4605
G1 X-41.4923 Y70.9802
G1 X-42.1623 Y70.5176
G1 X-42.2436 Y70.4618
G1 X-42.893 Y70.0196
G1 X-43.5252 Y69.5954
G1 X-43.8326 Y69.3916
G1 X-44.1359 Y69.1922
G1 X-44.2855 Y69.0944
G1 X-44.8813 Y68.7096
G1 X-45.1711 Y68.525
G1 X-45.7439 Y68.1653
G2 X-45.8832 Y68.0789 I-2.0399 J3.1337
G2 X-48.1202 Y66.7522 I-35.4181 J57.1708
G2 X-49.1156 Y66.2003 I-38.967 J69.1064
G2 X-52.9423 Y64.3109 I-25.6382 J47.1062
G2 X-54.4154 Y63.6838 I-21.9636 J49.5522
G2 X-57.0408 Y62.7052 I-17.0462 J41.7171
G2 X-59.0462 Y62.0767 I-13.57 J39.7899
G2 X-65.2104 Y60.7768 I-11.889 J41.1126
G1 X-65.3122 Y60.7631
G1 X-66.9388 Y60.5463
G2 X-73.2505 Y59.757 I-57.8455 J436.9279
G1 X-74.6348 Y59.5969
G2 X-80.0071 Y59.0293 I-39.4673 J347.8719
G1 X-80.5963 Y58.9729
G1 X-80.8864 Y58.9455
G1 X-82.0381 Y58.8401
G1 X-83.1546 Y58.7428
G1 X-84.2371 Y58.6532
G1 X-85.2866 Y58.5712
G1 X-85.7952 Y58.5332
G1 X-86.797 Y58.4618
G1 X-87.2826 Y58.4289
G2 X-89.1958 Y58.311 I-13.2776 J199.783
G1 X-90.0937 Y58.2623
G1 X-90.9641 Y58.2196
G2 X-91.0696 Y58.2147 I-0.1217 J1.487
G2 X-94.4327 Y58.0962 I-6.906 J148.2319
G1 X-95.17 Y58.0807
G1 X-95.5274 Y58.0746
G1 X-95.8792 Y58.0697
G1 X-96.572 Y58.0628
G1 X-97.2435 Y58.0599
G1 X-97.8942 Y58.0609
G2 X-98.2095 Y58.0628 I-0.0464 J18.7785
G2 X-98.52 Y58.0655 I-0.05 J11.8854
G2 X-98.5964 Y58.0663 I-0.0291 J0.8548
G2 X-103.4642 Y58.2506 I0.8195 J86.0617
G1 X-103.9215 Y58.2835
G2 X-107.4561 Y58.6579 I4.0376 J54.9848
G1 X-107.787 Y58.7058
G1 X-108.1074 Y58.7546
G2 X-109.3452 Y58.9684 I6.3804 J40.638
G1 X-109.6152 Y59.0208
G1 X-109.8764 Y59.0736
G1 X-110.1292 Y59.1269
G1 X-110.2515 Y59.1534
G2 X-112.1606 Y59.6427 I5.8011 J26.6042
G2 X-113.5638 Y60.1167 I5.8704 J19.6908
G2 X-114.5884 Y60.5496 I5.6115 J14.7109
G1 X-114.6828 Y60.5942
G2 X-115.4014 Y60.9654 I4.6664 J9.9146
G2 X-116.423 Y61.6199 I4.6122 J8.324
G2 X-117.3412 Y62.4128 I4.4033 J6.0268
G0 Z5.0
M5
M30
