( Made using CamBam - http://www.cambam.co.uk )
( Superman 1/24/2014 5:42:17 PM )
( T0 : 0.0 )
G21 G90 G64 G40
G0 Z5.0
( T0 : 0.0 )
T0 M6
( Profile1 )
G17
M3 S1000
G0 X-256.2873 Y339.6304
G1 F1.0 Z0.0
G3 X-259.2472 Y338.6808 I61.0407 J-195.3324
G3 X-259.5613 Y338.5775 I5.5642 J-17.4631
G3 X-259.8803 Y338.4723 I5.4177 J-16.9545
G3 X-260.2042 Y338.365 I5.2933 J-16.518
G3 X-260.5331 Y338.2556 I5.1873 J-16.1413
G3 X-260.867 Y338.144 I5.0963 J-15.8136
G3 X-261.2062 Y338.0303 I5.0185 J-15.5293
G1 X-262.6516 Y337.541
G1 X-264.1911 Y337.0126
G1 X-265.8312 Y336.443
G1 X-267.5787 Y335.8305
G1 X-271.5693 Y334.4215
G1 X-273.6978 Y333.671
G1 X-274.797 Y333.2854
G2 X-279.8318 Y331.5537 I-154.8144 J441.9212
G2 X-279.9901 Y331.5005 I-2.3364 J6.69
G2 X-280.1491 Y331.4472 I-2.3276 J6.6745
G2 X-280.3088 Y331.3937 I-2.3186 J6.6585
G2 X-280.4691 Y331.3401 I-2.3093 J6.642
G2 X-280.6301 Y331.2864 I-2.2999 J6.6252
G2 X-280.7917 Y331.2326 I-2.2902 J6.6078
G2 X-280.954 Y331.1786 I-2.2804 J6.5901
G2 X-281.117 Y331.1246 I-2.2702 J6.5716
G2 X-281.2806 Y331.0704 I-2.2599 J6.553
G2 X-281.4449 Y331.0161 I-2.2495 J6.5339
G2 X-284.2543 Y330.1072 I-63.3077 J190.8794
G2 X-284.431 Y330.0513 I-2.0369 J6.1354
G2 X-284.6084 Y329.9954 I-2.0232 J6.1093
G2 X-284.7865 Y329.9394 I-2.0095 J6.0831
G2 X-284.9655 Y329.8834 I-1.9956 J6.0565
G2 X-286.558 Y329.4888 I-10.3941 J38.5354
G1 X-287.0916 Y329.3684
G1 X-287.8043 Y329.2138
G1 X-288.756 Y329.0147
G1 X-290.026 Y328.7544
G1 X-290.3647 Y328.6849
G1 X-291.1384 Y328.5243
G1 X-292.0216 Y328.3356
G3 X-292.1336 Y328.3111 I0.8039 J-3.9468
G1 X-292.6112 Y328.205
G3 X-295.1435 Y327.5748 I11.1799 J-50.3271
G1 X-295.3031 Y327.53
G1 X-295.4649 Y327.4838
G3 X-296.9337 Y327.0228 I8.6017 J-29.9793
G3 X-297.7063 Y326.7441 I7.0683 J-20.7973
G3 X-297.901 Y326.669 I1.8101 J-4.9864
G3 X-299.6437 Y325.8888 I6.6798 J-17.2558
G1 X-299.8585 Y325.7761
G3 X-300.7545 Y325.255 I6.7271 J-12.5952
G3 X-301.6622 Y324.6196 I6.3516 J-10.0404
G3 X-302.5569 Y323.841 I6.1136 J-7.9286
G1 X-301.3254 Y324.174
G1 X-300.0932 Y324.5053
G1 X-299.741 Y324.5993
G1 X-298.8013 Y324.8482
G1 X-298.5505 Y324.914
G1 X-298.283 Y324.984
G1 X-297.9975 Y325.0583
G1 X-297.6928 Y325.1371
G1 X-297.3677 Y325.2207
G1 X-296.6243 Y325.4098
G2 X-295.7737 Y325.6219 I18.8417 J-73.7385
G1 X-294.8002 Y325.8585
G1 X-294.2803 Y325.9819
G2 X-294.1481 Y326.013 I1.0609 J-4.2238
G2 X-294.0138 Y326.0443 I1.297 J-5.2505
G2 X-293.8774 Y326.076 I1.8594 J-7.6919
G1 X-293.2949 Y326.2095
G1 X-292.6729 Y326.3486
G1 X-292.0085 Y326.4928
G1 X-291.8395 Y326.5287
G1 X-291.1181 Y326.6785
G2 X-287.2484 Y327.3624 I14.3901 J-70.1381
G2 X-285.019 Y327.6376 I7.3034 J-49.9921
G3 X-279.8034 Y329.3343 I-58.0862 J187.4228
G3 X-274.6266 Y331.1461 I-105.753 J310.4623
G1 X-273.1525 Y331.6778
G1 X-271.4697 Y332.2903
G1 X-269.5479 Y332.9945
G1 X-267.3524 Y333.8014
G2 X-261.4908 Y335.934 I270.209 J-733.5737
G1 X-260.7327 Y336.2043
G1 X-259.9495 Y336.4816
G2 X-258.2764 Y337.0663 I70.6251 J-199.3918
G1 X-257.4115 Y337.364
G1 X-256.5176 Y337.6681
G2 X-252.4141 Y339.0083 I63.9237 J-188.768
G2 X-252.1545 Y339.0896 I3.2634 J-9.9605
G2 X-249.9347 Y339.7662 I61.1112 J-196.5273
G2 X-249.7951 Y339.8076 I1.7365 J-5.6046
G2 X-249.6549 Y339.8489 I1.7132 J-5.5447
G2 X-249.5141 Y339.8904 I1.6904 J-5.4863
G2 X-249.3727 Y339.9318 I1.6682 J-5.4295
G2 X-249.2307 Y339.9733 I1.6464 J-5.374
G2 X-249.0881 Y340.0148 I1.6249 J-5.3193
G2 X-248.9449 Y340.0563 I1.6039 J-5.2664
G2 X-248.8011 Y340.0978 I1.5834 J-5.2148
G2 X-248.6567 Y340.1393 I1.5633 J-5.1642
G2 X-248.5117 Y340.1809 I1.5435 J-5.1147
G2 X-248.366 Y340.2224 I1.5242 J-5.0665
G2 X-248.2198 Y340.264 I1.5052 J-5.0194
G2 X-245.7168 Y340.9477 I41.5534 J-147.1839
G1 X-245.079 Y341.1134
G2 X-239.2037 Y342.4583 I28.0189 J-108.8932
G1 X-238.4524 Y342.6052
G1 X-237.6881 Y342.7486
G1 X-236.9103 Y342.888
G1 X-236.7749 Y343.58
G3 X-237.189 Y343.7305 I-0.6396 J-1.1148
G3 X-237.6286 Y343.7606 I-0.3612 J-2.055
G3 X-237.9216 Y343.7458 I0.1069 J-5.0258
G2 X-238.3106 Y343.7272 I-0.6695 J9.9265
G2 X-238.5328 Y343.7353 I-0.0349 J2.0905
G2 X-239.1026 Y343.9045 I0.1007 J1.3833
G3 X-241.8287 Y343.4021 I17.392 J-102.0193
G1 X-242.7343 Y343.2185
G1 X-243.251 Y343.1102
G1 X-243.8411 Y342.9834
G3 X-248.5359 Y341.8609 I25.343 J-116.3842
G1 X-249.1586 Y341.6979
G1 X-249.8219 Y341.5208
G3 X-253.3454 Y340.525 I42.9235 J-158.6085
G1 X-254.2812 Y340.2461
G3 X-256.2873 Y339.6304 I59.0346 J-195.948
G0 Z5.0
G0 X-239.3972 Y316.4827
G1 Z0.0
G3 X-241.0378 Y315.183 I15.5595 J-21.3241
G3 X-242.4315 Y313.9021 I17.5734 J-20.5208
G3 X-244.158 Y312.0621 I22.5793 J-22.917
G3 X-245.079 Y310.9529 I27.6018 J-23.8545
G3 X-247.3169 Y307.8323 I31.3833 J-24.8691
G1 X-247.5843 Y307.415
G1 X-247.8555 Y306.9812
G1 X-248.1304 Y306.5304
G1 X-248.4089 Y306.062
G1 X-248.6909 Y305.5754
G3 X-249.9132 Y303.3164 I47.2322 J-27.0166
G1 X-250.2121 Y302.7249
G3 X-250.8286 Y301.4534 I70.8025 J-35.1135
G3 X-250.9043 Y301.2922 I8.8827 J-4.274
G3 X-251.0569 Y300.9643 I22.3566 J-10.6022
G1 X-251.3665 Y300.2852
G3 X-252.6964 Y297.1487 I74.4733 J-33.429
G1 X-252.776 Y296.9494
G1 X-252.8558 Y296.7483
G3 X-253.5181 Y295.0274 I92.215 J-36.4764
G3 X-254.9278 Y291.0645 I127.5432 J-47.6027
G1 X-255.0986 Y290.5585
G3 X-255.3192 Y289.5674 I2.7471 J-1.1314
G3 X-255.1625 Y288.5643 I2.7096 J-0.0907
G3 X-254.8768 Y287.949 I3.552 J1.2758
G3 X-254.3661 Y287.2099 I5.1271 J2.9962
G1 X-254.2149 Y287.0245
G3 X-253.8572 Y286.615 I9.0072 J7.5056
G1 X-253.662 Y286.4017
G1 X-253.2145 Y285.9219
G2 X-252.7148 Y285.3708 I-13.1408 J-12.4162
G2 X-252.5901 Y285.2253 I-3.4223 J-3.06
G1 X-252.4642 Y285.0731
G2 X-251.9443 Y284.3419 I-5.0974 J-4.1749
G2 X-251.8869 Y284.2433 I-1.082 J-0.6958
G2 X-251.6741 Y283.8062 I-3.1483 J-1.803
G1 X-251.2041 Y283.3512
G2 X-251.048 Y283.1989 I-4.4935 J-4.762
G1 X-250.4253 Y282.5879
G1 X-249.1807 Y281.3654
G3 X-248.345 Y280.5565 I103.7854 J106.398
G1 X-247.8633 Y280.0986
G1 X-247.6048 Y279.8559
G1 X-247.3278 Y279.5986
G3 X-247.2572 Y279.5334 I0.9461 J0.9548
G3 X-247.1853 Y279.4674 I0.9796 J0.9932
G3 X-245.6249 Y278.0902 I32.1005 J34.8007
G3 X-243.4337 Y276.3863 I21.2286 J25.0391
G1 X-243.2893 Y276.2851
G1 X-243.1419 Y276.1832
G3 X-242.8353 Y275.9763 I8.5573 J12.3505
G1 X-242.5155 Y275.7679
G3 X-241.0056 Y274.8897 I10.693 J16.648
G3 X-239.1773 Y274.0785 I7.0943 J13.5245
G3 X-238.1579 Y273.7552 I4.2356 J11.5873
G3 X-235.7279 Y273.3846 I2.8038 J10.2303
G3 X-232.9034 Y273.7128 I0.3152 J9.6048
G3 X-231.4573 Y274.2172 I-2.8584 J10.52
G3 X-231.7074 Y274.4676 I-2.0966 J-1.8439
G3 X-231.9884 Y274.683 I-1.5302 J-1.7059
G3 X-232.6432 Y274.9476 I-0.9861 J-1.4974
G3 X-233.1158 Y274.9745 I-0.3461 J-1.92
G3 X-233.7361 Y274.8765 I0.2439 J-3.555
G3 X-233.7749 Y274.8672 I0.0499 J-0.2969
G3 X-233.8144 Y274.8577 I0.053 J-0.3039
G1 X-234.1704 Y274.7649
G2 X-236.4686 Y275.5977 I8.642 J27.435
G2 X-238.6887 Y276.6207 I11.4189 J27.7004
G2 X-238.829 Y276.6928 I1.6175 J3.3208
G2 X-239.4657 Y277.0314 I13.2551 J25.6985
G2 X-244.2605 Y280.2233 I16.2477 J29.6039
G2 X-245.5265 Y281.2774 I21.0356 J26.5507
G1 X-245.8452 Y281.5587
G2 X-249.0313 Y284.7792 I24.1321 J27.0603
G2 X-252.6087 Y289.6388 I26.6631 J23.3751
G2 X-251.9295 Y292.0181 I16.1358 J-3.3197
G2 X-250.9434 Y294.2876 I20.876 J-7.722
G2 X-250.6207 Y294.9169 I34.8782 J-17.4835
G2 X-249.7019 Y296.5623 I34.7582 J-18.3304
G2 X-249.1519 Y297.4877 I106.4356 J-62.6388
G1 X-249.0083 Y297.7255
G1 X-248.3493 Y298.8101
G1 X-247.9991 Y299.3891
G1 X-247.9106 Y299.5365
G1 X-247.5365 Y300.1668
G1 X-247.4425 Y300.3275
G1 X-247.2503 Y300.6603
G3 X-246.4115 Y302.2028 I-32.5634 J18.7052
G2 X-244.7929 Y305.8331 I21.4748 J-7.3993
G2 X-242.5747 Y309.1312 I20.6979 J-11.5257
G2 X-240.8167 Y311.1155 I21.3371 J-17.1318
G2 X-238.2053 Y313.4928 I22.1763 J-21.7383
G2 X-236.6064 Y314.7229 I24.5137 J-30.2076
G2 X-236.5034 Y314.7976 I1.1933 J-1.5371
G2 X-234.5852 Y316.105 I23.961 J-33.0941
G2 X-234.5239 Y316.1444 I0.8542 J-1.2613
G2 X-234.4623 Y316.1839 I0.8557 J-1.2677
G2 X-234.4004 Y316.2234 I0.8572 J-1.2743
G2 X-234.3382 Y316.263 I0.8589 J-1.281
G2 X-234.2757 Y316.3026 I0.8606 J-1.2878
G2 X-234.2129 Y316.3423 I0.8623 J-1.2948
G2 X-234.1498 Y316.3821 I0.8642 J-1.3019
G2 X-234.0864 Y316.4219 I0.866 J-1.3091
G2 X-234.0227 Y316.4617 I0.868 J-1.3165
G2 X-233.9586 Y316.5017 I0.87 J-1.324
G2 X-233.8943 Y316.5417 I0.8721 J-1.3317
G2 X-233.8296 Y316.5817 I0.8743 J-1.3395
G2 X-233.7647 Y316.6218 I0.8766 J-1.3475
G2 X-233.6994 Y316.6619 I0.8789 J-1.3556
G2 X-233.6338 Y316.7022 I0.8813 J-1.364
G2 X-233.5679 Y316.7424 I0.8838 J-1.3724
G2 X-233.5017 Y316.7828 I0.8864 J-1.3811
G2 X-233.4351 Y316.8231 I0.8891 J-1.3899
G2 X-233.3683 Y316.8636 I0.8918 J-1.399
G2 X-233.3011 Y316.9041 I0.8946 J-1.4082
G2 X-232.1469 Y317.5795 I35.8598 J-59.9497
G2 X-232.0739 Y317.621 I0.9629 J-1.6087
G2 X-231.4696 Y317.9595 I34.7215 J-61.2881
G1 X-230.8422 Y318.3017
G2 X-229.4932 Y319.009 I36.2444 J-67.4825
G2 X-229.408 Y319.0525 I1.3364 J-2.5133
G2 X-226.27 Y320.5732 I42.1183 J-82.9164
G2 X-222.6398 Y322.1906 I62.857 J-136.191
G1 X-222.1765 Y322.3902
G1 X-221.2194 Y322.7992
G1 X-221.011 Y323.1772
G3 X-222.8535 Y323.1868 I-0.9887 J-12.9071
G3 X-224.6815 Y322.9559 I0.9728 J-15.055
G1 X-224.9228 Y322.9091
G3 X-226.197 Y322.6037 I4.1173 J-19.9948
G3 X-226.2772 Y322.5814 I0.457 J-1.7995
G3 X-226.3586 Y322.5585 I0.4589 J-1.7812
G1 X-226.7046 Y322.4569
G1 X-227.0718 Y322.3425
G1 X-227.4613 Y322.214
G3 X-229.5032 Y321.4377 I10.1474 J-29.7617
G3 X-230.6487 Y320.9437 I20.0211 J-48.0102
G3 X-230.7934 Y320.8792 I2.6787 J-6.2041
G1 X-231.4089 Y320.6009
G1 X-232.0632 Y320.2999
G1 X-232.7595 Y319.9764
G1 X-232.9363 Y319.8942
G1 X-233.6906 Y319.5446
G1 X-234.4969 Y319.1769
G2 X-236.3567 Y318.3805 I-19.3725 J42.6651
G3 X-238.2336 Y317.2832 I11.4128 J-21.6755
G1 X-238.4934 Y317.1129
G1 X-238.7878 Y316.9143
G3 X-239.3972 Y316.4827 I14.95 J-21.7557
G0 Z5.0
G0 X-241.6603 Y322.5322
G1 Z0.0
G1 X-241.6349 Y322.5417
G1 X-240.9931 Y322.7836
G1 X-240.3719 Y323.0195
G1 X-239.7707 Y323.2496
G1 X-238.6077 Y323.7002
G1 X-237.5198 Y324.1288
G3 X-233.4651 Y325.7982 I-58.0287 J146.6969
G3 X-233.3705 Y325.8387 I-1.0328 J2.5428
G3 X-233.2768 Y325.8789 I-1.0293 J2.5288
G3 X-233.1838 Y325.9189 I-1.0259 J2.5149
G3 X-233.0915 Y325.9586 I-1.0225 J2.5012
G3 X-233.0001 Y325.9981 I-1.0191 J2.4877
G3 X-230.1116 Y327.2858 I-48.6992 J113.1161
G3 X-229.977 Y327.348 I-1.2711 J2.9314
G3 X-229.8445 Y327.4093 I-1.2645 J2.905
G3 X-229.7142 Y327.4698 I-1.258 J2.8792
G3 X-229.586 Y327.5296 I-1.2516 J2.8538
G3 X-225.5888 Y329.4946 I-43.3107 J93.1497
G1 X-225.0953 Y329.7525
G1 X-224.6648 Y329.9805
G3 X-224.5707 Y330.0307 I-1.2707 J2.4939
G3 X-224.4796 Y330.0794 I-1.2565 J2.4571
G3 X-224.3915 Y330.1267 I-1.2424 J2.4209
G3 X-221.6867 Y331.6425 I-41.1948 J76.6785
G3 X-219.3376 Y327.1896 I65.5024 J31.7085
G1 X-219.2198 Y326.9849
G1 X-218.9857 Y326.5832
G1 X-218.7563 Y326.1956
G1 X-218.5316 Y325.8215
G3 X-216.7046 Y322.9765 I55.3632 J33.5449
G3 X-215.9786 Y321.9364 I44.649 J30.3915
G3 X-213.2491 Y318.437 I41.6442 J29.6677
G3 X-211.7659 Y316.7855 I31.6931 J26.9712
G3 X-210.1972 Y315.2149 I28.2594 J26.6569
G3 X-209.8648 Y315.3463 I-0.3841 J1.457
G3 X-209.4563 Y315.6884 I-0.6351 J1.1735
G3 X-209.3009 Y315.9051 I-1.6768 J1.3659
G1 X-209.2308 Y316.0185
G1 X-209.1628 Y316.1332
G3 X-209.3135 Y316.5068 I-37.855 J-15.0523
G1 X-209.468 Y316.8721
G3 X-210.1272 Y318.288 I-27.8247 J-12.0936
G1 X-210.292 Y318.6151
G3 X-210.9713 Y319.888 I-37.5086 J-19.1991
G1 X-211.0537 Y320.0359
G1 X-211.3852 Y320.6203
G1 X-211.4666 Y320.7614
G1 X-211.5476 Y320.9012
G1 X-211.8724 Y321.4544
G1 X-212.191 Y321.9883
G3 X-213.4432 Y324.0482 I-272.5477 J-164.272
G1 X-213.9911 Y324.9527
G2 X-214.055 Y325.059 I2.969 J1.8556
G2 X-215.0491 Y326.7594 I56.9638 J34.4425
G1 X-215.2601 Y327.1361
G1 X-215.4615 Y327.5029
G1 X-215.6534 Y327.8601
G1 X-215.8361 Y328.208
G1 X-216.0098 Y328.5469
G1 X-216.1745 Y328.8771
G2 X-216.7762 Y330.1744 I25.2242 J12.486
G2 X-217.2455 Y331.3357 I23.5043 J10.1752
G2 X-217.4311 Y331.8517 I22.1617 J8.2599
G2 X-217.9992 Y333.8273 I17.8128 J6.1919
G2 X-218.3978 Y336.8833 I15.4568 J3.5701
G2 X-218.1803 Y339.9576 I15.2143 J0.4686
G3 X-217.9567 Y341.0946 I-139.1747 J27.9657
G3 X-217.5716 Y343.2331 I-133.4688 J25.1382
G3 X-217.5316 Y343.4674 I-7.2797 J1.362
G1 X-217.3775 Y344.3904
G1 X-217.2366 Y345.2563
G1 X-217.1068 Y346.0686
G1 X-216.9863 Y346.8303
G1 X-216.7606 Y348.2585
G1 X-216.5602 Y349.5077
G1 X-216.3797 Y350.6
G2 X-215.6765 Y354.4105 I105.5465 J-17.5068
G1 X-215.5775 Y354.8847
G2 X-215.5554 Y354.9884 I2.7003 J-0.5209
G2 X-215.5338 Y355.0888 I2.6655 J-0.5192
G2 X-215.5128 Y355.186 I2.6313 J-0.5174
G2 X-214.7856 Y358.1816 I58.5019 J-12.6178
G2 X-212.7545 Y359.0119 I13.5508 J-30.2478
G2 X-205.328 Y360.9143 I12.7516 J-34.3308
G2 X-205.2091 Y360.9317 I0.3326 J-1.8645
G2 X-201.4458 Y361.2759 I5.2074 J-36.1839
G2 X-199.5556 Y361.297 I1.3178 J-33.4463
G2 X-199.0831 Y361.2858 I-0.1968 J-18.3583
G1 X-198.7288 Y361.2731
G2 X-198.6624 Y361.2703 I-0.0078 J-0.968
G2 X-197.6673 Y361.2117 I-1.7055 J-37.4715
G2 X-197.4582 Y359.4361 I-58.5895 J-7.7997
G1 X-197.417 Y359.0192
G1 X-197.3789 Y358.6085
G2 X-197.156 Y355.3685 I-84.4101 J-7.4362
G2 X-197.0399 Y352.5287 I-181.7635 J-8.8494
G1 X-197.0299 Y352.2179
G1 X-197.0204 Y351.9119
G1 X-196.9516 Y349.5022
G1 X-196.9212 Y348.4478
G1 X-196.8899 Y347.4591
G1 X-196.8569 Y346.5324
G3 X-196.7805 Y344.7951 I149.7966 J5.7156
G3 X-196.5797 Y341.7582 I86.2287 J4.1759
G1 X-196.5552 Y341.4738
G1 X-196.5305 Y341.1984
G3 X-196.2996 Y339.068 I61.119 J5.5461
G3 X-195.8009 Y335.8929 I48.8584 J6.047
G1 X-195.7628 Y335.6956
G1 X-195.7263 Y335.5108
G3 X-195.0822 Y332.7602 I41.9595 J8.3753
G3 X-194.9337 Y332.5939 I5.775 J5.0078
G3 X-192.5144 Y330.0498 I48.6626 J43.8518
G3 X-192.398 Y329.9334 I2.4782 J2.3614
G3 X-192.2833 Y329.819 I2.3957 J2.2887
G3 X-192.1701 Y329.7066 I2.3184 J2.2204
G1 X-191.7231 Y329.2657
G1 X-191.3019 Y328.8545
G3 X-190.508 Y328.0879 I73.808 J75.6404
G1 X-189.1115 Y326.7537
G1 X-188.5876 Y326.2536
G1 X-187.6733 Y325.3758
G1 X-186.9917 Y324.7131
G1 X-186.484 Y324.2125
G2 X-185.7299 Y323.4542 I-36.8639 J-37.4135
G1 X-185.3569 Y323.071
G2 X-184.9872 Y322.6846 I-46.2037 J-44.5841
G1 X-185.0255 Y322.0815
G2 X-185.2449 Y319.7129 I-54.9636 J3.8971
G2 X-185.9375 Y315.31 I-55.9493 J6.5452
G1 X-186.0342 Y314.8325
G2 X-186.9286 Y311.102 I-61.403 J12.7504
G2 X-187.3892 Y309.4887 I-67.0652 J18.2723
G1 X-187.5028 Y309.1123
G1 X-187.6167 Y308.7424
G2 X-188.5808 Y305.8513 I-69.6808 J21.6297
G2 X-190.5212 Y300.8849 I-84.0988 J29.9957
G2 X-192.1499 Y297.2332 I-105.0564 J44.6668
G2 X-194.8032 Y291.8547 I-132.6587 J62.1011
G1 X-194.9758 Y291.5219
G1 X-195.1382 Y291.2102
G1 X-195.4441 Y290.6265
G1 X-195.984 Y289.6077
G1 X-196.1878 Y289.2263
G1 X-196.5463 Y288.5599
G1 X-197.0876 Y287.5623
G2 X-197.3599 Y287.0644 I-51.7194 J27.955
G1 X-197.4964 Y286.8156
G1 X-197.6331 Y286.567
G1 X-197.8146 Y286.4641
G2 X-200.7418 Y284.9135 I-31.5943 J56.1055
G1 X-200.9039 Y284.8328
G1 X-201.065 Y284.753
G2 X-203.6419 Y283.5298 I-44.5313 J90.4924
G2 X-205.9203 Y282.511 I-62.2456 J136.1389
G2 X-207.9247 Y281.6437 I-95.0992 J217.0523
G1 X-209.6825 Y280.8938
G1 X-211.2208 Y280.238
G1 X-211.8933 Y279.9498
G1 X-212.5233 Y279.6783
G1 X-213.7025 Y279.165
G3 X-213.9601 Y279.0517 I7.2741 J-16.8908
G3 X-214.2094 Y278.9416 I5.4415 J-12.6608
G3 X-214.4508 Y278.8345 I4.5269 J-10.5351
G1 X-215.3845 Y278.4159
G1 X-216.1989 Y278.044
G1 X-216.9092 Y277.7135
G1 X-217.5287 Y277.4202
G3 X-217.664 Y277.3554 I1.7694 J-3.8701
G3 X-217.7949 Y277.2925 I1.7281 J-3.7638
G3 X-217.9217 Y277.2313 I1.6893 J-3.6637
G3 X-219.8733 Y276.2572 I38.5805 J-79.7407
G3 X-221.7954 Y275.2263 I31.5739 J-61.1701
G3 X-220.8067 Y274.8887 I3.5077 J8.6572
G3 X-220.3332 Y274.7706 I2.4822 J8.9416
G3 X-219.4034 Y274.608 I2.1696 J9.665
G3 X-217.6411 Y274.5068 I1.6031 J12.5252
G3 X-217.2557 Y274.5148 I-0.0177 J10.1656
G3 X-215.7673 Y274.6287 I-0.6731 J18.5774
G1 X-215.6863 Y274.6383
G1 X-215.3651 Y274.6796
G1 X-215.0547 Y274.7241
G1 X-214.7546 Y274.7712
G1 X-214.6094 Y274.7954
G3 X-213.4716 Y275.0141 I-5.6268 J32.3457
G1 X-213.224 Y275.068
G3 X-212.2686 Y275.2946 I-6.2636 J28.5311
G1 X-212.0605 Y275.3476
G3 X-210.4569 Y275.7931 I-10.3521 J40.3734
G3 X-208.0765 Y276.5441 I-22.8159 J76.4647
G1 X-206.8929 Y276.9399
G1 X-205.71 Y277.3381
G1 X-205.6248 Y277.268
G3 X-205.2819 Y277.0127 I3.3474 J4.1385
G3 X-204.654 Y276.6058 I8.7449 J12.8061
G1 X-204.5945 Y276.5686
G1 X-204.3643 Y276.4236
G1 X-204.3141 Y276.3915
G1 X-204.2655 Y276.3602
G1 X-204.2186 Y276.3298
G1 X-204.1733 Y276.3001
G2 X-203.4956 Y275.8061 I-4.3309 J-6.6537
G2 X-202.8897 Y275.2263 I-3.4277 J-4.188
G2 X-202.9278 Y275.1423 I-2.0082 J0.8597
G2 X-205.6738 Y269.9372 I-45.3185 J20.5818
G2 X-208.5783 Y265.6791 I-40.4287 J24.4567
G2 X-214.7285 Y259.0877 I-36.2587 J27.6671
G2 X-220.1509 Y255.0348 I-28.4702 J32.4364
G2 X-229.3204 Y250.7032 I-22.2246 J35.1762
G2 X-239.2648 Y248.7155 I-13.1708 J40.0225
G2 X-245.5387 Y248.7576 I-2.944 J28.8043
G2 X-248.2378 Y249.1955 I3.4659 J29.895
G2 X-249.4847 Y249.4833 I7.2453 J34.2401
G2 X-254.1792 Y251.0561 I8.2331 J32.3669
G1 X-254.4283 Y251.1614
G2 X-258.2692 Y253.0719 I15.0548 J35.0829
G2 X-261.4428 Y255.0698 I21.6122 J37.8503
G1 X-261.779 Y255.3046
G1 X-262.1078 Y255.5387
G1 X-262.4295 Y255.7718
G2 X-264.8923 Y257.7005 I27.9056 J38.1716
G2 X-268.9024 Y261.4228 I34.9292 J41.6513
G2 X-270.3085 Y262.9175 I39.5541 J38.6178
G2 X-270.3839 Y263.0007 I2.2141 J2.0825
G2 X-271.5592 Y264.3396 I44.2855 J40.0585
G2 X-278.6447 Y274.5774 I47.6556 J40.5532
G1 X-278.2935 Y274.5388
G1 X-277.9479 Y274.5
G1 X-276.5875 Y274.3421
G1 X-274.0371 Y274.0366
G3 X-273.758 Y274.0035 I1.6088 J12.3668
G1 X-272.6583 Y273.8755
G3 X-272.5293 Y273.8609 I0.5229 J4.0264
G3 X-272.4014 Y273.8464 I0.5021 J3.8703
G1 X-271.3854 Y273.7352
G1 X-270.4319 Y273.6377
G3 X-269.9846 Y273.5949 I2.8268 J27.1369
G1 X-269.551 Y273.5553
G3 X-266.1845 Y273.332 I6.1662 J67.4958
G3 X-266.1054 Y273.329 I0.1038 J1.649
G3 X-266.0269 Y273.326 I0.1008 J1.64
G3 X-263.5341 Y273.2979 I1.7826 J47.5827
G1 X-263.0666 Y273.3084
G3 X-262.1904 Y273.3432 I-1.0552 J37.5997
G1 X-261.8074 Y273.365
G3 X-261.09 Y273.4172 I-1.4772 J25.2397
G3 X-261.0116 Y273.4239 I-0.1271 J1.9663
G3 X-259.7793 Y273.554 I-2.2378 J27.0954
G3 X-258.8592 Y273.6847 I-5.103 J39.2243
G3 X-256.133 Y274.2648 I-3.9376 J25.2001
G1 X-259.2579 Y274.9778
G1 X-260.7227 Y275.3139
G1 X-261.0775 Y275.3956
G1 X-261.7814 Y275.5584
G1 X-263.1665 Y275.8812
G1 X-263.8372 Y276.0389
G1 X-264.4973 Y276.1951
G1 X-265.796 Y276.506
G1 X-267.0533 Y276.8118
G1 X-267.3576 Y276.8867
G1 X-267.6595 Y276.9612
G1 X-267.9589 Y277.0355
G1 X-268.256 Y277.1096
G1 X-268.5507 Y277.1834
G1 X-268.843 Y277.2569
G1 X-270.0021 Y277.5521
G2 X-274.4784 Y278.7546 I54.4267 J211.5411
G1 X-275.4541 Y279.032
G1 X-276.3977 Y279.3062
G2 X-280.0377 Y280.4243 I39.4003 J134.7515
G1 X-280.434 Y280.5524
G2 X-286.6186 Y282.7405 I37.1204 J114.7514
G2 X-291.1675 Y284.6192 I35.974 J93.5518
G2 X-297.7918 Y287.8761 I35.904 J81.3908
G1 X-297.9942 Y287.9869
G2 X-304.1003 Y291.709 I38.04 J69.2754
G1 X-304.2747 Y292.1925
G2 X-305.5059 Y296.0477 I61.3543 J21.7185
G2 X-306.403 Y299.4715 I78.2379 J22.329
G1 X-306.4924 Y299.8482
G1 X-306.579 Y300.2192
G1 X-306.6628 Y300.5847
G1 X-306.744 Y300.9449
G1 X-306.8226 Y301.2997
G2 X-307.121 Y302.6991 I79.6657 J17.7182
G2 X-307.6382 Y305.3315 I139.6862 J28.8095
G1 X-307.7451 Y305.9086
G1 X-307.947 Y307.0275
G1 X-308.1309 Y308.0774
G1 X-308.2992 Y309.0624
G1 X-308.4543 Y309.9863
G1 X-308.7398 Y311.7195
G1 X-308.9868 Y313.2365
G3 X-309.0138 Y313.4025 I-5.49 J-0.8075
G3 X-309.0404 Y313.5659 I-5.3284 J-0.7828
G3 X-309.0666 Y313.7267 I-5.1779 J-0.7599
G3 X-309.0923 Y313.885 I-5.0374 J-0.7387
G3 X-309.1177 Y314.0409 I-4.9059 J-0.7191
G3 X-309.1427 Y314.1943 I-4.7822 J-0.7007
G3 X-309.1674 Y314.3453 I-4.6656 J-0.6836
G3 X-309.1916 Y314.4939 I-4.5556 J-0.6675
G3 X-309.2155 Y314.6402 I-4.4515 J-0.6524
G3 X-309.2391 Y314.7842 I-4.3528 J-0.6382
G3 X-309.2623 Y314.926 I-4.259 J-0.6249
G3 X-309.6332 Y317.1572 I-390.5932 J-63.7727
G3 X-309.6509 Y317.2618 I-3.045 J-0.4619
G3 X-309.6684 Y317.3648 I-3.0014 J-0.4564
G3 X-309.6856 Y317.4661 I-2.9589 J-0.4511
G3 X-309.7026 Y317.5658 I-2.9176 J-0.4459
G3 X-309.7193 Y317.664 I-2.8776 J-0.4409
G3 X-309.7359 Y317.7606 I-2.8385 J-0.4361
G3 X-309.7522 Y317.8557 I-2.8004 J-0.4314
G3 X-309.7683 Y317.9493 I-2.7632 J-0.4268
G3 X-309.7842 Y318.0415 I-2.7271 J-0.4223
G3 X-310.0389 Y319.4914 I-134.6012 J-22.8973
G3 X-310.137 Y320.0347 I-34.0 J-5.8625
G1 X-310.3129 Y320.9847
G3 X-310.8779 Y323.8276 I-130.7403 J-24.5094
G1 X-310.7333 Y323.7861
G1 X-310.5938 Y323.7432
G2 X-310.0588 Y323.5575 I-3.4105 J-10.6935
G2 X-310.0004 Y323.5358 I-0.2018 J-0.6297
G2 X-309.0847 Y323.1826 I-86.6024 J-225.9266
G1 X-308.9973 Y323.15
G1 X-308.8275 Y323.0883
G3 X-308.1785 Y322.8887 I2.5328 J7.0816
G3 X-307.6733 Y322.7981 I0.879 J3.4449
G3 X-306.9045 Y322.8432 I0.2561 J2.2094
G3 X-306.2107 Y323.1772 I-0.4753 J1.875
G3 X-306.3301 Y324.027 I-2.7777 J0.043
G3 X-306.6294 Y324.7047 I-3.0514 J-0.9427
G3 X-306.9987 Y325.2323 I-3.412 J-1.9955
G3 X-307.3755 Y325.6492 I-4.0612 J-3.292
G3 X-308.106 Y326.3056 I-6.5264 J-6.5283
G3 X-308.3936 Y326.5354 I-5.8478 J-7.0244
G1 X-308.6489 Y326.732
G1 X-309.5514 Y327.4078
G1 X-309.7758 Y327.5785
G2 X-310.4329 Y328.1108 I8.1117 J10.6853
G2 X-314.7069 Y332.1776 I27.3327 J33.0046
G2 X-316.3953 Y334.1236 I34.0539 J31.2513
G2 X-319.2726 Y337.9977 I40.0765 J32.7703
G1 X-319.4194 Y338.2168
G1 X-319.5639 Y338.4348
G2 X-321.7265 Y341.9796 I50.9679 J33.5265
G1 X-321.9484 Y342.3756
G2 X-323.6036 Y345.5438 I63.9686 J35.4363
G2 X-323.9449 Y346.2471 I36.9603 J18.3739
G1 X-324.1078 Y346.5889
G1 X-324.2665 Y346.9262
G2 X-325.4646 Y349.6055 I74.141 J34.7614
G2 X-325.9617 Y350.7894 I101.0283 J43.1158
G2 X-327.6981 Y355.2795 I108.3695 J44.4891
G1 X-328.0038 Y356.1288
G1 X-328.2853 Y356.9268
G1 X-328.5451 Y357.6763
G2 X-328.7852 Y358.3802 I88.1735 J30.4619
G1 X-328.8966 Y358.7106
G2 X-329.3219 Y359.9928 I238.7032 J79.8983
G1 X-329.6864 Y361.1172
G2 X-330.9148 Y365.0677 I236.1893 J75.6091
G2 X-331.0641 Y365.5628 I56.0006 J17.1552
G2 X-331.1291 Y365.7795 I16.9948 J5.2213
G1 X-331.6129 Y367.4059
G2 X-331.6729 Y367.6094 I7.2262 J2.2415
G1 X-332.0904 Y369.0341
G2 X-329.9605 Y370.9742 I37.7919 J-39.3506
G2 X-329.5475 Y371.3235 I15.0591 J-17.3834
G2 X-327.9492 Y372.5723 I19.259 J-23.0036
G2 X-326.6914 Y373.4292 I15.5411 J-21.4591
G2 X-324.7025 Y374.5495 I11.4285 J-17.9638
G2 X-323.6636 Y375.0231 I7.9935 J-16.1572
G2 X-323.134 Y375.2365 I6.1091 J-14.4011
G2 X-322.8668 Y375.3371 I4.4492 J-11.4048
G1 X-322.5981 Y375.4337
G1 X-321.8407 Y374.0532
G1 X-321.658 Y373.7182
G1 X-320.9355 Y372.3875
G1 X-320.2379 Y371.0965
G1 X-318.8876 Y368.5934
G1 X-318.2524 Y367.4203
G1 X-317.6344 Y366.2848
G3 X-317.4842 Y366.01 I18.9647 J10.1875
G3 X-317.3349 Y365.7374 I15.3784 J8.2445
G3 X-314.9249 Y361.4325 I225.7551 J123.5595
G3 X-312.7215 Y357.7146 I128.0738 J73.3886
G3 X-312.6596 Y357.6138 I3.1173 J1.8448
G3 X-312.5978 Y357.5134 I3.1 J1.8384
G3 X-312.5362 Y357.4135 I3.083 J1.8322
G3 X-312.4748 Y357.314 I3.0665 J1.8263
G3 X-312.4134 Y357.215 I3.0505 J1.8206
G3 X-312.3523 Y357.1164 I3.0347 J1.8151
G3 X-312.2912 Y357.0182 I3.0193 J1.8098
G3 X-312.2303 Y356.9205 I3.0044 J1.8047
G3 X-310.2363 Y353.841 I86.3926 J53.7549
G3 X-309.3274 Y352.5169 I60.4431 J40.5145
G1 X-308.8929 Y351.9019
G3 X-305.3234 Y347.2859 I58.6635 J41.6768
G3 X-302.3811 Y344.0425 I44.2039 J37.1438
G1 X-302.0926 Y343.7501
G3 X-297.3359 Y339.5247 I35.537 J35.2155
G3 X-292.0556 Y335.9749 I27.8392 J35.7085
G2 X-291.6762 Y335.993 I0.2357 J-0.9526
G2 X-291.3546 Y335.9155 I-0.2622 J-1.7935
G2 X-291.0816 Y335.8139 I-2.4009 J-6.866
G1 X-290.9626 Y335.7651
G3 X-290.7388 Y335.6734 I2.0618 J4.7141
G3 X-290.5393 Y335.5986 I1.7233 J4.2956
G3 X-290.1774 Y335.5023 I0.7318 J2.0201
G3 X-289.6169 Y335.5289 I0.2244 J1.1885
G3 X-289.1326 Y335.8127 I-0.3915 J1.223
G3 X-290.1564 Y337.2071 I-8.4377 J-5.1215
G3 X-290.6705 Y337.7597 I-10.5662 J-9.3149
G3 X-291.7096 Y338.7187 I-12.0366 J-12.0007
G1 X-291.8277 Y338.8185
G1 X-291.9447 Y338.9159
G1 X-292.0605 Y339.0111
G3 X-292.9887 Y339.7399 I-24.3925 J-30.113
G1 X-293.4014 Y340.0507
G1 X-294.1793 Y340.6283
G1 X-294.5198 Y340.8813
G2 X-294.8382 Y341.1198 I19.1659 J25.9203
G2 X-295.4308 Y341.5728 I17.396 J23.3712
G2 X-295.9422 Y341.9786 I47.4141 J60.2768
G1 X-296.1632 Y342.1598
G1 X-296.3685 Y342.3319
G1 X-296.5591 Y342.4955
G2 X-297.255 Y343.1301 I11.5829 J13.401
G2 X-297.7532 Y343.6312 I9.0042 J9.4501
G2 X-299.0788 Y345.2826 I8.8054 J8.4258
G1 X-299.9841 Y346.4237
G1 X-300.8553 Y347.5336
G2 X-300.9604 Y347.6683 I5.1405 J4.1191
G2 X-304.2627 Y351.9996 I192.8643 J150.4713
G1 X-304.9719 Y352.9573
G2 X-306.331 Y354.8237 I131.3337 J97.0643
G2 X-311.2334 Y361.9595 I152.3324 J109.9063
G1 X-311.6758 Y362.6402
G2 X-314.9915 Y367.9868 I138.3501 J89.5002
G2 X-317.3372 Y372.0812 I130.7057 J77.6005
G2 X-317.7626 Y372.8571 I63.3555 J35.2422
G2 X-319.3153 Y375.7893 I127.4234 J69.3519
G1 X-319.4573 Y376.0661
G1 X-319.5944 Y376.3345
G1 X-319.7266 Y376.5948
G2 X-321.7046 Y380.6642 I122.7325 J62.1732
G2 X-322.6423 Y382.7233 I102.2227 J47.7959
G1 X-322.8713 Y383.2405
G2 X-323.5447 Y384.798 I120.0239 J52.8184
G2 X-319.0151 Y386.8575 I31.0662 J-62.315
G2 X-317.2784 Y387.5431 I25.1062 J-61.0541
G2 X-314.1918 Y388.6167 I20.6274 J-54.3273
G1 X-313.6064 Y388.7987
G2 X-311.3934 Y389.4199 I14.9814 J-49.1129
G2 X-311.2889 Y389.4466 I0.4496 J-1.5453
G2 X-311.186 Y389.4726 I0.4367 J-1.5125
G2 X-307.9173 Y390.164 I10.2185 J-40.2328
G2 X-304.6003 Y390.5636 I5.5993 J-32.5144
G1 X-303.8799 Y388.8787
G3 X-303.7926 Y388.6745 I9.0655 J3.7554
G3 X-303.7056 Y388.4712 I8.7169 J3.6075
G1 X-303.0117 Y386.851
G3 X-302.9274 Y386.6547 I6.6887 J2.7551
G3 X-300.1985 Y380.4187 I372.832 J159.4406
G1 X-299.8916 Y379.7388
G3 X-298.6609 Y377.0709 I173.7148 J78.5166
G3 X-298.3665 Y376.4478 I41.4159 J19.1895
G3 X-298.2936 Y376.2946 I3.4511 J1.5471
G3 X-298.2209 Y376.142 I3.4313 J1.5421
G3 X-298.1483 Y375.9901 I3.4119 J1.5373
G3 X-298.0759 Y375.8389 I3.393 J1.5327
G3 X-298.0035 Y375.6883 I3.3744 J1.5283
G3 X-297.9313 Y375.5384 I3.3563 J1.5241
G3 X-297.8592 Y375.3892 I3.3385 J1.52
G3 X-297.7873 Y375.2405 I3.3211 J1.5162
G3 X-297.7155 Y375.0926 I3.304 J1.5124
G3 X-297.6438 Y374.9453 I3.2873 J1.5089
G3 X-297.5722 Y374.7986 I3.2711 J1.5055
G3 X-297.5007 Y374.6526 I3.2551 J1.5023
G3 X-295.1328 Y370.0443 I115.743 J56.5627
G1 X-294.8616 Y369.5459
G3 X-292.6291 Y365.6753 I87.8559 J48.0921
G3 X-292.5655 Y365.5709 I2.7516 J1.6066
G3 X-290.4558 Y362.2935 I70.8375 J43.2808
G3 X-290.3958 Y362.2054 I2.9685 J1.9554
G3 X-290.3359 Y362.1176 I2.9824 J1.9712
G3 X-290.2762 Y362.0303 I2.997 J1.9877
G3 X-288.3035 Y359.2949 I59.4406 J40.7873
G3 X-288.1917 Y359.1481 I6.4624 J4.8054
G3 X-288.0804 Y359.0028 I6.8386 J5.1229
G3 X-286.2576 Y356.7394 I48.0648 J36.8422
G1 X-285.8447 Y356.2559
G3 X-282.4669 Y352.6696 I41.9056 J36.0855
G3 X-276.8134 Y347.9153 I35.4864 J36.4597
G3 X-275.296 Y346.8601 I31.16 J43.1883
G3 X-270.5247 Y344.0399 I27.9239 J41.7971
G1 X-270.4841 Y344.0283
G1 X-270.4438 Y344.0167
G1 X-270.2847 Y343.9688
G2 X-269.978 Y343.8702 I-3.4173 J-11.1604
G2 X-269.4053 Y343.6741 I-11.3921 J-34.1959
G1 X-269.1538 Y343.5872
G3 X-268.6796 Y343.4297 I6.5625 J18.9718
G3 X-267.8328 Y343.1992 I2.7525 J8.4406
G1 X-267.6704 Y343.1666
G3 X-267.0537 Y343.0913 I0.8899 J4.7264
G3 X-266.1258 Y343.1742 I0.187 J3.1419
G3 X-265.274 Y343.5518 I-0.6614 J2.6419
G1 X-266.0327 Y344.1802
G1 X-266.4003 Y344.4846
G1 X-267.124 Y345.084
G2 X-267.4744 Y345.3746 I23.6657 J28.9015
G1 X-267.6468 Y345.5176
G1 X-269.0137 Y346.6551
G1 X-270.2913 Y347.7266
G1 X-270.8884 Y348.2311
G1 X-271.1771 Y348.4761
G1 X-271.4609 Y348.7177
G1 X-271.74 Y348.956
G1 X-272.0144 Y349.1911
G1 X-272.5533 Y349.655
G1 X-273.0739 Y350.1063
G1 X-273.3254 Y350.3256
G2 X-275.291 Y352.0702 I96.3096 J110.492
G1 X-275.717 Y352.4565
G2 X-278.9552 Y355.5179 I73.6387 J81.1343
G1 X-279.548 Y356.1071
G1 X-280.099 Y356.6643
G1 X-280.6111 Y357.191
G1 X-281.087 Y357.6888
G1 X-281.5295 Y358.1591
G2 X-284.7133 Y361.8071 I50.6909 J47.4548
G2 X-286.2007 Y363.718 I46.2181 J37.5084
G1 X-286.5599 Y364.2054
G2 X-287.0884 Y364.9439 I45.8505 J33.3743
G2 X-287.1536 Y365.0369 I3.0599 J2.2153
G2 X-287.2672 Y365.1999 I4.0912 J2.9722
G2 X-287.352 Y365.3224 I3.6229 J2.5974
G2 X-287.4153 Y365.4145 I3.1933 J2.2655
G2 X-287.51 Y365.5528 I3.9635 J2.8135
G2 X-287.6042 Y365.6914 I4.0505 J2.8534
G2 X-296.7102 Y381.7353 I122.6092 J80.1954
G1 X-296.9615 Y382.2547
G2 X-300.5779 Y390.4318 I122.9572 J59.2678
G2 X-302.1812 Y394.6056 I118.0036 J47.7228
G2 X-302.2766 Y394.8683 I12.8581 J4.8212
G2 X-303.6389 Y398.8325 I113.5371 J41.2334
G2 X-297.7505 Y401.1282 I30.463 J-69.4364
G2 X-297.4697 Y401.2234 I4.0168 J-11.3911
G2 X-295.2438 Y401.9294 I19.6559 J-58.1048
G2 X-294.9988 Y402.0018 I2.2131 J-7.0385
G2 X-294.7574 Y402.0721 I2.1247 J-6.8475
G2 X-294.5194 Y402.1404 I2.044 J-6.6763
G2 X-294.2849 Y402.2067 I1.9699 J-6.5219
G2 X-290.5586 Y403.1239 I15.5215 J-55.0297
G2 X-287.7269 Y403.6429 I11.2823 J-53.5663
G2 X-287.5935 Y403.6635 I0.8366 J-4.9974
G2 X-287.4621 Y403.6833 I0.824 J-5.0103
G2 X-283.3016 Y404.1252 I7.2132 J-48.1038
G2 X-279.118 Y404.1843 I2.715 J-44.0771
G1 X-273.4893 Y395.1505
G2 X-273.8726 Y394.8706 I-1.6575 J1.8674
G1 X-273.9634 Y394.8173
G2 X-274.1437 Y394.7207 I-7.3945 J13.5763
G2 X-274.4931 Y394.5552 I-3.6755 J7.3101
G2 X-274.5323 Y394.5376 I-0.1706 J0.3284
G2 X-274.5711 Y394.5204 I-0.1577 J0.3021
G3 X-274.8765 Y394.3847 I6.4717 J-14.977
G3 X-274.9439 Y394.3539 I0.4858 J-1.1536
G3 X-275.2027 Y394.2278 I1.7383 J-3.8938
G3 X-275.6298 Y393.9529 I1.0989 J-2.1767
G3 X-275.8871 Y393.6672 I0.7859 J-0.9666
G3 X-276.0523 Y393.1211 I0.9101 J-0.5733
G3 X-275.9807 Y392.5549 I1.9231 J-0.0445
G3 X-273.8481 Y386.6798 I212.5806 J73.8404
G3 X-271.8242 Y381.5923 I151.0498 J57.1431
G3 X-271.3571 Y380.4882 I231.044 J97.1021
G3 X-270.4239 Y378.3607 I124.905 J53.5184
G3 X-270.368 Y378.2365 I2.6002 J1.0959
G3 X-270.3122 Y378.1129 I2.5919 J1.0959
G3 X-268.4573 Y374.2076 I100.8025 J45.4852
G3 X-266.7011 Y370.8548 I84.5003 J42.1259
G1 X-266.2987 Y370.1308
G3 X-262.9372 Y364.6631 I68.7764 J38.5159
G3 X-262.2556 Y363.6702 I48.6372 J32.6567
G3 X-262.1746 Y363.5546 I3.2898 J2.2186
G3 X-262.094 Y363.4401 I3.3084 J2.2422
G3 X-260.7834 Y361.6445 I58.0629 J41.0038
G3 X-258.3442 Y358.6141 I48.6385 J36.6523
G3 X-254.3284 Y354.3819 I43.1549 J36.9278
G3 X-249.8896 Y350.5958 I36.862 J38.7211
G1 X-249.4462 Y350.3448
G1 X-249.3939 Y350.3157
G3 X-247.6967 Y349.4639 I9.985 J17.7786
G3 X-246.3511 Y348.9643 I4.6882 J10.5653
G3 X-245.2969 Y348.7219 I2.2701 J7.4579
G3 X-244.487 Y348.6463 I1.0037 J6.3794
G3 X-243.2725 Y348.7567 I0.1603 J4.9721
G3 X-242.1268 Y349.1745 I-0.9738 J4.4504
G1 X-243.1159 Y349.9322
G2 X-243.5793 Y350.2879 I41.5171 J54.5665
G2 X-244.0278 Y350.633 I32.3106 J42.4541
G2 X-244.4619 Y350.968 I28.4088 J37.252
G2 X-244.8817 Y351.2934 I26.7792 J34.995
G2 X-245.2878 Y351.6094 I26.7452 J34.7868
G2 X-245.6805 Y351.9165 I28.5484 J36.9123
G2 X-246.439 Y352.5145 I54.428 J69.8151
G1 X-247.1468 Y353.0794
G1 X-247.8069 Y353.6134
G1 X-248.4224 Y354.1183
G2 X-250.6927 Y356.0564 I52.8989 J64.267
G2 X-253.9474 Y359.1317 I42.7412 J48.4942
G1 X-254.1432 Y359.3318
G1 X-254.3259 Y359.5203
G2 X-255.6652 Y360.9626 I34.8107 J33.6692
G1 X-255.8287 Y361.1465
G1 X-255.9709 Y361.3081
G1 X-256.0947 Y361.4501
G1 X-256.2027 Y361.5747
G1 X-256.5769 Y362.0137
G1 X-256.9456 Y362.4574
G1 X-257.2599 Y362.882
G2 X-261.9718 Y369.7366 I100.1498 J73.8905
G1 X-262.3894 Y370.3954
G2 X-265.4748 Y375.5932 I99.0981 J62.3392
G2 X-272.9818 Y392.0801 I95.6308 J53.4961
G2 X-268.1245 Y393.5815 I16.7312 J-45.5238
G1 X-267.6618 Y393.6966
G2 X-264.045 Y394.4477 I12.8379 J-52.7367
G2 X-253.0076 Y395.2442 I9.5442 J-55.3846
G1 X-252.7824 Y395.0178
G2 X-251.1151 Y393.1378 I-19.104 J-18.622
G1 X-250.9436 Y392.9233
G2 X-249.6558 Y391.1867 I-27.8682 J-22.0112
G2 X-249.3874 Y390.7975 I-16.4203 J-11.609
G2 X-249.1313 Y390.4177 I-17.7058 J-12.2189
G2 X-248.8865 Y390.0477 I-15.4781 J-10.5025
G1 X-248.6523 Y389.6873
G1 X-248.4279 Y389.3365
G2 X-246.7458 Y386.5827 I-95.0694 J-59.9615
G1 X-246.4363 Y386.0626
G1 X-245.8559 Y385.0875
G1 X-245.3448 Y384.2361
G1 X-244.8924 Y383.4942
G1 X-244.4909 Y382.8484
G1 X-244.1342 Y382.2868
G1 X-243.8171 Y381.7985
G3 X-242.6621 Y380.1197 I36.8627 J24.1244
G3 X-241.4183 Y378.5055 I25.8697 J18.6477
G1 X-241.1107 Y378.0923
G1 X-240.8075 Y377.6857
G1 X-240.5086 Y377.2858
G1 X-240.214 Y376.8925
G1 X-239.6327 Y376.1191
G1 X-239.3504 Y375.745
G1 X-238.7931 Y375.0096
G1 X-238.2512 Y374.2987
G1 X-237.7241 Y373.6116
G1 X-237.2112 Y372.9476
G1 X-236.7122 Y372.3059
G3 X-232.7555 Y367.4047 I140.3869 J109.2855
G3 X-232.3749 Y366.9529 I26.2008 J21.6826
G3 X-232.1899 Y366.7346 I17.5718 J14.7046
G3 X-232.0073 Y366.52 I17.0243 J14.3022
G3 X-231.6466 Y366.0988 I23.0566 J19.3758
G3 X-228.7899 Y362.8883 I88.077 J75.4954
G3 X-228.2412 Y362.2981 I155.0641 J143.6264
G1 X-227.7227 Y361.7486
G3 X-223.7018 Y357.757 I67.3251 J63.7988
G1 X-223.1818 Y357.276
G3 X-219.426 Y354.0397 I52.737 J57.4043
G3 X-219.694 Y352.8354 I538.3225 J-120.443
G1 X-219.8169 Y352.2702
G3 X-219.8464 Y352.1333 I2.7445 J-0.6623
G3 X-219.8755 Y351.9973 I2.7475 J-0.6599
G3 X-219.9043 Y351.8624 I2.751 J-0.6575
G3 X-219.9328 Y351.7286 I2.7545 J-0.6552
G3 X-219.9609 Y351.5957 I2.7583 J-0.6528
G3 X-220.7786 Y347.3639 I111.9117 J-23.8202
G1 X-220.9127 Y346.5667
G1 X-221.0319 Y345.8182
G3 X-221.4159 Y343.0021 I71.8953 J-11.2359
G1 X-221.4757 Y342.4725
G3 X-221.7833 Y338.4877 I61.4437 J-6.7479
G1 X-221.7936 Y338.238
G1 X-221.8023 Y338.0039
G1 X-221.8095 Y337.7843
G1 X-221.8155 Y337.5785
G3 X-221.835 Y336.0348 I55.348 J-1.4738
G1 X-221.8343 Y335.8418
G3 X-221.826 Y335.1664 I35.1107 J0.0928
G1 X-221.8226 Y334.9976
G1 X-221.8087 Y334.4911
G2 X-225.5843 Y332.0237 I-30.7068 J42.8639
G2 X-229.2849 Y329.9882 I-32.5714 J54.8342
G2 X-232.8587 Y328.2867 I-35.7743 J70.5342
G2 X-233.7079 Y327.9127 I-20.3938 J45.1654
G2 X-234.1273 Y327.7318 I-10.2712 J23.2342
G2 X-237.4839 Y326.3622 I-42.1085 J98.4023
G2 X-239.0722 Y325.7554 I-43.7528 J112.1452
G1 X-239.8444 Y325.4684
G1 X-240.6061 Y325.1898
G1 X-241.3573 Y324.919
G1 X-242.098 Y324.6556
G1 X-242.463 Y324.5271
G1 X-242.8255 Y324.4002
G1 X-243.1854 Y324.2748
G1 X-243.5427 Y324.151
G1 X-243.8974 Y324.0288
G1 X-245.3068 Y323.5482
G1 X-245.9905 Y323.3176
G1 X-247.338 Y322.8671
G1 X-248.6449 Y322.4337
G1 X-251.179 Y321.597
G1 X-252.3674 Y321.2037
G1 X-253.5184 Y320.8207
G3 X-253.6578 Y320.7741 I1.392 J-4.3977
G3 X-253.7966 Y320.7277 I1.3697 J-4.3257
G3 X-253.9349 Y320.6814 I1.3485 J-4.2569
G3 X-254.0726 Y320.6352 I1.3283 J-4.1911
G3 X-254.2098 Y320.5892 I1.3091 J-4.1281
G3 X-254.3465 Y320.5433 I1.2908 J-4.0678
G3 X-254.4826 Y320.4975 I1.2733 J-4.0101
G3 X-254.6181 Y320.4518 I1.2565 J-3.9544
G3 X-254.7532 Y320.4063 I1.2405 J-3.9009
G1 X-255.828 Y320.0415
G3 X-257.9069 Y319.3216 I66.788 J-196.2284
G1 X-258.8794 Y318.9767
G1 X-259.8198 Y318.6374
G1 X-260.7291 Y318.3031
G3 X-261.6081 Y317.9736 I25.3396 J-68.9346
G3 X-262.0332 Y317.8119 I14.2287 J-38.0249
G3 X-262.4511 Y317.6512 I11.7203 J-31.1036
G3 X-262.862 Y317.4915 I10.5155 J-27.671
G3 X-263.2659 Y317.3329 I9.8873 J-25.7717
G3 X-263.663 Y317.1753 I9.6036 J-24.7743
G1 X-264.0533 Y317.0187
G1 X-264.4369 Y316.8631
G1 X-264.814 Y316.7084
G3 X-264.9068 Y316.6701 I0.8128 J-2.0997
G3 X-264.9991 Y316.6319 I0.8123 J-2.0922
G3 X-265.0911 Y316.5937 I0.8118 J-2.0847
G3 X-265.1827 Y316.5556 I0.8113 J-2.0774
G3 X-265.2738 Y316.5175 I0.8108 J-2.0701
G3 X-268.157 Y315.2544 I33.9817 J-81.4854
G1 X-268.7817 Y314.9638
G1 X-269.3845 Y314.6771
G1 X-269.9661 Y314.3942
G1 X-270.5272 Y314.1151
G3 X-272.6764 Y312.9853 I30.238 J-60.1286
G3 X-276.3221 Y310.8021 I26.9783 J-49.1874
G3 X-276.4888 Y310.6928 I2.6418 J-4.209
G3 X-276.6525 Y310.5845 I2.7384 J-4.3173
G3 X-276.8131 Y310.4774 I2.8474 J-4.4424
G3 X-276.9709 Y310.3712 I2.9719 J-4.5887
G3 X-277.1258 Y310.2662 I3.1152 J-4.7605
G3 X-277.278 Y310.1622 I3.2827 J-4.9652
G3 X-277.4273 Y310.0593 I3.4819 J-5.2126
G3 X-277.5739 Y309.9574 I3.7244 J-5.5188
G3 X-281.9773 Y306.4656 I25.2894 J-36.4131
G3 X-282.4946 Y305.9895 I40.8617 J-44.9197
G1 X-282.7183 Y305.7784
G3 X-285.8703 Y302.4127 I26.8547 J-28.3082
G1 X-286.4474 Y302.026
G3 X-287.4448 Y301.3292 I15.5817 J-23.3656
G3 X-288.168 Y300.7704 I9.8305 J-13.4687
G3 X-288.6852 Y300.3195 I8.5274 J-10.3048
G3 X-288.8715 Y300.1417 I3.2878 J-3.6301
G3 X-289.1845 Y299.8175 I4.3906 J-4.5527
G3 X-289.6157 Y299.2969 I4.5193 J-4.1815
G3 X-289.9869 Y298.7322 I4.7046 J-3.4971
G3 X-287.8034 Y299.4064 I-3.0634 J13.7934
G3 X-286.8908 Y299.8074 I-6.2927 J15.5617
G3 X-285.2553 Y300.7057 I-7.1982 J15.0421
G3 X-283.9048 Y301.619 I-10.5505 J17.0562
G3 X-282.7783 Y302.4926 I-15.7015 J21.4118
G3 X-280.9052 Y304.1385 I-24.7462 J30.0512
G3 X-279.5571 Y305.4341 I-48.9892 J52.3241
G3 X-279.4322 Y305.5572 I-6.4609 J6.6789
G1 X-278.95 Y306.0357
G1 X-277.2684 Y307.7162
G1 X-277.0572 Y307.9253
G2 X-275.558 Y309.3674 I51.6866 J-52.2293
G2 X-274.7389 Y309.7679 I28.2796 J-56.8006
G1 X-274.3346 Y309.9625
G1 X-273.53 Y310.3439
G1 X-272.7351 Y310.7134
G1 X-271.9502 Y311.0715
G1 X-271.1753 Y311.4188
G1 X-270.4104 Y311.7558
G1 X-269.6554 Y312.0832
G1 X-268.9104 Y312.4012
G2 X-265.962 Y313.6168 I64.1093 J-151.3173
G1 X-265.615 Y313.7557
G2 X-262.8522 Y314.8361 I83.4017 J-209.2129
G1 X-262.5275 Y314.9603
G1 X-262.2051 Y315.0831
G1 X-261.8851 Y315.2046
G2 X-256.7878 Y317.0852 I127.8137 J-338.5743
G2 X-255.6693 Y317.4879 I81.0048 J-223.2686
G1 X-253.5004 Y318.2627
G1 X-249.4308 Y319.7086
G1 X-247.6509 Y320.3436
G1 X-246.817 Y320.6427
G1 X-246.0095 Y320.9336
G1 X-244.4465 Y321.5012
G1 X-242.9832 Y322.0391
G1 X-242.298 Y322.2936
G1 X-241.6603 Y322.5322
G0 Z5.0
G0 X-158.6412 Y259.5822
G1 Z0.0
G2 X-158.3401 Y259.9782 I148.0092 J-112.2293
G1 X-157.9061 Y260.5427
G1 X-157.4761 Y261.0964
G1 X-157.05 Y261.6393
G1 X-156.6276 Y262.1717
G2 X-156.2089 Y262.6936 I60.0094 J-47.7092
G2 X-156.0018 Y262.9497 I17.5258 J-13.9652
G2 X-155.7955 Y263.2033 I14.0257 J-11.199
G2 X-152.4194 Y267.1433 I80.3493 J-65.4342
G2 X-152.324 Y267.2486 I3.8484 J-3.3866
G2 X-149.1947 Y270.5224 I62.637 J-56.7407
G2 X-149.1065 Y270.6095 I3.1322 J-3.0849
G2 X-149.0184 Y270.6961 I3.1246 J-3.0878
G2 X-146.1356 Y273.3757 I47.8737 J-48.6133
G2 X-143.4835 Y275.5762 I40.9192 J-46.6184
G2 X-141.0599 Y277.3721 I33.6632 J-42.8972
G2 X-136.5864 Y280.1741 I29.3009 J-41.8072
G2 X-129.367 Y283.415 I22.3859 J-40.2064
G1 X-128.8984 Y283.5752
G2 X-121.6936 Y285.3495 I14.4433 J-43.132
G1 X-121.3493 Y285.2328
G2 X-116.0384 Y283.0972 I-18.3912 J-53.4072
G2 X-115.9166 Y283.0409 I-1.971 J-4.4211
G2 X-112.1156 Y281.1206 I-27.7124 J-59.5758
G1 X-111.7657 Y280.9284
G2 X-109.0899 Y279.3756 I-39.4553 J-71.0737
G2 X-105.1865 Y276.8666 I-50.0798 J-82.2024
G1 X-104.9466 Y276.7037
G2 X-101.3949 Y274.1919 I-73.6395 J-107.8916
G2 X-92.5836 Y267.2912 I-39.7438 J-59.8241
G2 X-89.0884 Y263.8742 I-52.1094 J-56.7962
G2 X-87.5283 Y262.1986 I-57.2926 J-54.9086
G2 X-84.6473 Y258.828 I-60.708 J-54.8056
G1 X-84.3221 Y258.4231
G1 X-84.002 Y258.0194
G1 X-83.6869 Y257.6169
G2 X-82.4605 Y256.0008 I-77.8348 J-60.3371
G2 X-78.0718 Y249.4834 I-71.5792 J-52.9369
G2 X-74.6929 Y243.5005 I-83.8939 J-51.3259
G1 X-74.52 Y243.1668
G2 X-71.9365 Y237.7924 I-95.9918 J-49.4516
G2 X-69.9142 Y232.9835 I-102.973 J-46.1335
G1 X-69.706 Y232.4522
G2 X-68.9105 Y230.3513 I-100.1206 J-39.1124
G2 X-66.2588 Y222.3568 I-125.0645 J-45.9199
G2 X-65.3934 Y219.319 I-124.6988 J-37.1654
G1 X-65.2131 Y218.6519
G2 X-62.8133 Y208.2165 I-147.9897 J-39.5259
G2 X-62.5636 Y206.9014 I-95.5715 J-18.8294
G2 X-62.3539 Y205.7489 I-123.126 J-23.0006
G1 X-62.1771 Y204.7394
G1 X-62.0274 Y203.8551
G2 X-61.5406 Y200.7543 I-148.667 J-24.9303
G2 X-61.5263 Y200.6572 I-3.0189 J-0.4944
G2 X-61.5125 Y200.5632 I-2.9621 J-0.4828
G2 X-61.4073 Y199.8343 I-52.6015 J-7.9644
G1 X-61.3304 Y199.2874
G2 X-61.3162 Y199.1848 I-2.9595 J-0.4626
G2 X-61.3029 Y199.0886 I-2.8569 J-0.4434
G2 X-61.2905 Y198.9984 I-2.7585 J-0.4253
G2 X-61.2674 Y198.8293 I-3.7583 J-0.6001
G1 X-61.1877 Y198.2373
G1 X-61.1101 Y197.6451
G1 X-61.0019 Y197.1264
G2 X-60.2738 Y193.0176 I-82.5092 J-16.7402
G2 X-59.7807 Y189.4 I-130.4614 J-19.6256
G2 X-59.7686 Y189.3009 I-2.7019 J-0.3802
G2 X-59.7566 Y189.2021 I-2.7271 J-0.3814
G2 X-59.7447 Y189.1037 I-2.7527 J-0.3827
G2 X-59.7329 Y189.0057 I-2.7791 J-0.384
G2 X-59.7212 Y188.9081 I-2.8062 J-0.3855
G2 X-59.7096 Y188.8108 I-2.834 J-0.3871
G2 X-59.6981 Y188.7139 I-2.8626 J-0.3887
G2 X-59.6867 Y188.6174 I-2.892 J-0.3905
G2 X-59.5976 Y187.8484 I-87.6733 J-10.5499
G1 X-59.4318 Y186.3575
G1 X-59.1339 Y183.5603
G1 X-59.0035 Y182.3363
G1 X-58.8784 Y181.1889
G1 X-58.8183 Y180.6512
G1 X-58.6983 Y179.6098
G1 X-58.6694 Y179.3658
G3 X-58.1602 Y175.5295 I133.4333 J15.7592
G3 X-57.6876 Y172.6652 I90.6643 J13.4875
G3 X-56.7796 Y168.4066 I67.8274 J12.2356
G3 X-56.2199 Y166.3021 I59.7622 J14.7689
G1 X-56.068 Y165.7793
G1 X-56.0098 Y165.5836
G1 X-55.9583 Y165.4126
G1 X-55.9127 Y165.263
G3 X-55.7502 Y164.7406 I84.39 J25.9695
G1 X-55.5826 Y164.2198
G2 X-56.1305 Y164.1674 I-0.4319 J1.6233
G2 X-56.6006 Y164.2448 I0.18 J2.5575
G2 X-57.3712 Y164.5513 I1.0044 J3.6475
G2 X-58.4027 Y165.2411 I2.9243 J5.4889
G2 X-59.2974 Y166.101 I4.7963 J5.8855
G1 X-59.4625 Y166.5457
G1 X-60.1221 Y168.3169
G1 X-60.285 Y168.7529
G3 X-61.5911 Y172.2243 I-960.9677 J-359.5563
G3 X-62.8743 Y175.5845 I-498.8112 J-188.5749
G1 X-63.5038 Y177.2109
G1 X-63.6596 Y177.6111
G1 X-64.2837 Y179.2042
G1 X-64.9041 Y180.7709
G1 X-65.2118 Y181.5416
G1 X-65.827 Y183.0693
G3 X-66.439 Y184.5713 I-216.1071 J-87.1929
G1 X-66.7429 Y185.3099
G1 X-67.3507 Y186.7739
G1 X-67.9561 Y188.2127
G3 X-68.1062 Y188.5665 I-37.4243 J-15.668
G3 X-68.2561 Y188.9188 I-27.5732 J-11.529
G3 X-69.467 Y191.7193 I-264.816 J-112.8377
G1 X-70.0647 Y193.0723
G3 X-70.1388 Y193.2386 I-7.4387 J-3.2134
G3 X-70.2128 Y193.4046 I-7.3187 J-3.166
G3 X-72.6401 Y198.6763 I-223.9294 J-99.9125
G3 X-73.2286 Y199.9049 I-266.4503 J-126.8652
G3 X-73.3016 Y200.0559 I-4.7834 J-2.2183
G3 X-74.4827 Y202.459 I-167.3434 J-80.7565
G3 X-75.6577 Y204.7734 I-152.6586 J-76.0509
G1 X-75.9472 Y205.3319
G3 X-77.1147 Y207.5387 I-173.5031 J-90.3783
G1 X-77.4022 Y208.071
G3 X-79.7524 Y212.2592 I-139.2544 J-75.3901
G3 X-80.3219 Y213.2313 I-106.5723 J-61.7795
G3 X-85.0722 Y220.7259 I-118.1348 J-69.6244
G3 X-85.1407 Y220.8264 I-2.7442 J-1.7989
G3 X-85.2092 Y220.9265 I-2.7402 J-1.8002
G3 X-89.7917 Y227.1715 I-94.3966 J-64.4627
G3 X-94.1658 Y232.3579 I-79.2224 J-62.3774
G1 X-94.666 Y232.9068
G3 X-96.6781 Y235.0288 I-69.5012 J-63.8852
G3 X-100.6359 Y238.8239 I-60.9429 J-59.5944
G3 X-104.2984 Y241.9252 I-53.1986 J-59.1126
G3 X-111.1435 Y246.7878 I-47.3924 J-59.4645
G3 X-122.3367 Y252.5428 I-38.4691 J-61.0583
G1 X-122.5191 Y252.617
G3 X-128.3579 Y254.7024 I-27.7736 J-68.5467
G1 X-129.0994 Y254.9287
G1 X-129.2619 Y254.9771
G3 X-134.3484 Y256.3013 I-21.8088 J-73.3446
G1 X-134.4578 Y256.3196
G3 X-137.97 Y256.6921 I-5.0408 J-30.783
G3 X-141.061 Y256.703 I-1.6623 J-33.3317
G3 X-146.4312 Y256.0664 I1.4767 J-35.4302
G3 X-150.364 Y255.0541 I6.6636 J-34.0319
G3 X-153.2197 Y253.9878 I9.9394 J-30.9757
G3 X-153.351 Y253.9311 I1.1022 J-2.7367
G3 X-157.3321 Y251.8341 I11.5808 J-26.8124
G3 X-160.9113 Y249.1069 I13.3918 J-21.2879
G3 X-161.4653 Y249.2558 I-0.9667 J-2.4915
G3 X-161.967 Y249.3107 I-0.8656 J-5.5949
G3 X-162.4125 Y249.329 I-0.5753 J-8.5644
G1 X-162.8067 Y249.3372
G2 X-163.5027 Y249.3718 I0.1193 J9.4199
G2 X-164.0278 Y249.4593 I0.2959 J3.397
G2 X-164.4068 Y249.5976 I0.5115 J1.9906
G2 X-164.8749 Y249.978 I0.5751 J1.1858
G2 X-165.135 Y250.5223 I1.2451 J0.9293
G1 X-164.1224 Y251.9879
G1 X-163.6292 Y252.6967
G1 X-163.1418 Y253.3935
G1 X-162.9011 Y253.736
G1 X-162.6618 Y254.0755
G1 X-162.4237 Y254.4121
G1 X-162.187 Y254.7458
G2 X-158.6412 Y259.5822 I151.555 J-107.3928
G0 Z5.0
G0 X-80.9355 Y260.1827
G1 Z0.0
G2 X-74.8302 Y260.8968 I12.247 J-78.2474
G2 X-74.6865 Y260.9078 I0.2975 J-2.9591
G2 X-70.1148 Y261.107 I5.3366 J-69.9248
G2 X-63.2577 Y260.8252 I0.7894 J-64.3709
G2 X-59.8513 Y260.3983 I-5.4354 J-57.1762
G2 X-59.7453 Y260.3817 I-0.3954 J-2.8725
G2 X-56.4771 Y259.766 I-8.5191 J-54.2
G2 X-56.3188 Y259.2442 I-8.5065 J-2.866
G2 X-56.0941 Y258.2108 I-11.6178 J-3.0664
G2 X-55.9488 Y257.2254 I-22.0212 J-3.7508
G2 X-55.8947 Y256.759 I-34.6549 J-4.2598
G1 X-55.8707 Y256.5321
G2 X-55.7868 Y255.6369 I-55.4252 J-5.6453
G1 X-55.7687 Y255.4257
G1 X-55.6992 Y254.5929
G1 X-55.6319 Y253.8078
G3 X-55.5614 Y253.0686 I52.8423 J4.6679
G3 X-55.4841 Y252.3731 I39.8362 J4.074
G1 X-55.4428 Y252.0462
G3 X-55.4322 Y251.9669 I0.9049 J0.0803
G3 X-55.4215 Y251.8881 I0.8765 J0.0794
G3 X-55.2148 Y250.6444 I22.7892 J3.1487
G3 X-54.9579 Y249.5628 I13.5286 J2.6417
G3 X-54.652 Y248.6337 I10.1209 J2.8173
G3 X-54.4884 Y248.2364 I7.7335 J2.952
G3 X-54.1246 Y247.5169 I6.3564 J2.7623
G3 X-53.2837 Y246.385 I5.1381 J2.9387
G3 X-51.553 Y245.1862 I3.7975 J3.6341
G3 X-51.4311 Y245.1351 I0.7468 J1.6078
G3 X-50.4876 Y244.836 I2.384 J5.883
G3 X-49.5119 Y244.6704 I1.8792 J8.1134
G2 X-49.1566 Y241.7802 I-78.6869 J-11.1414
G2 X-48.8997 Y239.0601 I-115.9442 J-12.323
G1 X-48.8473 Y238.4213
G2 X-48.798 Y237.7921 I-39.9525 J-3.4452
G1 X-48.7066 Y236.5526
G2 X-48.5438 Y234.149 I-646.4615 J-44.9962
G1 X-48.5254 Y233.8669
G1 X-48.3803 Y231.6283
G1 X-48.3106 Y230.578
G1 X-48.2407 Y229.5603
G1 X-48.2056 Y229.0671
G3 X-48.0573 Y227.126 I156.7759 J10.9971
G3 X-47.7154 Y223.4889 I124.9966 J9.9176
G3 X-47.7045 Y223.3894 I3.0048 J0.2786
G3 X-47.6935 Y223.2903 I2.9671 J0.2775
G3 X-47.2898 Y220.1397 I91.6123 J10.1375
G1 X-47.1853 Y219.452
G1 X-47.0778 Y218.7866
G1 X-46.9674 Y218.1429
G1 X-46.8542 Y217.5203
G3 X-46.3536 Y215.1195 I55.2309 J10.265
G1 X-46.2297 Y214.5972
G3 X-45.696 Y212.5866 I46.4771 J11.2604
G1 X-45.5672 Y212.1499
G3 X-45.0242 Y210.4714 I38.067 J11.3883
G3 X-44.9604 Y210.2892 I4.1428 J1.3485
G3 X-44.8967 Y210.1102 I4.2609 J1.4145
G3 X-43.7752 Y207.3365 I34.3681 J12.2827
G3 X-41.6445 Y203.3883 I28.9755 J13.0881
G3 X-38.957 Y199.7957 I25.0946 J15.9707
G1 X-38.9238 Y198.4583
G1 X-38.8939 Y197.1626
G1 X-38.8673 Y195.9072
G1 X-38.8443 Y194.6909
G2 X-38.8249 Y193.5126 I-182.2529 J-3.5866
G2 X-38.8167 Y192.9418 I-43.1631 J-0.9101
G2 X-38.8129 Y192.6608 I-25.4194 J-0.4824
G2 X-38.8093 Y192.3821 I-23.1747 J-0.4351
G2 X-38.7884 Y190.1694 I-408.0236 J-4.9604
G2 X-38.7869 Y189.91 I-14.5664 J-0.216
G2 X-38.7856 Y189.6527 I-14.1203 J-0.2013
G2 X-38.7845 Y189.3974 I-13.7147 J-0.1873
G2 X-38.7836 Y189.1441 I-13.344 J-0.174
G2 X-38.7829 Y188.8928 I-13.0035 J-0.1614
G2 X-38.7824 Y188.6434 I-12.6894 J-0.1492
G2 X-38.7821 Y188.3959 I-12.3986 J-0.1375
G2 Y188.1504 I-12.1282 J-0.1263
G2 X-38.7822 Y187.9068 I-11.8762 J-0.1154
G2 X-38.7825 Y187.6651 I-11.6408 J-0.1048
G2 X-38.7926 Y185.7468 I-458.8532 J1.4636
G2 X-38.7947 Y185.522 I-10.0181 J-0.019
G2 X-38.797 Y185.2989 I-9.8853 J-0.0106
G2 X-38.7995 Y185.0776 I-9.7586 J-0.0024
G2 X-38.8021 Y184.858 I-9.6377 J0.0057
G2 X-38.8049 Y184.6401 I-9.5221 J0.0137
G2 X-38.8079 Y184.4239 I-9.4115 J0.0216
G2 X-38.811 Y184.2094 I-9.3057 J0.0293
G2 X-38.8144 Y183.9966 I-9.2042 J0.037
G2 X-38.8178 Y183.7855 I-9.1069 J0.0445
G2 X-38.8215 Y183.576 I-9.0136 J0.052
G2 X-38.8253 Y183.3682 I-8.9238 J0.0593
G2 X-39.0548 Y176.7728 I-192.8417 J3.41
G2 X-39.063 Y176.6183 I-7.0973 J0.2978
G2 X-39.0712 Y176.465 I-7.0739 J0.3035
G2 X-39.0796 Y176.3129 I-7.0513 J0.3093
G2 X-39.0879 Y176.162 I-7.0295 J0.315
G2 X-39.4284 Y171.3767 I-155.243 J8.64
G2 X-40.2461 Y164.2274 I-127.9766 J11.0163
G2 X-41.5005 Y157.1416 I-105.9009 J15.0933
G2 X-42.874 Y157.5472 I4.7749 J18.6952
G1 X-43.0223 Y157.5975
G1 X-43.3131 Y157.6994
G1 X-43.5938 Y157.8016
G2 X-45.7308 Y158.6874 I11.3381 J30.3725
G2 X-47.2946 Y159.4389 I15.9561 J35.2051
G2 X-49.583 Y160.6777 I22.5244 J44.3446
G2 X-51.7994 Y162.041 I21.7419 J37.8308
G2 X-52.5373 Y166.0118 I201.6414 J39.5256
G2 X-52.5579 Y166.1283 I3.5519 J0.6864
G2 X-52.5783 Y166.2447 I3.561 J0.686
G2 X-52.5987 Y166.3608 I3.5701 J0.6857
G2 X-52.6189 Y166.4767 I3.5793 J0.6854
G2 X-52.935 Y168.3283 I173.7795 J30.6192
G1 X-53.0834 Y169.226
G1 X-53.2266 Y170.1101
G1 X-53.3649 Y170.9809
G1 X-53.4987 Y171.8384
G1 X-53.6282 Y172.6828
G1 X-53.7536 Y173.5144
G1 X-53.8753 Y174.3333
G1 X-53.9934 Y175.1396
G1 X-54.2214 Y176.7277
G1 X-54.4374 Y178.2669
G2 X-54.4633 Y178.4534 I7.1733 J1.0902
G2 X-54.489 Y178.6391 I7.231 J1.0955
G2 X-54.5145 Y178.8242 I7.2901 J1.101
G2 X-54.5399 Y179.0085 I7.3506 J1.1068
G2 X-54.5652 Y179.1921 I7.4124 J1.1128
G2 X-54.5903 Y179.375 I7.4759 J1.119
G2 X-54.9844 Y182.2902 I477.0534 J65.9793
G1 X-55.1663 Y183.6572
G1 X-55.5163 Y186.3061
G3 X-55.5573 Y186.6166 I-21.2529 J-2.6452
G3 X-55.5979 Y186.9246 I-23.0631 J-2.8858
G3 X-55.6382 Y187.2302 I-25.4563 J-3.2039
G1 X-55.9596 Y189.6559
G3 X-56.2647 Y191.9296 I-449.4047 J-59.1566
G1 X-56.4098 Y192.9951
G1 X-56.6958 Y195.059
G1 X-56.9713 Y196.9929
G1 X-57.1033 Y197.8991
G1 X-57.2332 Y198.7766
G1 X-57.361 Y199.6265
G3 X-57.6146 Y201.2722 I-265.257 J-40.0355
G3 X-58.6507 Y207.4299 I-251.169 J-39.0974
G1 X-58.8625 Y208.5814
G1 X-59.0667 Y209.6599
G1 X-59.2633 Y210.6701
G1 X-59.4524 Y211.6161
G1 X-59.634 Y212.5022
G1 X-59.8082 Y213.3321
G1 X-59.975 Y214.1094
G1 X-60.1346 Y214.8375
G1 X-60.287 Y215.5194
G3 X-61.5233 Y220.6118 I-159.6422 J-36.0599
G3 X-61.8595 Y221.8781 I-101.0289 J-26.1456
G1 X-62.1191 Y222.8258
G1 X-62.2182 Y223.1807
G1 X-62.3056 Y223.4911
G1 X-62.3827 Y223.7625
G3 X-62.9377 Y225.6576 I-159.0073 J-45.5404
G3 X-62.9844 Y225.8034 I-2.9426 J-0.8628
G3 X-63.0311 Y225.9486 I-2.93 J-0.8613
G3 X-63.0777 Y226.0932 I-2.9175 J-0.8598
G3 X-63.1242 Y226.2373 I-2.9052 J-0.8584
G3 X-63.1706 Y226.3807 I-2.893 J-0.857
G3 X-63.9245 Y228.6615 I-150.1217 J-48.3602
G1 X-64.1054 Y229.1948
G3 X-65.5924 Y233.3731 I-144.4333 J-49.0458
G3 X-66.9981 Y236.992 I-131.0853 J-48.8371
G1 X-67.1586 Y237.3853
G3 X-68.4727 Y240.4615 I-99.2922 J-40.5978
G3 X-69.0777 Y241.7945 I-75.2298 J-33.3412
G3 X-71.5278 Y246.7066 I-80.4999 J-37.0857
G1 X-71.7733 Y247.1591
G3 X-73.775 Y250.6102 I-69.2555 J-37.8641
G3 X-77.1299 Y255.565 I-57.5617 J-35.3611
G3 X-80.9355 Y260.1827 I-48.6833 J-36.2446
G0 Z5.0
G0 X-53.8037 Y262.6667
G1 Z0.0
G1 X-55.1555 Y277.4319
G1 X-52.6105 Y277.4736
G1 X-50.0403 Y249.0132
G2 X-50.4501 Y248.8675 I-0.5962 J1.0283
G2 X-50.8192 Y248.8879 I-0.133 J0.943
G2 X-51.1129 Y249.0076 I0.2986 J1.1529
G2 X-51.5518 Y249.3395 I1.1745 J2.009
G2 X-51.8412 Y249.6327 I4.6406 J4.8705
G1 X-52.0488 Y249.8616
G1 X-52.2037 Y250.0341
G3 X-52.2329 Y250.0663 I-0.2746 J-0.2196
G3 X-52.4559 Y250.3039 I-14.5982 J-13.4828
G1 X-52.5719 Y250.4184
G3 X-52.6924 Y250.5282 I-1.6671 J-1.7071
G1 X-53.8037 Y262.6667
G0 Z5.0
G0 X-41.5404 Y277.3332
G1 Z0.0
G3 X-41.2017 Y277.1079 I1.1929 J1.4267
G3 X-40.5564 Y276.8925 I1.0344 J2.0241
G3 X-40.1055 Y276.844 I0.5622 J3.1066
G3 X-39.8466 Y276.8421 I0.1836 J7.5169
G3 X-39.1642 Y276.9039 I-0.1213 J5.1405
G3 X-38.984 Y276.9331 I-1.2049 J8.0208
G3 X-38.045 Y277.1465 I-1.6996 J9.6504
G1 X-37.7982 Y277.2156
G1 X-37.5368 Y277.2931
G3 X-37.2598 Y277.3791 I-3.9705 J13.2884
G1 X-37.1896 Y277.4013
G1 X-37.045 Y277.4478
G1 X-36.3891 Y277.6627
G2 X-35.6409 Y277.8982 I9.4035 J-28.572
G1 X-35.4462 Y277.9528
G3 X-34.6602 Y277.3411 I1.9677 J1.7175
G3 X-33.6964 Y277.0903 I1.0914 J2.217
G3 X-33.0316 Y277.1182 I0.1879 J3.449
G3 X-32.1742 Y277.3179 I-0.7358 J5.1001
G3 X-31.9521 Y277.3928 I-1.2715 J4.1402
G3 X-31.7184 Y277.4799 I-1.366 J4.0235
G1 X-31.4727 Y277.5795
G1 X-31.2142 Y277.6921
G3 X-30.636 Y277.9647 I-8.9155 J19.6538
G2 X-29.7913 Y278.646 I2.6388 J-2.4077
G2 X-28.7864 Y279.056 I2.0374 J-3.5568
G2 X-28.0765 Y279.1972 I1.4401 J-5.3877
G2 X-27.1189 Y279.2781 I1.3588 J-10.3637
G2 X-26.5713 Y279.2934 I1.4077 J-40.8212
G2 X-26.43 Y279.2955 I0.1076 J-2.4444
G1 X-25.7865 Y279.3033
G1 X-25.4438 Y279.3103
G3 X-24.6645 Y279.3517 I-0.3325 J13.6172
G3 X-24.4642 Y279.3714 I-0.2671 J3.7421
G3 X-23.5606 Y279.5367 I-0.623 J5.9586
G3 X-23.0949 Y279.6926 I-1.1006 J4.062
G1 X-23.2601 Y280.2879
G3 X-25.7119 Y280.6762 I-4.2044 J-18.6102
G3 X-28.1923 Y280.7721 I-2.0907 J-21.956
G3 X-29.8455 Y280.6935 I0.3954 J-25.7321
G3 X-32.0361 Y280.4341 I2.2614 J-28.481
G3 X-32.3171 Y280.3889 I1.5478 J-10.5216
G3 X-32.6068 Y280.3396 I1.558 J-10.031
G3 X-32.9053 Y280.286 I1.6256 J-9.9029
G3 X-33.2129 Y280.2277 I1.7462 J-10.0599
G3 X-36.4533 Y279.4389 I6.9101 J-35.4379
G3 X-37.3046 Y279.1814 I8.5752 J-29.8759
G3 X-41.7386 Y277.5257 I13.8432 J-43.8372
G3 X-41.5404 Y277.3332 I1.3911 J1.2342
G0 Z5.0
G0 X-45.7144 Y284.0502
G1 Z0.0
G3 X-45.4302 Y284.2331 I-5.6447 J9.0838
G3 X-44.985 Y284.546 I-5.4942 J8.2888
G3 X-44.9295 Y284.5872 I-0.3794 J0.5694
G3 X-44.8732 Y284.6294 I-0.3854 J0.5722
G1 X-44.6363 Y284.8123
G3 X-43.4327 Y285.8527 I-12.0115 J15.1117
G1 X-43.2828 Y285.9929
G3 X-42.6085 Y286.6424 I-23.7429 J25.3264
G3 X-42.5236 Y286.7257 I-1.4814 J1.5941
G1 X-41.7524 Y287.4875
G1 X-41.3398 Y287.8915
G1 X-34.5726 Y286.5238
G2 X-32.3928 Y286.095 I-4.0048 J-26.1108
G2 X-31.674 Y285.9165 I-5.9319 J-25.4306
G2 X-30.7203 Y285.66 I-9.6746 J-37.8743
G1 X-30.1773 Y285.5066
G1 X-29.5578 Y285.3275
G1 X-29.2277 Y285.231
G1 X-28.4734 Y285.0098
G1 X-27.6106 Y284.7602
G1 X-27.3875 Y284.697
G1 X-27.157 Y284.6325
G1 X-26.9189 Y284.5668
G3 X-25.8266 Y284.2813 I10.8626 J39.3352
G3 X-24.5679 Y283.9968 I7.633 J30.8414
G3 X-23.8914 Y283.8694 I6.6064 J33.214
G3 X-23.1656 Y283.7563 I3.6054 J20.7479
G3 X-22.9807 Y283.7317 I0.6419 J4.1233
G3 X-21.2785 Y283.597 I2.2262 J17.3078
G3 X-21.2249 Y283.5956 I0.0485 J0.8581
G3 X-19.2628 Y283.6821 I0.3579 J14.1857
G3 X-18.7596 Y283.7496 I-1.223 J11.0169
G2 X-18.5426 Y279.2153 I-69.5419 J-5.5998
G2 X-18.5911 Y274.676 I-89.0884 J-1.3177
G1 X-18.6142 Y274.0711
G1 X-18.6424 Y273.426
G2 X-18.7202 Y271.9523 I-221.4269 J10.9446
G1 X-18.743 Y271.5721
G1 X-18.7676 Y271.1797
G1 X-18.7941 Y270.7748
G2 X-19.131 Y266.4603 I-210.4443 J14.2603
G2 X-19.1548 Y266.1865 I-11.2867 J0.8444
G2 X-19.2583 Y265.0188 I-158.2334 J13.4356
G2 X-19.2715 Y264.8717 I-5.7267 J0.44
G1 X-19.5151 Y262.1824
G1 X-19.6429 Y260.7479
G1 X-19.774 Y259.2176
G3 X-19.782 Y259.1216 I2.6094 J-0.2651
G3 X-19.1177 Y258.2068 I11.862 J7.9159
G3 X-18.3848 Y257.3462 I11.1628 J8.763
G3 X-16.7537 Y255.783 I12.9971 J11.9296
G1 X-16.642 Y255.6891
G1 X-16.526 Y255.5931
G3 X-15.2475 Y254.623 I13.384 J16.3121
G3 X-13.4404 Y253.4795 I13.5629 J19.4341
G3 X-13.7117 Y255.6818 I-4.5429 J0.5583
G3 X-14.0265 Y256.3581 I-4.9977 J-1.9143
G3 X-14.5664 Y257.1907 I-6.2534 J-3.4642
G3 X-15.4121 Y258.1997 I-10.3195 J-7.7905
G1 X-15.6507 Y258.4566
G1 X-15.775 Y258.588
G1 X-16.3442 Y259.1829
G1 X-16.4904 Y259.3368
G1 X-16.7984 Y259.6676
G1 X-16.9544 Y259.8406
G2 X-17.6225 Y260.6649 I7.4077 J6.6865
G2 X-17.5818 Y263.3151 I73.0851 J0.202
G1 X-17.5503 Y264.1981
G2 X-17.3677 Y267.7274 I164.4261 J-6.7362
G2 X-17.3392 Y268.1978 I27.8554 J-1.4498
G2 X-17.3319 Y268.3173 I2.6319 J-0.1009
G1 X-17.1755 Y270.8653
G1 X-17.1357 Y271.5449
G1 X-17.0951 Y272.2699
G3 X-17.0134 Y273.9277 I-124.3189 J6.9602
G1 X-16.9955 Y274.3557
G1 X-16.9785 Y274.7975
G1 X-16.9629 Y275.2537
G3 X-16.9197 Y277.3397 I-78.0332 J2.6603
G1 X-16.9171 Y277.8782
G3 X-16.9252 Y279.0271 I-74.6315 J0.0491
G3 X-16.9264 Y279.0992 I-1.5807 J0.0106
G3 X-17.0281 Y281.734 I-59.193 J-0.9657
G3 X-17.1346 Y283.1367 I-57.3198 J-3.6444
G3 X-17.5347 Y286.3288 I-45.3215 J-4.0602
G3 X-20.5782 Y287.4171 I-16.9797 J-42.6875
G3 X-21.608 Y287.7346 I-20.0796 J-63.2944
G3 X-22.99 Y288.1272 I-16.929 J-56.9563
G1 X-23.169 Y288.1756
G3 X-25.0856 Y288.6616 I-21.8328 J-82.0637
G1 X-25.3337 Y288.7209
G1 X-25.5901 Y288.7813
G3 X-28.3325 Y289.3876 I-27.5474 J-118.0839
G1 X-28.6872 Y289.4621
G1 X-29.0534 Y289.5384
G1 X-29.4316 Y289.6167
G1 X-29.822 Y289.6971
G1 X-30.2251 Y289.7797
G1 X-32.0674 Y290.1575
G1 X-33.0491 Y290.3623
G1 X-34.0951 Y290.5863
G1 X-34.6342 Y290.7051
G1 X-35.1902 Y290.8303
G2 X-37.7207 Y291.4485 I18.1565 J79.8068
G2 X-37.8793 Y291.4905 I1.2492 J5.0428
G2 X-38.0391 Y291.5332 I1.1838 J4.7482
G1 X-38.6977 Y291.7142
G2 X-38.8633 Y291.7611 I0.9686 J3.741
G3 X-40.4469 Y291.5752 I-0.2138 J-5.0185
G3 X-41.8838 Y290.8842 I1.3838 J-4.7167
G3 X-42.705 Y290.2069 I3.7489 J-5.3822
G1 X-42.8033 Y290.1109
G3 X-43.2323 Y289.6537 I5.8927 J-5.9613
G3 X-43.6884 Y289.104 I9.3467 J-8.2183
G3 X-43.8015 Y288.9584 I3.0384 J-2.4771
G3 X-44.2985 Y288.2828 I14.6405 J-11.2908
G3 X-44.8423 Y287.4992 I41.1304 J-29.1246
G1 X-44.9812 Y287.2963
G2 X-45.6188 Y286.379 I-51.1812 J34.8971
G1 X-45.7876 Y286.1457
G1 X-45.9647 Y285.9074
G2 X-46.3548 Y285.4107 I-12.3976 J9.3364
G2 X-46.7961 Y284.9036 I-8.6245 J7.0606
G1 X-46.9134 Y284.7795
G2 X-47.1478 Y284.6363 I-3.2694 J5.0874
G2 X-47.3891 Y284.505 I-2.2301 J3.8121
G1 X-47.8773 Y284.2534
G3 X-48.1983 Y284.0774 I2.7424 J-5.3854
G3 X-48.6033 Y283.8044 I1.497 J-2.6575
G3 X-48.8049 Y283.6097 I0.9592 J-1.1949
G3 X-48.9669 Y283.3285 I0.649 J-0.5613
G3 X-48.9717 Y282.94 I0.6452 J-0.2021
G3 X-47.4383 Y283.2356 I-0.4115 J6.2608
G3 X-46.0124 Y283.8725 I-2.3803 J7.2433
G1 X-45.8325 Y283.9778
G3 X-45.7144 Y284.0502 I-5.5266 J9.1561
G0 Z5.0
G0 X-6.703 Y288.9348
G1 Z0.0
G3 X-6.0183 Y288.3455 I2.6812 J2.4229
G3 X-5.9101 Y288.2746 I1.1264 J1.5998
G3 X-4.9929 Y287.8022 I3.2343 J5.1537
G3 X-4.3489 Y287.5617 I3.5543 J8.5341
G1 X-4.1746 Y287.5055
G3 X-3.2332 Y287.2511 I3.9879 J12.8898
G3 X-2.6891 Y287.134 I4.5762 J19.9323
G3 X0.2728 Y287.8601 I-4.8742 J26.2881
G3 X3.1415 Y288.8948 I-9.4437 J30.6774
G3 X3.3232 Y288.9704 I-1.8918 J4.799
G3 X5.2362 Y289.8333 I-14.9773 J35.7577
G3 X7.7229 Y291.1136 I-22.6086 J46.9667
G3 X10.9537 Y292.9697 I-46.8574 J85.3008
G3 X11.1568 Y293.0911 I-5.7789 J9.8973
G3 X11.3629 Y293.2147 I-8.3289 J14.1245
G1 X11.7879 Y293.4705
G1 X13.7257 Y294.646
G1 X14.7595 Y295.2717
G2 X17.1363 Y296.6754 I76.8211 J-127.3667
G2 X18.5624 Y296.703 I0.8702 J-8.1057
G2 X19.9737 Y296.4966 I-0.6569 J-9.4205
G2 X20.0636 Y296.4764 I-0.1895 J-1.0541
G2 X21.0107 Y296.2183 I-3.1142 J-13.2929
G2 X22.2407 Y295.7757 I-4.9744 J-15.7573
G2 X23.832 Y295.0736 I-10.9645 J-27.0041
G2 X24.0347 Y294.9772 I-4.2971 J-9.2918
G1 X24.4655 Y294.7689
G1 X24.9233 Y294.5442
G2 X24.981 Y294.5157 I-0.5748 J-1.2373
G2 X25.0391 Y294.487 I-0.5974 J-1.2827
G2 X25.0976 Y294.4581 I-0.6225 J-1.3332
G1 X25.5964 Y294.2114
G3 X25.7231 Y294.1489 I1.9306 J3.7518
G3 X26.884 Y293.587 I34.3837 J69.5631
G1 X27.0323 Y293.5176
G3 X27.3393 Y293.3763 I4.534 J9.4443
G3 X28.7613 Y292.7776 I10.1527 J22.1256
G1 X29.2807 Y293.2389
G2 X28.6817 Y293.5663 I7.3863 J14.225
G2 X28.0974 Y293.9193 I10.1201 J17.411
G1 X27.7137 Y294.164
G1 X27.4961 Y294.3063
G1 X27.2484 Y294.4706
G1 X26.9666 Y294.66
G1 X26.2187 Y295.1704
G1 X25.2227 Y295.8525
G1 X24.9562 Y296.033
G1 X24.6711 Y296.2244
G1 X24.5235 Y296.3226
G1 X24.371 Y296.4235
G3 X23.6687 Y296.8775 I-28.1547 J-42.7757
G3 X23.6242 Y296.9057 I-0.5011 J-0.7435
G1 X23.2426 Y297.1432
G1 X22.8321 Y297.3909
G3 X22.6186 Y297.5162 I-3.3769 J-5.5092
G3 X22.1594 Y297.7769 I-8.1923 J-13.8976
G1 X21.9202 Y297.9076
G3 X20.8054 Y298.4651 I-9.9722 J-18.5457
G3 X20.1954 Y298.7304 I-6.119 J-13.2353
G3 X18.7564 Y299.2277 I-4.8573 J-11.724
G1 X18.6638 Y299.253
G3 X17.8638 Y299.4345 I-2.542 J-9.351
G3 X16.9947 Y299.5521 I-1.6109 J-8.6336
G3 X14.9764 Y299.4649 I-0.6767 J-7.746
G3 X12.7637 Y298.692 I1.3506 J-7.4196
G1 X-6.703 Y288.9348
G0 Z5.0
G0 X2.2312 Y285.163
G1 Z0.0
G3 X2.2126 Y285.1154 I0.909 J-0.3838
G3 X2.2017 Y284.9326 I0.2768 J-0.1081
G3 X2.2771 Y284.8313 I0.1885 J0.0616
G3 X2.4303 Y284.7622 I0.2788 J0.4139
G3 X2.6393 Y284.7212 I0.4213 J1.5949
G1 X2.6946 Y284.7135
G2 X2.9595 Y284.6684 I-0.3334 J-2.7616
G2 X3.0955 Y284.6092 I-0.0788 J-0.3667
G2 X3.1435 Y284.5429 I-0.0819 J-0.1098
G2 X5.0248 Y284.5469 I0.9477 J-3.305
G2 X5.6213 Y284.3321 I-1.2526 J-4.4127
G2 X5.7752 Y284.2623 I-1.876 J-4.3435
G2 X6.1201 Y284.0892 I-3.2168 J-6.8392
G2 X6.2078 Y284.0421 I-0.6283 J-1.2772
G2 X6.6038 Y283.8204 I-32.8783 J-59.1712
G1 X6.8134 Y283.7002
G3 X7.294 Y283.4322 I6.9536 J11.904
G3 X7.858 Y283.1588 I3.3732 J6.2399
G3 X8.5356 Y282.93 I1.7123 J3.9543
G3 X9.3505 Y282.8336 I0.7949 J3.2238
G3 X10.2872 Y282.9668 I-0.0388 J3.6322
G2 X12.1268 Y284.2341 I3.5949 J-3.2494
G2 X12.8419 Y284.4615 I2.249 J-5.834
G2 X12.936 Y284.4844 I0.2899 J-0.9898
G2 X13.9529 Y284.6506 I1.7585 J-7.5661
G2 X15.3185 Y284.7156 I1.3653 J-14.3003
G2 X15.4053 Y284.716 I0.0479 J-1.0156
G1 X15.7751 Y284.7146
G1 X16.1689 Y284.7095
G1 X16.3719 Y284.706
G1 X16.8045 Y284.6985
G1 X17.2649 Y284.6931
G1 X17.3819 Y284.6925
G3 X18.4463 Y284.7168 I0.0761 J20.0098
G3 X19.0115 Y284.7628 I-0.4488 J9.0139
G3 X20.282 Y285.0109 I-0.6991 J6.9555
G3 X20.5995 Y285.1174 I-1.3819 J4.6489
G3 X20.7498 Y285.321 I-0.3514 J0.4167
G3 X20.7457 Y285.5739 I-0.3151 J0.1214
G3 X20.6586 Y285.7207 I-0.5754 J-0.2424
G3 X20.5032 Y285.8785 I-0.8513 J-0.6827
G3 X20.2761 Y286.0459 I-1.3064 J-1.5347
G3 X19.97 Y286.2291 I-3.7131 J-5.8566
G1 X19.1976 Y286.1945
G1 X18.4251 Y286.1623
G1 X17.91 Y286.1419
G1 X15.8496 Y286.066
G1 X14.4759 Y286.0176
G1 X14.1095 Y286.0046
G1 X12.156 Y285.9321
G1 X11.0398 Y285.8867
G1 X9.7644 Y285.8292
G1 X9.0843 Y285.7956
G1 X8.3591 Y285.7571
G3 X4.4944 Y285.4917 I7.8 J-141.8209
G3 X2.2907 Y285.2811 I8.1564 J-96.9938
G3 X2.2312 Y285.163 I0.8495 J-0.5019
G0 Z5.0
G0 X-5.7019 Y259.3616
G1 Z0.0
G3 X-6.4524 Y259.5438 I-1.8888 J-6.143
G3 X-7.5617 Y259.6336 I-1.0088 J-5.5646
G3 X-8.1963 Y259.5767 I0.0778 J-4.4367
G3 X-8.9019 Y259.3889 I0.5713 J-3.5661
G3 X-9.6326 Y258.9699 I0.9189 J-2.4489
G3 X-10.2347 Y258.1884 I1.396 J-1.6983
G2 X-9.4413 Y258.2877 I0.7368 J-2.6685
G2 X-8.6516 Y258.1629 I-0.0723 J-3.0183
G2 X-8.1506 Y257.9803 I-1.0927 J-3.7781
G2 X-7.5194 Y257.6584 I-2.6952 J-6.0641
G2 X-6.7243 Y257.1598 I-8.5052 J-14.4443
G1 X-6.5158 Y257.022
G3 X-6.4081 Y256.9511 I5.4068 J8.0907
G3 X-5.9135 Y256.6356 I7.2176 J10.7667
G1 X-5.7837 Y256.5577
G3 X-5.6485 Y256.4798 I1.4411 J2.3455
G3 X-5.0074 Y256.1712 I2.4955 J4.3632
G3 X-4.6454 Y256.0549 I1.2137 J3.158
G1 X-4.5988 Y256.0436
G3 X-4.1923 Y255.9843 I0.5568 J2.3913
G3 X-3.8003 Y256.4181 I-1.6577 J1.8917
G3 X-3.5272 Y256.9351 I-1.7524 J1.2563
G3 X-3.4883 Y258.0947 I-1.7315 J0.6386
G3 X-4.1356 Y258.6251 I-3.0586 J-3.0724
G3 X-4.8634 Y259.038 I-3.0683 J-4.5602
G3 X-5.7019 Y259.3616 I-2.7274 J-5.8194
G0 Z5.0
G0 X-6.0335 Y242.7376
G1 Z0.0
G3 X-11.1398 Y242.7495 I-2.8906 J-144.9476
G3 X-11.3169 Y242.747 I-0.0009 J-6.1474
G3 X-11.4953 Y242.7442 I0.0068 J-6.3247
G3 X-11.6752 Y242.7413 I0.015 J-6.5182
G3 X-11.8564 Y242.7383 I0.0239 J-6.7308
G3 X-12.0391 Y242.735 I0.0334 J-6.9654
G3 X-12.2231 Y242.7315 I0.0437 J-7.2262
G3 X-12.4087 Y242.7279 I0.0551 J-7.5185
G3 X-12.5957 Y242.724 I0.0676 J-7.8495
G3 X-12.7841 Y242.72 I0.0816 J-8.2282
G3 X-12.9741 Y242.7158 I0.0975 J-8.6669
G3 X-13.1655 Y242.7114 I0.1158 J-9.184
G3 X-13.3584 Y242.7068 I0.1373 J-9.8053
G3 X-13.5529 Y242.702 I0.1633 J-10.5718
G3 X-13.7488 Y242.697 I0.1956 J-11.5504
G3 X-13.9463 Y242.6918 I0.2381 J-12.8621
G3 X-14.3475 Y242.6809 I0.4211 J-22.7636
G1 X-15.1757 Y242.6565
G1 X-16.0304 Y242.629
G1 X-16.9126 Y242.5987
G2 X-17.5441 Y242.445 I-4.1914 J15.8546
G1 X-17.6349 Y242.4253
G2 X-17.8772 Y242.375 I-1.9657 J8.8537
G1 X-18.0161 Y242.3475
G1 X-18.3869 Y242.278
G1 X-18.8825 Y242.192
G1 X-19.5444 Y242.0837
G1 X-20.4268 Y241.9397
G1 X-20.6619 Y241.8996
G1 X-20.9123 Y241.8553
G1 X-21.1791 Y241.8061
G1 X-21.3166 Y241.7797
G1 X-21.4584 Y241.7517
G3 X-22.9558 Y241.3835 I2.9474 J-15.2131
G1 X-23.0493 Y241.3545
G1 X-23.1442 Y241.3241
G3 X-23.5452 Y241.1842 I2.246 J-7.0782
G1 X-23.7495 Y241.1046
G3 X-24.1782 Y240.9158 I3.2021 J-7.8524
G3 X-25.1024 Y240.3683 I2.4045 J-5.1127
G3 X-25.9941 Y239.5075 I2.6084 J-3.5943
G2 X-25.6318 Y239.5405 I1.7761 J-17.4805
G2 X-25.2695 Y239.5734 I2.0615 J-20.7328
G2 X-25.028 Y239.5951 I1.9972 J-20.8033
G2 X-24.7059 Y239.624 I3.1293 J-33.0813
G1 X-24.2764 Y239.6623
G1 X-22.5584 Y239.8115
G1 X-21.4126 Y239.9072
G1 X-19.8846 Y240.0291
G1 X-19.0112 Y240.0955
G2 X-16.6809 Y240.259 I16.7358 J-221.823
G1 X-15.3487 Y240.3425
G1 X-15.0048 Y240.3627
G2 X-11.3347 Y240.5409 I10.2276 J-172.7512
G1 X-10.3555 Y240.5756
G1 X-9.85 Y240.5911
G2 X-7.5385 Y240.6405 I4.8053 J-170.703
G2 X-6.3054 Y240.6513 I1.4912 J-100.2469
G1 X-5.669 Y240.6523
G2 X-2.7596 Y240.6145 I-0.0635 J-116.9794
G1 X-2.009 Y240.5928
G2 X1.4198 Y240.4239 I-3.4289 J-104.5489
G2 X5.3287 Y240.0766 I-5.954 J-89.1651
G2 X9.7711 Y239.4486 I-8.6747 J-77.3972
G2 X10.9108 Y239.2426 I-10.9187 J-63.6552
G1 X11.7294 Y239.7903
G3 X11.71 Y239.8585 I-0.7782 J-0.1838
G3 X11.6902 Y239.9266 I-0.6109 J-0.1413
G3 X11.6453 Y240.0612 I-3.4701 J-1.0814
G1 X11.609 Y240.1486
G3 X11.3878 Y240.4552 I-0.8364 J-0.3704
G3 X11.1817 Y240.6029 I-0.6938 J-0.7505
G3 X6.8792 Y241.5565 I-14.0271 J-53.1021
G3 X6.7393 Y241.5818 I-0.8098 J-4.0862
G1 X6.0989 Y241.6931
G3 X0.9433 Y242.3589 I-11.6051 J-69.5661
G3 X0.7789 Y242.3741 I-0.4111 J-3.5614
G3 X0.6119 Y242.3891 I-0.4073 J-3.5872
G3 X-0.9163 Y242.5111 I-6.0085 J-65.6726
G3 X-1.0126 Y242.5178 I-0.2405 J-2.7349
G3 X-5.127 Y242.716 I-6.827 J-98.9538
G3 X-5.2567 Y242.7196 I-0.1611 J-3.4556
G3 X-5.3875 Y242.7231 I-0.1584 J-3.4849
G3 X-5.5193 Y242.7264 I-0.1558 J-3.515
G3 X-6.0335 Y242.7376 I-3.4048 J-144.9365
G0 Z5.0
G0 X-6.2778 Y234.207
G1 Z0.0
G3 X-11.0614 Y234.151 I-1.6977 J-59.2759
G3 X-14.949 Y233.8376 I3.4968 J-67.6415
G3 X-20.0931 Y233.0871 I8.0608 J-73.2561
G3 X-19.7962 Y232.4475 I2.0132 J0.5457
G3 X-19.6557 Y232.2581 I2.4181 J1.6467
G3 X-18.9763 Y231.6124 I3.0653 J2.5453
G3 X-18.7595 Y231.4549 I5.3941 J7.1968
G3 X-18.1544 Y231.0806 I3.7972 J5.4618
G3 X-17.3092 Y230.6615 I5.0659 J9.156
G1 X-17.0785 Y230.5618
G3 X-16.8308 Y230.4602 I2.3802 J5.4549
G2 X-14.5706 Y230.7155 I4.4253 J-29.0511
G2 X-12.2992 Y230.8355 I3.8926 J-52.1306
G1 X-11.6496 Y230.8547
G2 X-10.9071 Y230.8723 I6.1014 J-242.0841
G1 X-10.0586 Y230.8896
G3 X-7.7966 Y230.9476 I-2.8205 J154.1248
G3 X-7.653 Y230.9529 I-0.1251 J5.2763
G3 X-6.3411 Y231.0181 I-1.8806 J51.0981
G3 X-6.1746 Y231.0289 I-0.2064 J4.4929
G3 X-6.0055 Y231.0404 I-0.212 J4.3375
G3 X-5.8338 Y231.0529 I-0.2171 J4.179
G3 X-5.6595 Y231.0663 I-0.2218 J4.0193
G3 X-5.4824 Y231.0808 I-0.2261 J3.8612
G3 X-3.8673 Y231.2565 I-2.6175 J31.5742
G3 X-2.0368 Y231.5741 I-3.187 J23.7993
G3 X0.0166 Y232.1256 I-4.1712 J19.6277
G3 X0.1284 Y232.1899 I-0.0869 J0.2807
G3 X0.2118 Y232.2881 I-0.34 J0.3734
G3 X0.3261 Y232.5149 I-1.121 J0.7068
G1 X0.3515 Y232.5827
G3 X0.4103 Y232.7652 I-1.8462 J0.6953
G3 X0.4172 Y232.789 I-0.081 J0.0364
G3 X0.484 Y233.0422 I-11.0192 J3.0402
G1 X0.5631 Y233.3797
G1 X0.6074 Y233.5722
G3 X-5.1204 Y234.1625 I-8.2877 J-52.3405
G3 X-5.2118 Y234.1669 I-0.1596 J-2.3563
G3 X-6.2778 Y234.207 I-2.7637 J-59.2357
G0 Z5.0
G0 X-5.3293 Y198.6438
G1 Z0.0
G3 X-4.9697 Y195.8844 I30.4049 J2.5588
G3 X-4.7923 Y194.9736 I23.4304 J4.0927
G3 X-4.5047 Y193.7703 I23.1061 J4.887
G3 X-4.015 Y192.1948 I18.0313 J4.7401
G3 X-3.6695 Y191.3172 I13.9145 J4.9706
G3 X-3.2026 Y190.3449 I11.3823 J4.8672
G3 X-2.5533 Y189.2946 I8.3518 J4.4378
G3 X-2.1465 Y188.7748 I6.3108 J4.5206
G3 X-2.0357 Y188.6488 I1.9453 J1.5988
G3 X-1.5253 Y188.1439 I4.2011 J3.7367
G3 X-1.2226 Y189.5024 I-5.069 J1.8425
G3 X-1.2603 Y190.8936 I-6.131 J0.5297
G3 X-1.4427 Y191.8037 I-7.3168 J-0.9926
G3 X-1.5899 Y192.3129 I-12.1446 J-3.2355
G3 X-1.788 Y192.8846 I-10.0707 J-3.1698
G3 X-2.4213 Y194.3601 I-17.7646 J-6.7507
G1 X-2.6066 Y194.7456
G1 X-2.808 Y195.1543
G1 X-2.913 Y195.3646
G1 X-3.3914 Y196.3225
G2 X-3.6403 Y196.8355 I21.7228 J10.8576
G1 X-3.7653 Y197.1017
G2 X-4.0198 Y197.6741 I23.5344 J10.8093
G2 X-4.2667 Y198.294 I16.1398 J6.7859
G1 X-5.3293 Y198.6438
G0 Z5.0
G0 X-6.127 Y170.8784
G1 Z0.0
G1 X-7.4144 Y170.8635
G3 X-5.9448 Y168.2196 I71.4174 J37.9662
G1 X-5.7271 Y167.8464
G1 X-5.476 Y167.421
G3 X-3.391 Y164.0652 I88.3938 J52.5916
G3 X-1.9382 Y161.8684 I115.9339 J75.0969
G3 X-1.5439 Y161.2872 I226.6102 J153.2972
G3 X-1.1205 Y160.6691 I47.368 J31.9863
G3 X-0.901 Y160.3508 I27.2755 J18.5753
G3 X-0.6737 Y160.0226 I25.0406 J17.1042
G3 X-0.4384 Y159.6844 I23.6332 J16.1936
G3 X-0.1948 Y159.3358 I22.7423 J15.6335
G3 X0.0574 Y158.9765 I22.2138 J15.3206
G3 X0.3184 Y158.606 I21.9673 J15.2009
G3 X0.5886 Y158.2241 I21.96 J15.2464
G3 X0.8681 Y157.8303 I22.1747 J15.4463
G3 X1.0104 Y157.6305 I15.8327 J11.1188
G3 X1.155 Y157.4276 I16.0232 J11.2708
G3 X1.3021 Y157.2216 I16.257 J11.4535
G3 X1.4517 Y157.0124 I16.5372 J11.669
G3 X1.6038 Y156.8 I16.8681 J11.9206
G3 X1.7585 Y156.5844 I17.2556 J12.2126
G3 X1.9157 Y156.3654 I17.7065 J12.5499
G3 X2.0756 Y156.1431 I18.2307 J12.9396
G3 X2.2381 Y155.9173 I18.8404 J13.3906
G3 X2.4034 Y155.688 I19.5511 J13.9141
G3 X2.5713 Y155.4552 I20.3841 J14.5254
G3 X2.742 Y155.2187 I21.3686 J15.2456
G3 X2.9155 Y154.9785 I22.5444 J16.1034
G3 X3.0918 Y154.7346 I23.9689 J17.1404
G3 X3.271 Y154.4869 I25.7295 J18.4194
G3 X3.641 Y153.9755 I41.7487 J29.8193
G2 X4.023 Y153.4476 I-53.5209 J-39.1379
G2 X5.063 Y152.2162 I-59.3716 J-51.1959
G1 X5.4043 Y151.8012
G1 X5.8558 Y151.2451
G1 X6.4528 Y150.4993
G1 X6.7918 Y150.0716
G1 X7.6909 Y148.927
G1 X8.2031 Y148.2718
G1 X8.4763 Y147.9222
G3 X8.768 Y147.5496 I23.4797 J18.0786
G1 X9.4365 Y146.6996
G1 X9.6097 Y146.4807
G1 X9.7889 Y146.2551
G1 X9.9743 Y146.0226
G1 X10.1662 Y145.7829
G1 X10.5776 Y145.2733
G3 X11.5307 Y144.1191 I85.2358 J69.4134
G1 X11.6533 Y143.9737
G3 X12.7933 Y142.6617 I49.1111 J41.5182
G1 X12.9408 Y142.4975
G3 X14.3246 Y141.0281 I36.2393 J32.7422
G3 X15.9954 Y139.436 I24.7853 J24.3363
G3 X18.0425 Y137.7685 I19.175 J21.4497
G3 X18.5962 Y137.3705 I11.1882 J14.9821
G3 X19.8137 Y136.572 I13.6524 J19.4905
G1 X19.7259 Y136.8831
G3 X17.5965 Y139.9408 I-212.3588 J-145.6194
G3 X15.4252 Y142.9689 I-213.354 J-150.6895
G3 X10.981 Y148.9507 I-297.2138 J-216.1744
G3 X10.8381 Y149.1392 I-5.7492 J-4.21
G1 X10.2272 Y149.9428
G1 X9.5738 Y150.7985
G3 X6.0626 Y155.3421 I-502.6284 J-384.7883
G1 X5.1205 Y156.5491
G1 X4.1135 Y157.8351
G3 X1.8066 Y160.7702 I-1650.8394 J-1295.1117
G1 X1.2105 Y161.5272
G1 X0.5951 Y162.3084
G1 X-2.2172 Y165.8803
G1 X-3.7144 Y167.7875
G1 X-5.3071 Y169.825
G1 X-6.127 Y170.8784
G0 Z5.0
G0 X-6.5358 Y181.0911
G1 Z0.0
G3 X-4.5753 Y181.1778 I-9.3975 J234.7947
G3 X-4.3027 Y181.1911 I-0.4303 J11.5678
G3 X-4.0344 Y181.2046 I-0.4272 J11.2102
G3 X-3.7703 Y181.2181 I-0.424 J10.8744
G3 X-3.5103 Y181.2317 I-0.4207 J10.5586
G3 X-3.2544 Y181.2453 I-0.4174 J10.261
G3 X-3.0025 Y181.2589 I-0.4141 J9.9801
G3 X-1.0196 Y181.3742 I-10.3659 J195.3644
G3 X-0.8027 Y181.3876 I-0.3816 J7.9265
G3 X2.6113 Y181.617 I-21.5967 J347.0531
G3 X7.7288 Y182.0086 I-46.038 J635.2219
G1 X9.0077 Y182.1121
G3 X9.1276 Y182.1219 I-0.2426 J3.7178
G1 X12.8441 Y182.4275
G1 X23.908 Y184.139
G3 X26.4314 Y186.4771 I-34.7957 J40.0847
G3 X27.4865 Y187.5494 I-37.5242 J37.9744
G3 X27.6082 Y187.6769 I-2.8892 J2.8817
G3 X28.5611 Y188.7014 I-42.594 J40.5714
G3 X31.9345 Y192.7173 I-52.3293 J47.383
G1 X32.236 Y193.1055
G3 X34.5015 Y196.1686 I-74.3309 J57.344
G1 X34.9137 Y196.752
G1 X35.297 Y197.3012
G1 X35.6538 Y197.8177
G1 X35.9861 Y198.3035
G1 X36.296 Y198.7601
G1 X36.585 Y199.1892
G1 X36.8547 Y199.5922
G3 X38.848 Y202.6345 I-218.8718 J145.579
G1 X39.8312 Y204.1644
G1 X40.3211 Y204.9304
G1 X40.8104 Y205.6967
G1 X49.118 Y222.3551
G1 X48.542 Y248.1604
G2 X49.544 Y248.7935 I4.9622 J-6.7439
G2 X49.7405 Y248.8971 I2.3458 J-4.2101
G1 X49.9264 Y248.9907
G1 X50.1022 Y249.0757
G2 X50.1849 Y249.1146 I0.4848 J-0.9219
G1 X50.5076 Y249.2614
G1 X50.7919 Y249.3853
G1 X51.2918 Y249.5966
G3 X51.4795 Y249.6753 I-2.0407 J5.13
G1 X51.8076 Y249.8141
G3 X52.7791 Y250.2589 I-7.4814 J17.6284
G1 X53.0048 Y249.309
G1 X53.4475 Y247.4387
G1 X53.8755 Y245.6265
G1 X54.7068 Y242.1153
G3 X55.0994 Y240.4697 I342.4896 J80.8479
G3 X55.8694 Y237.2833 I632.7552 J151.2091
G1 X56.2358 Y235.7908
G1 X56.4149 Y235.0682
G3 X56.7705 Y233.6462 I298.0939 J73.8106
G3 X57.4735 Y230.8944 I309.3605 J77.5651
G3 X58.1519 Y228.3192 I343.9721 J89.2339
G1 X58.4772 Y227.1139
G1 X58.6366 Y226.5305
G1 X58.9541 Y225.3829
G1 X59.2664 Y224.2724
G3 X59.8861 Y222.1248 I233.2694 J66.1457
G1 X60.1836 Y221.1201
G1 X60.4763 Y220.1481
G1 X60.7643 Y219.2077
G3 X63.1626 Y211.9733 I170.3826 J52.4698
G3 X65.1909 Y206.627 I130.1351 J46.3137
G1 X65.3928 Y206.1303
G1 X65.5904 Y205.6499
G1 X65.7838 Y205.1853
G3 X67.3511 Y201.6143 I100.1476 J41.824
G3 X68.6122 Y198.9749 I89.6419 J41.2107
G3 X70.6565 Y195.0928 I77.503 J38.3336
G3 X72.9037 Y191.3244 I65.7198 J36.636
G2 X73.0338 Y191.3286 I0.0759 J-0.3361
G2 X73.2582 Y191.2652 I-0.2607 J-1.3529
G3 X73.4372 Y191.2148 I0.4579 J1.2828
G3 X73.5804 Y191.2191 I0.0626 J0.3022
G3 X73.7309 Y191.3616 I-0.0844 J0.2399
G3 X73.7922 Y191.5596 I-0.7989 J0.3558
G1 X73.5697 Y192.2699
G1 X72.7107 Y195.0232
G1 X72.6639 Y195.1738
G1 X72.2938 Y196.3698
G1 X71.9488 Y197.4918
G1 X71.6276 Y198.5443
G1 X71.3286 Y199.5317
G2 X70.7744 Y201.385 I494.4041 J148.8415
G1 X70.6545 Y201.7908
G1 X70.4234 Y202.5775
G1 X69.9958 Y204.0541
G2 X69.9495 Y204.2157 I5.5416 J1.6754
G1 X69.5882 Y205.4895
G2 X68.3797 Y209.9633 I201.5183 J56.8343
G2 X67.2824 Y214.4657 I164.4215 J42.4566
G1 X67.6108 Y214.2556
G1 X67.9337 Y214.0428
G2 X69.1856 Y213.1566 I-15.3766 J-23.0487
G2 X71.4698 Y211.2632 I-18.5414 J-24.6936
G1 X71.7245 Y211.0275
G2 X73.6521 Y209.0615 I-22.5738 J-24.0596
G2 X76.809 Y204.9911 I-26.6438 J-23.9236
G2 X79.0989 Y201.1179 I-34.328 J-22.9092
G2 X80.7672 Y197.5554 I-40.7314 J-21.2469
G1 X80.8499 Y197.3568
G1 X80.9311 Y197.1594
G1 X81.0109 Y196.9633
G2 X83.1295 Y190.5885 I-50.6956 J-20.3875
G2 X84.2271 Y185.6715 I-60.3647 J-16.0565
G2 X84.7934 Y181.9354 I-64.867 J-11.7439
G2 X85.2252 Y170.6194 I-67.1205 J-8.227
G1 X85.1638 Y169.891
G2 X84.5914 Y164.1628 I-203.9854 J17.4914
G1 X84.5183 Y163.5371
G1 X84.4442 Y162.9215
G2 X84.1306 Y160.5001 I-153.251 J18.6169
G1 X84.0519 Y159.9333
G2 X83.3581 Y155.4799 I-152.4964 J21.4771
G1 X83.1879 Y154.5086
G1 X83.0163 Y153.5687
G1 X82.8437 Y152.6594
G1 X82.6703 Y151.7797
G2 X81.1093 Y145.009 I-117.5556 J23.5374
G2 X79.6638 Y140.0011 I-99.02 J25.87
G2 X77.0066 Y132.6488 I-90.3824 J28.5088
G2 X75.4439 Y129.0648 I-80.0968 J32.7916
G2 X75.2372 Y128.6218 I-20.8613 J9.4636
G2 X73.7193 Y125.5558 I-78.7745 J37.0903
G1 X72.6897 Y125.6679
G1 X71.692 Y125.7731
G3 X70.7252 Y125.8723 I-28.5959 J-273.8888
G3 X69.7883 Y125.9663 I-9.8343 J-93.3486
G1 X69.3344 Y126.0111
G1 X68.8876 Y126.0549
G1 X68.0078 Y126.1402
G1 X64.598 Y126.4647
G1 X63.8519 Y126.5356
G1 X63.1293 Y126.6045
G1 X61.7293 Y126.7397
G1 X60.4171 Y126.8692
G1 X59.1872 Y126.994
G1 X58.0344 Y127.1146
G1 X56.9542 Y127.2315
G1 X55.9419 Y127.3449
G1 X54.9933 Y127.4551
G2 X51.4405 Y127.9072 I20.1351 J172.4053
G2 X50.1107 Y128.0953 I15.2447 J112.5638
G2 X47.7876 Y128.4532 I23.6809 J161.446
G2 X44.316 Y129.0681 I20.4529 J125.5725
G1 X43.4512 Y129.2382
G1 X43.1272 Y129.3037
G1 X42.8439 Y129.3619
G2 X40.8654 Y129.7914 I22.3877 J107.8972
G2 X40.9095 Y129.8982 I3.0803 J-1.2075
G2 X40.9533 Y130.0041 I3.0237 J-1.1893
G2 X40.9969 Y130.1092 I2.9684 J-1.1714
G2 X41.7046 Y131.7694 I89.4421 J-37.1455
G1 X42.0214 Y132.4927
G1 X42.622 Y133.846
G1 X43.1501 Y135.0291
G3 X43.1789 Y135.0939 I-1.3254 J0.6295
G3 X43.2075 Y135.1581 I-1.3138 J0.6238
G3 X43.2359 Y135.2219 I-1.3024 J0.6182
G3 X43.2641 Y135.2851 I-1.2912 J0.6127
G3 X44.1479 Y137.297 I-149.9879 J67.0883
G3 X44.7883 Y138.8159 I-116.5971 J50.0543
G3 X44.9052 Y139.1021 I-27.0853 J11.2278
G1 X45.1209 Y139.6399
G3 X45.4866 Y140.5859 I-37.5932 J15.0744
G3 X45.52 Y140.675 I-1.2107 J0.5052
G3 X45.5522 Y140.7613 I-1.1913 J0.4939
G3 X45.5833 Y140.845 I-1.1723 J0.4829
G3 X45.6133 Y140.9261 I-1.1537 J0.4723
G3 X45.6422 Y141.0048 I-1.1355 J0.4619
G3 X46.4629 Y143.4672 I-39.4506 J14.5163
G1 X46.6005 Y143.9214
G1 X46.7377 Y144.3718
G2 X47.8437 Y147.942 I402.2779 J-122.6706
G1 X48.3697 Y149.6143
G1 X49.3929 Y152.8543
G3 X49.5128 Y153.2343 I-26.7203 J8.6366
G3 X49.6316 Y153.6114 I-21.6301 J7.0228
G1 X50.1017 Y155.1084
G1 X50.5541 Y156.5601
G3 X50.6086 Y156.736 I-7.5691 J2.442
G3 X50.6628 Y156.9113 I-7.4131 J2.3903
G3 X50.7168 Y157.0859 I-7.2665 J2.3414
G3 X50.7705 Y157.2599 I-7.1284 J2.2952
G3 X50.8239 Y157.4332 I-6.9982 J2.2515
G3 X50.877 Y157.6059 I-6.8749 J2.21
G1 X51.2975 Y158.9826
G1 X51.6995 Y160.3182
G3 X52.4592 Y162.9122 I-199.8921 J59.9525
G3 X53.1434 Y165.3533 I-170.4045 J49.0748
G3 X53.1825 Y165.4967 I-4.2918 J1.248
G3 X53.2213 Y165.6396 I-4.2707 J1.2382
G3 X54.3911 Y170.2106 I-140.99 J38.5155
G3 X55.2842 Y174.2441 I-113.6607 J27.2826
G3 X55.6287 Y176.0193 I-94.2492 J19.2119
G1 X55.7794 Y176.8536
G1 X55.9185 Y177.6631
G3 X56.7389 Y183.9747 I-82.8216 J13.9749
G1 X56.7901 Y184.5695
G3 X57.0185 Y189.1906 I-68.6863 J5.7104
G1 X57.0238 Y189.6245
G3 X57.0168 Y191.3058 I-70.1202 J0.5481
G1 X57.0093 Y191.6735
G3 X56.877 Y194.5208 I-62.5644 J-1.4805
G1 X56.8577 Y194.7873
G3 X55.65 Y202.9762 I-56.5766 J-4.1604
G1 X55.2661 Y203.192
G3 X54.7285 Y201.2555 I11.4585 J-4.2236
G1 X54.6886 Y201.0399
G3 X54.6195 Y200.614 I25.5355 J-4.36
G1 X54.5904 Y200.4071
G1 X54.5644 Y200.2032
G3 X54.441 Y198.5893 I18.9337 J-2.2598
G1 X54.4305 Y198.2356
G3 X54.4236 Y197.5501 I20.5997 J-0.5491
G3 X54.4309 Y196.9073 I24.7622 J-0.0383
G3 X54.4716 Y195.7028 I59.1355 J1.3945
G1 X54.4971 Y195.1761
G1 X54.6071 Y193.2013
G1 X54.6266 Y192.8307
G1 X54.6587 Y192.1357
G2 X54.6618 Y192.0596 I-1.1127 J-0.0829
G2 X54.6647 Y191.9847 I-1.0899 J-0.0799
G2 X54.6674 Y191.911 I-1.0683 J-0.077
G2 X54.6701 Y191.8384 I-1.0478 J-0.0741
G1 X54.6867 Y191.2668
G2 X54.6942 Y190.266 I-30.7941 J-0.7321
G2 X54.6333 Y188.7661 I-22.4719 J0.1609
G1 X54.618 Y188.579
G2 X54.5481 Y187.9259 I-22.1001 J2.0328
G1 X54.503 Y187.6005
G1 X54.4505 Y187.2763
G1 X54.3221 Y186.3583
G2 X54.0556 Y184.5532 I-150.992 J21.3694
G2 X52.8565 Y177.5854 I-186.7903 J28.5579
G2 X52.8201 Y177.3955 I-6.975 J1.2381
G2 X52.2155 Y174.3746 I-227.8606 J44.0338
G2 X49.5595 Y163.1327 I-215.4997 J44.9778
G2 X48.4203 Y158.9535 I-256.4325 J67.659
G1 X48.1617 Y158.0419
G2 X46.0517 Y151.0085 I-285.0918 J81.6911
G1 X45.8449 Y150.3519
G1 X45.6432 Y149.7162
G2 X44.8492 Y147.2569 I-236.1269 J74.8743
G1 X44.673 Y146.7197
G1 X44.5015 Y146.1996
G1 X44.3345 Y145.6961
G1 X44.172 Y145.2084
G1 X44.0139 Y144.7363
G2 X43.3954 Y142.9089 I-237.5183 J79.3751
G1 X42.8466 Y141.3126
G1 X42.7256 Y140.9636
G1 X42.6082 Y140.6257
G1 X42.4941 Y140.2984
G2 X41.6008 Y137.7656 I-460.7347 J161.0654
G2 X38.8354 Y130.1977 I-487.3781 J173.8021
G1 X38.205 Y130.3323
G1 X37.5797 Y130.4668
G1 X36.9595 Y130.6012
G1 X36.3444 Y130.7356
G2 X26.6092 Y132.9998 I84.8844 J387.0335
G1 X25.548 Y133.2625
G1 X24.5041 Y133.524
G2 X16.3095 Y135.6852 I91.1599 J362.2663
G2 X9.1802 Y137.726 I96.462 J350.4459
G1 X8.4029 Y137.9578
G1 X7.6382 Y138.1877
G1 X6.886 Y138.4155
G1 X6.146 Y138.6414
G1 X5.418 Y138.8652
G2 X-17.2511 Y146.703 I104.1467 J337.9243
G1 X-18.6494 Y147.2446
G2 X-29.0561 Y151.5059 I122.2955 J313.5036
G2 X-30.3465 Y152.0636 I81.6701 J190.7256
G2 X-31.4736 Y152.5562 I47.4947 J110.196
G2 X-31.9661 Y152.7731 I27.4043 J62.8958
G2 X-32.4274 Y152.9772 I24.5286 J56.0761
G2 X-32.8597 Y153.1692 I22.3155 J50.8235
G2 X-33.2647 Y153.3498 I20.5362 J46.6005
G2 X-39.3083 Y156.1266 I124.8408 J279.6759
G3 X-35.7434 Y176.0344 I-84.545 J25.4122
G1 X-35.7243 Y176.3505
G3 X-35.5696 Y181.3344 I-87.4585 J5.2076
G1 X-35.5693 Y181.802
G3 X-35.6472 Y185.4241 I-90.456 J-0.1333
G1 X-35.6617 Y185.7635
G3 X-36.7097 Y196.2357 I-97.2539 J-4.444
G1 X-36.3135 Y195.749
G1 X-35.9322 Y195.2754
G1 X-35.5648 Y194.815
G1 X-34.8574 Y193.9192
G2 X-34.6922 Y193.7087 I-10.015 J-8.0293
G1 X-34.0433 Y192.8788
G1 X-32.8274 Y191.3215
G3 X-32.7607 Y191.2364 I2.592 J1.9625
G3 X-31.6971 Y189.8902 I120.3254 J93.9709
G1 X-31.2272 Y189.3046
G1 X-30.7833 Y188.7583
G1 X-30.3636 Y188.2489
G3 X-29.566 Y187.3027 I44.699 J36.8713
G1 X-29.212 Y186.893
G3 X-27.852 Y185.385 I40.5176 J35.1745
G3 X-27.7868 Y185.3156 I1.7121 J1.5413
G3 X-27.7225 Y185.2473 I1.7042 J1.5409
G3 X-26.6924 Y184.1903 I36.5653 J34.6042
G3 X-25.0768 Y182.6763 I26.6894 J26.8616
G3 X-23.3673 Y181.2696 I21.5353 J24.4285
G3 X-18.839 Y181.0253 I8.5437 J116.2799
G3 X-14.8726 Y180.942 I5.1256 J149.6283
G3 X-11.4015 Y180.956 I1.127 J151.2809
G3 X-11.0219 Y180.9619 I-0.4121 J38.3294
G3 X-10.6483 Y180.9686 I-0.4238 J34.2047
G3 X-7.7065 Y181.0475 I-4.6509 J228.326
G3 X-7.3848 Y181.0588 I-0.4538 J17.4946
G3 X-7.0681 Y181.0704 I-0.4528 J16.6668
G3 X-6.5358 Y181.0911 I-8.8652 J234.8154
G0 Z5.0
G0 X-13.9093 Y103.7376
G1 Z0.0
G1 X-0.4418 Y101.3072
G1 X-1.7153 Y100.7489
G1 X-2.0237 Y100.6131
G1 X-3.2463 Y100.0714
G1 X-4.429 Y99.5417
G1 X-5.5726 Y99.0229
G3 X-7.7804 Y97.9986 I72.232 J-158.5917
G1 X-8.2962 Y97.7543
G3 X-10.3191 Y96.7743 I54.9502 J-116.0036
G3 X-14.0683 Y94.8451 I55.5017 J-112.4675
G3 X-17.2876 Y93.036 I46.3067 J-86.174
G3 X-18.6731 Y92.2029 I44.23 J-75.1289
G3 X-19.957 Y91.3966 I32.9169 J-53.8373
G1 X-20.5533 Y91.0098
G3 X-22.8267 Y89.4544 I35.9744 J-55.0208
G3 X-24.7609 Y88.015 I38.3607 J-53.5658
G3 X-24.865 Y87.9341 I3.0459 J-4.026
G3 X-26.4927 Y86.6173 I36.6325 J-46.9487
G3 X-29.2134 Y84.1635 I33.7682 J-40.1752
G3 X-32.9252 Y80.1122 I31.9063 J-32.9585
G3 X-36.0966 Y75.6254 I32.4795 J-26.3215
G3 X-36.1618 Y75.438 I0.5917 J-0.3111
G3 X-36.2057 Y75.0925 I2.9693 J-0.5526
G1 X-36.2186 Y74.9598
G2 X-36.2536 Y74.7273 I-2.6292 J0.2764
G2 X-36.303 Y74.5555 I-1.2878 J0.2774
G2 X-36.4478 Y74.3294 I-0.5766 J0.2099
G2 X-36.6844 Y74.2026 I-0.3601 J0.3876
G2 X-37.2528 Y74.489 I14.0762 J28.6428
G2 X-41.2554 Y77.0783 I12.0242 J22.9757
G2 X-44.736 Y80.3358 I16.5794 J21.203
G2 X-41.1106 Y83.5473 I112.4362 J-123.2759
G1 X-40.7087 Y83.8925
G2 X-37.5106 Y86.5706 I118.0597 J-137.7354
G2 X-31.7862 Y91.0994 I137.5088 J-167.929
G2 X-31.5143 Y91.3071 I14.7085 J-18.9685
G2 X-31.2464 Y91.5112 I12.642 J-16.3161
G2 X-30.9824 Y91.7118 I11.2275 J-14.5052
G2 X-30.7222 Y91.9089 I10.1793 J-13.1665
G2 X-22.408 Y97.9544 I169.87 J-224.8775
G1 X-21.3545 Y98.69
G2 X-21.239 Y98.7702 I2.3277 J-3.2256
G2 X-21.1253 Y98.8492 I2.295 J-3.1833
G2 X-21.0134 Y98.9268 I2.2631 J-3.1419
G2 X-20.9032 Y99.0033 I2.232 J-3.1015
G2 X-20.7947 Y99.0784 I2.2016 J-3.0621
G2 X-20.6879 Y99.1524 I2.172 J-3.0235
G2 X-20.5826 Y99.2252 I2.1429 J-2.9857
G2 X-20.4791 Y99.2967 I2.1145 J-2.9487
G2 X-20.3771 Y99.3672 I2.0867 J-2.9124
G2 X-13.9093 Y103.7376 I243.9726 J-354.0892
G0 Z5.0
G0 X-13.5463 Y105.6608
G1 Z0.0
G1 X-13.8724 Y105.7223
G1 X-14.4763 Y105.8331
G1 X-15.9716 Y104.7335
G1 X-17.4711 Y103.6396
G2 X-17.6713 Y103.4942 I-6.4336 J8.6431
G1 X-18.74 Y102.7195
G1 X-20.1667 Y101.6893
G2 X-20.351 Y101.5565 I-6.0371 J8.1835
G1 X-26.2499 Y97.3134
G3 X-26.437 Y97.1784 I5.8552 J-8.3134
G3 X-26.627 Y97.0413 I5.8986 J-8.3728
G3 X-26.8201 Y96.9019 I5.9421 J-8.4318
G3 X-27.0161 Y96.7602 I5.9854 J-8.4904
G3 X-27.2152 Y96.6162 I6.0284 J-8.5484
G3 X-27.4175 Y96.4699 I6.0715 J-8.6059
G3 X-27.6229 Y96.3213 I6.1142 J-8.6627
G3 X-27.8315 Y96.1701 I6.1568 J-8.7188
G3 X-28.0434 Y96.0165 I6.199 J-8.7741
G3 X-28.2586 Y95.8604 I6.2409 J-8.8284
G3 X-28.4771 Y95.7018 I6.2822 J-8.8815
G3 X-28.699 Y95.5405 I6.323 J-8.9336
G3 X-28.9244 Y95.3765 I6.3633 J-8.9843
G3 X-33.7089 Y91.8476 I256.1973 J-352.359
G3 X-33.8587 Y91.7352 I4.8902 J-6.6764
G3 X-34.0096 Y91.6219 I4.8933 J-6.6738
G3 X-34.1617 Y91.5076 I4.8959 J-6.6702
G3 X-34.3149 Y91.3923 I4.898 J-6.666
G3 X-37.102 Y89.266 I168.803 J-224.1608
G3 X-37.2767 Y89.1308 I4.8514 J-6.448
G3 X-40.4469 Y86.6297 I142.8763 J-184.3574
G3 X-40.5456 Y86.5502 I3.3073 J-4.2103
G3 X-40.6447 Y86.4704 I3.3022 J-4.1988
G3 X-40.7441 Y86.3902 I3.2969 J-4.1873
G3 X-40.8438 Y86.3096 I3.2915 J-4.1756
G3 X-40.9438 Y86.2287 I3.286 J-4.1637
G3 X-41.0442 Y86.1473 I3.2806 J-4.1518
G1 X-41.8711 Y85.4731
G1 X-42.7206 Y84.7722
G3 X-46.5461 Y81.4982 I99.4686 J-120.0936
G3 X-46.6644 Y81.3935 I2.9468 J-3.4501
G1 X-47.1441 Y80.9669
G1 X-46.7526 Y79.4801
G3 X-42.8944 Y76.098 I31.7487 J32.3266
G3 X-38.6709 Y73.1845 I26.1114 J33.3345
G3 X-38.5311 Y73.1008 I2.0935 J3.3373
G3 X-35.4633 Y71.4652 I18.1797 J30.4032
G1 X-35.2631 Y71.3719
G3 X-34.6215 Y72.0116 I-0.5941 J1.2375
G3 X-34.5116 Y72.2981 I-1.5117 J0.7442
G3 X-34.4295 Y72.6968 I-2.5843 J0.7403
G3 X-34.3881 Y73.2325 I-5.2997 J0.6791
G3 X-34.384 Y73.3753 I-3.1185 J0.1593
G1 X-34.3794 Y73.7
G1 X-34.3775 Y73.8726
G2 X-34.3682 Y74.2644 I9.2998 J-0.0255
G1 X-34.3572 Y74.4724
G2 X-34.3045 Y74.9428 I5.0648 J-0.3291
G1 X-34.2941 Y75.0021
G2 X-34.1469 Y75.5302 I2.7631 J-0.4858
G2 X-30.8053 Y79.9751 I33.7965 J-21.9293
G2 X-26.9029 Y83.9367 I33.4119 J-29.0091
G2 X-25.7026 Y84.979 I33.1155 J-36.925
G2 X-25.5477 Y85.1086 I5.6488 J-6.5911
G2 X-25.3899 Y85.2396 I5.1657 J-6.0612
G2 X-25.2291 Y85.372 I4.7973 J-5.662
G2 X-23.735 Y86.5527 I31.1695 J-37.9076
G2 X-23.6395 Y86.6253 I2.3259 J-2.9602
G2 X-19.4367 Y89.5389 I37.697 J-49.8898
G2 X-19.3006 Y89.6252 I1.8424 J-2.7528
G2 X-19.1633 Y89.712 I1.839 J-2.7604
G2 X-16.6216 Y91.2438 I41.1082 J-65.335
G2 X-15.2442 Y92.0227 I37.4592 J-64.6338
G1 X-14.5282 Y92.4153
G2 X-11.2196 Y94.137 I55.5851 J-102.7777
G2 X-11.1149 Y94.1893 I1.5106 J-2.8922
G2 X-9.3224 Y95.0678 I57.0313 J-114.1027
G2 X-9.2095 Y95.1221 I1.7177 J-3.4257
G2 X-5.0619 Y97.0525 I85.3562 J-177.9725
G2 X-4.7993 Y97.1713 I5.4803 J-11.7672
G2 X-4.5346 Y97.2907 I6.3868 J-13.8055
G2 X-4.2676 Y97.4108 I8.0182 J-17.4639
G2 X-3.7251 Y97.654 I34.6591 J-76.5824
G1 X-2.6043 Y98.1533
G1 X-1.4463 Y98.6656
G1 X-0.8579 Y98.925
G1 X0.3569 Y99.4593
G1 X2.9461 Y100.5991
G1 X4.2804 Y101.1907
G1 X4.6163 Y101.3405
G1 X4.9547 Y101.4917
G1 X4.8059 Y102.0752
G1 X4.6163 Y102.1047
G2 X4.553 Y102.1147 I0.0779 J0.7009
G2 X4.3002 Y102.1549 I1.0623 J7.4974
G1 X3.7949 Y102.2371
G2 X2.7855 Y102.4086 I16.3599 J99.3533
G1 X2.1134 Y102.5276
G1 X1.2181 Y102.6911
G2 X-2.3547 Y103.3882 I42.3698 J226.6572
G2 X-3.3738 Y103.596 I25.1307 J125.8454
G1 X-4.538 Y103.8362
G1 X-5.1587 Y103.9651
G1 X-6.5773 Y104.2604
G1 X-8.1987 Y104.5972
G1 X-9.0637 Y104.7755
G1 X-9.5104 Y104.8669
G1 X-10.4634 Y105.0603
G3 X-11.4806 Y105.2633 I-22.8044 J-111.591
G1 X-12.5665 Y105.4754
G1 X-12.7035 Y105.5017
G1 X-13.5463 Y105.6608
G0 Z5.0
G0 X0.5033 Y83.622
G1 Z0.0
G2 X2.809 Y84.8736 I37.703 J-66.7057
G2 X11.7964 Y88.862 I36.7718 J-70.7405
G2 X18.822 Y91.1193 I28.1399 J-75.519
G2 X24.214 Y92.3777 I19.9257 J-73.1972
G1 X24.724 Y92.4756
G2 X28.6978 Y93.1105 I12.9913 J-68.5565
G2 X34.7113 Y93.6254 I8.6503 J-65.6569
G2 X37.7298 Y93.6673 I2.3242 J-58.616
G2 X40.7464 Y93.5518 I-0.575 J-54.4455
G2 X43.0813 Y93.6709 I2.1059 J-18.3358
G2 X45.119 Y93.5477 I-0.3066 J-21.9956
G2 X46.8861 Y93.3007 I-2.8991 J-27.1833
G2 X48.4176 Y93.0014 I-6.1141 J-35.3496
G2 X51.0677 Y92.3459 I-11.6956 J-52.9724
G2 X51.1912 Y92.3123 I-1.2044 J-4.6608
G2 X51.3127 Y92.2789 I-1.0665 J-4.1258
G2 X51.4323 Y92.2459 I-0.965 J-3.7306
G2 X51.5499 Y92.2133 I-0.8864 J-3.4235
G2 X52.4747 Y91.9515 I-82.8773 J-294.5818
G1 X53.2826 Y91.7174
G1 X53.9889 Y91.5107
G1 X54.6069 Y91.3297
G1 X55.6894 Y91.0163
G3 X56.5029 Y90.7872 I17.5419 J60.728
G1 X57.1145 Y90.6206
G1 X57.5743 Y90.4994
G3 X57.6175 Y90.4882 I0.1928 J0.6556
G3 X58.96 Y90.1615 I11.0702 J42.5623
G2 X59.9007 Y89.6533 I-21.9905 J-41.8305
G2 X60.7718 Y89.1545 I-17.8351 J-32.161
G2 X62.3683 Y88.1539 I-16.9559 J-28.8285
G2 X63.7156 Y87.1973 I-14.4272 J-21.7463
G2 X63.7878 Y87.1425 I-0.7142 J-1.0151
G2 X63.8591 Y87.0879 I-0.7103 J-1.0021
G2 X63.9298 Y87.0334 I-0.7066 J-0.9896
G2 X63.9996 Y86.9792 I-0.7031 J-0.9774
G2 X64.0688 Y86.9251 I-0.6999 J-0.9658
G2 X64.1372 Y86.8711 I-0.6968 J-0.9545
G1 X64.4067 Y86.6547
G1 X64.6648 Y86.4413
G2 X65.6333 Y85.577 I-14.4002 J-17.1127
G2 X66.0396 Y85.1793 I-12.8482 J-13.5321
G2 X67.4449 Y83.5767 I-12.0811 J-12.0114
G2 X67.6844 Y83.256 I-10.261 J-7.9119
G2 X68.5014 Y81.9971 I-11.2219 J-8.1771
G2 X69.4477 Y79.956 I-11.1025 J-6.3871
G2 X70.009 Y77.7775 I-11.5988 J-4.1501
G3 X70.083 Y77.7721 I0.1154 J1.087
G3 X70.1568 Y77.7669 I0.1147 J1.0879
G3 X70.2302 Y77.7617 I0.114 J1.0888
G3 X74.9159 Y77.5095 I9.7575 J137.6623
G1 X75.7951 Y77.4788
G3 X79.0936 Y77.4047 I5.1811 J157.2085
G3 X81.5679 Y77.3867 I2.4808 J171.4518
G1 X82.4958 Y77.3871
G1 X82.9018 Y77.3883
G1 X84.4241 Y77.3981
G1 X84.7096 Y77.4007
G1 X84.9772 Y77.4035
G1 X85.2281 Y77.4062
G1 X85.4633 Y77.409
G1 X85.6838 Y77.4117
G1 X87.3372 Y77.4357
G1 X87.5439 Y77.4391
G1 X88.2672 Y77.4516
G1 X88.4481 Y77.4549
G1 X88.7193 Y77.4599
G1 X88.9905 Y77.4649
G3 X90.1045 Y78.6494 I-4.4609 J5.3115
G3 X90.8443 Y79.8528 I-6.7324 J4.968
G3 X91.108 Y80.4101 I-10.7684 J5.4371
G3 X91.3282 Y80.9441 I-8.9813 J4.0148
G1 X91.3764 Y81.0706
G1 X91.4228 Y81.1955
G3 X91.7546 Y82.1905 I-18.5408 J6.7346
G1 X91.885 Y82.6306
G3 X92.0016 Y83.0449 I-23.315 J6.786
G1 X92.0548 Y83.2396
G1 X92.1058 Y83.4284
G1 X92.203 Y83.7946
G1 X92.2483 Y83.9664
G1 X92.4236 Y84.6321
G1 X92.5014 Y84.9231
G1 X92.6516 Y85.4678
G2 X92.9372 Y86.4147 I31.4853 J-8.9805
G1 X93.0551 Y86.7666
G2 X93.2805 Y87.3758 I12.1204 J-4.1381
G2 X93.3723 Y87.6015 I5.4877 J-2.0998
G2 X93.7306 Y88.3751 I8.9463 J-3.6734
G2 X94.1563 Y89.1137 I7.5146 J-3.8398
G1 X101.9028 Y77.1137
G2 X97.4104 Y73.1568 I-82.8692 J89.556
G2 X95.675 Y71.7317 I-75.5291 J90.2051
G2 X89.3667 Y67.0466 I-61.9945 J76.8843
G2 X89.1634 Y66.9086 I-4.4993 J6.4097
G2 X88.9662 Y66.7755 I-4.4514 J6.3833
G2 X85.8632 Y64.7819 I-49.9762 J74.3732
G2 X85.6664 Y64.6618 I-5.4673 J8.7386
G2 X85.4816 Y64.5497 I-5.4352 J8.7536
G2 X85.3081 Y64.4451 I-5.4094 J8.7749
G2 X85.1451 Y64.3474 I-5.3898 J8.8028
G2 X82.6742 Y62.9289 I-39.5851 J66.0929
G3 X80.817 Y64.6288 I-9.3396 J-8.3393
G3 X78.9579 Y65.7879 I-8.1526 J-11.0065
G3 X77.2119 Y66.5642 I-7.5427 J-14.6118
G3 X75.627 Y67.0877 I-7.4049 J-19.757
G1 X75.2754 Y67.1856
G1 X74.9336 Y67.2752
G3 X73.5987 Y67.5796 I-7.2167 J-28.5706
G3 X72.421 Y67.798 I-8.0571 J-40.1679
G1 X72.1625 Y67.8407
G3 X70.1523 Y68.1245 I-8.3265 J-51.7109
G3 X70.0578 Y68.1362 I-0.3602 J-2.5356
G3 X69.9648 Y68.1475 I-0.3362 J-2.3713
G3 X69.8732 Y68.1586 I-0.3159 J-2.2325
G3 X69.783 Y68.1693 I-0.2984 J-2.1129
G3 X68.3624 Y68.3286 I-18.8716 J-161.8834
G2 X66.2299 Y68.5533 I60.3652 J583.1483
G1 X65.697 Y68.6118
G1 X64.8982 Y68.7045
G1 X64.4991 Y68.754
G1 X64.1005 Y68.8061
G1 X63.2053 Y68.8196
G1 X62.3241 Y68.8305
G1 X61.4566 Y68.839
G3 X58.0408 Y68.8535 I-3.7207 J-476.5979
G3 X51.6362 Y68.8121 I0.3715 J-554.0973
G1 X50.9358 Y68.8033
G1 X50.2463 Y68.794
G1 X49.5675 Y68.7842
G1 X48.8994 Y68.7741
G1 X48.2417 Y68.7635
G1 X45.6522 Y68.7181
G1 X43.2246 Y68.6712
G1 X42.0867 Y68.6482
G1 X37.6772 Y68.5578
G1 X35.748 Y68.5194
G1 X33.9392 Y68.4851
G1 X32.2436 Y68.4553
G1 X30.6538 Y68.4299
G1 X29.1634 Y68.4087
G1 X27.766 Y68.3916
G1 X26.456 Y68.3783
G1 X25.2278 Y68.3684
G1 X24.0764 Y68.3617
G1 X22.9969 Y68.3578
G2 X18.9487 Y68.3666 I-1.2064 J375.1862
G1 X17.4307 Y68.3806
G1 X16.1025 Y68.3982
G1 X14.9404 Y68.4179
G1 X13.9237 Y68.4386
G1 X13.034 Y68.4595
G1 X12.2557 Y68.48
G1 X10.8936 Y68.5209
G1 X9.8723 Y68.5561
G1 X9.1064 Y68.585
G1 X7.9576 Y68.6326
G1 X6.8091 Y68.6856
G2 X5.2086 Y68.8191 I1.3348 J25.6464
G2 X2.4379 Y69.2997 I2.5591 J22.9859
G2 X0.413 Y69.9015 I4.528 J18.941
G2 X-1.0525 Y70.5065 I5.8797 J16.319
G2 X-3.1213 Y71.6777 I6.6329 J14.1299
G2 X-4.9766 Y73.1638 I8.2356 J12.1826
G2 X-5.2729 Y74.7352 I4.976 J1.7519
G2 X-5.1488 Y76.1115 I5.6983 J0.1799
G2 X-4.7985 Y77.2602 I6.9977 J-1.5063
G2 X-4.3533 Y78.2086 I8.1382 J-3.2416
G2 X-3.3567 Y79.7427 I10.6998 J-5.8598
G1 X-3.1469 Y80.0139
G2 X-2.7381 Y80.5101 I12.117 J-9.5666
G2 X-1.1837 Y82.1351 I16.5055 J-14.2329
G2 X-0.3529 Y82.893 I21.4279 J-22.6531
G2 X-0.2472 Y82.9856 I3.1351 J-3.4746
G1 X-0.0611 Y83.1466
G2 X0.5033 Y83.622 I18.0775 J-20.8901
G0 Z5.0
G0 X-0.5415 Y85.2152
G1 Z0.0
G3 X-2.5868 Y83.6886 I11.5199 J-17.5673
G3 X-4.6726 Y81.5648 I10.4181 J-12.3181
G3 X-5.6058 Y80.2712 I11.1767 J-9.0457
G3 X-7.1564 Y76.9356 I11.7497 J-7.4903
G3 X-7.6273 Y75.0153 I14.5971 J-4.5975
G3 X-7.779 Y74.0032 I17.1002 J-3.0812
G3 X-6.6678 Y72.3058 I8.5977 J4.4161
G3 X-5.2397 Y70.8646 I8.2249 J6.7222
G3 X-4.1556 Y70.0548 I8.2169 J9.8689
G3 X-4.084 Y70.0073 I0.7202 J1.0097
G3 X-2.4934 Y69.1021 I7.9382 J12.0989
G3 X-0.2406 Y68.1814 I8.0037 J16.3664
G3 X2.8863 Y67.3709 I7.5369 J22.6413
G1 X2.9864 Y67.352
G3 X7.2705 Y66.8713 I5.4753 J29.4701
G1 X65.5798 Y66.9592
G1 X65.9203 Y66.9196
G3 X66.0339 Y66.9066 I0.2541 J1.7225
G1 X66.4882 Y66.8557
G3 X66.618 Y66.8414 I0.2969 J2.0982
G3 X66.6873 Y66.8338 I0.2079 J1.5756
G3 X66.7612 Y66.8257 I0.219 J1.6603
G3 X66.8401 Y66.8171 I0.2312 J1.7535
G3 X66.9241 Y66.808 I0.2446 J1.8568
G1 X68.2691 Y66.6618
G2 X68.4484 Y66.6418 I-0.9648 J-9.5006
G1 X68.8581 Y66.5955
G1 X69.3261 Y66.5406
G1 X69.8605 Y66.4747
G1 X70.1454 Y66.4378
G1 X70.449 Y66.397
G2 X72.0635 Y66.1453 I-5.7378 J-42.1158
G2 X74.1936 Y65.6846 I-4.8355 J-27.5143
G1 X74.4653 Y65.6117
G1 X74.7448 Y65.5327
G2 X76.0068 Y65.1187 I-5.1391 J-17.7956
G2 X76.6665 Y64.8591 I-6.685 J-17.9611
G2 X78.127 Y64.1528 I-5.7484 J-13.7487
G2 X79.6854 Y63.1398 I-6.3745 J-11.5127
G2 X79.7319 Y63.1045 I-0.3331 J-0.4866
G2 X80.1673 Y62.6641 I-1.37 J-1.7899
G2 X80.4695 Y62.1234 I-2.0127 J-1.4795
G1 X80.535 Y61.9588
G2 X80.6882 Y61.5135 I-10.1033 J-3.7237
G3 X80.7281 Y61.3945 I1.8678 J0.5603
G3 X80.8255 Y61.1254 I4.5898 J1.5082
G3 X80.9577 Y60.8267 I3.365 J1.3109
G3 X81.4883 Y60.1349 I2.0144 J0.9958
G3 X81.8989 Y59.8437 I1.7585 J2.0439
G3 X83.6063 Y60.8818 I-38.801 J65.7398
G3 X85.2886 Y61.9602 I-43.7542 J70.1108
G1 X85.7648 Y62.2752
G1 X86.3066 Y62.6388
G3 X90.555 Y65.6706 I-59.5576 J87.9487
G1 X91.1107 Y66.0895
G3 X92.3727 Y67.058 I-90.9157 J119.764
G3 X92.6965 Y67.3103 I-19.4154 J25.2559
G3 X93.03 Y67.5717 I-17.001 J22.0381
G3 X96.5454 Y70.4118 I-103.8508 J132.1371
G3 X96.7663 Y70.5949 I-9.2746 J11.4158
G3 X96.9905 Y70.7812 I-9.3499 J11.4807
G3 X101.7289 Y74.8062 I-229.9152 J275.4658
G3 X102.0278 Y75.064 I-17.1075 J20.1385
G3 X102.3314 Y75.326 I-18.6402 J21.8997
G3 X102.6397 Y75.5924 I-20.6786 J24.2463
G3 X102.9527 Y75.863 I-23.5671 J27.5762
G3 X103.2707 Y76.138 I-28.1106 J32.8197
G3 X103.9269 Y76.7059 I-65.653 J76.5295
G3 X102.905 Y79.0183 I-23.5618 J-9.0306
G1 X102.7411 Y79.3403
G3 X101.3017 Y81.8452 I-30.0502 J-15.602
G3 X100.2436 Y83.4544 I-46.17 J-29.2057
G3 X100.1744 Y83.5553 I-2.602 J-1.7099
G1 X99.8772 Y83.9841
G1 X99.5567 Y84.4389
G1 X99.2114 Y84.9215
G1 X98.8399 Y85.434
G1 X98.4408 Y85.9785
G1 X97.5224 Y87.2179
G2 X97.4055 Y87.3751 I10.8125 J8.1611
G1 X96.9073 Y88.046
G1 X96.3781 Y88.763
G2 X95.1875 Y90.4148 I92.9551 J68.2533
G1 X94.8868 Y90.8456
G1 X94.5801 Y91.2929
G2 X93.9405 Y92.257 I38.6596 J26.3393
G1 X92.4523 Y91.8492
G1 X92.3227 Y91.3615
G1 X92.28 Y91.1988
G1 X92.1109 Y90.5476
G1 X92.063 Y90.3613
G1 X91.6836 Y88.871
G2 X90.9034 Y85.8957 I-144.7464 J36.3667
G2 X90.8502 Y85.7045 I-4.9993 J1.2867
G2 X90.6005 Y84.8324 I-45.5842 J12.5808
G1 X90.4622 Y84.3687
G1 X90.3101 Y83.8754
G2 X89.4045 Y81.2756 I-38.5714 J11.9789
G2 X88.8013 Y79.8218 I-31.4967 J12.2171
G1 X88.7196 Y79.6393
G2 X86.6261 Y79.4452 I-10.5283 J102.1567
G1 X86.3267 Y79.4204
G1 X86.167 Y79.4075
G2 X85.3151 Y79.3424 I-5.9832 J72.6848
G1 X85.0878 Y79.3261
G1 X84.8453 Y79.3093
G1 X84.5866 Y79.2919
G2 X80.4433 Y79.1036 I-6.5203 J97.7896
G2 X72.1521 Y79.3044 I-2.124 J83.5516
G1 X68.043 Y86.2205
G3 X65.5323 Y88.1777 I-23.4542 J-27.4984
G3 X62.8611 Y89.9096 I-21.5708 J-30.3423
G3 X57.1191 Y92.6463 I-18.7316 J-31.9089
G3 X55.402 Y93.2475 I-12.8718 J-34.0145
G3 X50.712 Y94.4737 I-13.1538 J-40.73
G3 X47.9821 Y94.9442 I-9.2487 J-45.5079
G3 X47.896 Y94.9564 I-0.369 J-2.2857
G3 X44.7388 Y95.305 I-7.4691 J-53.1823
G3 X41.1164 Y95.4864 I-4.823 J-60.0323
G1 X40.6559 Y95.4944
G3 X39.7053 Y95.501 I-0.8624 J-56.268
G3 X35.3683 Y95.3734 I0.1076 J-77.4784
G3 X30.4367 Y94.9584 I5.542 J-95.357
G3 X27.819 Y94.6413 I14.588 J-131.3986
G3 X27.655 Y94.6195 I0.6339 J-5.3916
G3 X24.864 Y94.2163 I18.7835 J-139.8692
G3 X21.8998 Y93.7295 I23.1957 J-150.506
G1 X21.5271 Y93.6645
G1 X21.1515 Y93.5983
G1 X20.7732 Y93.5309
G1 X20.0053 Y93.3918
G1 X19.2261 Y93.2478
G1 X18.4353 Y93.0989
G1 X18.037 Y93.0229
G1 X17.6357 Y92.9457
G1 X17.2315 Y92.8673
G3 X16.8243 Y92.7877 I7.7514 J-40.7611
G1 X15.9978 Y92.6246
G1 X15.4925 Y92.388
G1 X15.3235 Y92.3104
G1 X15.0976 Y92.2081
G1 X14.7957 Y92.0734
G2 X14.715 Y92.0378 I-0.4383 J0.8834
G2 X14.6733 Y92.0194 I-0.3074 J0.6419
G2 X13.3337 Y91.4487 I-32.2186 J73.7738
G2 X12.4347 Y91.0822 I-23.7553 J56.9819
G1 X11.9195 Y90.8765
G1 X11.3297 Y90.6438
G1 X10.6549 Y90.3802
G1 X10.2947 Y90.2403
G1 X8.3738 Y89.4941
G1 X7.8623 Y89.2932
G1 X7.3174 Y89.0769
G1 X6.7373 Y88.8436
G1 X6.4385 Y88.7218
G3 X5.0784 Y88.1506 I30.9485 J-75.5972
G1 X4.7293 Y87.9986
G3 X3.9881 Y87.6667 I16.4631 J-37.7581
G3 X2.3152 Y86.8611 I18.4382 J-40.4306
G3 X0.4545 Y85.8386 I14.7285 J-29.0047
G3 X-0.5064 Y85.2382 I12.8303 J-21.6043
G3 X-0.5415 Y85.2152 I11.4848 J-17.5903
G0 Z5.0
G0 X4.2473 Y50.8566
G1 Z0.0
G2 X8.518 Y51.4209 I41.7933 J-299.8565
G2 X9.3898 Y51.5284 I9.4491 J-73.0118
G2 X10.2483 Y51.6317 I10.7996 J-86.1537
G2 X11.0937 Y51.7308 I13.9278 J-115.1274
G2 X14.4252 Y52.0962 I26.8926 J-229.8762
G2 X14.6206 Y52.1163 I0.7604 J-6.4161
G2 X14.8152 Y52.1362 I0.754 J-6.403
G2 X15.0091 Y52.1559 I0.7476 J-6.39
G2 X21.1953 Y52.7089 I27.1643 J-269.0266
G1 X22.5504 Y52.8098
G1 X23.8636 Y52.9004
G2 X26.4092 Y53.0556 I18.5921 J-283.9843
G2 X35.967 Y53.3861 I12.4239 J-220.919
G2 X43.1402 Y53.3548 I2.6966 J-203.6852
G2 X53.8862 Y52.8169 I-4.0597 J-188.7273
G2 X54.2215 Y52.7901 I-1.0177 J-14.8268
G2 X54.5462 Y52.7635 I-1.0564 J-14.901
G2 X54.8607 Y52.7372 I-1.0951 J-14.9821
G2 X55.1653 Y52.7112 I-1.1338 J-15.071
G2 X64.5812 Y51.6403 I-14.9487 J-173.3688
G2 X64.7669 Y51.4671 I-0.7723 J-1.0144
G2 X64.8996 Y51.2754 I-0.654 J-0.5942
G2 X64.98 Y50.8624 I-0.6692 J-0.3447
G2 X64.8889 Y50.5188 I-1.1058 J0.1095
G2 X64.7457 Y50.2457 I-2.0818 J0.9172
G2 X64.4341 Y49.8061 I-4.3106 J2.7262
G1 X64.3084 Y49.6476
G1 X64.0866 Y49.3717
G3 X63.7695 Y48.945 I4.3055 J-3.5311
G3 X63.6318 Y48.717 I1.936 J-1.3244
G3 X63.5245 Y48.4732 I1.2464 J-0.694
G2 X60.6322 Y46.2147 I-24.4462 J28.3256
G2 X55.0997 Y42.9499 I-23.0207 J32.6903
G2 X54.0044 Y42.439 I-16.2853 J33.4806
G2 X49.7627 Y40.8445 I-14.8868 J33.1644
G2 X46.4589 Y40.0238 I-9.3244 J30.4758
G2 X43.9299 Y39.656 I-5.3663 J28.0177
