( Made using CamBam - http://www.cambam.co.uk )
( car1 1/21/2014 10:38:46 PM )
( T0 : 0.0 )
G21 G90 G64 G40
G0 Z5.0
( T0 : 0.0 )
T0 M6
( 156-170 )
G17
M3 S1000
G0 X-108.0107 Y1.1345
G1 F1.0 Z0.0
G2 X-107.9039 Y1.0501 I-1.3912 J-1.871
G2 X-107.3187 Y0.3593 I-1.6613 J-2.0005
G2 X-107.1298 Y-0.0562 I-1.9058 J-1.1173
G2 X-107.0517 Y-0.5059 I-1.426 J-0.4794
G2 X-107.2852 Y-1.1973 I-1.1786 J0.0129
G2 X-107.6714 Y-1.5752 I-1.3405 J0.9837
G2 X-108.401 Y-1.9174 I-1.3527 J1.9352
G2 X-109.1997 Y-2.0253 I-0.7974 J2.8942
G2 X-109.9093 Y-1.943 I-0.0155 J2.9659
G2 X-110.4217 Y-1.7629 I0.6041 J2.5387
G2 X-110.7746 Y-1.5519 I0.852 J1.8249
G2 X-111.1948 Y-1.0996 I0.9439 J1.2982
G2 X-111.3642 Y-0.5059 I0.9737 J0.5989
G2 X-111.3008 Y-0.1035 I1.4007 J-0.0145
G2 X-110.9869 Y0.5307 I2.1786 J-0.6836
G2 X-110.2165 Y1.2577 I2.1169 J-1.4713
G2 X-109.7285 Y1.4757 I1.1113 J-1.8328
G2 X-109.1997 Y1.5542 I0.5334 J-1.7747
G2 X-108.4135 Y1.3751 I-0.0153 J-1.8829
G2 X-108.0107 Y1.1345 I-0.9884 J-2.1116
G0 Z5.0
G0 X174.6185 Y48.3417
G1 Z0.0
G2 X174.4827 Y49.2263 I33.4256 J5.583
G2 X174.4084 Y49.7691 I23.8616 J3.5434
G1 X174.3419 Y50.3041
G2 X174.229 Y51.3594 I41.7007 J4.9941
G1 X174.2051 Y51.6154
G2 X173.9891 Y55.6881 I57.558 J5.095
G2 X173.9776 Y56.5798 I48.1779 J1.0673
G2 X173.9854 Y58.3073 I73.5339 J0.5306
G1 X173.9887 Y58.5098
G1 X173.9925 Y58.7107
G1 X173.9966 Y58.91
G1 X174.0172 Y59.7006
G1 X174.043 Y60.4663
G2 X174.1885 Y63.4316 I142.2926 J-5.498
G1 X174.208 Y63.7557
G1 X174.2278 Y64.0748
G1 X174.2477 Y64.3889
G1 X174.3305 Y65.6251
G1 X174.4129 Y66.7838
G1 X174.4328 Y67.0553
G1 X174.5923 Y69.1934
G3 X174.8637 Y72.9357 I-392.098 J30.3184
G1 X174.9101 Y73.6377
G3 X174.9907 Y74.9546 I-141.4871 J9.3255
G3 X175.1059 Y77.2606 I-127.608 J7.5298
G1 X175.1385 Y78.1258
G3 X175.1949 Y81.1557 I-92.8814 J3.2436
G1 X175.1927 Y81.9133
G3 X175.1395 Y84.1855 I-76.1978 J-0.647
G3 X175.1406 Y84.2514 I-1.3097 J0.0547
G3 X175.1416 Y84.317 I-1.3154 J0.0538
G3 X175.1426 Y84.3824 I-1.3213 J0.0528
G3 X175.1436 Y84.4475 I-1.3271 J0.0519
G3 X175.1445 Y84.5123 I-1.333 J0.051
G3 X175.1453 Y84.5769 I-1.339 J0.0501
G3 X175.154 Y86.6351 I-110.8322 J1.4976
G1 X175.1521 Y87.0853
G1 X175.1458 Y87.9576
G3 X175.1449 Y88.0599 I-2.8763 J0.0255
G1 X175.1282 Y89.6828
G1 X175.1151 Y91.103
G2 X175.1148 Y93.5886 I131.892 J1.2593
G1 X175.1172 Y93.8216
G2 X175.1315 Y94.7246 I134.379 J-1.679
G1 X175.1358 Y94.9221
G1 X175.1405 Y95.1135
G1 X175.1454 Y95.2988
G1 X175.1505 Y95.4784
G1 X175.1559 Y95.6523
G2 X175.2118 Y96.9996 I73.9464 J-2.3943
G1 X175.2184 Y97.1258
G1 X175.2251 Y97.2482
G2 X175.5629 Y101.0289 I53.6958 J-2.8918
G2 X176.2977 Y101.9298 I4.5111 J-2.9293
G2 X178.0113 Y102.9721 I3.1063 J-3.1773
G2 X178.7326 Y103.1623 I1.8604 J-5.5921
G2 X179.3769 Y103.2584 I1.5434 J-8.1402
G1 X179.5185 Y103.2722
G2 X180.6206 Y103.3158 I1.07 J-13.0962
G1 X181.0341 Y103.3114
G2 X181.3958 Y103.3022 I-0.5801 J-29.7727
G1 X182.0286 Y103.2798
G1 X182.266 Y103.271
G1 X182.6812 Y103.2573
G3 X182.7591 Y103.2552 I0.0936 J1.9706
G3 X183.9277 Y103.2539 I0.604 J17.8668
G2 X184.9227 Y101.8747 I-5.5984 J-5.0874
G2 X185.525 Y100.5259 I-7.0763 J-3.9688
G2 X185.7152 Y99.9106 I-8.3245 J-2.9102
G1 X185.754 Y99.7649
G2 X185.8875 Y99.1865 I-12.9396 J-3.2918
G2 X186.0658 Y98.089 I-13.163 J-2.7011
G1 X186.0805 Y97.9684
G1 X186.0941 Y97.8495
G2 X186.2266 Y95.9702 I-26.1966 J-2.791
G1 X186.2394 Y95.6171
G1 X186.2586 Y94.9549
G1 X186.2882 Y93.7959
G3 X186.2913 Y93.6872 I1.776 J-0.0025
G3 X186.3725 Y92.0043 I37.9451 J0.9869
G3 X186.451 Y91.1653 I22.5153 J1.6827
G1 X186.4763 Y90.9561
G3 X186.4865 Y90.8777 I0.8461 J0.0699
G1 X186.5251 Y90.6039
G1 X186.5688 Y90.3309
G1 X186.5722 Y90.254
G2 X186.6144 Y89.0266 I-80.0497 J-3.3669
G2 X186.6265 Y88.4319 I-26.9951 J-0.8431
G1 X186.6305 Y88.1392
G1 X186.6351 Y87.5583
G1 X186.6353 Y86.9865
G2 X186.5159 Y82.4861 I-103.3659 J0.4914
G2 X186.284 Y78.5541 I-180.6878 J8.682
G1 X186.2226 Y77.6946
G1 X186.1918 Y77.2784
G1 X186.1293 Y76.4591
G1 X186.1138 Y76.2607
G1 X186.0513 Y75.4734
G1 X186.0359 Y75.2827
G1 X185.9107 Y73.7696
G1 X185.8808 Y73.4149
G1 X185.3996 Y67.8308
G1 X185.3117 Y66.7835
G3 X185.3015 Y66.6607 I2.7271 J-0.288
G1 X185.2218 Y65.6863
G3 X184.9493 Y62.0301 I281.5454 J-22.828
G1 X184.9043 Y61.3441
G3 X184.7591 Y58.7701 I157.4165 J-10.171
G3 X184.7366 Y58.2871 I29.0723 J-1.593
G1 X184.7172 Y57.8343
G1 X184.685 Y56.9852
G1 X184.6618 Y56.242
G3 X184.6234 Y53.6398 I91.3673 J-2.6505
G1 X184.6257 Y52.9892
G1 X184.6279 Y52.7451
G3 X184.6337 Y52.3182 I28.0749 J0.1657
G1 X184.647 Y51.6778
G1 X184.6663 Y51.0377
G1 X184.2969 Y50.0851
G2 X183.6202 Y48.4271 I-36.2119 J13.8131
G2 X183.0327 Y47.2149 I-15.8259 J6.9211
G2 X182.5178 Y46.3435 I-10.4268 J5.5739
G2 X181.5862 Y45.1448 I-7.2599 J4.6803
G2 X180.4362 Y44.1537 I-5.0789 J4.7306
G1 X180.4126 Y44.152
G1 X180.3183 Y44.1437
G3 X179.9484 Y44.0956 I0.5455 J-5.6429
G1 X179.5998 Y44.0383
G1 X178.9403 Y43.9233
G2 X178.3483 Y43.8321 I-2.4483 J13.9171
G2 X177.8165 Y43.7738 I-1.1165 J7.7402
G1 X177.6977 Y43.7653
G1 X177.5821 Y43.7588
G2 X177.4696 Y43.7545 I-0.2534 J5.1643
G2 X177.0323 Y43.7601 I-0.1632 J4.3664
G2 X176.648 Y43.8034 I0.1827 J3.3471
G2 X176.3166 Y43.8827 I0.3662 J2.2629
G2 X175.7837 Y44.1497 I0.5058 J1.6748
G2 X175.4731 Y44.4703 I0.8597 J1.1437
G2 X175.3117 Y44.7624 I1.2697 J0.8922
G2 X175.1769 Y45.2431 I1.8235 J0.7707
G2 X175.1482 Y45.4912 I2.1533 J0.3745
G1 X175.1416 Y45.616
G1 X175.1395 Y45.7409
G2 X174.6583 Y48.1087 I35.9224 J8.5332
G2 X174.6185 Y48.3417 I33.3859 J5.8161
G0 Z5.0
G0 X358.8243 Y168.6241
G1 Z0.0
G2 X358.2855 Y169.6453 I5.2092 J3.4015
G2 X357.9793 Y170.5732 I6.3817 J2.6204
G2 X357.898 Y170.9305 I6.2712 J1.6149
G2 X357.8407 Y171.246 I5.6947 J1.1958
G2 X357.7328 Y172.3618 I9.167 J1.4501
G2 X357.7459 Y173.4828 I11.4723 J0.4261
G1 X357.9451 Y173.2818
G1 X358.098 Y173.1347
G3 X358.5945 Y172.7368 I2.5988 J2.7345
G3 X359.1339 Y172.7054 I0.4375 J2.8662
G3 X359.5369 Y172.7656 I-0.0495 J1.7115
G3 X360.0808 Y173.0388 I-0.408 J1.4899
G3 X360.4969 Y173.4828 I-1.3234 J1.6576
G3 X360.5836 Y173.7638 I-0.9208 J0.4377
G3 X360.4305 Y174.2262 I-0.5301 J0.081
G3 X360.2979 Y174.3455 I-0.7055 J-0.6503
G3 X360.0408 Y174.5219 I-1.8607 J-2.4369
G1 X359.9914 Y174.5537
G2 X359.6356 Y174.8133 I1.4345 J2.3394
G2 X359.3734 Y175.1671 I0.6563 J0.7603
G2 X358.5362 Y175.4785 I0.4425 J2.4704
G2 X358.2452 Y175.6984 I0.772 J1.3247
G2 X358.052 Y175.9567 I0.6277 J0.6709
G2 X358.0859 Y176.4813 I0.4588 J0.2338
G2 X358.3501 Y176.751 I0.8621 J-0.5803
G2 X358.8432 Y177.0229 I1.4461 J-2.0396
G2 X359.3734 Y177.2125 I1.859 J-4.3628
G2 X359.619 Y177.224 I0.1622 J-0.8386
G2 X360.0517 Y177.0956 I-0.1544 J-1.314
G2 X360.3876 Y176.8947 I-1.02 J-2.0871
G2 X360.9009 Y176.4441 I-2.2094 J-3.0348
G2 X361.5296 Y175.6346 I-3.5242 J-3.3856
G2 X361.7728 Y175.1797 I-3.1732 J-1.9893
G2 X361.863 Y174.9369 I-2.4389 J-1.0441
G2 X361.9064 Y174.6814 I-0.9268 J-0.2886
G2 X361.8819 Y174.4364 I-0.7284 J-0.051
G2 X361.8024 Y174.2204 I-1.2576 J0.3402
G1 X361.7786 Y174.1713
G2 X361.6722 Y173.9839 I-1.5348 J0.7478
G2 X361.558 Y173.8132 I-2.4209 J1.4957
G1 X361.4415 Y173.6552
G2 X361.3254 Y173.5069 I-13.9046 J10.7659
G1 X361.0962 Y173.2269
G2 X361.0695 Y173.1948 I-0.5028 J0.39
G1 X360.9639 Y173.0672
G3 X360.5745 Y172.5643 I6.4313 J-5.3811
G3 X360.4364 Y172.346 I2.0788 J-1.4683
G3 X360.3364 Y172.1381 I1.277 J-0.7421
G3 X360.2832 Y171.9409 I0.7396 J-0.3057
G3 X360.3491 Y171.5979 I0.4902 J-0.0836
G3 X360.5279 Y171.4159 I0.5584 J0.3697
G3 X360.8691 Y171.2491 I0.7803 J1.1638
G1 X360.9141 Y171.2339
G3 X361.2356 Y171.1496 I0.8174 J2.4625
G2 X362.9677 Y171.2539 I1.8792 J-16.7735
G2 X364.4881 Y171.2308 I0.2829 J-31.3393
G1 X364.6547 Y171.2243
G1 X365.3105 Y171.1946
G1 X365.6183 Y171.1791
G1 X365.9165 Y171.1636
G1 X366.4946 Y171.134
G1 X367.0372 Y171.1088
G1 X367.5465 Y171.0894
G1 X368.0246 Y171.0768
G1 X368.4732 Y171.0715
G3 X368.8942 Y171.0736 I0.1325 J16.0964
G3 X369.289 Y171.0828 I-0.19 J16.6198
G3 X370.7654 Y171.1985 I-0.4406 J15.1028
G1 X371.0408 Y171.2375
G3 X372.0633 Y171.4441 I-1.7147 J11.1232
G3 X373.5406 Y171.9582 I-2.0996 J8.4121
G3 X374.8972 Y172.7368 I-3.3625 J7.4301
G2 X374.9527 Y172.4722 I-5.5598 J-1.3044
G1 X374.9768 Y172.3478
G1 X374.9991 Y172.227
G2 X375.078 Y171.7578 I-11.7519 J-2.2167
G2 X375.094 Y171.6549 I-1.5809 J-0.2983
G1 X375.2107 Y170.8566
G1 X375.2325 Y170.7068
G1 X375.2532 Y170.5664
G3 X375.438 Y169.5183 I15.6448 J2.217
G1 X375.4524 Y169.4533
G3 X375.578 Y168.9698 I6.7319 J1.492
G1 X375.6153 Y168.8507
G3 X375.7458 Y168.4994 I4.2725 J1.3864
G2 X374.7128 Y168.2608 I-2.2062 J7.1969
G2 X373.729 Y168.1437 I-1.9707 J12.3595
G1 X373.6133 Y168.1348
G1 X373.3837 Y168.1195
G1 X373.1575 Y168.1075
G2 X372.2661 Y168.084 I-0.946 J19.0171
G2 X371.8482 Y168.0839 I-0.2146 J22.2845
G1 X371.4434 Y168.0891
G1 X371.2474 Y168.0933
G1 X370.8615 Y168.1044
G1 X370.4879 Y168.1183
G2 X369.7642 Y168.1524 I1.2315 J33.8287
G1 X369.086 Y168.1911
G2 X368.9271 Y168.2009 I0.1366 J3.5031
G1 X368.8488 Y168.2058
G1 X368.2281 Y168.2466
G1 X367.6464 Y168.2868
G1 X367.101 Y168.3255
G1 X366.5897 Y168.3619
G1 X366.1103 Y168.3957
G3 X364.3117 Y168.5113 I-9.4602 J-133.1308
G1 X363.9742 Y168.5297
G1 X363.6577 Y168.5456
G3 X363.064 Y168.5714 I-3.2864 J-68.7774
G1 X362.5444 Y168.5889
G3 X361.6347 Y168.6059 I-1.1931 J-39.661
G3 X360.9522 Y168.6045 I-0.2196 J-61.6405
G3 X360.6962 Y168.6004 I0.0771 J-12.5996
G1 X360.2485 Y168.5876
G3 X358.9079 Y168.4994 I0.6425 J-19.9911
G2 X358.8243 Y168.6241 I5.1256 J3.5262
G0 Z5.0
G0 X360.2216 Y166.9219
G1 Z0.0
G2 X360.3012 Y166.9724 I0.246 J-0.2996
G2 X360.538 Y167.0442 I0.3555 J-0.7455
G2 X360.5993 Y167.0527 I0.1449 J-0.8278
G2 X360.6918 Y167.0602 I0.0987 J-0.6409
G1 X360.7383 Y167.0619
G1 X360.7847 Y167.0625
G1 X360.8913
G1 X361.7368 Y167.0622
G1 X363.3223 Y167.0599
G1 X364.7096 Y167.0561
G1 X365.3166 Y167.0539
G1 X365.6011 Y167.0527
G1 X366.1524 Y167.0501
G1 X368.2194 Y167.0372
G2 X371.3199 Y167.0022 I-1.9358 J-309.0556
G1 X372.095 Y166.9883
G1 X372.2404 Y166.9853
G1 X372.7854 Y166.9726
G1 X372.9897 Y166.9671
G1 X373.1685 Y166.9618
G1 X373.325 Y166.9569
G1 X373.8723 Y166.9354
G1 X374.009 Y166.9285
G1 X374.2141 Y166.9162
G2 X374.3166 Y166.9086 I-0.2172 J-3.6243
G2 X374.3422 Y166.9065 I0.0051 J-0.0939
G2 X374.4188 Y166.8994 I-0.0722 J-1.195
G2 X374.9007 Y166.8404 I-0.8371 J-8.8305
G1 X375.0461 Y166.8181
G2 X375.7473 Y166.6773 I-1.2957 J-8.2673
G1 X375.9155 Y166.6321
G2 X376.092 Y166.5768 I-0.8074 J-2.883
G2 X376.3904 Y166.4465 I-0.5236 J-1.607
G2 X376.4999 Y166.3634 I-0.2466 J-0.4381
G2 X376.5482 Y166.2637 I-0.1065 J-0.1131
G2 X376.5181 Y166.1819 I-0.1301 J0.0014
G2 X376.3935 Y166.0835 I-0.3226 J0.2804
G2 X376.1219 Y165.9711 I-0.7588 J1.4491
G2 X375.6249 Y165.844 I-1.3956 J4.422
G2 X375.2469 Y165.7733 I-2.5642 J12.66
G1 X374.962 Y165.7281
G1 X374.7478 Y165.6976
G2 X374.1036 Y165.6183 I-2.724 J19.4763
G2 X374.0059 Y165.6076 I-0.1788 J1.1873
G2 X373.6182 Y165.5706 I-2.2553 J21.5927
G2 X372.8653 Y165.5197 I-1.9642 J23.4676
G1 X372.6887 Y165.5113
G1 X372.341 Y165.498
G2 X371.6668 Y165.4838 I-1.3624 J48.5838
G2 X371.3508 Y165.4818 I-0.9476 J124.2558
G2 X368.9027 Y165.5442 I0.0694 J50.7126
G2 X367.9859 Y165.5952 I2.0222 J44.6665
G1 X367.1843 Y165.6489
G1 X366.4833 Y165.7018
G1 X366.1766 Y165.7264
G1 X366.0329 Y165.7382
G2 X365.8937 Y165.7498 I0.409 J5.7499
G1 X364.8154 Y165.8441
G1 X364.0069 Y165.9179
G1 X363.7037 Y165.9457
G1 X363.173 Y165.9936
G1 X363.0735 Y166.0024
G3 X362.8868 Y166.0185 I-0.4715 J-4.3663
G1 X362.7235 Y166.0323
G1 X362.4375 Y166.055
G3 X362.0083 Y166.0838 I-1.0129 J-11.8592
G3 X361.5783 Y166.0985 I-0.5098 J-8.656
G1 X361.4713 Y166.0999
G2 X361.0542 Y166.1373 I0.0837 J3.2807
G2 X360.6622 Y166.2338 I0.395 J2.4483
G2 X360.3192 Y166.4093 I0.4067 J1.2179
G2 X360.2026 Y166.5187 I0.4144 J0.5585
G2 X360.1317 Y166.6413 I0.2965 J0.2532
G2 X360.1697 Y166.8704 I0.2183 J0.0815
G2 X360.2216 Y166.9219 I0.2978 J-0.2482
G0 Z5.0
G0 X360.2248 Y164.6891
G1 Z0.0
G1 X361.4911 Y164.6909
G1 X363.7515 Y164.6957
G1 X365.7294 Y164.696
G2 X369.1906 Y164.6751 I-0.3098 J-338.153
G1 X370.4886 Y164.6566
G1 X370.7725 Y164.6516
G1 X371.0476 Y164.6464
G1 X372.1133 Y164.6228
G2 X375.8416 Y164.4902 I-3.6243 J-154.3225
G1 X376.3074 Y164.4674
G2 X379.5653 Y164.2638 I-7.2728 J-142.5543
G3 X379.6518 Y165.6877 I-3.5192 J0.9284
G3 X379.5213 Y166.2881 I-3.8474 J-0.5219
G3 X379.3262 Y166.8277 I-5.2987 J-1.61
G1 X379.2996 Y166.8895
G3 X378.8017 Y167.8317 I-7.4827 J-3.3512
G3 X378.2942 Y168.6163 I-14.1198 J-8.5782
G1 X378.1788 Y168.7858
G1 X378.0664 Y168.9498
G1 X377.6317 Y169.5863
G1 X377.5377 Y169.7268
G2 X376.8556 Y170.8456 I11.9751 J8.0686
G2 X376.4362 Y171.7381 I7.0828 J3.873
G2 X376.0611 Y173.1682 I5.5585 J2.222
G2 X376.0738 Y174.6466 I5.4252 J0.6927
G3 X375.616 Y174.9034 I-1.2725 J-1.732
G3 X375.1726 Y175.0079 I-0.5375 J-1.2873
G3 X374.7839 Y174.967 I-0.0763 J-1.1414
G3 X374.4733 Y174.8362 I0.3955 J-1.3733
G3 X374.0149 Y174.4741 I1.0752 J-1.8325
G3 X373.7271 Y174.1453 I2.515 J-2.4914
G3 X373.3475 Y173.6114 I5.8237 J-4.5431
G1 X373.17 Y173.3362
G1 X373.0824 Y173.1977
G1 X373.0386 Y173.1285
G2 X372.9947 Y173.0594 I-0.7648 J0.4366
G2 X372.3858 Y172.8186 I-1.3102 J2.423
G2 X372.1049 Y172.7745 I-0.4114 J1.7025
G2 X371.5904 Y172.8608 I-0.0812 J1.0922
G2 X371.2226 Y173.1107 I0.5175 J1.1573
G2 X370.9642 Y173.4004 I1.6917 J1.7689
G1 X370.8621 Y173.5374
G1 X370.4952 Y174.0656
G3 X370.1883 Y174.4467 I-2.8868 J-2.0105
G3 X369.9127 Y174.6932 I-1.3123 J-1.19
G3 X369.4122 Y174.9288 I-0.8415 J-1.1386
G3 X368.86 Y174.9618 I-0.3708 J-1.5646
G2 X368.2351 Y174.158 I-13.3836 J9.7587
G2 X367.9214 Y173.7957 I-6.5564 J5.3605
G2 X367.2603 Y173.1425 I-5.6474 J5.0549
G2 X366.9194 Y172.8751 I-2.5158 J2.8566
G1 X366.8343 Y172.8169
G2 X366.6613 Y172.7099 I-1.2526 J1.8315
G2 X366.3041 Y172.5415 I-1.2544 J2.1978
G2 X365.9447 Y172.4529 I-0.5516 J1.4639
G2 X365.2657 Y172.5503 I-0.163 J1.2785
G2 X364.7523 Y172.8917 I0.7652 J1.7079
G2 X364.3615 Y173.3135 I2.4045 J2.6194
G2 X364.2782 Y173.4203 I1.3834 J1.1654
G2 X363.9711 Y173.8571 I7.6778 J5.7249
G2 X363.7016 Y174.2834 I12.9036 J8.4554
G1 X363.4559 Y174.6915
G1 X363.4271 Y174.7398
G1 X363.3985 Y174.7879
G3 X362.9397 Y175.5467 I-47.7642 J-28.3654
G3 X362.506 Y176.2021 I-11.0819 J-6.8608
G3 X362.0819 Y176.7518 I-6.564 J-4.6265
G3 X361.662 Y177.1963 I-3.9804 J-3.3384
G1 X361.5629 Y177.2869
G3 X361.152 Y177.6062 I-2.725 J-3.083
G3 X360.3331 Y177.9988 I-1.6938 J-2.4823
G3 X359.6635 Y178.1168 I-0.8352 J-2.7811
G3 X359.1544 Y178.1057 I-0.1815 J-3.3612
G3 X358.4062 Y177.9576 I0.4226 J-4.0972
G1 X358.2241 Y177.9007
G3 X357.955 Y177.8031 I1.8731 J-5.5872
G1 X357.8224 Y177.7494
G1 X357.6909 Y177.6927
G3 X356.5543 Y176.2735 I3.4441 J-3.9233
G3 X355.9966 Y174.8092 I5.1221 J-2.789
G3 X355.8712 Y174.1395 I7.51 J-1.7524
G3 X355.7982 Y172.8677 I8.3145 J-1.1156
G3 X355.8793 Y171.7582 I9.6555 J0.1478
G3 X355.9506 Y171.277 I10.1419 J1.2582
G3 X356.136 Y170.3843 I12.9169 J2.2157
G3 X357.2239 Y167.3908 I14.7691 J3.6734
G3 X357.9909 Y165.9922 I13.5101 J6.4989
G3 X358.9079 Y164.6872 I10.8695 J6.6637
G1 X360.2248 Y164.6891
G0 Z5.0
G0 X359.9466 Y147.3613
G1 Z0.0
G1 X358.2075 Y147.3892
G1 X355.9614 Y147.4222
G1 X353.996 Y147.4485
G1 X352.2762 Y147.4692
G1 X351.5238 Y147.4775
G1 X351.1711 Y147.4812
G1 X348.4376 Y147.506
G1 X348.3095 Y147.5069
G1 X346.2914 Y147.519
G1 X344.7779 Y147.5233
G3 X342.5074 Y147.5181 I-0.6368 J-216.875
G3 X342.2236 Y147.516 I-0.0425 J-13.1121
G1 X341.7269 Y147.511
G3 X340.2373 Y147.481 I0.7041 J-71.8767
G3 X340.0105 Y147.3974 I0.0917 J-0.5983
G3 X339.8307 Y147.2566 I0.4408 J-0.7484
G3 X339.6855 Y147.0898 I1.1765 J-1.1704
G3 X339.4596 Y146.7218 I1.8999 J-1.4196
G3 X339.1519 Y145.949 I4.4903 J-2.2352
G3 X339.0438 Y145.5744 I8.077 J-2.5338
G3 X338.8783 Y144.8372 I9.3094 J-2.4778
G1 X338.862 Y144.7499
G3 X338.7528 Y144.0535 I14.4187 J-2.6184
G1 X338.7318 Y143.8891
G3 X338.6221 Y142.5879 I16.6444 J-2.059
G3 X338.6471 Y140.2871 I19.2128 J-0.9415
G3 X338.8677 Y138.543 I15.4548 J1.0685
G3 X339.0095 Y137.8862 I11.7245 J2.188
G3 X339.3629 Y136.7564 I8.9019 J2.1643
G3 X339.7505 Y135.9434 I5.5767 J2.1602
G3 X340.1392 Y135.3826 I3.6589 J2.1205
G3 X340.5006 Y135.0162 I2.2871 J1.8949
G3 X341.1626 Y134.6207 I1.4772 J1.7207
G3 X341.9216 Y134.4846 I0.751 J2.0041
G3 X342.2027 Y134.645 I-0.566 J1.3188
G3 X342.5495 Y135.0802 I-0.6254 J0.854
G3 X342.657 Y135.4778 I-1.3864 J0.5883
G3 X342.6806 Y135.7848 I-2.3422 J0.3348
G3 X342.682 Y135.9002 I-1.7852 J0.0784
G1 X342.6784 Y136.1021
G3 X342.673 Y136.2535 I-2.6767 J-0.02
G2 X342.6602 Y136.7078 I9.9676 J0.5081
G1 X342.6876 Y136.7742
G2 X343.1574 Y137.8132 I17.3428 J-7.2148
G2 X343.6371 Y138.6921 I11.0455 J-5.4593
G2 X344.1257 Y139.4216 I7.2291 J-4.3135
G1 X344.2425 Y139.5743
G2 X345.2807 Y140.6383 I5.1869 J-4.0223
G2 X346.206 Y141.2584 I3.8912 J-4.8062
G2 X346.9614 Y141.6135 I3.3292 J-6.1002
G2 X348.1534 Y141.9923 I3.3932 J-8.6141
G2 X348.7645 Y142.1263 I3.5107 J-14.5472
G2 X348.8414 Y142.1409 I0.1993 J-0.8375
G1 X349.1108 Y142.1888
G1 X349.3811 Y142.2318
G2 X350.4298 Y142.4663 I4.0862 J-15.8137
G1 X350.628 Y142.5025
G1 X350.8143 Y142.5338
G1 X350.858 Y142.5407
G1 X351.0304 Y142.5668
G2 X351.1923 Y142.5893 I0.6658 J-4.1868
G1 X351.4963 Y142.6275
G1 X351.563 Y142.6353
G1 X352.0792 Y142.6951
G3 X352.4655 Y142.747 I-1.2525 J10.7968
G3 X353.6112 Y142.9778 I-1.71 J11.4458
G1 X356.6392 Y142.8984
G1 X358.0586 Y142.8606
G1 X360.8085 Y142.7855
G1 X363.3866 Y142.712
G1 X365.8035 Y142.6396
G1 X368.0692 Y142.5679
G1 X369.1312 Y142.5329
G1 X371.1888 Y142.4619
G2 X373.1176 Y142.3915 I-12.4965 J-368.7757
G2 X376.7336 Y142.2479 I-26.251 J-706.5387
G1 X377.5246 Y142.2143
G1 X379.0569 Y142.1467
G1 X380.4933 Y142.0803
G1 X380.83 Y142.0643
G1 X381.1614 Y142.0483
G1 X382.466 Y141.984
G1 X383.6891 Y141.9211
G1 X383.9757 Y141.9061
G1 X384.2579 Y141.8911
G1 X384.5356 Y141.8762
G1 X384.809 Y141.8615
G2 X389.1138 Y141.6116 I-25.5699 J-477.832
G1 X390.7276 Y141.5092
G1 X391.0806 Y141.4861
G1 X391.4226 Y141.4635
G1 X392.7473 Y141.3739
G2 X402.0133 Y140.6447 I-32.3554 J-470.3672
G2 X402.4948 Y140.4442 I-2.2571 J-6.1012
G2 X402.7156 Y140.3397 I-91.9332 J-194.3545
G2 X403.5463 Y139.8872 I-5.5131 J-11.1126
G2 X404.2482 Y139.4486 I-10.3169 J-17.2904
G1 X404.324 Y139.399
G1 X404.6207 Y139.201
G1 X404.8971 Y139.0126
G1 X405.412 Y138.6544
G1 X406.3117 Y138.0244
G1 X406.6523 Y137.7914
G1 X406.9529 Y137.5911
G1 X407.2189 Y137.42
G1 X407.4543 Y137.2743
G3 X407.8743 Y137.0322 I6.1346 J10.1569
G3 X408.1978 Y136.8655 I2.6723 J4.7857
G3 X408.7002 Y136.6519 I2.1624 J4.3899
G3 X409.2272 Y136.5099 I1.0126 J2.7079
G2 X408.822 Y137.628 I51.8463 J19.4194
G1 X408.6486 Y138.1187
G2 X408.5675 Y138.3489 I13.0513 J4.7272
G1 X408.2515 Y139.2402
G1 X408.1109 Y139.6295
G3 X407.5579 Y141.0796 I-48.2377 J-17.5668
G1 X407.4479 Y141.3491
G3 X406.5317 Y143.3304 I-22.824 J-9.3514
G3 X406.2725 Y143.8111 I-12.7469 J-6.565
G3 X406.0691 Y144.1665 I-9.3857 J-5.1364
G3 X405.7487 Y144.6907 I-20.4594 J-12.1447
G1 X405.7073 Y144.7554
G1 X405.5602 Y144.9803
G1 X405.4095 Y145.2028
G1 X403.8638 Y145.4964
G1 X403.1867 Y145.622
G3 X400.6399 Y146.0479 I-12.8666 J-69.1118
G1 X400.4001 Y146.0822
G1 X399.9352 Y146.1452
G3 X396.429 Y146.4325 I-4.653 J-35.2472
G3 X394.6696 Y146.4415 I-1.0596 J-35.1055
G3 X392.9117 Y146.3666 I0.7855 J-39.1227
G1 X392.8862 Y146.3709
G3 X392.7844 Y146.3857 I-0.2154 J-1.1207
G1 X392.5804 Y146.4097
G1 X392.4786 Y146.42
G1 X392.0718 Y146.4551
G3 X391.2635 Y146.5101 I-4.3125 J-57.3987
G1 X391.0644 Y146.522
G3 X387.8903 Y146.6712 I-10.3254 J-185.7705
G1 X387.5182 Y146.6859
G1 X386.7798 Y146.7139
G1 X385.3259 Y146.7656
G1 X383.9174 Y146.8122
G1 X383.2351 Y146.8337
G1 X380.5485 Y146.9134
G1 X378.0296 Y146.982
G1 X377.4392 Y146.9974
G1 X375.1145 Y147.0556
G1 X372.935 Y147.107
G1 X370.8917 Y147.1528
G1 X367.0604 Y147.2328
G1 X363.708 Y147.2967
G1 X360.7744 Y147.348
G1 X359.9466 Y147.3613
G0 Z5.0
G0 X331.9536 Y142.1841
G1 Z0.0
G3 X331.7113 Y143.3806 I-35.4944 J-6.5646
G2 X331.651 Y143.6634 I22.0199 J4.8443
G1 X331.5947 Y143.9286
G2 X331.395 Y144.9254 I34.0944 J7.3486
G2 X331.2666 Y145.6771 I18.5539 J3.5562
G2 X331.0532 Y147.9538 I18.2121 J2.856
G1 X330.1727 Y147.9516
G1 X329.3473 Y147.9459
G1 X327.7996 Y147.9286
G1 X327.1225 Y147.9193
G1 X326.4877 Y147.9101
G1 X324.1073 Y147.8771
G2 X324.0515 Y147.8764 I-0.0408 J1.0917
G2 X323.9961 Y147.8758 I-0.0403 J1.0781
G2 X320.4806 Y147.8629 I-2.4053 J177.2295
G2 X318.723 Y147.8902 I0.4488 J85.4186
G2 X316.9663 Y147.9538 I2.1916 J84.8378
G1 Y146.79
G2 X319.183 Y146.72 I0.582 J-16.7081
G2 X322.9733 Y145.9177 I-1.7803 J-17.7645
G2 X328.139 Y143.283 I-5.8381 J-17.8278
G2 X330.3499 Y141.3914 I-10.7333 J-14.7829
G2 X332.2152 Y139.1583 I-12.0298 J-11.9436
G3 X332.2215 Y139.7146 I-9.6361 J0.3888
G1 X332.2153 Y139.9752
G3 X332.187 Y140.4792 I-13.528 J-0.5069
G1 X332.1774 Y140.5972
G3 X332.0664 Y141.5219 I-13.9472 J-1.2055
G1 X332.0347 Y141.7231
G3 X332.0267 Y141.7718 I-0.7493 J-0.098
G3 X332.0105 Y141.8684 I-1.1532 J-0.1442
G3 X331.9536 Y142.1841 I-35.5513 J-6.2489
G0 Z5.0
G0 X316.3191 Y124.9152
G1 Z0.0
G3 X310.5057 Y129.2062 I-24.3121 J-26.8537
G2 X310.0066 Y129.2299 I-0.1095 J2.9637
G2 X309.5465 Y129.3183 I0.4819 J3.7498
G2 X309.1237 Y129.4436 I1.1327 J4.5993
G2 X308.3512 Y129.7503 I2.8427 J8.2849
G2 X308.0157 Y129.9045 I4.8779 J11.0592
G1 X307.9368 Y129.9418
G2 X307.318 Y130.2431 I17.9029 J37.5632
G1 X307.1805 Y130.3104
G1 X306.9126 Y130.44
G1 X306.6584 Y130.5594
G1 X306.4167 Y130.6681
G3 X306.388 Y130.6806 I-0.1061 J-0.2045
G3 X305.9275 Y130.8659 I-2.9189 J-6.5896
G3 X305.7201 Y130.9377 I-1.2199 J-3.1884
G3 X305.3223 Y131.0484 I-1.4874 J-4.5749
G3 X304.6007 Y131.1234 I-0.6436 J-2.6825
G3 X303.5812 Y130.7685 I0.0511 J-1.7889
G3 X303.1899 Y130.3928 I1.3509 J-1.7984
G3 X302.8813 Y129.9467 I2.5731 J-2.1093
G2 X302.9505 Y129.9408 I-0.0357 J-0.8356
G2 X303.4994 Y129.8916 I-5.601 J-65.527
G1 X304.0137 Y129.8393
G1 X304.4954 Y129.7834
G2 X305.3962 Y129.6563 I-2.4509 J-20.6181
G1 X305.4945 Y129.6403
G2 X307.0309 Y129.3253 I-2.8617 J-17.8631
G1 X307.316 Y129.2509
G1 X307.4491 Y129.2141
G1 X307.706 Y129.1392
G2 X308.6551 Y128.8128 I-3.7899 J-12.5607
G2 X310.0145 Y128.1662 I-3.6482 J-9.423
G2 X311.2444 Y127.2983 I-3.9311 J-6.8757
G2 X314.4638 Y124.7903 I-22.1565 J-31.7621
G2 X314.5483 Y124.7166 I-2.0592 J-2.447
G2 X317.1151 Y122.2357 I-23.7181 J-27.1081
G1 X317.3807 Y121.9479
G2 X319.3474 Y119.5726 I-23.519 J-21.4744
G2 X320.8645 Y117.3353 I-22.3993 J-16.822
G2 X321.4595 Y116.3112 I-26.8883 J-16.3072
G2 X323.2514 Y112.2516 I-21.4549 J-11.8957
G2 X324.0702 Y109.0212 I-20.9174 J-7.0205
G2 X324.3337 Y104.036 I-20.6163 J-3.5892
G2 X324.021 Y101.5555 I-21.711 J1.4769
G2 X323.4288 Y99.1264 I-21.8859 J4.0492
G3 X324.0213 Y99.3004 I-0.1554 J1.6257
G3 X324.4223 Y99.637 I-0.6059 J1.129
G3 X324.6529 Y100.0233 I-1.3474 J1.0665
G3 X324.7893 Y100.3907 I-2.6963 J1.2097
G1 X324.837 Y100.5555
G3 X324.9152 Y100.8676 I-6.1727 J1.713
G1 X324.9469 Y101.005
G2 X325.0056 Y101.263 I17.9043 J-3.935
G1 X325.0591 Y101.4886
G1 X325.1101 Y101.6851
G2 X325.122 Y101.728 I0.4694 J-0.1072
G2 X325.3601 Y102.3742 I3.655 J-0.9797
G2 X325.7546 Y102.9386 I1.8875 J-0.8991
G3 X325.8704 Y106.9718 I-20.4451 J2.6057
G3 X325.3425 Y110.4513 I-21.8145 J-1.5299
G3 X324.4418 Y113.3894 I-23.0094 J-5.4468
G1 X324.3207 Y113.7026
G3 X323.2246 Y116.1083 I-24.7056 J-9.8045
G3 X322.0764 Y118.1148 I-24.3468 J-12.6002
G3 X320.9435 Y119.79 I-26.4029 J-16.6361
G3 X318.7092 Y122.532 I-26.1518 J-19.0279
G3 X316.8501 Y124.4247 I-24.6445 J-22.3481
G3 X316.3191 Y124.9152 I-24.8431 J-26.3632
G0 Z5.0
G0 X357.0055 Y189.9027
G1 Z0.0
G1 X359.3394 Y189.6236
G1 X361.6009 Y189.3588
G1 X361.738 Y189.3429
G1 X363.9252 Y189.0917
G1 X364.9848 Y188.9715
G3 X373.3323 Y188.054 I190.054 J1690.6053
G1 X373.789 Y188.0051
G1 X377.4141 Y187.6212
G1 X377.6266 Y187.5989
G1 X379.3195 Y187.4222
G3 X380.1395 Y187.3371 I15.0763 J141.2628
G1 X380.3414 Y187.3161
G1 X380.5425 Y187.2953
G1 X383.7465 Y186.9663
G1 X384.122 Y186.9281
G1 X385.6123 Y186.7767
G1 X388.5001 Y186.486
G3 X399.3317 Y185.4209 I276.0261 J2751.523
G1 X401.363 Y185.2251
G3 X401.4821 Y185.2136 I0.4122 J3.6626
G1 X405.2762 Y184.8507
G1 X406.1062 Y184.7718
G1 X407.7145 Y184.6193
G1 X410.73 Y184.3349
G1 X413.3686 Y184.0875
G1 X415.6776 Y183.8722
G1 X419.7183 Y183.4975
G1 X425.7799 Y182.9399
G1 X427.2955 Y182.8012
G1 X428.4321 Y182.6973
G1 X429.2846 Y182.6195
G1 X430.5633 Y182.5029
G1 X430.883 Y182.4738
G1 X431.3625 Y182.4301
G1 X431.6023 Y182.4083
G1 X431.842 Y182.3865
G1 X432.2112 Y182.3546
G1 X432.3238 Y182.3457
G1 X432.7919 Y182.3128
G1 X432.8629 Y182.3085
G3 X432.8879 Y182.3071 I0.0175 J0.0865
G1 X433.2559 Y182.2898
G3 X433.5197 Y182.2836 I0.2799 J6.2698
G1 X433.634 Y182.2833
G1 X433.6846 Y182.2839
G3 X433.8952 Y182.2929 I-0.0403 J3.4155
G3 X434.008 Y182.3064 I-0.0777 J1.1213
G3 X434.0952 Y182.3337 I-0.0331 J0.2593
G3 X434.0976 Y182.3796 I-0.0101 J0.0235
G3 X434.0353 Y182.4175 I-0.1548 J-0.1847
G3 X433.9039 Y182.4663 I-0.4101 J-0.903
G3 X433.3944 Y182.5923 I-1.5199 J-5.0523
G3 X433.298 Y182.612 I-0.2815 J-1.133
G1 X433.1169 Y182.647
G1 X432.9581 Y182.676
G1 X432.6797 Y182.7239
G1 X432.4705 Y182.7579
G1 X432.1564 Y182.8062
G1 X432.0778 Y182.8179
G1 X431.9599 Y182.8351
G1 X431.842 Y182.852
G1 X430.6935 Y183.0126
G1 X428.432 Y183.3255
G1 X427.3363 Y183.4758
G3 X423.0213 Y184.0592 I-174.4644 J-1274.1349
G3 X418.9745 Y184.5958 I-176.2059 J-1313.3317
G1 X415.1796 Y185.0908
G1 X413.4004 Y185.3204
G1 X409.9527 Y185.7611
G1 X409.7507 Y185.7868
G1 X406.5304 Y186.1934
G1 X405.0208 Y186.3825
G1 X404.6551 Y186.4282
G1 X401.7526 Y186.7888
G1 X400.392 Y186.9567
G1 X397.7554 Y187.2799
G1 X397.1374 Y187.3553
G1 X394.704 Y187.6508
G1 X390.1404 Y188.199
G1 X386.1466 Y188.6724
G3 X386.0374 Y188.6853 I-0.3403 J-2.4194
G1 X382.5559 Y189.093
G1 X379.5092 Y189.446
G1 X376.8429 Y189.752
G1 X376.2596 Y189.8186
G1 X375.6946 Y189.8829
G1 X375.1471 Y189.9452
G1 X370.9041 Y190.4231
G1 X367.7212 Y190.7764
G1 X366.5275 Y190.9077
G1 X364.4383 Y191.1357
G3 X364.0465 Y191.1782 I-12.3537 J-112.0457
G1 X361.1082 Y191.4942
G1 X360.9245 Y191.5138
G1 X360.2358 Y191.5871
G1 X358.1693 Y191.8052
G3 X357.5731 Y191.5391 I4.1132 J-10.0165
G3 X357.1108 Y191.277 I1.8106 J-3.7321
G3 X356.7864 Y191.004 I1.0007 J-1.5186
G3 X356.6176 Y190.7247 I0.5732 J-0.5371
G3 X356.5992 Y190.4819 I0.5034 J-0.1604
G3 X356.6552 Y190.3099 I0.6002 J0.1005
G3 X356.809 Y190.088 I0.8703 J0.4391
G3 X356.9036 Y189.9916 I1.6122 J1.4879
G1 X356.9538 Y189.9463
G1 X357.0055 Y189.9027
G0 Z5.0
G0 X411.7346 Y144.7435
G1 Z0.0
G3 X411.7171 Y144.7203 I0.2649 J-0.2186
G3 X411.6246 Y144.5205 I0.5067 J-0.356
G3 X411.5728 Y144.106 I1.554 J-0.4044
G3 X411.5921 Y143.7178 I3.0498 J-0.0432
G3 X411.7103 Y143.0004 I6.4964 J0.7019
G3 X411.7275 Y142.9227 I1.0898 J0.2009
G3 X412.0709 Y141.7199 I11.8525 J2.7337
G3 X412.7694 Y139.9792 I15.6877 J5.2843
G3 X413.1896 Y139.1403 I12.9775 J5.9752
G3 X413.4189 Y138.7308 I8.3234 J4.3917
G1 X413.5388 Y138.5292
G3 X413.6002 Y138.4292 I1.8154 J1.0458
G3 X413.6157 Y138.4042 I0.1972 J0.1055
G1 X413.6625 Y138.3298
G1 X413.6866 Y138.2924
G3 X414.0974 Y137.7163 I5.6931 J3.6255
G3 X414.3072 Y137.4753 I2.4823 J1.9492
G3 X414.3332 Y137.4482 I0.2264 J0.1913
G3 X414.552 Y137.2464 I1.6536 J1.5732
G3 X414.7797 Y137.0887 I1.0356 J1.2522
G3 X415.2656 Y136.9427 I0.536 J0.9025
G3 X415.6847 Y137.0197 I0.0217 J1.0614
G3 X416.0117 Y137.1875 I-0.7278 J1.8201
G3 X416.2743 Y137.3716 I-2.3504 J3.6324
G3 X416.7057 Y137.7295 I-4.4756 J5.8322
G1 X416.8633 Y137.8687
G1 X416.9321 Y137.9298
G2 X417.0609 Y138.0445 I28.4204 J-31.8201
G1 X417.0892 Y138.0695
G2 X417.531 Y138.4526 I14.9658 J-16.8164
G2 X417.9879 Y138.8174 I6.3955 J-7.5421
G3 X418.3365 Y139.1037 I-2.5902 J3.5085
G3 X419.4447 Y140.4092 I-4.4116 J4.868
G3 X419.6238 Y140.7032 I-4.2894 J2.8139
G1 X419.7028 Y140.8459
G1 X419.7758 Y140.987
G3 X420.0182 Y141.5548 I-4.4077 J2.2171
G3 X420.1638 Y142.0832 I-3.3514 J1.2076
G3 X420.2172 Y142.5639 I-2.7073 J0.5445
G3 X420.1857 Y142.9873 I-2.1395 J0.0536
G3 X419.9051 Y143.6685 I-1.6365 J-0.2758
G3 X419.5193 Y144.0584 I-1.3902 J-0.9896
G3 X419.1681 Y144.27 I-1.2978 J-1.7575
G3 X418.5912 Y144.4793 I-1.3847 J-2.9164
G1 X418.4419 Y144.5153
G3 X418.3856 Y144.5274 I-0.1991 J-0.7912
G3 X417.9879 Y144.5925 I-0.9739 J-4.7015
G3 X417.2683 Y144.6701 I-2.2023 J-17.046
G1 X416.9521 Y144.6953
G3 X415.7627 Y144.7242 I-0.8746 J-11.5328
G3 X414.8696 Y144.6532 I0.315 J-9.6181
G1 X414.786 Y144.6423
G1 X414.4624 Y144.5971
G2 X414.3206 Y144.5778 I-0.4136 J2.5045
G2 X414.0539 Y144.5481 I-1.0139 J7.8761
G2 X413.1181 Y144.5914 I-0.3153 J3.3181
G2 X412.6611 Y144.6959 I0.9771 J5.3203
G2 X412.2128 Y144.8326 I2.6515 J9.5041
G3 X412.0614 Y144.8665 I-0.2333 J-0.6862
G3 X411.9218 Y144.8595 I-0.0483 J-0.4303
G3 X411.7346 Y144.7435 I0.0777 J-0.3345
G0 Z5.0
G0 X424.9012 Y144.4569
G1 Z0.0
G2 X426.2882 Y143.3243 I-4.1534 J-6.5022
G2 X426.5318 Y143.0593 I-4.0949 J-4.0075
G2 X426.9502 Y142.5214 I-4.5246 J-3.9515
G2 X427.1138 Y142.2661 I-3.7597 J-2.5883
G1 X427.1499 Y142.2043
G2 X427.2816 Y141.9553 I-3.7004 J-2.1169
G2 X427.4736 Y141.4613 I-2.6361 J-1.3086
G2 X427.5282 Y141.2348 I-2.2583 J-0.6646
G2 X427.5666 Y140.8004 I-1.9612 J-0.3924
G2 X427.3882 Y140.0662 I-1.7011 J0.0246
G2 X427.0645 Y139.6065 I-1.7218 J0.8689
G2 X426.401 Y139.0929 I-2.0793 J2.0008
G2 X425.6398 Y138.7404 I-2.4491 J4.2898
G3 X426.0987 Y138.5868 I1.2118 J2.8576
G3 X427.0321 Y138.4281 I1.6159 J6.6819
G3 X427.4875 Y138.3876 I1.1428 J10.2566
G3 X428.3863 Y138.3473 I1.1685 J16.0408
G1 X428.4408 Y138.3462
G1 X428.8755 Y138.3412
G1 X428.9825 Y138.341
G3 X429.8347 Y138.352 I0.0262 J31.1396
G1 X430.2472 Y138.364
G1 X430.6532 Y138.3792
G1 X430.853 Y138.3879
G3 X434.02 Y138.5993 I-3.9504 J83.0256
G1 X434.7118 Y138.6588
G3 X436.0511 Y138.7834 I-27.4082 J302.0688
G1 X436.6786 Y138.8452
G1 X437.2864 Y138.9068
G1 X438.4635 Y139.0303
G1 X439.5666 Y139.15
G1 X441.6342 Y139.3813
G1 X445.2519 Y139.7931
G1 X445.9304 Y139.8694
G1 X447.2029 Y140.01
G1 X448.3169 Y140.1294
G1 X448.8044 Y140.1801
G1 X449.0331 Y140.2036
G1 X449.919 Y140.2919
G2 X453.0244 Y140.5534 I10.711 J-108.6494
G1 X453.2188 Y140.566
G2 X453.5835 Y140.5881 I2.7488 J-42.3705
G2 X454.8608 Y140.6434 I2.509 J-43.145
G2 X456.1393 Y140.6447 I0.6599 J-21.8655
G1 X456.3184 Y140.7243
G2 X457.7768 Y141.2252 I4.2533 J-10.0108
G2 X459.0928 Y141.514 I3.9315 J-14.7695
G1 X459.3834 Y141.5633
G2 X460.5149 Y141.7196 I3.9361 J-24.319
G1 X461.012 Y141.7749
G2 X461.1287 Y141.787 I0.2496 J-1.8333
G1 X461.5883 Y141.8324
G1 X462.4511 Y141.9114
G3 X463.9618 Y142.0578 I-6.8739 J78.8413
G1 X464.2452 Y142.0903
G3 X465.3045 Y142.2411 I-2.1394 J18.8251
G3 X465.6997 Y142.3138 I-3.026 J17.5683
G3 X467.0583 Y142.676 I-1.8455 J9.6506
G3 X467.7093 Y142.9452 I-1.9358 J5.6034
G3 X468.3219 Y143.293 I-2.0001 J4.2358
G1 X466.9643 Y143.2754
G1 X465.6491 Y143.2632
G2 X460.5525 Y143.2558 I-3.101 J381.8963
G1 X460.2738 Y143.2571
G2 X451.4254 Y143.3769 I3.1226 J557.3105
G1 X449.7665 Y143.4148
G2 X443.5471 Y143.595 I18.883 J759.2965
G2 X424.9012 Y144.4569 I24.9509 J741.9044
G0 Z5.0
G0 X188.0577 Y98.8606
G1 Z0.0
G3 X187.6599 Y100.4964 I-17.1001 J-3.2921
G3 X187.1596 Y101.9019 I-13.0877 J-3.8669
G3 X186.6804 Y102.9138 I-11.4885 J-4.8215
G3 X185.7812 Y104.3317 I-9.7135 J-5.1658
G3 X184.6663 Y105.587 I-8.0037 J-5.9854
G2 X183.9963 Y105.2886 I-2.3172 J4.3011
G2 X183.3369 Y105.0975 I-1.9965 J5.6559
G2 X182.7034 Y104.9791 I-2.0553 J9.2427
G2 X182.1016 Y104.9077 I-1.9368 J13.751
G1 X181.8173 Y104.8841
G2 X181.6792 Y104.8745 I-0.2376 J2.4205
G1 X181.4069 Y104.8586
G1 X181.1424 Y104.8462
G1 X181.0139 Y104.841
G1 X180.5076 Y104.8244
G1 X180.031 Y104.8108
G1 X179.5824 Y104.7963
G1 X179.3714 Y104.7879
G3 X178.9623 Y104.767 I0.5978 J-15.7026
G3 X178.578 Y104.7396 I0.6717 J-12.1556
G3 X178.5328 Y104.7358 I0.0149 J-0.4445
G3 X178.488 Y104.7319 I0.0159 J-0.438
G3 X178.4435 Y104.7278 I0.0169 J-0.4319
G3 X177.7408 Y104.6412 I1.1715 J-12.3925
G3 X177.1305 Y104.5202 I1.0003 J-6.6443
G3 X176.6061 Y104.368 I1.4157 J-5.8596
G3 X175.7376 Y103.97 I1.4375 J-4.2833
G3 X174.6671 Y103.0245 I1.9667 J-3.3055
G3 X174.275 Y102.4253 I3.6356 J-2.8069
G3 X174.1145 Y102.1051 I4.193 J-2.3017
G1 X174.096 Y102.0642
G1 X174.08 Y102.0284
G1 X174.0264 Y101.9023
G1 X173.9757 Y101.7748
G1 X173.9751 Y101.3241
G1 X173.9736 Y100.8769
G2 X173.9275 Y97.3278 I-227.6499 J1.1864
G2 X173.6997 Y90.6763 I-270.4845 J5.9327
G1 X173.6657 Y89.9489
G1 X173.5947 Y88.5171
G2 X173.283 Y82.9707 I-642.0801 J33.3053
G1 X173.2105 Y81.7573
G1 X173.1401 Y80.5818
G1 X173.0053 Y78.3041
G3 X172.7713 Y74.0317 I554.8987 J-32.5278
G3 X172.7655 Y73.9148 I3.154 J-0.2161
G3 X172.7597 Y73.7983 I3.1833 J-0.2164
G3 X172.754 Y73.6823 I3.2136 J-0.2166
G3 X172.595 Y69.9848 I262.6597 J-13.1474
G3 X172.4671 Y63.5088 I186.3836 J-6.9186
G3 X172.5447 Y58.6507 I140.2857 J-0.1895
G3 X172.7233 Y55.0107 I121.6018 J4.141
G1 X172.7693 Y54.3289
G3 X172.979 Y51.775 I103.8671 J7.2424
G1 X173.025 Y51.2967
G3 X173.2165 Y49.505 I95.4569 J9.2962
G1 X173.2961 Y48.834
G3 X173.3324 Y48.5406 I15.5128 J1.7657
G1 X173.3496 Y48.4031
G1 X173.3665 Y48.27
G1 X173.383 Y48.141
G3 X173.9757 Y44.1537 I107.0149 J13.8678
G3 X174.6285 Y43.5507 I7.327 J7.2779
G3 X175.2461 Y43.0728 I5.4386 J6.391
G3 X176.4287 Y42.3821 I4.3637 J6.1132
G3 X176.9055 Y42.1835 I2.6312 J5.6454
G3 X177.7765 Y41.9397 I1.9787 J5.3913
G3 X179.1304 Y41.8822 I0.8676 J4.4594
G3 X180.4362 Y42.2439 I-0.4851 J4.2891
G3 X182.1687 Y43.2566 I-2.6112 J6.4555
G3 X182.3135 Y43.3758 I-1.7909 J2.3229
G3 X183.3288 Y44.4124 I-5.3092 J6.216
G3 X183.6657 Y44.8389 I-6.9418 J5.8292
G1 X183.7369 Y44.9341
G1 X183.8052 Y45.0269
G1 X183.8706 Y45.1172
G1 X183.9335 Y45.2051
G3 X184.4067 Y45.8961 I-31.7383 J22.2374
G3 X184.7532 Y46.42 I-50.8711 J34.0243
G1 X185.0137 Y46.8125
G2 X185.413 Y47.3955 I34.4179 J-23.1403
G1 X185.464 Y47.4677
G1 X185.645 Y47.7184
G1 X185.6909 Y47.7806
G1 X185.8301 Y47.9659
G1 X185.9012 Y48.577
G1 X186.035 Y49.7807
G1 X186.1573 Y50.9475
G3 X186.5678 Y55.4753 I-216.0125 J21.8653
G1 X186.6453 Y56.4667
G3 X186.6544 Y56.5869 I-3.2396 J0.3062
G3 X186.6634 Y56.7065 I-3.2317 J0.3038
G3 X186.6723 Y56.8257 I-3.2237 J0.3014
G3 X186.6812 Y56.9444 I-3.2158 J0.299
G3 X186.6899 Y57.0627 I-3.2078 J0.2967
G3 X186.6986 Y57.1805 I-3.1999 J0.2944
G3 X186.7071 Y57.2978 I-3.1919 J0.2921
G3 X187.1559 Y64.7828 I-317.8401 J22.8134
G1 X187.2225 Y66.1872
G3 X187.23 Y66.3518 I-3.5207 J0.2432
G3 X187.2374 Y66.5151 I-3.5012 J0.2405
G3 X187.2447 Y66.6772 I-3.4817 J0.2378
G3 X187.2519 Y66.838 I-3.4624 J0.2352
G3 X187.4579 Y71.9431 I-748.3594 J32.7568
G1 X187.7332 Y79.6021
G1 X187.8059 Y81.5168
G1 X187.8635 Y82.9526
G1 X187.9091 Y84.0294
G2 X187.9447 Y84.8369 I77.8358 J-3.0289
G1 X187.9723 Y85.4425
G1 X187.9936 Y85.8968
G1 X188.0265 Y86.578
G1 X188.0607 Y87.2591
G1 X188.0899 Y87.5561
G3 X188.2003 Y88.7262 I-82.6634 J8.3881
G1 X188.2484 Y89.2759
G1 X188.2595 Y89.4092
G1 X188.2705 Y89.5416
G1 X188.3118 Y90.0668
G1 X188.3305 Y90.3215
G1 X188.3394 Y90.4469
G3 X188.4466 Y92.4402 I-52.1401 J3.802
G1 X188.4537 Y92.659
G3 X188.4598 Y92.8746 I-6.5808 J0.2933
G3 X188.4624 Y92.9807 I-3.49 J0.1389
G3 X188.4648 Y93.086 I-3.0696 J0.1208
G3 X188.4668 Y93.1906 I-2.7718 J0.107
G3 X188.4622 Y94.8499 I-35.5787 J0.7297
G3 X188.4597 Y94.9409 I-1.3332 J0.009
G3 X188.457 Y95.0311 I-1.3055 J0.0058
G3 X188.454 Y95.1207 I-1.2795 J0.0026
G3 X188.3711 Y96.54 I-29.6414 J-1.0194
G1 X188.3431 Y96.8503
G1 X188.3122 Y97.1506
G3 X188.1552 Y98.3102 I-24.7051 J-2.7536
G1 X188.1123 Y98.5629
G3 X188.0577 Y98.8606 I-17.1548 J-2.9944
G0 Z5.0
G0 X-32.0985 Y171.7766
G1 Z0.0
G3 X-32.0149 Y172.0665 I-3.6805 J1.219
G3 X-31.9825 Y172.2418 I-1.0338 J0.2815
G3 X-31.9858 Y172.4043 I-0.5002 J0.0713
G3 X-32.0564 Y172.5169 I-0.1681 J-0.027
G3 X-32.1609 Y172.5431 I-0.096 J-0.1614
G3 X-32.352 Y172.5038 I0.0334 J-0.6467
G3 X-32.6589 Y172.3597 I0.8295 J-2.1655
G3 X-33.0891 Y172.0894 I3.2086 J-5.5847
G1 X-33.297 Y171.9433
G3 X-33.3228 Y171.9247 I0.145 J-0.2279
G3 X-33.4126 Y171.8592 I0.9027 J-1.33
G1 X-33.5018 Y171.7929
G1 X-33.6957 Y171.6451
G1 X-33.8763 Y171.5047
G3 X-34.5239 Y170.9423 I4.7063 J-6.0738
G3 X-35.3201 Y169.9345 I3.7051 J-3.7456
G3 X-35.4813 Y169.6565 I5.6835 J-3.4811
G3 X-35.8972 Y168.7872 I8.2611 J-4.4864
G3 X-35.9878 Y168.5221 I1.3362 J-0.6049
G3 X-36.0113 Y168.2695 I0.7832 J-0.2001
G3 X-35.9371 Y168.065 I0.398 J0.0287
G3 X-35.7912 Y167.9492 I0.3152 J0.2475
G3 X-35.6301 Y167.8995 I0.2905 J0.6555
G3 X-35.3183 Y167.8888 I0.1972 J1.1903
G3 X-34.7848 Y167.9918 I-0.2508 J2.7302
G3 X-34.0279 Y168.2941 I-1.1743 J4.0387
G3 X-33.6757 Y168.5041 I-1.5308 J2.9681
G3 X-33.5139 Y168.6315 I-0.7231 J1.0854
G3 X-33.379 Y168.7872 I-0.4651 J0.5393
G3 X-33.2845 Y168.9507 I-3.335 J2.0367
G1 X-33.2423 Y169.0285
G1 X-33.1632 Y169.1806
G1 X-33.0916 Y169.3245
G3 X-32.8376 Y169.8711 I-11.172 J5.5222
G1 X-32.7469 Y170.0782
G1 X-32.5932 Y170.4426
G3 X-32.3742 Y170.994 I-36.682 J14.8827
G3 X-32.1748 Y171.5528 I-11.047 J4.2567
G1 X-32.145 Y171.6409
G1 X-32.1293 Y171.6873
G3 X-32.0985 Y171.7766 I-3.6497 J1.3083
G0 Z5.0
G0 X-62.6329 Y68.0686
G1 Z0.0
G1 X-63.4552 Y68.3085
G3 X-66.5562 Y69.1484 I-23.3376 J-80.0285
G3 X-67.1424 Y69.2898 I-7.4728 J-29.6799
G3 X-69.3562 Y69.7527 I-9.4868 J-39.8486
G3 X-71.0338 Y70.0103 I-5.6411 J-31.1405
G3 X-71.3499 Y70.0482 I-1.3349 J-9.7986
G3 X-72.5388 Y70.1568 I-3.1519 J-27.9508
G3 X-74.3286 Y70.2072 I-1.5214 J-22.2062
G3 X-76.116 Y70.1005 I0.1964 J-18.3158
G3 X-76.3026 Y70.1954 I-0.9598 J-1.6572
G1 X-76.3937 Y70.2354
G3 X-76.7579 Y70.369 I-1.6299 J-3.8795
G3 X-77.4396 Y70.5294 I-1.2915 J-3.9605
G3 X-78.0011 Y70.5613 I-0.4395 J-2.785
G3 X-78.4331 Y70.4774 I0.0607 J-1.4674
G3 X-78.7156 Y70.2987 I0.2652 J-0.732
G3 X-78.9111 Y69.8488 I0.5224 J-0.4945
G3 X-78.9087 Y69.6026 I1.2273 J-0.1109
G3 X-78.8918 Y69.4807 I1.2484 J0.1112
G3 X-78.8803 Y69.4202 I0.8645 J0.1331
G1 X-78.867 Y69.3601
G1 X-78.2623 Y69.3059
G1 X-77.0899 Y69.2063
G1 X-75.9904 Y69.1156
G1 X-75.4748 Y69.0729
G1 X-75.2251 Y69.0521
G1 X-74.2419 Y68.968
G1 X-73.3204 Y68.8851
G1 X-72.4567 Y68.8024
G1 X-72.2543 Y68.7821
G2 X-69.0728 Y68.4074 I-8.9777 J-89.9145
G1 X-68.4777 Y68.3223
G2 X-68.408 Y68.312 I-0.2051 J-1.6223
G2 X-66.2028 Y67.9373 I-7.9708 J-53.5877
G1 X-65.9969 Y67.897
G2 X-64.4086 Y67.5485 I-7.7546 J-39.1397
G2 X-63.2287 Y67.2389 I-8.9809 J-36.6316
G2 X-61.4869 Y66.6785 I-6.9601 J-24.6185
G2 X-59.7986 Y65.9731 I-6.557 J-18.0663
G3 X-59.2449 Y65.7029 I2.2279 J3.8641
G3 X-58.215 Y65.3589 I3.0926 J7.5438
G3 X-57.3993 Y65.1868 I2.2625 J8.7044
G3 X-57.0806 Y65.1447 I1.0132 J6.4394
G3 X-56.5119 Y65.1142 I0.5862 J5.6174
G3 X-56.0735 Y65.1458 I0.0004 J3.0544
G3 X-55.7446 Y65.2222 I-0.3043 J2.0553
G3 X-55.51 Y65.3278 I-0.3874 J1.1736
G3 X-55.2354 Y65.5986 I-0.37 J0.65
G3 X-55.1434 Y65.9731 I-0.6564 J0.3599
G1 X-55.3066 Y66.011
G1 X-55.4684 Y66.0492
G1 X-55.6289 Y66.0876
G1 X-55.788 Y66.1263
G1 X-55.9458 Y66.1651
G1 X-56.5705 Y66.3234
G1 X-56.8726 Y66.4024
G2 X-59.2408 Y67.064 I27.69 J103.6891
G2 X-61.3054 Y67.6748 I69.2178 J237.7535
G1 X-61.7572 Y67.8093
G1 X-62.6329 Y68.0686
G0 Z5.0
G0 X-107.6116 Y1.8022
G1 Z0.0
G3 X-108.222 Y2.1276 I-1.8274 J-2.6922
G3 X-109.1997 Y2.3203 I-0.9841 J-2.4175
G3 X-110.3282 Y2.0664 I0.0186 J-2.7183
G3 X-111.062 Y1.604 I1.4313 J-3.0847
G3 X-111.9071 Y0.6172 I2.4111 J-2.9201
G3 X-112.1804 Y0.022 I2.6116 J-1.5596
G3 X-112.2934 Y-0.6232 I1.946 J-0.6735
G3 X-112.2031 Y-1.1459 I1.5371 J-0.0034
G3 X-111.995 Y-1.5539 I1.6585 J0.5884
G3 X-111.4388 Y-2.12 I1.9501 J1.3599
G3 X-110.9277 Y-2.4224 I1.8295 J2.5089
G3 X-110.084 Y-2.7017 I1.621 J3.4825
G3 X-109.1997 Y-2.7914 I0.8636 J4.1117
G3 X-108.1899 Y-2.6717 I0.0131 J4.2095
G3 X-107.4621 Y-2.4125 I-0.8679 J3.5885
G3 X-106.9611 Y-2.1107 I-1.3471 J2.8032
G3 X-106.631 Y-1.818 I-1.3846 J1.8936
G3 X-106.2603 Y-1.27 I-1.4152 J1.3566
G3 X-106.1206 Y-0.6232 I-1.4452 J0.6507
G3 X-106.2109 Y-0.05 I-1.9871 J-0.0195
G3 X-106.3989 Y0.4194 I-2.5956 J-0.7669
G3 X-106.8903 Y1.1533 I-3.3423 J-1.7065
G3 X-107.3657 Y1.6177 I-2.8574 J-2.4492
G3 X-107.6116 Y1.8022 I-2.0733 J-2.5078
G0 Z5.0
M5
M30
