( Made using CamBam - http://www.cambam.co.uk )
( car1 1/21/2014 9:58:13 PM )
( T0 : 0.0 )
G21 G90 G64 G40
G0 Z5.0
( T0 : 0.0 )
T0 M6
( 21-50 )
G17
M3 S1000
G0 X167.9256 Y215.7469
G1 F1.0 Z0.0
G1 X167.9322 Y215.6044
G1 X167.9371 Y215.4618
G1 X167.9431 Y215.1765
G2 X167.9434 Y214.6058 I-23.6178 J-0.2967
G1 X167.9378 Y214.2254
G1 X167.9263 Y213.7183
G1 X167.9229 Y213.583
G1 X167.9044 Y212.8619
G3 X167.8957 Y212.4497 I33.8067 J-0.9191
G3 X167.8899 Y211.3505 I31.2916 J-0.7162
G3 X167.9554 Y209.886 I18.6895 J0.1028
G3 X168.055 Y209.0537 I13.0651 J1.1412
G3 X168.2537 Y208.1152 I8.5169 J1.3127
G1 X173.0797 Y206.2769
G1 X174.689 Y205.6658
G1 X176.8364 Y204.8553
G1 X178.0646 Y204.3953
G1 X179.4697 Y203.8732
G3 X183.2253 Y202.5048 I138.5558 J374.4489
G3 X183.4643 Y202.4193 I4.8557 J13.1979
G3 X183.7071 Y202.3327 I4.9719 J13.5511
G3 X183.9539 Y202.2449 I5.0931 J13.9211
G3 X184.2046 Y202.1559 I5.2194 J14.3083
G3 X184.4594 Y202.0657 I5.3508 J14.7137
G3 X184.7184 Y201.9743 I5.4878 J15.1383
G3 X184.9815 Y201.8817 I5.6303 J15.5827
G3 X185.2489 Y201.788 I5.7787 J16.048
G3 X185.5207 Y201.693 I5.9332 J16.5353
G3 X185.7969 Y201.5967 I6.0933 J17.0439
G3 X188.3267 Y200.7315 I109.7204 J316.6758
G3 X188.6487 Y200.6236 I7.8234 J22.8115
G3 X188.9759 Y200.5145 I8.0031 J23.456
G3 X195.9999 Y198.3213 I59.6974 J178.8459
G3 X197.8881 Y197.7866 I34.6402 J118.7211
G3 X198.1265 Y197.7209 I3.8015 J13.3333
G3 X202.5049 Y196.5926 I37.1283 J135.0159
G3 X207.5545 Y195.4906 I28.1589 J116.9156
G3 X208.8651 Y195.2424 I19.6568 J100.2081
G3 X214.8948 Y194.3171 I18.4121 J99.8732
G3 X214.9896 Y194.3055 I0.3984 J2.8652
G3 X215.0846 Y194.294 I0.3947 J2.857
G3 X222.0644 Y193.7149 I11.1039 J91.4849
G3 X222.9563 Y194.3385 I-8.2395 J12.7334
G3 X223.7915 Y195.0361 I-6.7785 J8.9654
G3 X224.3002 Y195.5537 I-5.3495 J5.7668
G3 X224.5679 Y195.8707 I-4.669 J4.2129
G3 X225.1783 Y196.7945 I-4.8123 J3.8434
G3 X225.7116 Y198.1737 I-5.3611 J2.8659
G3 X225.8693 Y199.0062 I-7.097 J1.7753
G3 X224.9542 Y199.3214 I-2.6884 J-6.3192
G3 X224.0087 Y199.5282 I-2.6365 J-9.7907
G3 X223.3701 Y199.6204 I-1.879 J-10.7562
G3 X222.514 Y199.7006 I-1.7873 J-14.4701
G3 X222.0237 Y199.7292 I-1.8066 J-26.7532
G1 X221.762 Y199.7403
G1 X221.4828 Y199.7493
G1 X221.185 Y199.7562
G3 X219.5984 Y199.7572 I-0.8281 J-51.8493
G1 X219.1755 Y199.7511
G1 X218.9572 Y199.7473
G1 X218.4918 Y199.7387
G1 X217.4288 Y199.7194
G1 X216.862 Y199.7121
G1 X216.5695 Y199.7099
G2 X215.9457 Y199.7096 I-0.324 J26.9633
G2 X215.6237 Y199.7124 I-0.0655 J10.8342
G2 X214.9373 Y199.7269 I0.4293 J36.529
G1 X214.5831 Y199.7397
G1 X214.2177 Y199.7574
G1 X214.1257 Y199.7626
G2 X213.746 Y199.7876 I1.5296 J26.1126
G1 X213.3546 Y199.8198
G2 X212.5218 Y199.914 I1.3401 J15.5801
G1 X212.311 Y199.9441
G2 X211.8771 Y200.0152 I2.6187 J17.3459
G1 X211.6575 Y200.0562
G2 X211.2063 Y200.1523 I2.2857 J11.8391
G1 X210.9784 Y200.2074
G2 X210.019 Y200.4962 I2.5851 J10.327
G2 X209.0314 Y200.9141 I2.9031 J8.2355
G2 X205.6183 Y201.6163 I8.7392 J51.1255
G2 X202.258 Y202.5388 I13.1559 J54.5068
G2 X200.0492 Y203.2587 I21.7342 J70.4263
G2 X197.1421 Y204.3269 I24.5979 J71.4317
G2 X193.3252 Y205.9 I39.8863 J102.1983
G2 X193.0847 Y206.0043 I4.3291 J10.3077
G2 X192.8406 Y206.1108 I4.2752 J10.1382
G2 X192.5928 Y206.2193 I4.235 J10.0026
G2 X192.3413 Y206.3301 I4.2069 J9.8968
G1 X191.2704 Y206.807
G1 X190.1314 Y207.3226
G1 X188.9193 Y207.8785
G1 X187.6287 Y208.4761
G1 X184.682 Y209.8464
G1 X183.1084 Y210.5722
G3 X182.9099 Y210.6631 I-4.834 J-10.2962
G3 X182.7097 Y210.7546 I-4.8545 J-10.3602
G3 X182.5079 Y210.8466 I-4.8689 J-10.4126
G3 X178.8013 Y212.4874 I-71.588 J-156.7072
G3 X178.5663 Y212.5875 I-3.9049 J-8.8418
G3 X176.553 Y213.4205 I-51.6562 J-122.0039
G3 X174.3862 Y214.2605 I-38.8867 J-97.091
G2 X173.8948 Y214.3761 I1.3897 J7.0121
G2 X173.4125 Y214.5253 I2.9905 J10.5228
G2 X172.4699 Y214.8854 I5.5165 J15.8518
G2 X172.3456 Y214.9369 I1.1669 J2.9939
G1 X171.6839 Y215.2137
G3 X170.7931 Y215.5603 I-6.403 J-15.1432
G3 X170.2724 Y215.726 I-2.7072 J-7.6047
G1 X170.2055 Y215.7444
G1 X170.1373 Y215.7625
G3 X169.5041 Y215.8879 I-1.2625 J-4.7121
G3 X168.7638 Y215.9156 I-0.5071 J-3.6454
G3 X167.9256 Y215.7469 I0.1927 J-3.1243
G0 Z5.0
G0 X163.2798 Y215.7238
G1 Z0.0
G1 X163.2797 Y215.7457
G1 X163.277 Y216.1
G1 X163.2755 Y216.2829
G1 X163.2741 Y216.4716
G1 X163.2703 Y217.3341
G3 X161.3176 Y218.8186 I-9.508 J-10.4803
G3 X160.6153 Y219.2392 I-10.0398 J-15.9678
G3 X159.649 Y219.746 I-9.2069 J-16.381
G3 X158.3192 Y220.3345 I-9.3857 J-19.4105
G3 X156.4956 Y220.9886 I-9.9291 J-24.812
G3 X155.4363 Y221.3087 I-9.8961 J-30.8386
G3 X154.216 Y221.6377 I-12.1729 J-42.7227
G1 X153.5621 Y221.8004
G1 X153.224 Y221.8816
G1 X152.5018 Y222.0495
G1 X151.7305 Y222.2223
G1 X150.9073 Y222.402
G1 X149.0273 Y222.8092
G1 X148.5428 Y222.9165
G1 X148.0433 Y223.0294
G1 X147.9175 Y223.0583
G1 X147.7908 Y223.0876
G2 X147.5335 Y223.1478 I3.3317 J14.8281
G2 X145.1983 Y223.7523 I10.9012 J46.9214
G1 X145.0524 Y223.7947
G2 X139.5183 Y224.0496 I0.5368 J71.8562
G1 X138.7297 Y224.1191
G2 X137.8293 Y224.2075 I16.1665 J169.2947
G2 X135.4331 Y224.4867 I10.7314 J102.5179
G1 X135.1244 Y224.527
G1 X134.8058 Y224.5695
G1 X134.4772 Y224.6144
G1 X134.1381 Y224.6617
G1 X133.7881 Y224.7117
G1 X133.4271 Y224.7643
G1 X133.0546 Y224.8197
G1 X132.6703 Y224.8781
G1 X132.2737 Y224.9396
G1 X131.8645 Y225.0042
G2 X129.9966 Y225.3137 I36.5778 J226.5583
G2 X127.8659 Y225.6903 I29.7879 J174.7373
G1 X126.7309 Y225.8985
G1 X126.1453 Y226.0074
G1 X125.541 Y226.1205
G1 X124.9174 Y226.2379
G1 X122.0675 Y226.7767
G3 X121.7055 Y226.8447 I-3.8721 J-19.6124
G1 X120.1606 Y227.1317
G3 X116.6241 Y227.7546 I-39.3878 J-213.276
G3 X116.5129 Y227.7731 I-0.6119 J-3.3338
G3 X116.4013 Y227.7916 I-0.605 J-3.3051
G3 X116.2893 Y227.8101 I-0.5982 J-3.2772
G3 X116.1768 Y227.8286 I-0.5915 J-3.2497
G3 X116.0638 Y227.847 I-0.5849 J-3.223
G3 X115.9504 Y227.8655 I-0.5783 J-3.1968
G3 X111.7931 Y228.4712 I-18.9859 J-115.7496
G3 X107.0146 Y228.9491 I-10.9174 J-85.0159
G3 X106.9396 Y228.9544 I-0.1419 J-1.4826
G1 X106.3297 Y228.9945
G1 X105.7099 Y229.0301
G3 X100.0299 Y229.0933 I-3.5765 J-66.1466
G2 X100.4613 Y228.2666 I-3.5923 J-2.4007
G2 X100.7101 Y227.3679 I-4.3927 J-1.6997
G2 X100.751 Y227.1044 I-10.5772 J-1.7776
G2 X100.8098 Y226.3967 I-7.9229 J-1.0143
G2 X100.816 Y225.4526 I-18.6599 J-0.5956
G1 X100.8078 Y224.9142
G3 X100.8061 Y224.6273 I11.2276 J-0.2111
G3 X100.8237 Y223.9728 I10.7171 J-0.0377
G1 X100.8292 Y223.8898
G3 X100.9313 Y223.1371 I5.3694 J0.3445
G3 X101.2065 Y222.3101 I3.5308 J0.716
G1 X102.2166 Y222.1145
G1 X103.227 Y221.9209
G1 X105.2489 Y221.5393
G3 X109.2959 Y220.7933 I141.2468 J754.814
G1 X111.9953 Y220.3036
G1 X115.5949 Y219.653
G1 X117.6515 Y219.2794
G1 X118.1822 Y219.1825
G1 X120.6073 Y218.736
G1 X121.9002 Y218.4948
G1 X123.2787 Y218.2345
G1 X123.99 Y218.0989
G1 X124.724 Y217.9578
G1 X125.4815 Y217.8109
G2 X133.541 Y216.1459 I-62.3492 J-322.1403
G1 X134.0512 Y216.0327
G1 X134.5693 Y215.9167
G1 X135.0953 Y215.7978
G1 X135.6294 Y215.6757
G2 X137.9048 Y215.1407 I-52.6238 J-228.927
G1 X138.4818 Y215.001
G1 X138.5561 Y215.0767
G1 X138.6308 Y215.152
G2 X138.681 Y215.202 I0.4914 J-0.4438
G2 X138.886 Y215.3969 I3.1361 J-3.0914
G2 X139.3304 Y215.7469 I2.648 J-2.9056
G1 X140.8584 Y215.3918
G2 X140.9603 Y215.3679 I-0.2932 J-1.4801
G1 X142.5889 Y214.9835
G1 X145.8441 Y214.206
G2 X145.9474 Y214.1812 I-0.6676 J-3.0131
G1 X146.8922 Y213.9548
G3 X149.4118 Y213.3533 I133.4045 J553.2364
G1 X150.8523 Y213.0128
G1 X151.6209 Y212.8326
G1 X153.379 Y212.4259
G1 X154.3173 Y212.2124
G1 X155.319 Y211.9879
G1 X155.4453 Y211.9599
G1 X156.5232 Y211.7233
G3 X158.9915 Y211.2026 I56.478 J261.6479
G1 X159.6296 Y211.0737
G1 X159.7905 Y211.0415
G1 X160.455 Y210.9107
G1 X161.1416 Y210.7789
G1 X161.8511 Y210.6464
G1 X162.5842 Y210.5139
G1 X162.9569 Y210.4483
G3 X163.192 Y212.1767 I-14.7724 J2.8897
G3 X163.2746 Y213.9189 I-26.2342 J2.1168
G3 X163.283 Y215.0814 I-51.0043 J0.9497
G1 X163.2798 Y215.7238
G0 Z5.0
G0 X163.2703 Y224.2199
G1 Z0.0
G3 X163.1645 Y230.8088 I-867.5774 J-10.6438
G1 X163.1604 Y231.0214
G1 X163.1415 Y231.993
G1 X163.0879 Y234.5839
G1 X163.0103 Y238.0383
G1 X162.9885 Y238.9595
G1 X162.9372 Y241.0649
G3 X162.4517 Y257.9061 I-2151.9118 J-53.609
G1 X162.3754 Y260.1512
G1 X162.2895 Y262.5459
G1 X162.243 Y263.7818
G1 X162.193 Y265.0574
G1 X162.1387 Y266.3741
G1 X162.1316 Y266.5394
G1 X162.1024 Y267.2108
G1 X162.038 Y268.5967
G1 X162.0206 Y268.946
G1 X161.9833 Y269.6552
G1 X161.9415 Y270.3755
G1 X161.93 Y270.5562
G1 X161.9052 Y270.9204
G1 X161.8916 Y271.1032
G1 X161.8767 Y271.2866
G3 X161.8398 Y271.6557 I-16.5162 J-1.4657
G3 X161.81 Y271.8396 I-1.4856 J-0.1462
G3 X161.7931 Y271.8835 I-0.1109 J-0.0176
G1 X160.9883 Y271.8907
G1 X160.7199 Y271.8917
G1 X160.3622 Y271.892
G1 X159.8853 Y271.8905
G1 X159.6126 Y271.8887
G3 X157.4326 Y271.8502 I1.0313 J-120.1157
G1 X156.8099 Y271.8316
G3 X151.833 Y271.5765 I4.3376 J-133.3048
G1 X151.1702 Y271.5297
G1 X150.4634 Y271.4768
G1 X149.7097 Y271.4171
G3 X145.6945 Y271.051 I16.4346 J-202.4361
G1 X144.6249 Y270.9419
G1 X143.4845 Y270.8213
G1 X143.1949 Y270.7901
G1 X142.9007 Y270.7581
G1 X142.6019 Y270.7254
G1 X142.2984 Y270.692
G1 X141.99 Y270.6577
G1 X141.6769 Y270.6228
G1 X141.3587 Y270.5871
G1 X141.0356 Y270.5506
G1 X140.7073 Y270.5133
G1 X140.3739 Y270.4753
G3 X139.6856 Y270.3963 I7.6552 J-69.7233
G1 X136.5399 Y270.0302
G1 X135.7281 Y269.9356
G1 X134.8901 Y269.8384
G1 X133.1021 Y269.6337
G1 X132.1791 Y269.5303
G1 X131.226 Y269.4255
G1 X130.7418 Y269.3733
G1 X130.2498 Y269.3209
G1 X129.75 Y269.2685
G2 X125.1756 Y268.8376 I-24.1546 J231.9382
G2 X119.9354 Y268.4956 I-12.0775 J144.7395
G1 X119.6049 Y268.4811
G1 X118.9333 Y268.4543
G1 X118.8095 Y268.4477
G1 X118.6859 Y268.4385
G1 X118.4391 Y268.4162
G1 X117.9462 Y268.3637
G1 X117.618 Y268.3254
G1 X117.1808 Y268.2718
G1 X117.0641 Y268.2571
G1 X116.9398 Y268.2413
G1 X116.2771 Y268.1546
G1 X115.3942 Y268.0343
G3 X111.8682 Y267.5158 I30.9377 J-222.6266
G1 X110.8622 Y267.3583
G1 X110.6026 Y267.3169
G1 X109.417 Y267.1239
G1 X108.785 Y267.0182
G1 X108.459 Y266.9627
G1 X107.764 Y266.8422
G1 X107.5876 Y266.811
G3 X105.9768 Y266.5134 I13.6448 J-78.3724
G1 X105.7726 Y266.4736
G1 X105.3515 Y266.3891
G1 X105.1379 Y266.345
G3 X104.2293 Y266.143 I7.8552 J-37.4802
G1 X103.9997 Y266.0864
G3 X95.1683 Y263.02 I13.3326 J-52.65
G3 X87.0091 Y258.4566 I21.1935 J-47.469
G3 X82.0962 Y254.6127 I27.5804 J-40.3122
G3 X76.3998 Y248.5535 I31.0402 J-34.8889
G3 X70.6942 Y239.0454 I35.1054 J-27.5318
G2 X72.0748 Y238.7418 I-2.268 J-13.6077
G2 X73.4259 Y238.3263 I-5.7621 J-21.1395
G1 X73.8075 Y238.1941
G1 X74.2421 Y238.0384
G1 X75.3966 Y237.613
G3 X76.0574 Y237.373 I25.7126 J69.7645
G1 X76.411 Y237.2487
G3 X76.7897 Y237.1205 I5.5237 J15.6824
G3 X76.8862 Y237.0887 I0.5085 J1.3822
G3 X77.2992 Y236.9576 I5.1863 J15.6257
G3 X77.3514 Y236.9417 I0.2971 J0.8785
G3 X77.4041 Y236.9257 I0.2919 J0.8686
G3 X78.3749 Y236.6613 I5.7377 J19.1515
G3 X79.5035 Y236.437 I3.3234 J13.7707
G1 X79.7977 Y236.3951
G2 X90.2616 Y242.7323 I34.43 J-45.0432
G2 X101.8521 Y246.6453 I23.3504 J-50.0428
G2 X109.9398 Y247.7713 I11.466 J-52.7483
G2 X111.8468 Y247.8714 I5.8949 J-94.0533
G1 X112.1194 Y247.8826
G1 X112.8465 Y247.9084
G2 X115.7561 Y247.9518 I2.7127 J-84.4195
G1 X115.9439 Y247.9511
G2 X117.9463 Y247.917 I-0.4611 J-85.9288
G1 X118.48 Y247.8993
G1 X119.0492 Y247.8762
G1 X119.6562 Y247.8467
G2 X121.0424 Y247.7602 I-2.8317 J-56.5071
G2 X124.7277 Y247.3911 I-4.4919 J-63.4424
G2 X129.5949 Y246.5538 I-7.2443 J-56.6762
G1 X130.217 Y246.4145
G2 X133.0375 Y245.6801 I-10.9619 J-47.8819
G2 X136.2016 Y244.6346 I-13.1748 J-45.1837
G2 X139.7132 Y243.1546 I-15.1215 J-40.7857
G2 X140.1492 Y242.9444 I-10.3552 J-22.0297
G2 X140.3681 Y242.8365 I-4.6506 J-9.7066
G2 X142.2091 Y241.8624 I-16.9224 J-34.2126
G2 X151.0244 Y235.0912 I-18.9934 J-33.851
G2 X153.0219 Y232.8847 I-28.4114 J-27.7275
G2 X154.9733 Y230.3772 I-32.9849 J-27.6817
G1 X155.0894 Y230.2151
G2 X156.9601 Y227.3707 I-37.6773 J-26.8166
G2 X158.7256 Y224.1968 I-42.637 J-25.794
G2 X159.1374 Y223.3713 I-48.4895 J-24.7067
G3 X159.799 Y223.554 I-1.8545 J8.0089
G1 X159.8925 Y223.5838
G1 X159.9991 Y223.6187
G1 X160.8483 Y223.9059
G2 X161.4209 Y224.0767 I3.315 J-10.0683
G2 X162.2038 Y224.228 I1.4477 J-5.3903
G2 X163.2703 Y224.2199 I0.5006 J-4.3411
G0 Z5.0
G0 X154.9073 Y223.7947
G1 Z0.0
G3 X153.3216 Y226.7173 I-17.2073 J-7.4444
G3 X151.2911 Y229.3502 I-19.5571 J-12.9831
G3 X150.6479 Y230.0502 I-19.7101 J-17.4668
G3 X149.8846 Y230.8228 I-20.3399 J-19.3327
G1 X149.683 Y231.0176
G1 X149.4731 Y231.2167
G3 X148.4917 Y232.1024 I-20.9453 J-22.2255
G3 X145.725 Y234.2786 I-25.2163 J-29.2114
G3 X144.9562 Y234.8173 I-27.4309 J-38.3298
G3 X140.6976 Y237.424 I-28.6644 J-42.0476
G1 X140.131 Y237.7309
G1 X139.5428 Y238.041
G1 X139.2427 Y238.196
G3 X139.1673 Y238.2346 I-0.8461 J-1.5589
G3 X139.0914 Y238.2733 I-0.8538 J-1.5791
G3 X139.0153 Y238.3121 I-0.8617 J-1.5998
G3 X136.2006 Y239.6558 I-28.8485 J-56.8067
G3 X136.0212 Y239.736 I-2.6538 J-5.6964
G3 X128.2159 Y242.6878 I-30.3161 J-68.3671
G3 X123.6351 Y243.9846 I-23.4619 J-74.1415
G3 X118.3192 Y245.0957 I-16.6708 J-66.488
G3 X117.6383 Y245.2047 I-6.0231 J-35.4343
G1 X117.4671 Y245.2308
G1 X117.2953 Y245.2565
G1 X117.1227 Y245.2817
G3 X114.1667 Y245.6208 I-7.1721 J-49.4651
G3 X112.6337 Y245.7162 I-3.3747 J-41.8595
G1 X112.2469 Y245.7298
G1 X111.8569 Y245.7387
G3 X106.1416 Y245.3436 I0.5141 J-48.9732
G3 X100.5146 Y244.2677 I5.958 J-46.4112
G3 X96.8579 Y243.1599 I11.0112 J-42.9369
G3 X83.6172 Y235.6565 I14.1078 J-40.3292
G2 X84.3413 Y235.4205 I-2.1622 J-7.8602
G1 X85.0543 Y235.1531
G1 X85.1499 Y235.1187
G1 X85.2522 Y235.083
G1 X85.4874 Y235.0059
G3 X86.1292 Y234.8493 I1.5615 J5.0049
G3 X87.0116 Y234.8079 I0.6081 J3.5407
G2 X90.1634 Y236.5926 I21.1658 J-33.704
G2 X93.4573 Y238.0992 I20.0479 J-39.4779
G2 X100.344 Y240.3244 I18.3494 J-45.0193
G2 X105.0834 Y241.2378 I11.8973 J-48.9832
G2 X106.3601 Y241.4034 I6.3296 J-43.7762
G2 X113.2138 Y241.7086 I5.5237 J-46.9363
G2 X117.1262 Y241.4176 I-1.1785 J-42.2877
G2 X121.542 Y240.6278 I-4.5755 J-38.3179
G2 X123.8507 Y239.9912 I-8.7812 J-36.3509
G2 X125.0241 Y239.6006 I-8.566 J-27.6945
G2 X127.4759 Y238.6202 I-10.984 J-31.0239
G1 X128.0825 Y238.376
G1 X128.6871 Y238.1269
G1 X129.0889 Y237.958
G1 X129.196 Y237.9126
G1 X129.7655 Y237.6676
G2 X132.0222 Y236.6394 I-28.7567 J-66.1042
G2 X136.4098 Y234.3282 I-25.8034 J-54.3058
G2 X137.6253 Y233.5994 I-28.5858 J-49.0527
G1 X137.7013 Y233.5524
G2 X137.8552 Y233.4565 I-2.0458 J-3.4573
G1 X138.1721 Y233.2569
G1 X138.4976 Y233.0484
G1 X138.6624 Y232.9415
G2 X139.3606 Y232.4782 I-31.2634 J-47.8816
G2 X142.9432 Y229.8079 I-26.7171 J-39.5825
G2 X144.8805 Y228.1432 I-37.9208 J-46.0894
G1 X145.0003 Y228.0358
G1 X145.4931 Y227.5902
G1 X146.5407 Y226.6361
G3 X147.0863 Y226.1492 I55.1217 J61.2048
G3 X147.367 Y225.9061 I9.9976 J11.2631
G1 X147.5099 Y225.7852
G1 X147.6551 Y225.6647
G3 X148.2713 Y225.1882 I7.166 J8.6292
G1 X148.4321 Y225.0754
G1 X148.597 Y224.9659
G3 X150.1855 Y224.1254 I5.205 J7.9158
G3 X150.7493 Y223.9205 I2.9329 J7.1924
G3 X153.1163 Y223.5702 I2.2377 J6.9479
G3 X154.7054 Y223.7506 I-0.1453 J8.3653
G3 X154.9073 Y223.7947 I-0.7328 J3.842
G0 Z5.0
G0 X168.2537 Y205.8902
G1 Z0.0
G3 X168.1036 Y204.7444 I4.57 J-1.1815
G3 X168.2105 Y203.5939 I5.8563 J-0.0361
G3 X168.3918 Y202.8452 I7.1385 J1.3325
G3 X168.7273 Y201.8768 I10.7681 J3.1882
G3 X168.7764 Y201.754 I2.0878 J0.7644
G3 X168.8283 Y201.6277 I2.13 J0.8009
G3 X168.8829 Y201.4978 I2.2172 J0.8565
G3 X168.9404 Y201.3643 I2.3665 J0.9398
G3 X169.5991 Y199.9689 I27.3057 J12.0359
G1 X169.9935 Y199.1825
G1 X170.203 Y198.7632
G1 X170.31 Y198.5464
G2 X170.7806 Y197.5495 I-29.9707 J-14.7563
G1 X170.8374 Y197.4215
G1 X170.8942 Y197.2912
G1 X170.951 Y197.1584
G2 X171.4102 Y195.9232 I-12.6712 J-5.4141
G2 X171.7452 Y194.4536 I-8.337 J-2.6731
G3 X174.5812 Y192.2289 I12.4995 J13.0145
G3 X177.7875 Y190.5824 I10.8246 J17.1339
G3 X177.8937 Y190.5392 I1.1962 J2.7931
G3 X178.8735 Y190.1695 I7.658 J18.8074
G3 X178.999 Y190.1256 I0.8127 J2.1223
G3 X179.537 Y189.9457 I5.622 J15.9232
G3 X182.4572 Y189.1717 I9.1476 J28.615
G3 X184.1518 Y188.8478 I7.6358 J35.3609
G3 X184.2591 Y188.8298 I0.3298 J1.6364
G3 X184.3672 Y188.8119 I0.3284 J1.6505
G3 X184.4762 Y188.7942 I0.3271 J1.6651
G3 X184.5861 Y188.7766 I0.3258 J1.6804
G3 X184.6969 Y188.7591 I0.3245 J1.6962
G3 X184.8086 Y188.7417 I0.3233 J1.7128
G3 X184.9212 Y188.7245 I0.3223 J1.7301
G3 X185.0347 Y188.7074 I0.3212 J1.7481
G3 X185.1492 Y188.6905 I0.3202 J1.7669
G3 X185.2646 Y188.6736 I0.3193 J1.7864
G3 X185.3809 Y188.6569 I0.3185 J1.8068
G3 X185.4982 Y188.6404 I0.3177 J1.8282
G3 X185.6165 Y188.624 I0.3171 J1.8505
G3 X185.7357 Y188.6077 I0.3165 J1.8738
G3 X185.8558 Y188.5916 I0.316 J1.8982
G3 X186.352 Y188.5278 I9.8163 J74.3411
G1 X186.8646 Y188.4662
G1 X187.3939 Y188.407
G1 X187.9407 Y188.3499
G3 X190.4391 Y188.1312 I10.7893 J108.8557
G3 X190.7566 Y188.107 I1.4451 J16.9108
G1 X191.4119 Y188.0589
G1 X194.4015 Y187.8513
G1 X195.1725 Y187.7957
G1 X195.9676 Y187.7352
G1 X196.3713 Y187.7028
G1 X197.2037 Y187.6315
G1 X197.6262 Y187.5926
G1 X197.8391 Y187.5722
G1 X198.0535 Y187.5511
G1 X198.2696 Y187.5292
G1 X198.4873 Y187.5065
G1 X198.7065 Y187.4829
G2 X198.9274 Y187.4585 I-0.7318 J-7.6157
G2 X199.1498 Y187.433 I-1.2257 J-11.7105
G1 X199.6014 Y187.3789
G1 X200.0597 Y187.3201
G1 X200.5245 Y187.2563
G1 X200.9959 Y187.1868
G2 X202.9961 Y186.8291 I-5.5677 J-36.9072
G2 X203.9328 Y187.2449 I8.1322 J-17.0573
G2 X204.89 Y187.6114 I8.0876 J-19.6925
G2 X206.8445 Y188.2268 I9.7303 J-27.492
G1 X207.108 Y188.2993
G1 X207.3895 Y188.3747
G2 X208.0349 Y188.5396 I11.6679 J-44.2959
G2 X208.38 Y188.624 I3.9979 J-15.6115
G2 X210.2275 Y189.0412 I18.7438 J-78.6925
G2 X212.6985 Y189.5556 I69.9738 J-329.9804
G1 X213.0173 Y189.622
G1 X213.6968 Y189.7659
G1 X214.4205 Y189.9245
G3 X214.7933 Y190.0091 I-3.0022 J14.0925
G1 X215.1776 Y190.0989
G1 X215.3726 Y190.1457
G1 X215.7743 Y190.2448
G1 X215.9781 Y190.2967
G3 X217.8238 Y190.8331 I-6.9918 J27.4981
G3 X218.2928 Y190.9951 I-6.1612 J18.6019
G3 X218.7725 Y191.1755 I-9.0806 J24.872
G1 X218.8323 Y191.1992
G1 X218.8923 Y191.2232
G3 X219.1348 Y191.3234 I-4.3396 J10.8472
G3 X220.1473 Y191.8052 I-5.0012 J11.8158
G3 X217.8343 Y192.0279 I-6.7911 J-58.4139
G1 X215.5175 Y192.2061
G1 X215.2086 Y192.2307
G1 X214.8792 Y192.2578
G1 X214.1267 Y192.3238
G1 X213.7256 Y192.3618
G2 X213.5186 Y192.3823 I0.4027 J5.1119
G1 X213.305 Y192.4042
G2 X211.0341 Y192.6978 I4.2672 J41.9405
G2 X209.7465 Y192.9332 I4.0231 J25.6462
G2 X208.2928 Y193.2897 I3.8993 J19.0385
G1 X207.8355 Y193.3352
G1 X207.3786 Y193.3849
G1 X207.0743 Y193.4204
G1 X206.9004 Y193.4414
G1 X206.7019 Y193.4662
G1 X206.4751 Y193.4955
G1 X205.8708 Y193.5785
G2 X203.4647 Y193.9782 I8.1327 J56.3957
G2 X198.7118 Y195.0708 I11.7683 J62.0792
G2 X195.5903 Y195.9806 I21.2311 J78.6457
G2 X193.8229 Y196.5531 I24.5149 J78.7037
G2 X191.8161 Y197.2458 I33.0962 J99.1299
G1 X191.3003 Y197.4304
G1 X190.7686 Y197.6231
G1 X190.2206 Y197.8242
G1 X189.6558 Y198.0341
G1 X189.0736 Y198.2528
G1 X188.4734 Y198.4807
G1 X187.8547 Y198.7179
G1 X186.5372 Y199.2296
G1 X186.2029 Y199.3606
G1 X185.8636 Y199.4941
G1 X184.4172 Y200.0666
G1 X184.0501 Y200.2126
G1 X183.6772 Y200.361
G3 X182.0869 Y200.9946 I-212.7034 J-531.5613
G1 X180.3899 Y201.6677
G3 X178.5767 Y202.377 I-81.3602 J-205.3093
G1 X178.3478 Y202.4654
G1 X178.1171 Y202.5543
G3 X173.8778 Y204.1191 I-55.0941 J-142.7339
G1 X173.3358 Y204.3073
G1 X172.7841 Y204.4956
G1 X172.2226 Y204.6835
G1 X171.651 Y204.8708
G1 X171.069 Y205.0571
G3 X168.5703 Y205.8025 I-23.2748 J-73.4559
G1 X168.2537 Y205.8902
G0 Z5.0
G0 X193.0294 Y185.658
G1 Z0.0
G2 X195.1058 Y183.8549 I-6.9369 J-10.0857
G2 X196.7146 Y181.6243 I-8.9493 J-8.1498
G2 X197.5066 Y179.969 I-12.4436 J-6.9716
G2 X197.6833 Y179.5125 I-16.3942 J-6.6071
G2 X198.0391 Y178.4528 I-17.6003 J-6.4985
G2 X198.2045 Y177.8803 I-15.0058 J-4.6442
G1 X198.2839 Y177.5832
G1 X198.362 Y177.2757
G1 X198.4388 Y176.9574
G2 X198.7471 Y175.4959 I-32.6399 J-7.6487
G1 X198.8175 Y175.1172
G2 X198.9587 Y174.3085 I-139.3945 J-24.7499
G1 X199.0995 Y173.4456
G1 X199.2442 Y172.5256
G3 X199.585 Y170.4324 I113.2523 J17.365
G1 X199.6082 Y170.3008
G1 X199.7076 Y169.7588
G3 X199.9436 Y168.6091 I33.0563 J6.1864
G3 X200.2444 Y167.3957 I24.4262 J5.4112
G1 X200.2867 Y167.244
G1 X200.3306 Y167.0914
G1 X200.3759 Y166.938
G3 X200.8161 Y165.647 I18.1405 J5.4651
G3 X201.4091 Y164.3175 I13.1043 J5.0477
G3 X202.2073 Y162.9804 I10.5664 J5.401
G3 X204.7214 Y160.4075 I8.8133 J6.0971
G3 X206.3757 Y159.3904 I7.2899 J10.0036
G2 X220.2602 Y159.8613 I246.0957 J-7051.5979
G1 X224.8886 Y160.0101
G1 X227.5335 Y160.0929
G1 X230.5562 Y160.1853
G1 X234.011 Y160.2878
G1 X234.9026 Y160.3137
G1 X235.823 Y160.3402
G1 X237.7864 Y160.3959
G1 X239.8807 Y160.4539
G1 X240.9617 Y160.4832
G2 X252.4925 Y160.7698 I76.2088 J-2834.2639
G1 X253.2247 Y160.7862
G1 X253.9685 Y160.8027
G1 X257.142 Y160.8701
G1 X258.7801 Y160.9032
G1 X262.2746 Y160.9696
G1 X262.7149 Y160.9776
G1 X263.1587 Y160.9855
G2 X282.0925 Y161.2279 I32.6198 J-1808.5466
G2 X282.3895 Y161.2301 I0.2825 J-17.9395
G1 X284.8424 Y161.2464
G2 X285.1502 Y161.2482 I0.2229 J-11.7945
G2 X285.3044 Y161.2491 I0.1237 J-8.1524
G1 X287.8513 Y161.2616
G1 X290.4804 Y161.2704
G1 X291.8158 Y161.2732
G2 X320.3037 Y161.068 I2.8855 J-1576.3622
G2 X327.8996 Y160.9271 I-21.933 J-1387.974
G1 X328.3762 Y160.9171
G1 X330.3127 Y160.875
G3 X330.4052 Y161.9564 I-2.5248 J0.7606
G3 X330.0724 Y162.9896 I-2.8019 J-0.3324
G3 X329.6252 Y163.5627 I-1.9922 J-1.0935
G3 X329.2838 Y163.8048 I-1.0856 J-1.1691
G3 X328.8208 Y163.9486 I-0.6097 J-1.1458
G2 X328.0615 Y163.459 I-5.0006 J6.9217
G2 X327.2457 Y163.0706 I-3.0311 J5.316
G2 X326.6685 Y162.8955 I-1.6273 J4.3244
G2 X325.8676 Y162.81 I-0.7457 J3.1927
G2 X324.809 Y163.0173 I0.0572 J3.0982
G2 X324.2501 Y163.2853 I1.3153 J3.4607
G2 X323.6638 Y163.681 I2.8322 J4.8282
G2 X323.3712 Y163.918 I5.1624 J6.6751
G2 X322.7426 Y164.4957 I8.3336 J9.6977
G1 X322.5861 Y164.6501
G1 X322.4262 Y164.8103
G2 X322.3861 Y164.8508 I0.3867 J0.4231
G1 X322.0471 Y165.1953
G1 X321.6865 Y165.5588
G1 X321.4988 Y165.7435
G3 X321.0923 Y166.125 I-12.6801 J-13.1004
G3 X320.6428 Y166.5073 I-7.0594 J-7.8447
G1 X320.5845 Y166.5533
G3 X320.4648 Y166.6449 I-1.3403 J-1.6281
G3 X320.3415 Y166.7352 I-1.2949 J-1.6397
G3 X319.7951 Y167.0828 I-3.4379 J-4.7997
G3 X319.1706 Y167.3721 I-2.3441 J-4.2421
G3 X317.6133 Y167.6116 I-1.3591 J-3.6533
G3 X316.7711 Y167.4897 I0.2647 J-4.7986
G3 X315.9027 Y167.2104 I1.402 J-5.8486
G1 X315.6888 Y167.1203
G1 X315.4744 Y167.0222
G3 X314.9342 Y166.8517 I0.7595 J-3.3489
G3 X314.4497 Y166.5581 I0.6652 J-1.6441
G3 X314.2036 Y166.2686 I0.8045 J-0.9331
G3 X314.0186 Y165.7947 I1.3018 J-0.7814
G3 X313.9689 Y165.5082 I3.474 J-0.7496
G1 X313.931 Y165.1808
G1 X313.9094 Y165.0072
G2 X313.8292 Y164.6198 I-2.9219 J0.4024
G2 X313.6358 Y164.2135 I-1.3464 J0.3916
G2 X313.2571 Y163.8572 I-1.1107 J0.8012
G2 X313.0113 Y163.7234 I-0.9915 J1.5287
G2 X312.4082 Y163.5252 I-1.2727 J2.8568
G1 X312.1674 Y163.5828
G1 X311.926 Y163.6375
G1 X311.4428 Y163.7455
G1 X311.305 Y163.7773
G2 X310.2144 Y164.0795 I2.4889 J11.1016
G1 X310.0721 Y164.1297
G2 X309.7513 Y164.2573 I2.2271 J6.0671
G2 X309.396 Y164.4295 I1.9356 J4.4452
G2 X309.0131 Y164.6702 I1.8267 J3.3303
G2 X308.6264 Y165.0169 I1.5313 J2.0973
G2 X308.2952 Y165.5174 I1.4481 J1.3182
G2 X308.1175 Y166.1934 I1.8921 J0.8587
G2 X308.1101 Y166.5705 I2.8699 J0.2443
G1 X308.1129 Y166.618
G2 X308.1653 Y167.0222 I3.1063 J-0.197
G2 X308.7946 Y167.9425 I9.8782 J-6.0792
G2 X309.5121 Y168.7958 I8.7304 J-6.6129
G2 X310.0401 Y169.3194 I6.6606 J-6.1883
G2 X312.5039 Y170.9691 I6.5928 J-7.1816
G2 X314.3618 Y171.6547 I4.9905 J-10.6643
G2 X314.873 Y171.7882 I4.2871 J-15.3697
G2 X315.4228 Y171.911 I3.051 J-12.3724
G2 X316.6895 Y172.1259 I4.0206 J-19.855
G1 X317.0181 Y172.1688
G1 X317.3576 Y172.2086
G1 X317.7084 Y172.2453
G2 X319.3097 Y172.3684 I3.8459 J-39.532
G2 X320.1631 Y172.4144 I5.6199 J-96.2915
G1 X322.1044 Y172.5061
G3 X324.3074 Y172.6596 I-2.3718 J49.9254
G1 X324.4459 Y172.6733
G3 X325.0159 Y172.7368 I-2.1336 J21.7357
G3 X324.7107 Y173.7289 I-13.4945 J-3.6097
G1 X324.6613 Y173.8687
G3 X324.22 Y174.9699 I-14.8913 J-5.3292
G3 X323.1319 Y177.0761 I-18.9227 J-8.4411
G3 X322.2881 Y178.4123 I-22.6843 J-13.3901
G1 X322.0501 Y178.7601
G3 X320.7047 Y180.5581 I-26.813 J-18.662
G3 X320.6604 Y180.6133 I-0.8693 J-0.6517
G3 X320.4766 Y180.8403 I-7.5388 J-5.9172
G3 X318.422 Y183.1761 I-34.272 J-28.0737
G3 X315.4744 Y186.0832 I-42.246 J-39.8862
G3 X308.1752 Y186.1375 I-11.363 J-1036.5058
G3 X307.9397 Y186.1385 I-0.1601 J-10.2764
G3 X307.6966 Y186.1394 I-0.1625 J-10.4578
G3 X307.4457 Y186.1404 I-0.1649 J-10.6432
G3 X307.1867 Y186.1413 I-0.1674 J-10.8326
G3 X306.9193 Y186.1422 I-0.1698 J-11.0263
G3 X306.6432 Y186.143 I-0.1722 J-11.2241
G3 X306.3583 Y186.1438 I-0.1747 J-11.4264
G3 X297.2419 Y186.1362 I-3.373 J-1413.6277
G3 X296.9525 Y186.1349 I-0.0917 J-12.3965
G3 X278.4314 Y185.9517 I8.5885 J-1803.9865
G3 X266.0852 Y185.7435 I42.0391 J-2859.0187
G3 X265.6963 Y185.7361 I0.2207 J-22.0621
G3 X265.3044 Y185.7287 I0.2267 J-22.3474
G3 X264.9094 Y185.7212 I0.2328 J-22.6418
G3 X264.5113 Y185.7136 I0.2392 J-22.9459
G3 X264.11 Y185.7059 I0.2458 J-23.2603
G3 X263.7056 Y185.6981 I0.2526 J-23.5854
G3 X263.298 Y185.6902 I0.2596 J-23.922
G3 X262.8872 Y185.6822 I0.2669 J-24.2711
G3 X262.4731 Y185.6741 I0.2744 J-24.6328
G3 X262.0558 Y185.6659 I0.2822 J-25.0082
G3 X261.6352 Y185.6576 I0.2904 J-25.3985
G3 X261.2113 Y185.6492 I0.2988 J-25.8045
G3 X260.7841 Y185.6407 I0.3076 J-26.2272
G3 X260.3535 Y185.6322 I0.3167 J-26.668
G3 X259.9195 Y185.6235 I0.3262 J-27.1284
G3 X259.4821 Y185.6147 I0.3362 J-27.6097
G3 X259.0412 Y185.6058 I0.3466 J-28.1138
G3 X258.5969 Y185.5968 I0.3575 J-28.6421
G3 X258.1491 Y185.5877 I0.3689 J-29.1972
G1 X254.3279 Y185.5091
G1 X245.594 Y185.3255
G2 X244.4849 Y185.3021 I-4.2245 J174.3038
G1 X239.7529 Y185.2033
G1 X234.7053 Y185.1006
G1 X232.1001 Y185.0492
G1 X226.5422 Y184.9446
G1 X225.1307 Y184.9194
G2 X224.7606 Y183.8868 I-9.0732 J2.6693
G2 X224.2521 Y182.9148 I-6.1213 J2.5833
G1 X224.2332 Y182.8855
G2 X223.7819 Y182.294 I-3.9709 J2.5617
G2 X223.0286 Y181.6452 I-2.8346 J2.5296
G2 X221.7957 Y181.1409 I-1.9662 J3.0475
G2 X221.0362 Y181.0456 I-0.9488 J4.4883
G2 X220.1638 Y181.0684 I-0.2772 J6.097
G1 X220.0535 Y181.0792
G2 X219.0606 Y181.2369 I1.1453 J10.4119
G2 X217.9572 Y181.5064 I3.3432 J16.0856
G2 X217.3791 Y181.6726 I9.4971 J34.1168
G1 X217.0829 Y181.762
G1 X216.779 Y181.8559
G2 X216.1374 Y182.0579 I25.5319 J82.2234
G1 X215.8078 Y182.162
G3 X214.3274 Y182.6085 I-15.6195 J-49.1123
G3 X213.5376 Y182.8142 I-6.835 J-24.6277
G1 X213.3362 Y182.861
G1 X213.2345 Y182.8836
G1 X213.1321 Y182.9057
G1 X213.0288 Y182.9271
G1 X212.9857 Y182.9356
G1 X212.9425 Y182.9437
G3 X212.9136 Y182.949 I-0.0401 J-0.1372
G3 X212.7982 Y182.9694 I-1.6859 J-9.1625
G1 X212.5671 Y183.0088
G1 X212.4128 Y183.0344
G1 X212.3247 Y183.0489
G1 X212.2239 Y183.0654
G1 X211.4177 Y183.1958
G1 X209.8054 Y183.4567
G1 X208.731 Y183.6338
G1 X208.1173 Y183.7366
G1 X207.4162 Y183.8559
G1 X206.6154 Y183.9947
G1 X205.7009 Y184.1571
G1 X204.6568 Y184.3487
G1 X204.3876 Y184.3993
G1 X203.8136 Y184.5091
G2 X200.7639 Y185.1532 I14.846 J77.835
G2 X199.0401 Y185.6032 I7.1595 J30.9504
G2 X198.601 Y185.7405 I3.1291 J10.7792
G3 X197.573 Y186.0242 I-3.1336 J-9.3487
G3 X196.5189 Y186.186 I-1.7781 J-8.0704
G3 X194.393 Y186.0633 I-0.6433 J-7.3288
G3 X193.0294 Y185.658 I1.7126 J-8.2594
G0 Z5.0
G0 X194.2944 Y157.0646
G1 Z0.0
G3 X174.384 Y156.0806 I85.2464 J-1926.8053
G3 X144.324 Y154.1457 I84.052 J-1540.2502
G3 X135.7433 Y153.48 I105.285 J-1412.8305
G1 X134.654 Y153.3916
G1 X133.5475 Y153.3009
G1 X132.4234 Y153.2078
G1 X131.2817 Y153.1122
G1 X130.1219 Y153.0141
G1 X128.9437 Y152.9133
G1 X127.747 Y152.8099
G1 X126.5314 Y152.7037
G3 X100.6249 Y150.1485 I104.661 J-1193.7686
G1 X98.982 Y149.9668
G1 X97.3133 Y149.7796
G1 X95.6184 Y149.5869
G1 X93.8969 Y149.3884
G1 X92.1484 Y149.184
G3 X76.1788 Y147.1799 I119.144 J-1014.0577
G3 X57.9693 Y144.5771 I129.3694 J-970.0496
G3 X57.3988 Y144.4898 I6.4805 J-44.2583
G3 X56.8261 Y144.4018 I6.3985 J-43.5505
G3 X47.0615 Y142.8449 I136.4464 J-887.2049
G3 X46.7561 Y142.7945 I3.9305 J-24.7493
G3 X46.45 Y142.7438 I3.9181 J-24.6233
G3 X46.1433 Y142.693 I3.9059 J-24.4993
G3 X45.8361 Y142.6419 I3.8939 J-24.3773
G3 X45.5283 Y142.5906 I3.8822 J-24.2567
G3 X45.2199 Y142.5391 I3.8707 J-24.138
G3 X44.9109 Y142.4875 I3.8595 J-24.0212
G1 X42.4006 Y142.0634
G3 X19.5084 Y137.8471 I144.061 J-846.4124
G3 X19.1509 Y137.7761 I3.4166 J-18.138
G3 X18.7928 Y137.7048 I3.4144 J-18.0872
G3 X18.434 Y137.6332 I3.4122 J-18.0369
G3 X18.0745 Y137.5613 I3.4102 J-17.987
G3 X17.7144 Y137.4891 I3.4081 J-17.9373
G3 X5.4414 Y134.9282 I166.625 J-829.2255
G1 X4.8672 Y134.7164
G1 X4.2922 Y134.5068
G3 X3.1504 Y134.0658 I12.6587 J-34.4779
G1 X2.8282 Y133.9298
G3 X2.4633 Y133.7666 I3.972 J-9.3732
G3 X2.3698 Y133.723 I0.8267 J-1.8948
G3 X1.3955 Y133.2108 I4.7501 J-10.2177
G3 X1.2738 Y133.1374 I1.5689 J-2.7386
G3 X0.7338 Y132.7756 I3.7456 J-6.1742
G3 X0.4596 Y132.563 I2.9606 J-4.101
G3 X-0.1171 Y132.0159 I3.2016 J-3.9528
G1 X-0.1839 Y131.94
G3 X-0.705 Y131.1704 I2.9269 J-2.543
G3 X-1.0363 Y130.1458 I2.9972 J-1.5349
G3 X-1.0192 Y128.8928 I3.9116 J-0.5734
G2 X14.5997 Y132.0795 I155.7102 J-723.2979
G2 X30.2826 Y134.9352 I148.8147 J-772.7919
G1 X31.2964 Y135.1083
G1 X32.3431 Y135.2857
G1 X33.4238 Y135.4674
G1 X34.5396 Y135.6534
G1 X35.6918 Y135.8437
G1 X38.1506 Y136.2442
G1 X39.42 Y136.448
G2 X52.9799 Y138.5006 I138.3202 J-867.9592
G2 X60.7424 Y139.5781 I141.7855 J-992.9219
G1 X62.747 Y139.8454
G2 X84.1617 Y142.4416 I134.959 J-1023.5936
G2 X84.3295 Y142.4602 I0.8143 J-6.5837
G2 X84.4977 Y142.4788 I0.8124 J-6.574
G2 X84.6662 Y142.4974 I0.8105 J-6.5644
G2 X84.8351 Y142.516 I0.8086 J-6.5548
G1 X87.6239 Y142.82
G2 X100.3812 Y144.1266 I126.3504 J-1170.7625
G1 X101.1852 Y144.2046
G1 X101.9957 Y144.2827
G1 X102.8126 Y144.3609
G1 X103.6359 Y144.4393
G1 X105.3088 Y144.5969
G1 X107.0084 Y144.7551
G1 X108.7353 Y144.9136
G1 X110.4896 Y145.0726
G2 X117.977 Y145.7283 I150.973 J-1680.8002
G2 X135.1003 Y147.1052 I165.6907 J-1953.3703
G2 X137.0272 Y147.4275 I33.2236 J-192.7063
G1 X137.6703 Y147.5302
G2 X140.2464 Y147.9173 I24.4626 J-154.0269
G2 X141.9666 Y148.1553 I33.3994 J-235.0446
G2 X142.9505 Y148.2844 I13.7222 J-100.7664
G2 X150.8411 Y149.1522 I28.8401 J-225.9207
G1 X151.8953 Y149.2479
G1 X153.0201 Y149.3453
G2 X159.0247 Y149.793 I28.0174 J-335.2531
G1 X160.6271 Y149.8947
G1 X162.3367 Y149.9962
G2 X166.2457 Y150.2057 I28.8145 J-501.1107
G1 X166.7421 Y150.2304
G1 X167.2465 Y150.2551
G1 X167.7588 Y150.2799
G1 X168.2794 Y150.3047
G1 X168.8082 Y150.3295
G1 X169.3454 Y150.3545
G1 X169.8912 Y150.3795
G1 X170.4456 Y150.4046
G1 X172.8112 Y150.5091
G1 X178.2181 Y150.7414
G1 X181.1015 Y150.8685
G1 X182.5896 Y150.9368
G1 X184.1255 Y151.0098
G3 X184.9055 Y151.0481 I-3.4879 J78.9667
G3 X185.2986 Y151.0678 I-1.7419 J38.7811
G3 X185.6948 Y151.0879 I-1.4929 J33.4165
G3 X186.0941 Y151.1083 I-1.3273 J29.7904
G3 X186.4966 Y151.1292 I-1.2078 J27.1274
G3 X186.9021 Y151.1506 I-1.117 J25.0635
G3 X190.3621 Y151.3463 I-20.6061 J394.9389
G3 X194.0507 Y151.587 I-19.5735 J328.3683
G3 X194.2821 Y151.6034 I-0.5371 J9.228
G3 X196.1922 Y151.7451 I-24.5266 J343.6113
G3 X196.4318 Y151.7637 I-0.5301 J8.3737
G3 X196.6724 Y151.7826 I-0.53 J8.2909
G1 X197.6497 Y151.8614
G3 X206.5699 Y152.7588 I-19.0515 J234.1523
G3 X206.7093 Y152.7757 I-0.4468 J4.2662
G3 X206.8489 Y152.7927 I-0.4478 J4.2513
G3 X206.9888 Y152.8099 I-0.4489 J4.2365
G3 X207.129 Y152.8272 I-0.4499 J4.2218
G2 X207.1404 Y153.3705 I0.7815 J0.2554
G2 X207.2193 Y153.5368 I1.0049 J-0.3751
G2 X207.3481 Y153.7438 I2.6821 J-1.5253
G1 X207.4208 Y153.8619
G1 X207.4561 Y153.9267
G3 X207.4894 Y153.9979 I-1.7986 J0.8849
G3 X207.5396 Y154.4144 I-0.6598 J0.2907
G3 X206.7931 Y155.6598 I-5.6858 J-2.5613
G3 X205.765 Y156.6851 I-4.6243 J-3.609
G3 X204.9607 Y157.2256 I-4.4562 J-5.7626
G3 X204.4733 Y157.488 I-3.6465 J-6.1896
G3 X194.2944 Y157.0646 I75.0675 J-1927.2287
G0 Z5.0
G0 X207.9648 Y157.488
G1 Z0.0
G1 X208.0918 Y157.3143
G1 X208.2213 Y157.1424
G1 X208.3085 Y157.0284
G1 X208.6589 Y156.5737
G1 X208.8891 Y156.268
G1 X208.9494 Y156.1856
G2 X209.258 Y155.7372 I-8.9359 J-6.4787
G1 X209.2957 Y155.6779
G2 X209.3742 Y155.5502 I-3.6658 J-2.3408
G2 X209.7286 Y154.8327 I-3.9851 J-2.4145
G2 X209.8585 Y154.3924 I-2.888 J-1.0915
G2 X209.7837 Y153.1563 I-2.2141 J-0.4863
G2 X209.4567 Y152.512 I-2.6883 J0.9593
G1 X210.8601 Y152.5326
G1 X212.2636 Y152.5537
G1 X215.0706 Y152.597
G1 X215.8727 Y152.6097
G1 X222.2885 Y152.7153
G1 X226.5657 Y152.7896
G1 X232.2685 Y152.8928
G1 X232.6306 Y152.8995
G1 X240.355 Y153.0455
G1 X250.654 Y153.2468
G1 X264.3859 Y153.5169
G1 X268.0479 Y153.5876
G1 X276.418 Y153.7444
G1 X278.578 Y153.7835
G1 X283.1862 Y153.8645
G1 X285.5646 Y153.9049
G1 X286.7728 Y153.9251
G1 X288.0001 Y153.9452
G1 X289.2469 Y153.9654
G1 X294.5665 Y154.0478
G1 X300.2408 Y154.1285
G2 X306.2936 Y154.2055 I55.1954 J-4105.8403
G2 X309.4176 Y154.2411 I14.0953 J-1097.5258
G2 X309.5154 Y154.2422 I0.0815 J-2.9789
G2 X309.6132 Y154.2433 I0.0814 J-2.9773
G2 X309.7112 Y154.2443 I0.0814 J-2.9757
G2 X309.8092 Y154.2454 I0.0813 J-2.9741
G2 X309.9073 Y154.2465 I0.0813 J-2.9725
G1 X311.502 Y154.2633
G1 X314.7942 Y154.2957
G1 X318.1925 Y154.3254
G1 X321.7006 Y154.3522
G1 X322.5845 Y154.3583
G1 X326.2343 Y154.3806
G1 X330.0018 Y154.3987
G1 X330.9512 Y154.4024
G1 X334.8709 Y154.4144
G3 X334.4881 Y155.3819 I-5.5101 J-1.6205
G1 X334.4208 Y155.5147
G3 X333.8201 Y156.5405 I-12.3589 J-6.5482
G1 X333.6377 Y156.827
G1 X333.5401 Y156.9795
G2 X333.0327 Y157.8004 I20.875 J13.4703
G1 X332.9058 Y158.0243
G2 X332.6404 Y158.5492 I6.8463 J3.7919
G3 X311.4755 Y158.858 I-47.6069 J-2537.026
G1 X311.1395 Y158.8615
G1 X310.7981 Y158.8649
G1 X307.6776 Y158.8939
G1 X304.1113 Y158.9218
G1 X303.6584 Y158.9249
G1 X303.1983 Y158.9281
G1 X302.7309 Y158.9311
G1 X300.7368 Y158.943
G1 X298.6097 Y158.9538
G3 X264.5769 Y158.8384 I-9.7975 J-2128.7671
G1 X262.3814 Y158.8121
G1 X261.2662 Y158.7978
G1 X260.1333 Y158.7828
G1 X257.7944 Y158.7498
G3 X232.8497 Y158.2443 I33.3807 J-2263.0602
G1 X229.6315 Y158.1597
G1 X226.3095 Y158.068
G3 X226.2055 Y158.0651 I0.037 J-3.148
G1 X224.5166 Y158.0167
G1 X222.8009 Y157.9665
G1 X219.2588 Y157.8594
G1 X217.4598 Y157.8032
G1 X213.7457 Y157.6836
G1 X211.8593 Y157.621
G1 X207.9648 Y157.488
G0 Z5.0
G0 X226.1845 Y187.1444
G1 Z0.0
G1 X227.9423 Y187.145
G1 X229.7001 Y187.1468
G1 X233.2156 Y187.1535
G3 X240.2465 Y187.1777 I-7.6616 J3242.3699
G1 X240.7001 Y187.1797
G1 X242.7738 Y187.1893
G1 X248.3035 Y187.2191
G1 X255.6763 Y187.2655
G1 X265.5068 Y187.3343
G1 X268.1283 Y187.3531
G1 X274.1202 Y187.3956
G1 X277.3159 Y187.4175
G1 X284.6203 Y187.4641
G1 X286.5054 Y187.4751
G1 X290.5268 Y187.4964
G1 X294.8162 Y187.5156
G1 X299.3917 Y187.5311
G1 X299.6788 Y187.5319
G1 X302.0496 Y187.5374
G1 X304.497 Y187.5411
G1 X307.0232 Y187.5427
G1 X309.6309 Y187.5417
G1 X312.3228 Y187.5375
G1 X312.4914 Y187.5371
G1 X313.8614 Y187.5335
G1 X316.6897 Y187.523
G1 X318.1264 Y187.5159
G1 X318.8504 Y187.5118
G1 X321.8396 Y187.4916
G1 X322.5928 Y187.4855
G1 X324.1231 Y187.4718
G2 X330.6521 Y187.3916 I-8.3589 J-946.0646
G1 X332.3101 Y187.3647
G2 X339.3839 Y187.2119 I-11.27 J-685.6927
G1 X339.4946 Y187.209
G1 X339.9388 Y187.1969
G1 X341.7438 Y187.1444
G2 X342.2921 Y188.1673 I12.4478 J-6.0135
G2 X342.3314 Y188.234 I0.726 J-0.3829
G2 X343.0005 Y189.2756 I16.4501 J-9.8325
G2 X344.524 Y191.225 I18.5509 J-12.9268
G1 X344.742 Y191.4727
G2 X345.9508 Y192.7507 I23.8618 J-21.3589
G1 X346.2847 Y193.0803
G1 X346.4587 Y193.2486
G2 X346.6395 Y193.4212 I7.244 J-7.407
G2 X348.6278 Y195.1922 I31.6341 J-33.514
G2 X352.5872 Y195.4301 I10.9324 J-148.8661
G2 X356.5521 Y195.5458 I5.597 J-123.7858
G2 X364.4818 Y195.3421 I1.273 J-104.8854
G2 X369.7512 Y194.8893 I-7.8882 J-122.6932
G2 X369.8338 Y194.8805 I-0.0542 J-0.8963
G2 X372.8471 Y194.5269 I-18.8348 J-173.5283
G2 X376.2828 Y194.0613 I-25.9185 J-204.167
G2 X376.499 Y194.0302 I-0.9412 J-7.3044
G3 X373.5775 Y196.0581 I-21.5357 J-27.9068
G3 X370.4855 Y197.8152 I-23.8838 J-38.4297
G3 X369.5796 Y198.2759 I-36.2455 J-70.1574
G1 X369.0934 Y198.5152
G3 X367.9749 Y199.0475 I-35.9618 J-74.117
G1 X367.3749 Y199.324
G3 X365.9967 Y199.9402 I-36.4661 J-79.7135
G1 X365.2586 Y200.2617
G1 X364.4697 Y200.6006
G1 X363.627 Y200.959
G1 X362.7275 Y201.3394
G2 X362.1209 Y200.5601 I-7.8816 J5.5095
G1 X362.0273 Y200.4545
G2 X361.2157 Y199.6708 I-5.8646 J5.261
G2 X359.2983 Y198.4903 I-5.0446 J6.0464
G2 X357.8779 Y197.9982 I-4.0233 J9.316
G2 X357.0417 Y197.8038 I-3.9151 J14.9521
G2 X356.0762 Y197.6396 I-3.4316 J17.2493
G2 X354.9684 Y197.5036 I-4.2865 J30.3287
G2 X354.8985 Y197.4962 I-0.2068 J1.6321
G2 X354.7565 Y197.4816 I-0.3275 J2.4879
G1 X354.1512 Y197.4229
G1 X353.5065 Y197.3631
G1 X352.8206 Y197.2967
G3 X351.2647 Y197.1015 I2.8734 J-29.2012
G3 X350.4435 Y196.9514 I2.3723 J-15.2913
G3 X350.0235 Y196.8558 I5.484 J-25.0697
G1 X349.8116 Y196.8018
G1 X349.5973 Y196.7428
G1 X349.3811 Y196.6786
G2 X346.5117 Y198.0384 I3.6244 J11.3551
G2 X345.644 Y198.6491 I6.808 J10.5951
G2 X344.5634 Y199.5611 I9.2844 J12.0965
G2 X344.4977 Y199.6224 I1.3872 J1.5547
G2 X344.4312 Y199.685 I1.3608 J1.5108
G2 X343.8402 Y200.2731 I13.6784 J14.3355
G2 X342.3958 Y201.9581 I15.3456 J14.6164
G2 X341.644 Y202.9782 I19.6574 J15.2748
G2 X340.8373 Y204.1785 I30.6892 J21.4967
G1 X340.6366 Y204.493
G1 X340.5356 Y204.6534
G1 X340.4338 Y204.8167
G2 X340.2255 Y205.1548 I59.3667 J36.7913
G1 X340.0132 Y205.5053
G2 X339.5677 Y206.2564 I104.2204 J62.3137
G1 X339.1009 Y207.0613
G2 X338.081 Y212.7072 I126.338 J25.7381
G1 X337.9547 Y213.5171
G1 X337.8157 Y214.4435
G2 X337.4714 Y216.9177 I164.619 J24.1662
G1 X337.4296 Y217.2373
G1 X337.3871 Y217.5673
G1 X337.3438 Y217.9081
G1 X337.2998 Y218.2599
G1 X337.255 Y218.6232
G1 X337.2095 Y218.9983
G1 X337.1633 Y219.3856
G1 X337.1163 Y219.7854
G1 X337.0687 Y220.1983
G2 X336.6053 Y224.606 I264.891 J30.077
G1 X336.5506 Y225.1754
G1 X336.4374 Y226.3902
G1 X336.3209 Y227.6862
G1 X336.2008 Y229.0691
G1 X336.0766 Y230.5444
G1 X335.9471 Y232.1183
G1 X335.6569 Y235.716
G1 X335.5818 Y236.6444
G1 X335.5037 Y237.6027
G1 X335.4221 Y238.5919
G1 X335.2433 Y240.7016
G1 X335.1477 Y241.7901
G1 X335.0461 Y242.9135
G3 X334.9375 Y244.0727 I-167.1163 J-15.0643
G3 X334.8808 Y244.6614 I-43.106 J-3.8562
G3 X334.8518 Y244.9581 I-25.3095 J-2.3262
G3 X334.8222 Y245.257 I-22.973 J-2.1201
G3 X334.7921 Y245.5583 I-21.156 J-1.9619
G3 X334.7614 Y245.8619 I-19.6894 J-1.8359
G3 X334.7302 Y246.1678 I-18.4714 J-1.7328
G3 X334.4479 Y248.7768 I-291.8736 J-30.2605
G3 X334.4292 Y248.9404 I-8.8308 J-0.9274
G3 X333.646 Y254.9113 I-175.3009 J-19.9569
G3 X333.6179 Y255.0982 I-5.683 J-0.7581
G1 X333.5014 Y255.8571
G1 X333.379 Y256.6273
G3 X331.9737 Y260.9901 I-34.8465 J-8.8161
G1 X331.8608 Y261.2743
G1 X331.7379 Y261.5764
G3 X329.453 Y266.2633 I-39.4765 J-16.3448
G1 X329.2868 Y266.5559
G3 X327.3901 Y269.6023 I-42.7744 J-24.518
G3 X324.5555 Y273.4532 I-48.3117 J-32.5935
G3 X322.8036 Y275.5495 I-50.4647 J-40.3911
G1 X322.5751 Y275.8105
G1 X322.3415 Y276.0745
G3 X321.3307 Y277.1871 I-59.5621 J-53.0954
G3 X320.2278 Y278.3504 I-62.2995 J-57.9601
G1 X319.9438 Y278.6421
G1 X319.6537 Y278.9369
G1 X319.3575 Y279.2347
G3 X318.0767 Y280.4876 I-56.1332 J-56.1066
G1 X317.7471 Y280.8013
G1 X317.4105 Y281.1181
G3 X315.9563 Y282.449 I-58.268 J-62.2047
G1 X315.5824 Y282.7818
G3 X312.086 Y285.7278 I-61.4238 J-69.351
G3 X307.9368 Y288.8936 I-64.8649 J-80.7141
G3 X307.8041 Y288.9896 I-3.7941 J-5.0987
G3 X307.6709 Y289.0859 I-3.9503 J-5.3303
G3 X302.7123 Y292.4688 I-67.9495 J-94.2712
G1 X302.3943 Y292.6735
G3 X288.3583 Y300.4787 I-69.7829 J-108.968
G3 X278.4025 Y304.6202 I-77.3719 J-171.9558
G3 X278.0775 Y304.7445 I-5.627 J-14.2229
G3 X274.5987 Y306.0357 I-79.688 J-209.3745
G3 X274.377 Y306.1156 I-3.6596 J-9.8086
G3 X269.628 Y307.7613 I-74.0633 J-206.0523
G3 X268.3554 Y308.1818 I-57.0843 J-170.6241
G3 X265.4375 Y309.1149 I-84.2799 J-258.5041
G3 X265.2533 Y309.1724 I-2.3577 J-7.2291
G3 X265.0675 Y309.2303 I-2.3552 J-7.2395
G3 X264.8803 Y309.2884 I-2.3528 J-7.2501
G3 X261.4488 Y310.3241 I-76.7445 J-248.0514
G3 X261.2321 Y310.3877 I-2.3121 J-7.4781
G3 X261.0137 Y310.4516 I-2.3101 J-7.493
G3 X260.7935 Y310.5158 I-2.3081 J-7.5082
G3 X251.3497 Y313.0766 I-76.3806 J-262.9816
G3 X251.2008 Y313.1142 I-1.5598 J-5.871
G3 X251.0513 Y313.1518 I-1.5594 J-5.8808
G3 X250.9013 Y313.1895 I-1.5589 J-5.8909
G3 X250.7506 Y313.2272 I-1.5585 J-5.9011
G1 X249.5058 Y313.5359
G1 X248.2195 Y313.8491
G1 X246.8904 Y314.1666
G1 X245.5169 Y314.4883
G1 X244.0977 Y314.8143
G1 X242.6313 Y315.1442
G3 X235.9113 Y316.5737 I-79.8859 J-359.0477
G1 X234.173 Y316.9229
G3 X230.4601 Y317.6429 I-85.5195 J-431.0365
G1 X229.5162 Y317.8207
G1 X228.557 Y317.9992
G1 X227.5821 Y318.1785
G1 X226.5914 Y318.3585
G1 X225.5846 Y318.5393
G1 X224.5615 Y318.7209
G1 X223.5217 Y318.9033
G1 X222.4652 Y319.0864
G1 X221.3915 Y319.2702
G1 X220.3004 Y319.4549
G1 X219.1917 Y319.6404
G1 X218.0651 Y319.8266
G1 X216.9202 Y320.0137
G1 X215.7569 Y320.2016
G1 X214.5748 Y320.3904
G1 X213.3737 Y320.5801
G1 X212.1531 Y320.7707
G3 X200.9844 Y322.4315 I-142.9558 J-922.9941
G3 X200.6337 Y322.4816 I-2.3938 J-15.4928
G3 X200.2816 Y322.5319 I-2.4215 J-15.7128
G1 X197.3739 Y322.9432
G1 X194.3719 Y323.3622
G3 X193.9951 Y323.4145 I-3.2234 J-21.8617
G3 X193.6168 Y323.4669 I-3.3041 J-22.4679
G3 X193.2371 Y323.5194 I-3.3919 J-23.1253
G3 X192.8558 Y323.572 I-3.4877 J-23.8419
G3 X192.4731 Y323.6248 I-3.5929 J-24.6275
G3 X192.0888 Y323.6778 I-3.7092 J-25.4937
G3 X191.703 Y323.7309 I-3.8387 J-26.456
G3 X191.3157 Y323.7842 I-3.9836 J-27.5322
G1 X188.1177 Y324.2222
G3 X187.3118 Y324.3322 I-11.8998 J-84.1731
G1 X180.4362 Y325.269
G3 X180.2637 Y325.3139 I-1.7349 J-6.3186
G3 X180.091 Y325.3583 I-2.2616 J-8.4264
G1 X179.7453 Y325.4461
G1 X179.0527 Y325.6169
G3 X178.5902 Y325.7275 I-34.9159 J-145.0125
G3 X178.5304 Y325.7416 I-0.1712 J-0.5921
G3 X178.4687 Y325.7561 I-0.1742 J-0.6027
G1 X177.8103 Y325.9079
G1 X177.4336 Y325.9925
G3 X176.4274 Y326.2107 I-13.3967 J-59.3509
G3 X172.3833 Y326.988 I-24.9005 J-118.642
G3 X169.6745 Y327.4339 I-23.3041 J-133.136
G3 X169.6319 Y327.4405 I-0.1197 J-0.6319
G1 X168.9052 Y327.5512
G1 X168.1296 Y327.6656
G3 X163.9855 Y328.2176 I-26.5958 J-183.823
G3 X158.4449 Y328.8236 I-26.4994 J-216.6577
G1 X157.7289 Y328.8925
G3 X156.9897 Y328.9615 I-6.6642 J-67.3438
G1 X156.6142 Y328.9958
G1 X156.2326 Y329.0301
G1 X155.845 Y329.0645
G1 X155.4512 Y329.0988
G1 X155.0511 Y329.1331
G1 X154.6446 Y329.1674
G3 X154.2316 Y329.2017 I-6.4956 J-75.7507
G3 X153.812 Y329.236 I-6.6346 J-78.7079
G3 X153.3857 Y329.2702 I-7.6342 J-92.4979
G3 X152.9526 Y329.3043 I-11.8942 J-148.1425
G3 X143.7057 Y329.9028 I-28.4528 J-367.8617
G1 X143.1182 Y329.9333
G1 X142.5212 Y329.9634
G1 X141.2888 Y330.0231
G1 X140.0165 Y330.0811
G3 X126.4424 Y330.5037 I-23.9158 J-549.979
G1 X125.5802 Y330.5198
G1 X123.8004 Y330.5497
G1 X122.8963 Y330.563
G1 X121.0299 Y330.5869
G3 X120.9129 Y330.5883 I-0.0968 J-3.3515
G3 X120.7958 Y330.5896 I-0.0966 J-3.3738
G1 X118.8616 Y330.6087
G1 X117.8792 Y330.6165
G3 X108.8982 Y330.6327 I-6.1056 J-896.3421
G3 X98.6365 Y330.544 I3.9773 J-1054.4498
G1 X98.3146 Y330.5396
G1 X97.6657 Y330.5304
G1 X96.3474 Y330.5106
G1 X93.6258 Y330.4649
G1 X90.8168 Y330.4114
G3 X77.9797 Y330.0922 I27.7076 J-1372.6015
G1 X77.7787 Y330.0863
G1 X74.46 Y329.9858
G3 X59.2948 Y329.4548 I72.4229 J-2285.3752
G1 X57.3693 Y329.3807
G1 X55.4133 Y329.3044
G1 X53.4264 Y329.2259
G1 X52.4251 Y329.1861
G3 X51.416 Y329.1457 I11.2178 J-293.4124
G1 X47.2496 Y328.9784
G2 X38.362 Y328.6303 I-145.0023 J3589.4146
G1 X34.4224 Y328.4013
G1 X30.4824 Y328.1778
G1 X22.6021 Y327.7368
G1 X17.3489 Y327.4388
G1 X14.3473 Y327.2643
G1 X12.7465 Y327.1694
G3 X9.088 Y326.9467 I331.2865 J-5472.3458
G1 X8.1439 Y326.8877
G1 X7.1694 Y326.8261
G1 X6.1636 Y326.7616
G1 X4.0179 Y326.6213
G1 X1.7296 Y326.4667
G1 X-0.7109 Y326.2957
G3 X-13.7168 Y325.2503 I48.7466 J-687.923
G1 X-14.5418 Y325.1749
G1 X-16.2447 Y325.0154
G1 X-18.0021 Y324.845
G1 X-19.8154 Y324.6626
G1 X-21.6866 Y324.4673
G1 X-22.158 Y324.4169
G1 X-22.633 Y324.3656
G3 X-26.6842 Y323.907 I39.6318 J-368.2611
G1 X-27.1942 Y323.8465
G1 X-27.7083 Y323.7849
G1 X-28.2262 Y323.7221
G1 X-28.7482 Y323.6581
G1 X-29.2742 Y323.593
G1 X-29.8043 Y323.5266
G1 X-30.3384 Y323.4589
G1 X-30.8767 Y323.39
G1 X-31.4192 Y323.3197
G1 X-31.9657 Y323.2481
G1 X-32.5165 Y323.1751
G1 X-33.0715 Y323.1007
G3 X-37.8027 Y322.4301 I44.4312 J-330.4995
G3 X-42.8385 Y321.6398 I44.6724 J-301.0751
G3 X-54.2944 Y319.5035 I44.4349 J-270.0725
G1 X-54.6523 Y319.4284
G1 X-55.0114 Y319.3524
G1 X-55.3719 Y319.2756
G1 X-55.7336 Y319.198
G1 X-56.0967 Y319.1195
G1 X-56.461 Y319.0401
G1 X-56.8267 Y318.9598
G1 X-57.1937 Y318.8787
G1 X-57.562 Y318.7967
G1 X-57.9316 Y318.7137
G3 X-64.2184 Y317.204 I49.3887 J-219.5084
G1 X-64.6114 Y317.1031
G1 X-65.0058 Y317.0011
G1 X-65.4015 Y316.898
G1 X-65.7985 Y316.7936
G1 X-66.1969 Y316.6881
G1 X-66.5967 Y316.5814
G1 X-66.9978 Y316.4734
G2 X-67.5333 Y316.1858 I-2.8127 J4.5938
G2 X-67.612 Y316.1489 I-0.4347 J0.8243
G2 X-68.2511 Y315.8768 I-4.9298 J10.6924
G1 X-68.6808 Y315.7046
G3 X-68.9255 Y315.604 I5.2368 J-13.0827
G3 X-69.2028 Y315.4836 I2.7298 J-6.6693
G3 X-69.2738 Y315.4512 I0.4224 J-1.0209
G3 X-70.0069 Y315.057 I2.6679 J-5.8396
G3 X-70.3943 Y314.7795 I2.0942 J-3.3327
G3 X-71.2426 Y313.8251 I2.4112 J-2.9971
G1 X-65.9012 Y314.2886
G1 X-60.5592 Y314.7462
G1 X-56.9975 Y315.0476
G1 X-52.2483 Y315.4442
G1 X-49.5342 Y315.6679
G1 X-48.0865 Y315.7863
G1 X-46.5423 Y315.9119
G1 X-43.0126 Y316.1958
G1 X-41.1299 Y316.3455
G1 X-39.1216 Y316.5037
G2 X-34.5307 Y316.8595 I158.9653 J-2021.4026
G1 X-33.9476 Y316.9041
G1 X-33.3554 Y316.9492
G1 X-32.7536 Y316.9949
G1 X-30.1863 Y317.1882
G1 X-27.4475 Y317.3912
G2 X-12.8364 Y318.4126 I137.9622 J-1868.5165
G2 X6.6573 Y319.5873 I105.0972 J-1581.6678
G1 X9.1736 Y319.7211
G2 X36.0288 Y320.8546 I67.8065 J-1287.7976
G2 X36.2391 Y320.8612 I0.5459 J-14.0755
G2 X36.4498 Y320.8677 I0.5417 J-14.0153
G2 X36.661 Y320.8743 I0.5375 J-13.9559
G2 X36.8725 Y320.8808 I0.5334 J-13.8972
G2 X38.5918 Y320.9322 I12.3351 J-383.4407
G2 X54.3143 Y321.2796 I31.2792 J-1059.6212
G2 X62.7015 Y321.3696 I15.2824 J-1034.2022
G1 X64.8316 Y321.3813
G2 X84.308 Y321.271 I4.3516 J-951.0646
G2 X84.4603 Y321.2686 I-0.0277 J-6.4335
G2 X84.6127 Y321.2661 I-0.0286 J-6.4294
G2 X84.7654 Y321.2636 I-0.0296 J-6.4253
G2 X84.9181 Y321.261 I-0.0305 J-6.4213
G2 X85.071 Y321.2584 I-0.0314 J-6.4173
G2 X85.2241 Y321.2558 I-0.0324 J-6.4133
G2 X90.2791 Y321.1554 I-15.7928 J-922.3475
G2 X90.4372 Y321.1518 I-0.064 J-6.2855
G2 X90.5955 Y321.1482 I-0.0649 J-6.2819
G2 X90.7539 Y321.1445 I-0.0659 J-6.2783
G2 X90.9125 Y321.1408 I-0.0668 J-6.2747
G2 X91.0713 Y321.1371 I-0.0678 J-6.2712
G2 X91.2302 Y321.1334 I-0.0687 J-6.2675
G2 X91.3893 Y321.1296 I-0.0697 J-6.264
G2 X91.5485 Y321.1257 I-0.0707 J-6.2605
G2 X91.7079 Y321.1219 I-0.0716 J-6.2569
G2 X91.8674 Y321.118 I-0.0726 J-6.2534
G1 X94.4599 Y321.0508
G1 X97.0933 Y320.9747
G1 X98.4203 Y320.9334
G1 X99.7577 Y320.8897
G1 X101.1056 Y320.8435
G1 X102.4641 Y320.7949
G1 X103.8331 Y320.7437
G1 X105.2128 Y320.6899
G1 X106.6033 Y320.6334
G1 X108.0047 Y320.5742
G1 X109.417 Y320.5122
G1 X110.8404 Y320.4473
G2 X136.8456 Y318.8283 I-37.5686 J-813.1433
G1 X138.4818 Y318.6984
G1 X138.5835 Y318.7152
G1 X138.6857 Y318.7282
G1 X138.8909 Y318.7474
G1 X138.9184 Y318.7494
G2 X139.3574 Y318.7709 I0.6787 J-9.3808
G2 X139.4161 Y318.7725 I0.0613 J-1.1108
G2 X139.7286 Y318.7783 I0.302 J-7.9433
G1 X139.9072 Y318.7795
G1 X140.3833 Y318.7774
G1 X140.5102 Y318.7757
G1 X140.6457 Y318.7735
G1 X140.7901 Y318.7707
G2 X143.0978 Y318.6823 I-2.0169 J-82.8992
G1 X143.2466 Y318.6746
G2 X144.8328 Y318.5824 I-6.0232 J-117.2066
G1 X144.9335 Y318.5759
G1 X145.0358 Y318.5694
G1 X145.9706 Y318.5068
G1 X147.0385 Y318.4302
G1 X147.6079 Y318.3874
G1 X148.9089 Y318.2851
G1 X149.2446 Y318.2578
G1 X150.7786 Y318.1284
G1 X152.5309 Y317.9727
G1 X153.4652 Y317.8865
G1 X154.4614 Y317.7924
G2 X154.524 Y317.7864 I-0.0232 J-0.5723
G2 X154.5868 Y317.7804 I-0.0234 J-0.5747
G2 X156.881 Y317.5549 I-34.4316 J-362.074
G1 X158.1041 Y317.4303
G1 X158.7353 Y317.365
G1 X160.0815 Y317.2231
G1 X161.517 Y317.0684
G1 X163.0477 Y316.8996
G1 X163.4365 Y316.8561
G2 X188.2478 Y313.6113 I-77.8023 J-691.4043
G1 X189.8443 Y313.3713
G1 X191.4917 Y313.1196
G1 X193.1916 Y312.8553
G2 X200.9525 Y311.588 I-93.963 J-599.7958
G1 X202.9525 Y311.2443
G1 X203.9679 Y311.0669
G2 X213.2345 Y309.3521 I-88.6034 J-504.6997
G2 X223.7778 Y307.1515 I-75.2935 J-387.1036
G1 X223.9424 Y307.1147
G2 X225.279 Y306.812 I-42.8842 J-192.4649
G1 X226.6354 Y306.4987
G2 X228.0119 Y306.1741 I-51.9729 J-223.4948
G2 X233.8665 Y304.71 I-60.6241 J-254.8506
G1 X234.0492 Y304.6618
G1 X234.2323 Y304.6134
G3 X239.2922 Y303.1043 I101.2574 J330.2699
G1 X239.6304 Y303.0065
G3 X241.4353 Y302.49 I75.2894 J259.6833
G1 X241.9171 Y302.3537
G3 X249.6461 Y300.2496 I123.3596 J437.8903
G1 X250.6791 Y299.9786
G1 X251.7815 Y299.6915
G3 X257.6692 Y298.1913 I197.4531 J762.6357
G1 X259.2411 Y297.7984
G3 X259.4392 Y297.749 I2.1438 J8.1834
G1 X261.1297 Y297.3293
G1 X262.9335 Y296.8838
G3 X263.1607 Y296.8278 I1.8014 J6.8233
G1 X267.3174 Y295.8075
G1 X272.0682 Y294.6428
G1 X274.6012 Y294.0189
G1 X275.9082 Y293.6954
G1 X277.2571 Y293.3601
G1 X277.6804 Y293.2543
G1 X278.1035 Y293.1479
G1 X278.9491 Y292.9327
G2 X280.638 Y292.493 I-40.0224 J-157.1968
G1 X281.7619 Y292.1924
G2 X282.4034 Y292.0176 I-14.7635 J-55.4568
G2 X287.5102 Y290.5318 I-45.1251 J-164.6166
G1 X288.1871 Y290.3205
G1 X288.908 Y290.0913
G1 X289.2796 Y289.9714
G1 X289.6628 Y289.8464
G2 X293.7237 Y288.4356 I-36.444 J-111.4517
G2 X299.0434 Y286.2999 I-33.2711 J-90.564
G1 X299.7199 Y286.0004
G1 X300.4156 Y285.6851
G2 X303.5567 Y284.1601 I-31.7216 J-69.339
G2 X305.2025 Y283.288 I-39.4319 J-76.3995
G2 X308.8737 Y281.1295 I-31.5663 J-57.89
G1 X309.3296 Y280.8385
G2 X313.376 Y277.9907 I-32.0241 J-49.8026
G2 X317.6835 Y274.3173 I-33.409 J-43.5374
G1 X317.9418 Y274.0711
G2 X322.3667 Y269.2667 I-36.6663 J-38.2094
G2 X322.4311 Y269.1871 I-1.1 J-0.9578
G2 X323.4735 Y267.856 I-43.7479 J-35.33
G2 X327.6944 Y261.3696 I-43.7883 J-33.1111
G2 X329.5741 Y257.6885 I-52.5279 J-29.1432
G2 X331.0823 Y246.6161 I-361.3309 J-54.857
G1 X331.1711 Y245.8764
G2 X332.4019 Y234.0204 I-390.3579 J-46.5164
G1 X332.4693 Y233.2543
G1 X332.5373 Y232.4634
G1 X332.6773 Y230.7756
G2 X333.306 Y221.7656 I-404.126 J-32.727
G1 X333.3392 Y221.1932
G2 X333.6051 Y215.9568 I-397.5123 J-22.8119
G1 X333.6626 Y214.605
G2 X333.7699 Y211.7204 I-297.765 J-12.5156
G1 X333.7819 Y211.3569
G1 X333.7936 Y210.9906
G2 X333.9469 Y204.2903 I-365.7361 J-11.7145
G1 X333.9525 Y203.8681
G2 X333.9684 Y196.1482 I-340.6752 J-4.5623
G2 X333.906 Y192.0313 I-347.766 J3.2136
G1 X333.8819 Y190.986
G1 X333.8753 Y190.7236
G1 X333.8684 Y190.4602
G1 X333.8613 Y190.1957
G1 X333.854 Y189.9302
G2 X333.8385 Y189.3952 I-35.2515 J0.7528
G1 X333.8042 Y188.3082
G2 X333.773 Y188.2761 I-0.2367 J0.1986
G2 X333.7415 Y188.2443 I-0.363 J0.3278
G1 X333.6767 Y188.1823
G2 X333.5357 Y188.0718 I-0.8927 J0.9937
G2 X333.1948 Y187.9633 I-0.3601 J0.5418
G2 X332.9556 Y187.993 I-0.0128 J0.8763
G3 X319.2746 Y188.9093 I-61.1215 J-809.9934
G3 X319.0573 Y188.9221 I-1.0202 J-15.4511
G3 X318.8366 Y188.9351 I-1.0296 J-15.6413
G3 X318.6123 Y188.9482 I-1.0392 J-15.8358
G3 X318.3845 Y188.9615 I-1.0489 J-16.0347
G3 X318.1531 Y188.9749 I-1.0588 J-16.2384
G1 X316.0372 Y189.0952
G1 X313.6188 Y189.2276
G1 X310.8545 Y189.3724
G1 X307.695 Y189.5301
G3 X307.2937 Y189.5496 I-1.6422 J-29.6905
G3 X306.8861 Y189.5692 I-1.6753 J-30.4965
G3 X306.472 Y189.5891 I-1.7107 J-31.3601
G3 X297.6368 Y189.9856 I-67.7322 J-1410.4652
G1 X295.2804 Y190.0839
G1 X292.7669 Y190.186
G1 X290.0856 Y190.2921
G1 X287.2256 Y190.4026
G1 X285.7493 Y190.4588
G1 X284.2254 Y190.5162
G1 X282.6524 Y190.5751
G1 X275.4614 Y190.8405
G1 X267.2431 Y191.1454
G1 X266.1996 Y191.1849
G1 X261.7472 Y191.3565
G1 X260.6164 Y191.4011
G1 X258.2821 Y191.4948
G2 X247.6124 Y191.9574 I78.5826 J1935.5243
G1 X244.8595 Y192.0885
G1 X244.1658 Y192.1224
G1 X243.4668 Y192.1569
G1 X242.7622 Y192.1921
G1 X242.0521 Y192.2281
G1 X241.3365 Y192.2647
G1 X240.6152 Y192.302
G1 X239.1499 Y192.3793
G1 X237.6614 Y192.4598
G1 X236.1494 Y192.5438
G3 X234.1142 Y192.6834 I-1.5465 J-7.6376
G3 X232.1093 Y192.3064 I0.5228 J-8.2997
G3 X230.8453 Y191.8009 I2.855 J-8.9714
G3 X229.2936 Y190.866 I4.6004 J-9.3903
G3 X227.5189 Y189.2392 I6.2644 J-8.6159
G3 X227.1143 Y188.7395 I8.5904 J-7.3687
G3 X226.339 Y187.4917 I6.0228 J-4.6067
G3 X226.1845 Y187.1444 I5.502 J-2.6549
G0 Z5.0
G0 X281.3216 Y149.0837
G1 Z0.0
G3 X281.2701 Y148.9883 I0.4103 J-0.2832
G3 X281.2205 Y148.7745 I0.6442 J-0.2621
G3 X281.2453 Y148.488 I0.9448 J-0.0625
G3 X281.3878 Y148.1456 I1.1709 J0.2866
G3 X281.7236 Y147.8115 I0.8278 J0.4962
G3 X281.9784 Y147.7211 I0.3625 J0.6169
G1 X282.2218 Y147.685
G1 X282.4654 Y147.6503
G3 X282.9531 Y147.5847 I10.3795 J75.3461
G3 X283.9305 Y147.4679 I5.4692 J41.6111
G3 X285.8906 Y147.2847 I6.1811 J55.5492
G3 X289.8211 Y147.0707 I7.0233 J92.7921
G1 X290.3458 Y147.0534
G1 X290.9054 Y147.0372
G1 X291.5025 Y147.0221
G1 X292.1393 Y147.0082
G1 X292.4681 Y147.0018
G1 X293.9707 Y146.9781
G1 X295.688 Y146.958
G1 X297.6505 Y146.9369
G1 X298.6971 Y146.9237
G1 X299.8133 Y146.9062
G2 X302.3641 Y146.8448 I-3.1041 J-181.9946
G1 X302.688 Y146.8342
G2 X305.647 Y146.6956 I-3.9255 J-115.5122
G2 X309.0214 Y146.4151 I-4.3691 J-72.99
G2 X309.8896 Y146.3152 I-6.7361 J-62.3833
G2 X310.7843 Y146.1982 I-8.9615 J-71.9677
G1 X311.0094 Y146.1663
G2 X312.9245 Y145.8516 I-6.3801 J-44.8099
G2 X313.9074 Y145.6565 I-7.3647 J-39.6734
G2 X315.9872 Y145.1549 I-7.4806 J-35.5815
G2 X318.1684 Y144.4738 I-8.4116 J-30.7716
G1 X318.3035 Y144.4256
G2 X319.41 Y144.0001 I-8.2821 J-23.1896
G2 X321.7045 Y142.9204 I-9.4383 J-23.035
G2 X324.014 Y141.4906 I-10.1051 J-18.9024
G2 X328.5142 Y137.1058 I-11.7605 J-16.572
G2 X330.339 Y134.2498 I-18.0661 J-13.5537
G2 X330.7361 Y133.4836 I-17.5239 J-9.5671
G2 X331.4765 Y131.8564 I-22.9684 J-11.4346
G2 X331.7571 Y131.4412 I-2.247 J-1.8209
G2 X331.9741 Y130.9896 I-3.4186 J-1.9205
G2 X332.2637 Y130.0329 I-5.6569 J-2.2347
G2 X332.387 Y129.3785 I-9.5552 J-2.1388
G2 X332.3936 Y129.3367 I-0.4284 J-0.0892
G2 X332.4206 Y129.1585 I-3.2623 J-0.5844
G1 X332.4762 Y128.7506
G2 X332.5337 Y128.2843 I-22.9072 J-3.063
G3 X332.6996 Y127.0465 I28.1987 J3.1508
G3 X332.8409 Y126.3476 I8.592 J1.3727
G3 X333.1 Y125.5739 I4.5084 J1.0797
G3 X333.1927 Y125.3842 I2.8467 J1.2727
G3 X333.4391 Y125.0038 I2.2373 J1.1796
G3 X334.2988 Y124.3722 I1.5516 J1.211
G3 X334.8709 Y124.232 I0.8616 J2.2778
G3 X334.8046 Y127.2826 I-71.7253 J-0.0311
G1 X334.7852 Y127.7181
G1 X334.7603 Y128.2156
G3 X334.467 Y132.19 I-102.9073 J-5.5965
G3 X334.4552 Y132.316 I-3.39 J-0.2518
G3 X334.4432 Y132.444 I-3.5033 J-0.265
G3 X334.4308 Y132.574 I-3.6272 J-0.2795
G3 X334.4181 Y132.7061 I-3.7632 J-0.2954
G3 X334.2958 Y133.9126 I-147.565 J-14.3565
G3 X334.2795 Y134.0658 I-6.6307 J-0.6285
G3 X334.2627 Y134.2214 I-7.4514 J-0.7228
G3 X334.2456 Y134.3793 I-8.6614 J-0.8612
G3 X334.2096 Y134.7055 I-17.7743 J-1.7956
G1 X334.1305 Y135.4009
G1 X334.043 Y136.1423
G1 X333.9966 Y136.5249
G1 X333.9479 Y136.9197
G1 X333.8414 Y137.7615
G1 X333.7852 Y138.1958
G3 X333.7263 Y138.6441 I-61.8412 J-7.8948
G1 X333.5982 Y139.5999
G1 X333.4582 Y140.619
G1 X333.3849 Y141.1448
G1 X333.3086 Y141.6875
G1 X333.2292 Y142.2476
G1 X333.0585 Y143.4422
G1 X333.0369 Y143.5927
G1 X332.8525 Y144.8768
G1 X332.6566 Y146.2466
G1 X332.4508 Y147.7081
G1 X332.4253 Y147.8923
G1 X332.3208 Y148.653
G1 X332.2152 Y149.4384
G1 X331.142 Y149.4324
G1 X330.0688 Y149.4284
G1 X327.9225 Y149.4256
G2 X327.3093 Y149.426 I-0.2637 J69.8244
G2 X327.2314 Y149.4261 I-0.0371 J1.7497
G2 X327.1522 Y149.4262 I-0.0375 J1.7649
G1 X325.4646 Y149.4299
G1 X323.2145 Y149.4394
G1 X322.6144 Y149.4427
G2 X319.4143 Y149.4642 I8.718 J1531.7648
G1 X315.1474 Y149.4995
G1 X309.4582 Y149.5467
G1 X306.2072 Y149.5683
G1 X305.3682 Y149.5728
G1 X304.5021 Y149.5768
G3 X300.543 Y149.5866 I-3.8605 J-761.2296
G1 X298.4315 Y149.5848
G3 X293.6052 Y149.558 I1.1522 J-641.6844
G3 X292.9924 Y149.552 I0.7344 J-106.796
G3 X292.3698 Y149.5453 I0.6005 J-84.5285
G3 X291.7373 Y149.5378 I0.5551 J-73.4017
G3 X285.9555 Y149.4341 I5.2856 J-455.9473
G3 X285.865 Y149.4319 I0.0235 J-2.874
G3 X285.7743 Y149.4298 I0.0241 J-2.8795
G3 X285.6834 Y149.4275 I0.0247 J-2.8851
G3 X285.5924 Y149.4253 I0.0253 J-2.8906
G3 X285.5011 Y149.4231 I0.0259 J-2.8961
G3 X285.4097 Y149.4208 I0.0266 J-2.9017
G3 X285.3181 Y149.4185 I0.0272 J-2.9073
G3 X285.2264 Y149.4162 I0.0279 J-2.9129
G3 X285.1344 Y149.4138 I0.0285 J-2.9185
G3 X285.0423 Y149.4114 I0.0291 J-2.9241
G3 X284.95 Y149.409 I0.0298 J-2.9297
G3 X284.8575 Y149.4066 I0.0305 J-2.9354
G3 X284.7648 Y149.4042 I0.0311 J-2.9411
G3 X284.672 Y149.4017 I0.0318 J-2.9467
G3 X284.5789 Y149.3992 I0.0325 J-2.9524
G3 X284.4857 Y149.3967 I0.0332 J-2.9581
G3 X284.3923 Y149.3942 I0.0339 J-2.9639
G3 X284.2987 Y149.3916 I0.0346 J-2.9696
G3 X284.205 Y149.389 I0.0353 J-2.9754
G3 X284.111 Y149.3864 I0.036 J-2.9812
G3 X284.0169 Y149.3838 I0.0367 J-2.9869
G3 X283.9226 Y149.3811 I0.0374 J-2.9927
G3 X283.8281 Y149.3784 I0.0381 J-2.9986
G3 X283.7334 Y149.3757 I0.0389 J-3.0044
G3 X283.6386 Y149.3729 I0.0396 J-3.0102
G3 X283.5435 Y149.3702 I0.0403 J-3.0161
G3 X283.4483 Y149.3674 I0.0411 J-3.0219
G3 X283.3529 Y149.3646 I0.0418 J-3.0278
G3 X283.2573 Y149.3617 I0.0426 J-3.0337
G3 X283.1615 Y149.3588 I0.0434 J-3.0397
G3 X283.0655 Y149.3559 I0.0441 J-3.0456
G3 X282.9693 Y149.353 I0.0449 J-3.0515
G3 X282.873 Y149.35 I0.0457 J-3.0575
G3 X282.7764 Y149.347 I0.0465 J-3.0635
G3 X282.6797 Y149.344 I0.0473 J-3.0695
G3 X282.5828 Y149.341 I0.0481 J-3.0755
G3 X282.4857 Y149.3379 I0.0489 J-3.0815
G3 X282.3884 Y149.3348 I0.0497 J-3.0876
G3 X282.2909 Y149.3317 I0.0505 J-3.0936
G3 X282.1932 Y149.3285 I0.0514 J-3.0997
G3 X282.0953 Y149.3253 I0.0522 J-3.1058
G3 X281.9973 Y149.3221 I0.053 J-3.1118
G3 X281.899 Y149.3189 I0.0539 J-3.118
G3 X281.8006 Y149.3156 I0.0548 J-3.1241
G3 X281.485 Y149.2336 I0.0086 J-0.6812
G3 X281.3216 Y149.0837 I0.2469 J-0.4331
G0 Z5.0
G0 X310.931 Y166.597
G1 Z0.0
G2 X312.3722 Y167.5371 I4.9214 J-5.9698
G2 X313.9759 Y168.161 I4.1519 J-8.2986
G2 X314.1971 Y168.2229 I2.5939 J-8.8448
G2 X315.393 Y168.4816 I3.3566 J-12.6233
G2 X317.0094 Y168.6742 I2.7955 J-16.5887
G2 X317.0606 Y168.678 I0.0621 J-0.49
G2 X317.9958 Y168.7277 I1.8333 J-25.6544
G2 X319.0643 Y168.7462 I1.0938 J-32.2441
G1 X319.3399 Y168.7457
G1 X319.9274 Y168.7385
G2 X321.2669 Y168.6987 I-1.0421 J-57.5749
G2 X321.3513 Y168.6954 I0.006 J-0.918
G2 X321.4364 Y168.6919 I0.0049 J-0.9322
G2 X321.5221 Y168.6884 I0.0038 J-0.9468
G2 X321.8755 Y168.6731 I-0.4597 J-14.7144
G1 X323.4871 Y168.5953
G1 X324.3456 Y168.554
G3 X326.3038 Y168.4818 I4.8165 J104.0879
G1 X326.5526 Y168.4764
G1 X326.8052 Y168.4719
G3 X329.1104 Y168.5001 I0.6938 J37.5728
G3 X330.3365 Y168.5827 I-1.2313 J27.4191
G1 X330.4907 Y168.5973
G1 X330.6459 Y168.6131
G3 X331.2856 Y168.6899 I-2.0681 J19.916
G3 X332.6404 Y168.9246 I-2.5294 J18.6287
G1 Y169.9858
G2 X331.9748 Y169.9037 I-1.4556 J9.0576
G2 X331.7519 Y169.8852 I-0.5773 J5.6197
G1 X331.4544 Y169.8669
G2 X331.0573 Y169.8528 I-0.5146 J8.8643
G2 X329.4691 Y169.8913 I-0.3311 J19.0999
G2 X328.4138 Y169.9793 I2.0616 J31.0879
G1 X328.2779 Y169.9933
G1 X328.1376 Y170.0083
G2 X327.8387 Y170.0419 I1.0314 J10.522
G1 X327.52 Y170.08
G1 X327.1805 Y170.1228
G1 X326.8186 Y170.1706
G1 X325.9926 Y170.2857
G1 X325.0496 Y170.4222
G3 X324.9298 Y170.4396 I-0.3321 J-1.8649
G1 X323.8351 Y170.5955
G1 X323.5524 Y170.634
G1 X322.9489 Y170.7125
G3 X322.6371 Y170.7506 I-2.8396 J-21.9543
G1 X322.3151 Y170.7878
G1 X322.1514 Y170.8058
G3 X320.6517 Y170.9346 I-3.6646 J-33.8674
G1 X320.2636 Y170.955
G1 X319.8629 Y170.9692
G3 X318.0286 Y170.9244 I-0.5029 J-16.992
G3 X317.0554 Y170.8068 I0.9972 J-12.3359
G3 X316.0302 Y170.589 I1.5156 J-9.6584
G3 X314.9657 Y170.233 I2.2448 J-8.4812
G3 X312.7544 Y168.8666 I2.9189 J-7.1961
G3 X311.7843 Y167.8486 I5.3624 J-6.0811
G3 X310.931 Y166.597 I7.4187 J-5.9749
G0 Z5.0
G0 X323.6737 Y165.5675
G1 Z0.0
G3 X323.6902 Y165.4098 I0.4307 J-0.0348
G3 X323.8236 Y165.181 I0.5878 J0.1895
G3 X324.0549 Y164.9815 I0.9254 J0.8388
G3 X324.3451 Y164.8118 I1.4212 J2.0987
G3 X324.6167 Y164.6867 I3.4685 J7.1684
G3 X324.709 Y164.6489 I1.3097 J3.0727
G3 X325.0886 Y164.5271 I1.0144 J2.5087
G3 X325.8847 Y164.5192 I0.4141 J1.6068
G3 X326.3837 Y164.7126 I-0.5719 J2.2163
G3 X326.9866 Y165.0827 I-2.6924 J5.0626
G1 X327.0618 Y165.1343
G1 X327.139 Y165.1881
G1 X327.2182 Y165.2439
G1 X327.5752 Y165.4996
G3 X327.6669 Y165.5657 I-1.2336 J1.808
G2 X327.7615 Y165.6339 I1.5492 J-2.0509
G2 X327.859 Y165.7039 I1.9621 J-2.6267
G2 X327.9594 Y165.7759 I3.1484 J-4.2887
G1 X328.0056 Y165.8096
G1 X328.0511 Y165.8443
G3 X328.1395 Y165.9171 I-0.54 J0.7458
G3 X328.2986 Y166.0816 I-0.7208 J0.856
G3 X328.3755 Y166.214 I-0.4298 J0.3384
G3 X328.3598 Y166.424 I-0.2067 J0.0901
G3 X328.2693 Y166.516 I-0.2771 J-0.1823
G3 X328.14 Y166.5868 I-0.3825 J-0.5448
G3 X327.9868 Y166.6402 I-0.4474 J-1.0371
G1 X327.9043 Y166.6616
G3 X327.5068 Y166.7252 I-0.6617 J-2.8593
G3 X327.4561 Y166.7301 I-0.0915 J-0.6834
G3 X327.2452 Y166.745 I-0.3409 J-3.338
G3 X326.0418 Y166.7136 I-0.382 J-8.4431
G3 X325.29 Y166.6103 I0.66 J-7.5931
G3 X324.8751 Y166.5108 I0.717 J-3.9045
G1 X324.8235 Y166.4943
G3 X324.379 Y166.3058 I1.063 J-3.1252
G3 X323.9742 Y166.0426 I1.0777 J-2.1004
G3 X323.7574 Y165.8029 I0.6483 J-0.8041
G3 X323.6836 Y165.6308 I0.4628 J-0.3002
G3 X323.6737 Y165.5675 I0.4208 J-0.0982
G0 Z5.0
G0 X330.9597 Y165.7032
G1 Z0.0
G3 X331.0555 Y165.2696 I1.1252 J0.021
G3 X331.2019 Y164.9982 I1.5693 J0.6715
G3 X331.4514 Y164.6757 I2.1688 J1.4203
G1 X331.4864 Y164.6366
G3 X331.8764 Y164.2457 I5.5742 J5.1721
G3 X332.1065 Y164.0335 I6.8588 J7.2068
G2 X332.7017 Y163.4708 I-9.9952 J-11.1664
G1 X332.7379 Y163.4334
G2 X333.0482 Y163.0777 I-2.786 J-2.7437
G2 X333.3345 Y162.6219 I-2.0707 J-1.6184
G2 X333.4967 Y162.0221 I-1.4567 J-0.7159
G2 X333.379 Y161.3002 I-1.7001 J-0.0933
G2 X337.1045 Y161.0744 I-6.6878 J-141.1564
G1 X337.6363 Y161.036
G1 X339.0543 Y160.9307
G1 X340.945 Y160.7908
G3 X343.4673 Y160.6247 I11.9212 J161.8157
G1 X344.1404 Y160.588
G1 X344.4879 Y160.5708
G1 X344.8467 Y160.5544
G1 X345.6123 Y160.5245
G1 X346.0075 Y160.5121
G3 X347.8153 Y160.488 I1.7218 J61.3298
G1 X348.0449 Y160.4894
G1 X348.2782 Y160.492
G1 X348.7597 Y160.5012
G1 X349.0043 Y160.5081
G1 X349.1275 Y160.5121
G3 X351.3776 Y160.6658 I-0.9719 J30.7719
G1 X351.6622 Y160.698
G3 X352.8725 Y160.875 I-2.465 J21.0795
G1 X354.8454 Y160.8534
G1 X356.8183 Y160.828
G1 X358.1336 Y160.8089
G1 X359.8873 Y160.781
G1 X360.8893 Y160.7637
G1 X363.5614 Y160.7129
G1 X365.0882 Y160.6809
G1 X365.4822 Y160.6723
G1 X365.889 Y160.6632
G1 X366.3088 Y160.6537
G1 X366.7422 Y160.6438
G1 X367.1896 Y160.6333
G2 X381.5023 Y160.2068 I-28.8076 J-1206.9977
G1 X381.9567 Y160.1905
G1 X382.4182 Y160.1737
G1 X382.887 Y160.1565
G2 X392.8868 Y159.7508 I-52.8286 J-1425.4282
G1 X394.1769 Y159.6933
G1 X395.5085 Y159.6327
G1 X396.883 Y159.569
G1 X399.8152 Y159.429
G1 X400.5598 Y159.3926
G1 X401.3163 Y159.3553
G2 X417.4496 Y158.486 I-102.1846 J-2046.5756
G1 X421.7506 Y158.2341
G1 X426.338 Y157.9579
G1 X431.2308 Y157.6563
G2 X431.384 Y157.6467 I-0.34 J-6.6879
G2 X431.5375 Y157.6372 I-0.3388 J-6.6674
G1 X434.0725 Y157.4782
G1 X436.6892 Y157.3127
G1 X442.2712 Y156.9556
G1 X448.225 Y156.5705
G1 X461.8333 Y155.6871
G1 X469.0914 Y155.2214
G3 X469.2049 Y155.2142 I0.2745 J3.4192
G1 X471.0502 Y155.0971
G1 X472.9247 Y154.9788
G1 X476.7949 Y154.737
G1 X476.7888 Y154.9436
G1 X476.7871 Y155.0125
G1 X476.7815 Y155.2881
G2 X476.7788 Y155.4719 I4.5626 J0.1586
G1 X476.7764 Y155.7169
G2 X476.7774 Y156.697 I44.9132 J0.4444
G1 X476.7834 Y157.3504
G1 X476.7909 Y158.2215
G3 X476.7862 Y159.383 I-41.9149 J0.4129
G3 X476.7235 Y160.9306 I-28.2181 J-0.369
G1 X476.6915 Y161.3425
G3 X476.3843 Y163.5252 I-20.1815 J-1.7269
G3 X475.9529 Y164.7828 I-4.4568 J-0.826
G3 X475.1531 Y165.8449 I-3.7353 J-1.9807
G3 X474.4655 Y166.4064 I-3.6205 J-3.7317
G3 X473.4515 Y167.0065 I-5.0667 J-7.4051
G3 X473.3848 Y167.0407 I-0.3915 J-0.6814
G3 X473.317 Y167.075 I-0.4024 J-0.7104
G3 X473.2479 Y167.1096 I-0.4154 J-0.744
G1 X472.9524 Y167.2534
G1 X472.6358 Y167.4024
G1 X472.2979 Y167.5586
G1 X472.1235 Y167.639
G1 X471.944 Y167.7225
G1 X471.5636 Y167.9033
G1 X471.3689 Y167.9993
G2 X470.5053 Y168.4781 I4.6371 J9.3827
G2 X470.0704 Y168.7741 I3.2088 J5.1816
G2 X469.6385 Y169.1323 I2.6772 J3.6672
G2 X469.2287 Y169.5703 I2.8149 J3.045
G2 X468.5658 Y170.788 I2.9797 J2.4112
G2 X468.3905 Y171.5166 I4.385 J1.4408
G2 X468.3219 Y172.3189 I5.8744 J0.9064
G3 X456.8433 Y174.5709 I-76.8891 J-361.5383
G1 X456.0756 Y174.7083
G1 X454.32 Y175.0169
G3 X440.233 Y177.2276 I-78.4162 J-453.6945
G3 X430.8093 Y178.4784 I-80.8362 J-572.9085
G3 X430.6613 Y178.4968 I-0.83 J-6.0772
G3 X430.5127 Y178.5152 I-0.8316 J-6.1004
G3 X427.9764 Y178.824 I-100.7254 J-816.6854
G3 X414.4325 Y180.3131 I-87.7312 J-735.5933
G3 X414.2198 Y180.3346 I-1.078 J-9.6096
G3 X414.0063 Y180.3561 I-1.0828 J-9.6772
G1 X412.2431 Y180.5318
G1 X410.4226 Y180.7095
G3 X402.097 Y181.4808 I-98.7729 J-1020.8582
G3 X401.8357 Y181.5041 I-1.6246 J-16.8068
G3 X401.5734 Y181.5273 I-1.6492 J-17.1186
G3 X401.31 Y181.5506 I-1.6752 J-17.4479
G3 X401.0456 Y181.5739 I-1.7028 J-17.7955
G1 X398.8622 Y181.7644
G3 X398.5881 Y181.7881 I-2.0603 J-22.2604
G3 X398.313 Y181.8118 I-2.1178 J-22.9721
G3 X398.0368 Y181.8356 I-2.1811 J-23.7541
G3 X397.7595 Y181.8593 I-2.2513 J-24.6197
G3 X397.4811 Y181.8832 I-2.3296 J-25.5834
G3 X397.2017 Y181.907 I-2.4178 J-26.6668
G3 X396.6383 Y181.955 I-3.7258 J-40.4456
G3 X396.0705 Y182.0031 I-4.1108 J-45.1407
G3 X395.4982 Y182.0514 I-4.6684 J-51.9201
G3 X394.9214 Y182.0998 I-5.583 J-63.0038
G3 X393.7494 Y182.1976 I-14.3105 J-164.3704
G1 X391.3297 Y182.3972
G1 X388.8317 Y182.6
G1 X387.5629 Y182.7019
G1 X384.9431 Y182.9103
G1 X383.6123 Y183.0153
G1 X377.9342 Y183.4578
G1 X371.8775 Y183.9248
G1 X365.4172 Y184.4238
G1 X362.0832 Y184.6841
G1 X358.642 Y184.9562
G1 X355.0902 Y185.242
G2 X349.2274 Y184.9252 I-8.4609 J102.1894
G1 X349.038 Y184.9204
G1 X348.1722 Y184.9023
G1 X347.1826 Y184.889
G1 X346.6548 Y184.885
G1 X346.0918 Y184.8829
G1 X345.4912 Y184.8831
G1 X344.8507 Y184.8859
G1 X344.1674 Y184.8918
G1 X343.4387 Y184.901
G1 X343.0626 Y184.9069
G1 X342.6744 Y184.9137
G1 X342.2736 Y184.9215
G2 X338.0004 Y185.0427 I6.6366 J309.401
G1 X337.4491 Y185.0618
G1 X336.2732 Y185.1039
G1 X333.5855 Y185.2011
G1 X332.152 Y185.25
G3 X328.8752 Y185.3412 I-12.2181 J-380.0449
G1 X328.459 Y185.3498
G1 X327.5997 Y185.3651
G1 X326.7126 Y185.3769
G1 X326.262 Y185.3812
G1 X325.8042 Y185.3843
G1 X324.8592 Y185.3865
G3 X320.5394 Y185.3129 I0.0615 J-130.4208
G1 X319.9912 Y185.2925
G1 X319.4344 Y185.2689
G1 X318.8688 Y185.242
G1 X319.5067 Y184.6265
G1 X320.1423 Y184.0089
G2 X320.5641 Y183.595 I-46.9931 J-48.3111
G2 X320.6184 Y183.5414 I-0.5361 J-0.5977
G1 X321.1948 Y182.9677
G1 X321.3477 Y182.8138
G2 X321.5104 Y182.6493 I-4.3483 J-4.4604
G2 X321.6834 Y182.4732 I-8.5138 J-8.5369
G2 X322.595 Y181.524 I-65.4379 J-63.7583
G2 X322.6522 Y181.463 I-1.6509 J-1.6073
G2 X323.8485 Y180.1411 I-33.0401 J-31.1035
G1 X324.1585 Y179.7807
G2 X324.8499 Y178.9421 I-35.0047 J-29.5606
G2 X325.605 Y177.9556 I-23.1773 J-18.524
G2 X326.4106 Y176.7859 I-19.8506 J-14.5353
G2 X327.2336 Y175.3852 I-15.4732 J-10.0333
G3 X327.193 Y174.9955 I5.502 J-0.7706
G1 X327.1862 Y174.865
G3 X327.2036 Y174.343 I3.2874 J-0.1518
G3 X327.2683 Y174.0004 I2.2122 J0.2407
G3 X327.4489 Y173.5707 I1.5638 J0.4046
G3 X327.8849 Y173.1205 I1.1976 J0.7234
G3 X328.2064 Y172.9541 I0.9431 J1.429
G3 X328.6016 Y172.8335 I0.8736 J2.1542
G3 X329.064 Y172.7589 I0.8289 J3.6662
G3 X329.5909 Y172.7238 I0.6632 J5.9886
G1 X329.7267 Y172.7203
G1 X329.8663 Y172.7183
G3 X330.0098 Y172.7176 I0.0824 J2.5137
G1 X330.3126 Y172.7199
G3 X330.3508 Y172.7204 I0.0151 J0.2843
G1 X331.0293 Y172.7327
G2 X331.3862 Y172.7366 I0.2992 J-10.9767
G2 X331.4765 Y172.7368 I0.0553 J-4.5231
G2 X332.6202 Y172.5056 I-0.3957 J-4.9017
G2 X333.6688 Y171.994 I-1.3841 J-4.1674
G2 X335.1141 Y170.186 I-2.1062 J-3.1654
G2 X335.3757 Y168.6485 I-3.8744 J-1.4501
G2 X335.2814 Y167.7608 I-4.8351 J0.0646
G2 X335.0675 Y167.1939 I-3.9676 J1.1736
G2 X334.7435 Y166.6818 I-2.0122 J0.9147
G2 X334.4386 Y166.4137 I-1.0968 J0.9399
G2 X333.933 Y166.2112 I-0.7769 J1.2074
G2 X333.6231 Y166.1705 I-0.4374 J2.1279
G2 X333.2677 Y166.1648 I-0.2574 J5.0029
G2 X333.1761 Y166.1678 I-0.0042 J1.308
G2 X333.0818 Y166.172 I0.0183 J1.4642
G2 X332.9847 Y166.1773 I0.0542 J1.8753
G2 X332.8847 Y166.1835 I0.1833 J3.7532
G1 X332.4337 Y166.2135
G3 X331.9252 Y166.2327 I-0.6785 J-11.2399
G3 X331.6558 Y166.2294 I0.113 J-20.2428
G3 X331.0532 Y166.1736 I0.1705 J-5.1211
G3 X330.9597 Y165.7032 I1.0317 J-0.4494
G0 Z5.0
G0 X335.2814 Y158.5492
G1 Z0.0
G3 X335.3051 Y157.9239 I2.1035 J-0.2333
G3 X335.5073 Y157.3316 I2.2616 J0.4413
G3 X335.715 Y156.9697 I3.0645 J1.5187
G3 X336.0401 Y156.521 I5.4305 J3.5928
G3 X336.0843 Y156.4648 I0.5975 J0.4233
G1 X336.2874 Y156.2102
G2 X336.5165 Y155.9183 I-8.4173 J-6.844
G2 X336.7617 Y155.5742 I-4.3574 J-3.3637
G2 X336.9982 Y155.154 I-2.8082 J-1.8577
G2 X337.1722 Y154.6293 I-2.1131 J-0.9916
G2 X337.1985 Y153.991 I-2.0158 J-0.4029
G1 X337.4991 Y153.9373
G1 X337.8007 Y153.8898
G3 X338.4061 Y153.8097 I2.706 J18.1144
G1 X338.5795 Y153.7898
G1 X339.0424 Y153.7424
G3 X340.8985 Y153.613 I3.5931 J38.1705
G3 X344.6169 Y153.5338 I3.4645 J75.3093
G1 X345.1128 Y153.5358
G1 X345.6418 Y153.5407
G1 X346.2059 Y153.549
G3 X346.3492 Y153.5516 I-0.0257 J5.3857
G1 X346.9604 Y153.5649
G1 X347.0375 Y153.5668
G1 X347.3554 Y153.5753
G1 X348.0334 Y153.5968
G1 X348.7564 Y153.6247
G3 X349.5273 Y153.6607 I-1.7396 J45.5292
G3 X350.3493 Y153.7072 I-4.5175 J87.0925
G3 X351.2252 Y153.7688 I-2.5406 J42.3952
G3 X352.1577 Y153.8573 I-1.7088 J22.9562
G3 X352.6365 Y153.9258 I-0.8031 J7.3206
G1 X352.7557 Y153.9511
G3 X352.8725 Y153.991 I-0.1305 J0.5718
G1 X353.4294 Y153.9841
G1 X353.9862 Y153.9768
G1 X354.3575 Y153.9717
G1 X354.8525 Y153.9648
G1 X356.8325 Y153.9345
G1 X357.3982 Y153.9252
G1 X358.9067 Y153.8987
G1 X360.9179 Y153.8599
G1 X363.5994 Y153.8024
G1 X365.1316 Y153.7665
G2 X366.8827 Y153.723 I-10.3401 J-450.9745
G1 X367.3346 Y153.7113
G2 X381.7919 Y153.2508 I-34.3002 J-1304.0568
G1 X382.2508 Y153.2336
G1 X382.717 Y153.2161
G2 X386.9788 Y153.049 I-68.5171 J-1802.2506
G1 X387.52 Y153.027
G1 X388.0697 Y153.0044
G1 X388.6281 Y152.9813
G2 X400.5399 Y152.4498 I-80.1014 J-1928.9303
G1 X403.7159 Y152.2974
G1 X404.5225 Y152.2581
G1 X405.3419 Y152.2179
G1 X406.1743 Y152.1769
G1 X407.0199 Y152.135
G1 X407.8789 Y152.0922
G1 X411.5437 Y151.9072
G1 X413.4352 Y151.8105
G1 X417.4702 Y151.6017
G1 X426.6924 Y151.1173
G2 X426.9818 Y151.1021 I-0.9416 J-20.5963
G1 X431.9196 Y150.8419
G1 X437.1867 Y150.5665
G3 X437.5172 Y150.5493 I0.8754 J13.6704
G1 X438.8602 Y150.4798
G1 X444.5903 Y150.1873
G3 X457.6893 Y149.5566 I138.2259 J2734.6466
G3 X472.6642 Y148.9348 I78.3494 J1706.2714
G1 X473.6077 Y148.9002
G1 X475.5246 Y148.8318
G1 X477.4721 Y148.7649
G1 X479.4506 Y148.6998
G2 X479.3821 Y149.3173 I2.9534 J0.6398
G2 X479.4046 Y149.9381 I6.5404 J0.074
G1 X479.4186 Y150.1151
G1 X479.4357 Y150.3172
G3 X479.4738 Y150.856 I-11.9093 J1.112
G3 X479.4796 Y151.1645 I-7.7117 J0.3007
G3 X479.478 Y151.2442 I-0.9787 J0.0193
G3 X479.447 Y151.6073 I-3.5474 J-0.1196
G3 X479.3471 Y152.0134 I-2.1181 J-0.3058
G3 X479.1192 Y152.4394 I-1.5477 J-0.5539
G3 X478.712 Y152.8272 I-1.4195 J-1.083
G3 X470.5259 Y153.4621 I-107.9326 J-1338.5415
G1 X469.3562 Y153.5492
G3 X459.9965 Y154.215 I-137.3039 J-1864.1729
G1 X457.3216 Y154.3953
G1 X454.2642 Y154.5961
G3 X429.7933 Y156.0105 I-116.6236 J-1805.3421
G3 X429.6013 Y156.0203 I-0.4885 J-7.691
G3 X429.4085 Y156.0301 I-0.4906 J-7.7413
G3 X429.2149 Y156.04 I-0.4928 J-7.7924
G3 X429.0206 Y156.0498 I-0.495 J-7.8443
G3 X428.8255 Y156.0597 I-0.4972 J-7.897
G3 X428.6297 Y156.0696 I-0.4995 J-7.9505
G3 X428.4331 Y156.0795 I-0.5018 J-8.0049
G3 X428.2357 Y156.0894 I-0.5041 J-8.0602
G3 X428.0376 Y156.0993 I-0.5065 J-8.1164
G3 X427.8387 Y156.1093 I-0.5089 J-8.1737
G3 X376.8943 Y157.9904 I-98.0782 J-1965.4115
G1 X373.6061 Y158.0669
G3 X358.5731 Y158.3472 I-44.6571 J-1992.0499
G1 X354.6933 Y158.4007
G3 X336.956 Y158.5444 I-23.4643 J-1801.5999
G1 X336.6783 Y158.5453
G1 X336.4 Y158.5462
G1 X336.1211 Y158.547
G1 X335.8418 Y158.5478
G1 X335.5619 Y158.5485
G1 X335.2814 Y158.5492
G0 Z5.0
G0 X330.9404 Y191.0558
G1 Z0.0
G3 X331.0795 Y191.088 I-0.1001 J0.7492
G3 X331.4999 Y191.3316 I-0.3943 J1.1648
G3 X331.9017 Y191.8052 I-1.4041 J1.5988
G1 X331.8785 Y192.8288
G1 X331.8567 Y193.8524
G1 X331.8429 Y194.5349
G1 X331.7924 Y197.2649
G1 X331.7622 Y199.0849
G1 X331.7545 Y199.5703
G1 X331.7148 Y202.1588
G1 X331.6927 Y203.638
G1 X331.6321 Y207.5825
G1 X331.6147 Y208.6344
G1 X331.5952 Y209.7563
G1 X331.5732 Y210.9531
G1 X331.548 Y212.2296
G1 X331.5189 Y213.5911
G1 X331.4849 Y215.0434
G1 X331.466 Y215.7929
G1 X331.4454 Y216.5666
G3 X331.1434 Y224.8164 I-404.871 J-10.6897
G3 X331.131 Y225.0762 I-16.3474 J-0.6537
G3 X331.016 Y227.292 I-213.5893 J-9.9692
G3 X331.0004 Y227.5711 I-10.3087 J-0.4372
G1 X330.933 Y228.7234
G3 X330.5617 Y233.9871 I-267.4303 J-16.2227
G3 X330.5482 Y234.1522 I-4.7418 J-0.3037
G3 X329.9717 Y240.1795 I-223.0472 J-18.2938
G3 X329.5919 Y243.3866 I-227.2056 J-25.2806
G3 X329.5791 Y243.487 I-2.6164 J-0.2818
G3 X329.5663 Y243.5875 I-2.6116 J-0.2825
G1 X329.4599 Y244.4041
G3 X329.2289 Y246.0884 I-196.6778 J-26.1236
G3 X327.9647 Y253.7586 I-167.7667 J-23.7119
G3 X327.1437 Y257.8234 I-154.3289 J-29.0535
G1 X326.9184 Y258.8523
G3 X324.9157 Y263.2589 I-28.695 J-10.3831
G3 X322.2673 Y267.3105 I-29.0516 J-16.0985
G3 X320.2001 Y269.7897 I-28.7535 J-21.8733
G3 X317.1417 Y272.8137 I-31.0127 J-28.3073
G3 X317.0405 Y272.9039 I-2.4522 J-2.6507
G3 X316.1664 Y273.6607 I-28.2337 J-31.7265
G3 X315.214 Y274.4438 I-27.4939 J-32.4658
G3 X312.968 Y276.143 I-33.6969 J-42.2053
G3 X312.8235 Y276.246 I-3.4372 J-4.6693
G3 X310.1289 Y278.0469 I-34.6486 J-48.9263
G1 X309.7799 Y278.265
G3 X309.0551 Y278.7078 I-25.2393 J-40.4978
G3 X305.6764 Y280.611 I-34.7595 J-57.7558
G3 X303.8353 Y281.5505 I-40.7055 J-77.496
G3 X299.5496 Y283.5172 I-37.5739 J-76.225
G1 X298.9981 Y283.7505
G3 X296.6319 Y284.7061 I-40.5371 J-96.9682
G1 X296.0272 Y284.9392
G1 X295.4117 Y285.172
G1 X295.2569 Y285.2299
G3 X254.2741 Y297.464 I-214.778 J-644.7202
G1 X252.9397 Y297.8155
G1 X251.5615 Y298.1756
G1 X250.1382 Y298.5443
G3 X204.212 Y308.7301 I-172.4609 J-668.9706
G1 X202.7433 Y309.0024
G1 X201.2508 Y309.2758
G1 X199.734 Y309.5503
G1 X198.1924 Y309.8257
G3 X165.1746 Y314.8862 I-124.2595 J-700.4913
G3 X151.2915 Y316.0692 I-83.428 J-897.0254
G3 X151.0709 Y316.0863 I-0.7988 J-8.8832
G3 X150.8469 Y316.1036 I-0.8047 J-8.9637
G3 X150.6193 Y316.1211 I-0.8105 J-9.0452
G3 X150.388 Y316.1389 I-0.8164 J-9.1275
G3 X135.5833 Y317.1567 I-74.3503 J-973.2425
G3 X135.3501 Y317.1709 I-0.7251 J-9.9751
G3 X135.1149 Y317.1852 I-0.7269 J-10.0288
G3 X130.8153 Y317.4364 I-82.7745 J-1379.9478
G3 X130.5444 Y317.4516 I-0.7577 J-11.0788
G3 X130.2713 Y317.4669 I-0.7593 J-11.1421
G3 X129.9961 Y317.4821 I-0.7608 J-11.206
G3 X129.7188 Y317.4975 I-0.7624 J-11.2706
G3 X129.4392 Y317.5129 I-0.764 J-11.3357
G3 X129.1574 Y317.5283 I-0.7655 J-11.4016
G3 X128.8734 Y317.5438 I-0.767 J-11.468
G3 X128.5871 Y317.5593 I-0.7685 J-11.5351
G3 X128.2986 Y317.5748 I-0.77 J-11.6027
G3 X128.0079 Y317.5904 I-0.7715 J-11.6711
G3 X127.7148 Y317.606 I-0.7729 J-11.7402
G1 X125.2141 Y317.7359
G1 X122.5464 Y317.8677
G1 X119.7005 Y318.0008
G1 X118.2315 Y318.0664
G1 X116.715 Y318.1319
G1 X115.1495 Y318.1973
G1 X113.5334 Y318.2624
G1 X111.8651 Y318.327
G1 X110.1428 Y318.391
G1 X108.3649 Y318.4541
G1 X106.5295 Y318.5162
G1 X104.6348 Y318.5771
G3 X84.4199 Y319.0273 I-35.139 J-1123.6916
G3 X84.1027 Y319.0316 I-0.4149 J-19.2155
G3 X83.7843 Y319.0357 I-0.4122 J-19.3591
G3 X83.4647 Y319.0398 I-0.4094 J-19.5054
G3 X83.1437 Y319.0438 I-0.4066 J-19.6546
G3 X82.8216 Y319.0478 I-0.4037 J-19.8067
G3 X82.4981 Y319.0517 I-0.4008 J-19.9616
G3 X82.1734 Y319.0555 I-0.3978 J-20.1198
G3 X81.8474 Y319.0592 I-0.3948 J-20.2813
G3 X54.0306 Y319.0557 I-13.7551 J-1236.0615
G3 X38.1378 Y318.7811 I15.6047 J-1363.0014
G1 X36.1199 Y318.7327
G1 X34.0701 Y318.6804
G1 X31.9878 Y318.6242
G3 X12.9548 Y317.9661 I40.1501 J-1436.7945
G1 X11.7562 Y317.9161
G1 X10.5481 Y317.8648
G1 X9.3306 Y317.812
G1 X8.1036 Y317.7578
G1 X6.867 Y317.7021
G1 X5.6206 Y317.6449
G1 X3.0886 Y317.5256
G3 X-20.0504 Y316.2379 I74.6886 J-1550.7144
G1 X-20.776 Y316.1919
G1 X-21.5044 Y316.1454
G1 X-22.2357 Y316.0984
G1 X-22.9698 Y316.0509
G1 X-23.7068 Y316.0028
G3 X-50.6411 Y314.0152 I107.9499 J-1646.3716
G3 X-64.9917 Y312.7787 I137.1008 J-1674.9905
G1 X-68.6346 Y312.4458
G3 X-72.3346 Y312.0999 I93.5274 J-1020.3864
G1 X-74.1989 Y311.9226
G2 X-74.897 Y311.2521 I-2.9411 J2.3632
G2 X-75.7366 Y310.7705 I-2.5851 J3.535
G2 X-76.3415 Y310.5452 I-2.1448 J4.8327
G2 X-77.1735 Y310.3347 I-2.2923 J7.3111
G2 X-78.2987 Y310.1562 I-2.9066 J14.6822
G1 X-78.5999 Y310.1197
G1 X-78.9211 Y310.0833
G1 X-79.0869 Y310.0651
G1 X-79.8421 Y309.9808
G1 X-80.2437 Y309.9306
G3 X-80.6703 Y309.8688 I2.1649 J-16.4469
G3 X-80.8897 Y309.8323 I27.6134 J-166.6631
G1 X-81.1153 Y309.7906
G1 X-81.3471 Y309.7424
G3 X-82.383 Y309.4339 I1.395 J-6.578
G3 X-82.9069 Y309.1893 I1.7603 J-4.4528
G3 X-83.4251 Y308.849 I1.8904 J-3.444
G3 X-82.3704 Y308.8225 I0.8991 J14.7752
G3 X-81.3166 Y308.8726 I-0.1752 J14.7928
G3 X-81.0162 Y308.8996 I-1.1005 J13.9525
G3 X-78.637 Y309.2803 I-2.1773 J21.2298
G3 X-77.0755 Y309.6559 I-6.6025 J30.8855
G1 X-76.6618 Y309.7665
G1 X-76.6097 Y309.7807
G1 X-76.3949 Y309.8396
G1 X-75.9372 Y309.9672
G1 X-74.8923 Y310.2611
G1 X-74.6223 Y310.3354
G1 X-72.3737 Y310.5254
G1 X-70.125 Y310.7142
G1 X-69.4825 Y310.7679
G1 X-64.3423 Y311.1936
G1 X-60.9152 Y311.4734
G1 X-56.3451 Y311.8411
G2 X-56.2012 Y311.8526 I0.4374 J-4.5777
G2 X-56.0561 Y311.8641 I0.4398 J-4.6036
G2 X-55.9098 Y311.8758 I0.4423 J-4.6297
G2 X-53.2359 Y312.0875 I63.7537 J-788.207
G2 X-31.8377 Y313.6888 I209.0133 J-2649.3318
G2 X-31.6698 Y313.7006 I0.602 J-7.3405
G2 X-31.5012 Y313.7125 I0.6049 J-7.3839
G2 X-31.332 Y313.7244 I0.6078 J-7.4279
G2 X-31.1621 Y313.7363 I0.6107 J-7.4725
G2 X-30.9915 Y313.7483 I0.6137 J-7.5177
G2 X-30.8203 Y313.7603 I0.6166 J-7.5635
G2 X-30.6484 Y313.7724 I0.6197 J-7.6101
G2 X-30.4758 Y313.7845 I0.6227 J-7.6572
G2 X-30.3026 Y313.7966 I0.6258 J-7.705
G2 X-30.1286 Y313.8087 I0.629 J-7.7535
G2 X-29.954 Y313.8209 I0.6321 J-7.8028
G2 X-29.7787 Y313.8331 I0.6354 J-7.8529
G2 X-29.6027 Y313.8454 I0.6386 J-7.9036
G2 X-29.426 Y313.8577 I0.642 J-7.9551
G2 X-29.2487 Y313.87 I0.6453 J-8.0074
G2 X-29.0706 Y313.8823 I0.6487 J-8.0605
G1 X-27.6002 Y313.9838
G2 X-11.912 Y315.002 I137.1471 J-1991.7656
G2 X-11.4177 Y315.032 I2.8606 J-42.9834
G2 X-10.9195 Y315.0622 I3.2825 J-50.1132
G2 X-10.4175 Y315.0924 I4.0148 J-62.4614
G2 X-9.9114 Y315.1228 I5.8306 J-92.9935
G1 X-8.8832 Y315.184
G1 X-6.7605 Y315.3086
G1 X-4.5691 Y315.4345
G2 X18.816 Y316.5929 I89.2182 J-1564.4521
G2 X32.1866 Y317.0824 I54.8193 J-1314.4823
G1 X32.6062 Y317.0955
G2 X47.9528 Y317.4682 I34.504 J-1104.3842
G1 X49.9019 Y317.5
G2 X67.7249 Y317.607 I14.4238 J-918.6162
G1 X68.004 Y317.6058
G1 X68.2837 Y317.6046
G1 X68.5638 Y317.6032
G1 X68.8445 Y317.6018
G1 X69.1258 Y317.6003
G1 X69.4076 Y317.5986
G1 X71.6976 Y317.5817
G1 X74.0239 Y317.5579
G1 X74.3153 Y317.5544
G1 X76.6831 Y317.5222
G2 X86.7846 Y317.2991 I-11.553 J-751.9601
G1 X88.0569 Y317.2606
G1 X89.3392 Y317.2194
G2 X92.8256 Y317.2271 I3.1638 J-645.1771
G1 X93.9877 Y317.2245
G1 X95.5372 Y317.217
G2 X96.4226 Y317.2107 I-0.2982 J-104.3421
G2 X103.5051 Y317.1079 I-4.7077 J-568.2523
G2 X117.6634 Y316.63 I-12.1509 J-569.9243
G1 X119.5502 Y316.5396
G2 X129.6072 Y315.955 I-28.6325 J-579.338
G1 X130.9041 Y315.8671
G2 X144.7248 Y314.7585 I-42.1134 J-611.6816
G1 X146.5062 Y314.5929
G1 X148.3445 Y314.4168
G2 X156.7416 Y313.5437 I-66.608 J-681.4668
G2 X179.0709 Y310.6875 I-72.3673 J-654.4622
G1 X180.4852 Y310.4809
G2 X210.544 Y305.3795 I-101.3884 J-688.5202
G1 X212.4446 Y305.0117
G2 X216.3654 Y304.236 I-148.9312 J-763.0314
G1 X218.3551 Y303.8336
G2 X260.5017 Y293.9154 I-143.7595 J-705.41
G3 X264.9836 Y292.4861 I40.5406 J119.3756
G3 X265.0551 Y292.4646 I0.3715 J1.1076
G3 X265.1278 Y292.4428 I0.375 J1.119
G3 X265.2016 Y292.4207 I0.3785 J1.1306
G3 X265.2767 Y292.3983 I0.3821 J1.1425
G3 X265.3529 Y292.3756 I0.3858 J1.1544
G3 X265.4304 Y292.3525 I0.3895 J1.1666
G3 X265.5091 Y292.3291 I0.3932 J1.1789
G3 X265.5891 Y292.3054 I0.397 J1.1914
G3 X270.723 Y290.8508 I71.1985 J241.5029
G1 X271.0552 Y290.7602
G1 X271.3981 Y290.6669
G1 X271.7522 Y290.5709
G1 X272.1178 Y290.4721
G1 X272.4952 Y290.3703
G1 X272.8849 Y290.2656
G1 X274.6667 Y289.7889
G1 X276.7036 Y289.2461
G1 X279.0307 Y288.6231
G1 X280.271 Y288.2877
G1 X281.5929 Y287.9262
G2 X281.7594 Y287.8803 I-1.358 J-5.2531
G2 X281.9272 Y287.834 I-1.4198 J-5.47
G2 X282.0963 Y287.7872 I-1.4894 J-5.7133
G2 X282.2666 Y287.74 I-1.5684 J-5.9896
G2 X283.7191 Y287.3332 I-47.7182 J-173.1611
G2 X284.0876 Y287.2286 I-8.0399 J-29.042
G1 X284.848 Y287.011
G1 X285.6322 Y286.7837
G2 X287.3021 Y286.2887 I-49.6565 J-170.5743
G1 X287.7255 Y286.1606
G1 X288.1552 Y286.0293
G1 X289.0414 Y285.7548
G1 X289.9544 Y285.466
G2 X291.8959 Y284.8296 I-48.936 J-152.57
G1 X292.3874 Y284.6632
G2 X294.4764 Y283.9293 I-37.6205 J-110.4223
G1 X294.7385 Y283.8339
G2 X295.8183 Y283.4326 I-25.7297 J-70.8757
G1 X296.0896 Y283.3295
G2 X300.9906 Y281.2872 I-29.3975 J-77.4457
G2 X303.5434 Y280.058 I-28.0219 J-61.4624
G2 X306.2039 Y278.62 I-26.7563 J-52.6837
G1 X306.3683 Y278.525
G1 X306.533 Y278.4291
G1 X306.698 Y278.3323
G1 X306.8633 Y278.2344
G1 X307.0289 Y278.1356
G1 X307.1948 Y278.0357
G1 X307.3609 Y277.9349
G1 X307.5274 Y277.833
G1 X307.6941 Y277.73
G1 X307.8611 Y277.626
G1 X308.0284 Y277.5209
G1 X308.1959 Y277.4147
G1 X308.3636 Y277.3074
G1 X308.5315 Y277.199
G2 X309.2094 Y276.7512 I-19.6389 J-30.4681
G2 X312.0118 Y274.7023 I-24.4624 J-36.3999
G2 X314.8044 Y272.2563 I-24.2443 J-30.4962
G2 X317.5015 Y269.3377 I-23.8454 J-24.7417
G2 X318.2787 Y268.7915 I-5.2848 J-8.3455
G2 X319.0042 Y268.1785 I-7.6273 J-9.7633
G2 X319.0493 Y268.1369 I-0.3963 J-0.4748
G2 X320.3829 Y266.702 I-9.3896 J-10.0636
G2 X321.165 Y265.6559 I-13.5741 J-10.9642
G1 X321.3606 Y265.3677
G1 X321.5636 Y265.0567
G2 X322.556 Y263.3456 I-20.6788 J-13.1364
G2 X323.6805 Y260.9658 I-27.2439 J-14.3287
G2 X323.7128 Y260.8894 I-1.1734 J-0.5419
G2 X324.9465 Y257.5858 I-41.5682 J-17.4052
G2 X325.235 Y256.6912 I-89.2587 J-29.2825
G1 X325.3783 Y256.2279
G2 X325.9894 Y254.101 I-63.0835 J-19.2777
G2 X326.6167 Y251.6558 I-96.0817 J-25.9516
G2 X327.2736 Y248.8528 I-206.82 J-49.9444
G1 X327.6173 Y247.3579
G1 X327.8006 Y246.5883
G3 X327.8243 Y246.4918 I2.9939 J0.683
G1 X327.9225 Y246.1006
G3 X328.027 Y245.7046 I11.883 J2.9247
G1 X328.0543 Y245.6054
G1 X328.0822 Y245.5059
G2 X328.9679 Y234.9971 I-348.777 J-34.6867
G2 X329.5577 Y224.4675 I-404.552 J-27.9418
G2 X329.5613 Y224.3848 I-2.3492 J-0.1433
G2 X329.5649 Y224.3018 I-2.3545 J-0.1433
G2 X329.5685 Y224.2185 I-2.3599 J-0.1432
G2 X329.572 Y224.1348 I-2.3652 J-0.1432
G2 X329.5756 Y224.0509 I-2.3705 J-0.1431
G2 X329.5792 Y223.9666 I-2.376 J-0.1431
G1 X329.6378 Y222.5282
G2 X329.8776 Y214.8542 I-490.0595 J-19.1534
G1 X329.9001 Y213.8637
G1 X329.9214 Y212.8412
G1 X329.9414 Y211.7858
G1 X329.96 Y210.6962
G2 X330.0189 Y205.7153 I-532.4051 J-8.7868
G2 X330.0201 Y205.559 I-3.4863 J-0.1046
G2 X330.0212 Y205.4021 I-3.4954 J-0.1041
G2 X330.0223 Y205.2446 I-3.5046 J-0.1036
G2 X329.9846 Y191.8052 I-707.5253 J-4.7354
G3 X330.173 Y191.4465 I1.6258 J0.6251
G3 X330.4597 Y191.1602 I0.8499 J0.5644
G3 X330.7134 Y191.0599 I0.3838 J0.5994
G3 X330.9404 Y191.0558 I0.1269 J0.7452
G0 Z5.0
G0 X343.9041 Y202.6739
G1 Z0.0
G3 X344.2351 Y202.3159 I11.7075 J10.4922
G3 X345.8125 Y200.8656 I11.9157 J11.3774
G3 X346.697 Y200.1956 I10.8891 J13.4558
G3 X346.7254 Y200.1755 I0.2228 J0.2841
G3 X347.8462 Y199.669 I5.1439 J9.8883
G3 X349.0195 Y199.3005 I3.4568 J8.9564
G3 X351.4598 Y199.0283 I2.2691 J9.2648
G3 X353.0916 Y199.1856 I-0.1978 J10.5927
G3 X355.2009 Y199.7405 I-2.3528 J13.23
G3 X356.3612 Y200.1922 I-5.7971 J16.6088
G3 X356.9666 Y200.4634 I-5.9769 J14.1523
G3 X357.119 Y200.5352 I-1.2812 J2.9178
G3 X357.2733 Y200.6092 I-1.5179 J3.3609
G3 X357.4294 Y200.6855 I-1.9363 J4.1608
G3 X357.7498 Y200.8462 I-7.2018 J14.7605
G3 X359.184 Y201.6248 I-14.9019 J29.1581
G1 X359.3636 Y201.7281
G1 X359.5456 Y201.8338
G3 X359.9194 Y202.0539 I-10.221 J17.7842
G1 X360.0133 Y202.1098
G1 X360.1079 Y202.1663
G1 X360.4969 Y202.4005
G1 X360.5072 Y202.6268
G1 X360.5165 Y202.8531
G1 X360.5308 Y203.3059
G1 X360.5335 Y203.4352
G1 X360.537 Y203.7804
G3 X360.4724 Y205.1592 I-12.7442 J0.094
G3 X360.3222 Y206.068 I-8.0407 J-0.8619
G3 X359.9156 Y207.2294 I-5.1385 J-1.1471
G3 X358.9079 Y208.5386 I-3.7525 J-1.846
G3 X358.0002 Y209.0464 I-6.6758 J-10.8678
G3 X357.6862 Y209.1936 I-3.2253 J-6.4715
G3 X357.2527 Y209.3554 I-1.6068 J-3.6415
G1 X357.1335 Y209.3876
G3 X357.0041 Y209.4138 I-0.3445 J-1.3684
G3 X356.7006 Y209.42 I-0.1705 J-0.9225
G3 X356.3959 Y209.211 I0.0497 J-0.3992
G3 X356.3313 Y209.0026 I0.5757 J-0.2925
G3 X356.3215 Y208.7609 I1.3557 J-0.1761
G3 X356.3309 Y208.6358 I1.3742 J0.04
G3 X356.3707 Y208.3704 I3.4557 J0.3825
G3 X356.5015 Y207.8263 I6.3401 J1.2372
G3 X356.5398 Y207.6921 I2.326 J0.5908
G3 X356.718 Y207.1133 I17.2563 J4.9958
G1 X356.9171 Y206.4874
G2 X357.0964 Y205.8792 I-15.8368 J-4.9999
G1 X357.1168 Y205.8028
G2 X357.2514 Y205.1865 I-6.0544 J-1.6451
G2 X357.2632 Y205.1083 I-0.6923 J-0.1443
G2 X357.292 Y204.7867 I-2.4094 J-0.378
G2 X357.2902 Y204.6229 I-3.5807 J-0.0437
G2 X357.2268 Y204.2876 I-1.2165 J0.0566
G2 X357.0055 Y203.9877 I-0.5909 J0.2045
G3 X356.4163 Y203.8148 I1.5866 J-6.4951
G3 X356.3775 Y203.8017 I0.1117 J-0.3949
G1 X356.1715 Y203.729
G3 X355.3626 Y203.4 I4.1823 J-11.4439
G3 X355.3111 Y203.3772 I0.2238 J-0.5742
G3 X355.258 Y203.3534 I0.2347 J-0.5965
G3 X355.2032 Y203.3288 I0.2469 J-0.6212
G3 X354.9538 Y203.2142 I32.205 J-70.4673
G1 X354.6702 Y203.0805
G1 X353.9172 Y202.7176
G2 X353.4862 Y202.512 I-11.1593 J22.8502
G1 X353.2552 Y202.4048
G1 X353.0076 Y202.2931
G1 X352.7417 Y202.1781
G2 X352.4556 Y202.0612 I-3.8519 J9.0207
G2 X352.1472 Y201.9448 I-2.6164 J6.4674
G1 X352.0682 Y201.9169
G1 X351.9878 Y201.8892
G2 X351.2387 Y201.6768 I-2.4753 J7.3045
G2 X350.3541 Y201.5563 I-1.127 J4.9629
G2 X349.3288 Y201.6431 I-0.1754 J4.0237
G2 X348.2172 Y202.078 I0.8781 J3.8828
G2 X346.7416 Y203.0868 I7.6606 J12.7891
G2 X345.4015 Y204.2699 I8.4317 J10.9012
G2 X343.2485 Y207.1155 I9.5115 J9.4339
G2 X342.2406 Y209.2742 I13.3777 J7.5603
G2 X341.8058 Y210.5642 I17.1458 J6.4973
G2 X341.7815 Y210.6465 I1.196 J0.3983
G2 X341.7573 Y210.7295 I1.1915 J0.3918
G2 X341.3737 Y212.2602 I23.3439 J6.6644
G2 X341.2091 Y213.0849 I32.3054 J6.8742
G2 X340.9173 Y214.9796 I35.0538 J6.3697
G1 X340.8575 Y215.4704
G2 X340.8012 Y215.9773 I24.4979 J2.9763
G2 X340.5977 Y218.2903 I77.0983 J7.9491
G1 X340.5548 Y218.8874
G1 X340.373 Y221.6042
G3 X340.2648 Y223.0488 I-83.8538 J-5.555
G2 X340.2527 Y224.3723 I57.5268 J1.1872
G1 X340.2536 Y224.8135
G1 X340.2542 Y224.9312
G2 X340.2561 Y225.2002 I10.7693 J0.0596
G1 X340.259 Y225.5076
G1 X340.2633 Y225.8588
G1 X340.279 Y226.7954
G2 X340.3744 Y230.5407 I480.5436 J-10.366
G1 X340.4039 Y231.6108
G1 X340.4355 Y232.8337
G1 X340.4663 Y234.2315
G3 X340.468 Y234.3196 I-1.3909 J0.0708
G1 X340.481 Y235.071
G3 X340.4907 Y239.0792 I-146.0462 J2.3592
G1 X340.4824 Y239.5963
G3 X340.4066 Y241.9597 I-80.0167 J-1.3841
G1 X340.3995 Y242.1086
G3 X340.2082 Y244.8262 I-57.2694 J-2.6647
G1 X340.2001 Y244.9113
G3 X340.1656 Y245.2569 I-41.7481 J-3.987
G3 X339.719 Y248.4031 I-38.6659 J-3.8843
G3 X339.3575 Y250.0608 I-26.9858 J-5.0166
G1 X339.2483 Y250.4778
G3 X339.1291 Y250.8994 I-15.1802 J-4.0641
G3 X339.0657 Y251.1109 I-4.8751 J-1.3454
G3 X338.42 Y252.8858 I-15.9715 J-4.8057
G3 X337.4718 Y254.676 I-10.9899 J-4.6749
G3 X337.1786 Y255.101 I-6.5722 J-4.2198
G3 X336.4928 Y255.9259 I-6.6897 J-4.8646
G3 X336.399 Y256.0229 I-1.4906 J-1.3468
G3 X335.5505 Y256.7611 I-5.0773 J-4.9792
G3 X334.5428 Y257.3733 I-3.7832 J-5.0921
G2 X335.3493 Y254.9608 I-23.5189 J-9.2039
G2 X335.3714 Y254.8817 I-1.073 J-0.342
G2 X335.9677 Y252.3247 I-31.3294 J-8.6538
G2 X336.2657 Y250.5998 I-39.9379 J-7.7883
G2 X336.2824 Y250.4899 I-1.5023 J-0.2848
G2 X336.2992 Y250.3782 I-1.5279 J-0.2861
G2 X336.3075 Y250.3218 I-1.0945 J-0.191
G2 X336.6129 Y247.9145 I-61.8758 J-9.0717
G2 X336.6211 Y247.8385 I-1.7253 J-0.2255
G2 X336.6293 Y247.7619 I-1.757 J-0.2276
G2 X336.9288 Y244.4911 I-130.7816 J-13.6221
G1 X336.9625 Y244.0687
G1 X337.0329 Y243.1675
G1 X337.1941 Y241.1086
G1 X337.2862 Y240.0112
G1 X337.3369 Y239.4451
G1 X337.3922 Y238.8611
G1 X337.4067 Y238.714
G1 X337.4216 Y238.5657
G1 X337.4856 Y237.954
G1 X337.5569 Y237.3231
G3 X337.9742 Y234.4515 I47.9001 J5.495
G3 X338.1135 Y233.7156 I23.4442 J4.0574
G1 X338.1904 Y233.343
G1 X338.2732 Y232.9654
G1 X338.3623 Y232.5829
G2 X338.4939 Y231.7374 I-33.2346 J-5.6059
G2 X338.533 Y231.4548 I-7.8258 J-1.225
G2 X338.543 Y231.3794 I-1.1213 J-0.1874
G1 X338.5938 Y230.9769
G2 X338.7561 Y229.3624 I-42.0694 J-5.0462
G2 X338.7646 Y229.258 I-1.416 J-0.1673
G2 X338.9385 Y225.9133 I-67.1848 J-5.1708
G1 X338.951 Y225.4669
G1 X338.9734 Y224.4464
G2 X338.9757 Y224.3168 I-2.8861 J-0.1174
G1 X338.9939 Y223.132
G1 X339.0115 Y221.778
G1 X339.0163 Y221.4286
G1 X339.0276 Y220.6833
G1 X339.0344 Y220.2986
G1 X339.052 Y219.4781
G1 X339.0767 Y218.6031
G1 X339.0926 Y218.1516
G3 X339.2004 Y216.0892 I71.1674 J2.6852
G1 X339.2095 Y215.9593
G3 X339.4406 Y213.5912 I42.3143 J2.934
G1 X339.48 Y213.2915
G3 X339.6786 Y212.017 I34.2573 J4.6867
G1 X339.7376 Y211.6948
G1 X339.8013 Y211.368
G1 X339.8702 Y211.0369
G1 X339.9445 Y210.7014
G1 X340.0247 Y210.3615
G3 X340.4242 Y208.9246 I21.1399 J5.1031
G1 X340.4814 Y208.7456
G3 X341.0398 Y207.2392 I18.2297 J5.9006
G3 X341.379 Y206.4813 I18.2783 J7.7257
G3 X341.4242 Y206.3872 I1.986 J0.8955
G3 X341.8193 Y205.6211 I15.9617 J7.7463
G3 X341.8717 Y205.5264 I1.2941 J0.654
G3 X343.9041 Y202.6739 I13.74 J7.6397
G0 Z5.0
G0 X347.0875 Y205.6943
G1 Z0.0
G3 X347.3949 Y205.3809 I9.6814 J9.1857
G3 X348.6278 Y204.303 I9.9013 J10.0811
G3 X349.494 Y204.0818 I3.8924 J13.4342
G3 X350.3752 Y203.931 I2.051 J9.3392
G3 X350.9701 Y203.8894 I0.7227 J6.0598
G3 X351.7643 Y203.9412 I0.1203 J4.2735
G3 X352.2085 Y204.0451 I-0.443 J2.8954
G3 X352.6912 Y204.2483 I-0.7845 J2.5379
G3 X353.1795 Y204.6031 I-1.1713 J2.1253
G3 X353.6112 Y205.1516 I-1.7011 J1.7831
G3 X352.6774 Y207.3205 I-105.3695 J-44.0765
G1 X352.3557 Y208.039
G3 X351.0263 Y210.8931 I-117.7365 J-53.1056
G1 X350.6357 Y211.7034
G1 X350.1845 Y212.6272
G1 X349.6633 Y213.6801
G1 X349.0613 Y214.8805
G1 X348.3666 Y216.2489
G1 X347.5663 Y217.8094
G3 X347.5156 Y217.9076 I-3.0638 J-1.5163
G3 X347.4646 Y218.0066 I-3.1331 J-1.5522
G3 X347.4132 Y218.1064 I-3.2068 J-1.5904
G3 X347.3613 Y218.2069 I-3.2853 J-1.6311
G1 X346.411 Y220.0438
G3 X346.2901 Y220.277 I-12.3289 J-6.243
G1 X345.7744 Y221.2717
G1 X344.598 Y223.5466
G1 X343.9741 Y224.7617
G1 X343.3129 Y226.0599
G2 X342.9738 Y226.7311 I56.421 J28.9196
G2 X342.2569 Y228.1662 I196.2847 J98.9633
G1 X342.1672 Y228.3474
G2 X342.2685 Y227.2706 I-34.5887 J-3.7984
G1 X342.2952 Y226.9111
G2 X342.3756 Y225.4713 I-67.6386 J-4.4981
G1 X342.3926 Y225.0597
G1 X342.4009 Y224.8401
G2 X342.4092 Y224.6058 I-10.4512 J-0.4877
G2 X342.4175 Y224.3559 I-7.7386 J-0.383
G2 X342.4196 Y224.2924 I-0.7108 J-0.0546
G2 X342.4216 Y224.2279 I-0.7212 J-0.0551
G1 X342.4391 Y223.6385
G1 X342.4574 Y222.9647
G2 X342.4669 Y222.6054 I-18.8353 J-0.6781
G1 X342.4893 Y221.7841
G1 X342.5183 Y220.8457
G3 X342.5601 Y219.7735 I102.2927 J3.4545
G3 X342.6254 Y218.5491 I97.5814 J4.5875
G3 X342.6353 Y218.3936 I5.8954 J0.3004
G3 X342.6573 Y218.0729 I19.8004 J1.1955
G1 X342.6821 Y217.742
G1 X342.71 Y217.4006
G1 X342.7415 Y217.0484
G3 X342.8188 Y216.2979 I48.8866 J4.6545
G3 X342.918 Y215.4992 I55.234 J6.4582
G3 X343.0457 Y214.6499 I43.3729 J6.0851
G3 X343.4379 Y212.7254 I23.9864 J3.8861
G1 X343.499 Y212.4836
G1 X343.564 Y212.2386
G3 X344.3077 Y210.0394 I17.5838 J4.7212
G3 X344.8261 Y208.912 I14.0495 J5.7773
G3 X345.4821 Y207.7586 I12.2952 J6.2295
G3 X347.0875 Y205.6943 I11.2868 J7.1214
G0 Z5.0
G0 X351.3212 Y193.7932
G1 Z0.0
G3 X351.1304 Y193.6755 I0.1794 J-0.5042
G3 X350.9977 Y193.4365 I0.3756 J-0.3648
G3 X350.9701 Y193.2897 I0.9374 J-0.2523
G3 X351.4276 Y192.4011 I3.7851 J1.3869
G3 X352.0784 Y191.6426 I3.9935 J2.7677
G3 X352.5814 Y191.2055 I4.6576 J4.8519
G1 X352.6488 Y191.152
G1 X352.7187 Y191.0974
G1 X352.7913 Y191.0415
G1 X352.8666 Y190.9843
G3 X353.2131 Y190.7273 I15.2859 J20.2516
G1 X353.6092 Y190.4352
G2 X353.7105 Y190.3587 I-1.3921 J-1.9494
G1 X353.9241 Y190.1925
G1 X354.0325 Y190.1046
G1 X354.1428 Y190.0119
G2 X354.6173 Y189.5558 I-3.2768 J-3.883
G2 X355.0657 Y188.9493 I-2.667 J-2.4407
G2 X355.3949 Y188.1437 I-2.7574 J-1.5969
G2 X355.5136 Y187.1444 I-3.8416 J-0.963
G1 X357.5144 Y187.0408
G1 X359.5151 Y186.9336
G1 X359.7819 Y186.919
G2 X364.0493 Y186.6773 I-51.3859 J-944.8457
G2 X366.8937 Y186.5067 I-39.9794 J-690.3239
G1 X367.6521 Y186.4599
G1 X369.3855 Y186.3508
G1 X370.3099 Y186.2914
G1 X370.787 Y186.2604
G2 X386.0452 Y185.1449 I-60.7141 J-935.3077
G2 X396.2061 Y184.2589 I-73.0049 J-895.9534
G1 X396.8509 Y184.1986
G1 X397.5059 Y184.1368
G1 X398.1712 Y184.0735
G1 X398.847 Y184.0087
G2 X401.7299 Y183.726 I-60.5441 J-632.2604
G1 X402.4619 Y183.6526
G1 X403.2055 Y183.5774
G1 X404.7404 Y183.4199
G1 X406.3245 Y183.2544
G1 X407.9593 Y183.0802
G1 X409.6465 Y182.897
G1 X410.5034 Y182.8025
G1 X411.3737 Y182.7056
G1 X412.2577 Y182.6062
G1 X414.0825 Y182.3979
G2 X422.418 Y181.3917 I-86.2907 J-749.8639
G1 X424.5673 Y181.1176
G1 X426.7851 Y180.8284
G1 X427.9113 Y180.6791
G2 X430.2357 Y180.3656 I-50.4463 J-382.8049
G2 X430.3812 Y180.3457 I-0.7808 J-6.2632
G2 X430.5271 Y180.3258 I-0.778 J-6.2351
G2 X430.6732 Y180.3058 I-0.7753 J-6.2074
G2 X430.8196 Y180.2857 I-0.7726 J-6.1801
G2 X430.9662 Y180.2656 I-0.7699 J-6.1533
G2 X431.1132 Y180.2454 I-0.7674 J-6.1269
G2 X431.2604 Y180.2251 I-0.7648 J-6.1009
G2 X431.408 Y180.2047 I-0.7623 J-6.0753
G1 X433.8436 Y179.8648
G1 X435.0803 Y179.6892
G1 X436.3365 Y179.5088
G1 X437.6122 Y179.3235
G2 X464.7504 Y174.8766 I-116.0577 J-793.3078
G2 X464.8563 Y174.8574 I-0.4729 J-2.9096
G1 X466.5758 Y174.5437
G1 X468.3219 Y174.2214
G3 X468.4133 Y174.5926 I-0.8826 J0.4143
G3 X468.3251 Y174.9645 I-0.7449 J0.0197
G3 X468.1808 Y175.176 I-1.0062 J-0.5312
G3 X467.9441 Y175.4159 I-1.9563 J-1.6935
G1 X467.8011 Y175.5423
G1 X467.7248 Y175.6091
G1 X467.6857 Y175.6436
G2 X467.5138 Y175.8051 I1.7574 J2.0428
G2 X467.4286 Y175.8968 I2.8506 J2.7326
G2 X467.268 Y176.1311 I0.8555 J0.7587
G3 X451.9558 Y179.9712 I-105.4945 J-388.2132
G3 X446.8209 Y181.1222 I-95.2812 J-413.0541
G1 X445.4493 Y181.4189
G1 X443.9852 Y181.7308
G1 X442.4224 Y182.0582
G1 X440.7544 Y182.4017
G1 X438.9738 Y182.7615
G1 X437.0729 Y183.138
G3 X426.9122 Y185.0239 I-101.1254 J-516.5266
G3 X413.3136 Y187.2434 I-102.3864 J-584.5336
G3 X395.115 Y189.7472 I-103.9445 J-688.1179
G3 X394.5408 Y189.8186 I-6.3747 J-48.9561
G3 X393.962 Y189.8901 I-7.1361 J-55.4028
G3 X393.3786 Y189.9617 I-8.3058 J-65.2548
G3 X392.7906 Y190.0334 I-10.4503 J-83.2205
G3 X391.5958 Y190.1778 I-53.1125 J-434.4825
G1 X389.1284 Y190.4703
G1 X386.5805 Y190.7645
G3 X374.9234 Y192.0166 I-101.2104 J-887.4152
G1 X374.1886 Y192.0907
G1 X373.448 Y192.1648
G1 X372.7014 Y192.239
G1 X371.9489 Y192.3132
G1 X371.1905 Y192.3875
G1 X370.426 Y192.4618
G1 X369.6555 Y192.5361
G1 X368.8789 Y192.6105
G1 X368.0961 Y192.6849
G1 X367.307 Y192.7593
G3 X352.8725 Y194.0302 I-119.3016 J-1272.4455
G2 X352.5935 Y193.9511 I-0.769 J2.1805
G1 X352.4985 Y193.9325
G2 X352.1145 Y193.8878 I-0.6393 J3.823
G1 X351.8574 Y193.8728
G3 X351.5156 Y193.8416 I0.1412 J-3.4414
G3 X351.3249 Y193.7945 I0.1543 J-1.034
G3 X351.3212 Y193.7932 I0.1756 J-0.5055
G0 Z5.0
G0 X178.1818 Y301.7975
G1 Z0.0
G3 X178.2518 Y301.9155 I-2.6167 J1.6323
G3 X178.6556 Y302.8607 I-4.3142 J2.4022
G1 X178.6942 Y302.9871
G3 X178.9444 Y304.2982 I-6.9288 J2.0015
G3 X165.9815 Y305.8711 I-125.3971 J-979.2611
G1 X164.1278 Y306.0805
G1 X163.139 Y306.1904
G1 X162.8878 Y306.2181
G3 X157.5274 Y306.7864 I-60.9405 J-549.2183
G1 X156.0972 Y306.9298
G1 X154.5711 Y307.0783
G1 X153.7832 Y307.153
G3 X150.1799 Y307.4752 I-36.7167 J-390.3236
G1 X149.2495 Y307.5524
G1 X149.015 Y307.5714
G1 X148.0467 Y307.6479
G1 X147.9251 Y307.6573
G1 X146.9213 Y307.7323
G1 X145.8849 Y307.8054
G3 X145.6236 Y307.823 I-1.3598 J-18.2082
G3 X145.0928 Y307.8578 I-5.6281 J-81.8579
G1 X144.5534 Y307.8916
G1 X144.418 Y307.8998
G1 X143.2997 Y307.9635
G1 X142.7316 Y307.9927
G1 X142.1543 Y308.0199
G1 X141.5676 Y308.0446
G1 X141.2719 Y308.0559
G1 X140.9739 Y308.0664
G3 X140.3683 Y308.0849 I-1.2335 J-30.596
G3 X139.1174 Y308.1081 I-1.8378 J-65.2176
G1 X138.4818 Y308.1104
G3 X127.6681 Y309.1029 I-56.9853 J-561.4555
G3 X127.4963 Y309.1171 I-0.5308 J-5.3923
G3 X127.3218 Y309.1314 I-0.5344 J-5.4387
G1 X126.5771 Y309.192
G3 X114.6535 Y310.0412 I-51.8461 J-643.8547
G3 X106.6968 Y310.4882 I-39.8501 J-638.3314
G3 X96.0811 Y310.947 I-37.1277 J-735.9238
G3 X81.9193 Y311.3349 I-29.4082 J-814.9133
G1 X80.0915 Y311.3676
G3 X60.5938 Y311.4922 I-15.7705 J-942.5275
G1 X59.3558 Y311.4871
G1 X58.0982 Y311.4805
G1 X56.8206 Y311.4722
G1 X55.5227 Y311.4622
G1 X54.2043 Y311.4505
G1 X52.8649 Y311.437
G1 X51.5044 Y311.4216
G1 X48.6955 Y311.3848
G1 X45.7962 Y311.3395
G1 X42.8035 Y311.2855
G3 X29.125 Y310.9482 I25.7207 J-1320.5334
G3 X28.9109 Y310.9418 I0.3457 J-15.1665
G3 X25.3747 Y310.8315 I30.0992 J-1022.0958
