( Made using CamBam - http://www.cambam.co.uk )
( car1 1/21/2014 10:36:06 PM )
( T0 : 0.0 )
G21 G90 G64 G40
G0 Z5.0
( T0 : 0.0 )
T0 M6
( 111-120 )
G17
M3 S1000
G0 X405.4095 Y57.5001
G1 F1.0 Z0.0
G2 X405.6432 Y56.0521 I-16.0197 J-3.3283
G1 X405.6668 Y55.8438
G2 X405.793 Y54.1724 I-30.4947 J-3.1428
G1 X405.7983 Y54.0643
G1 X405.82 Y53.5703
G1 X405.8304 Y53.3069
G1 X405.8529 Y52.7048
G1 X405.8557 Y52.6283
G1 X405.8846 Y51.9294
G1 X405.9033 Y51.5568
G1 X405.9144 Y51.3646
G1 X405.942 Y50.9548
G3 X405.979 Y50.5183 I13.7851 J0.947
G1 X405.9898 Y50.4075
G3 X406.1244 Y49.3989 I14.4026 J1.4084
G3 X406.1469 Y49.2716 I2.1117 J0.3076
G3 X406.1712 Y49.1425 I2.0982 J0.3284
G3 X406.1975 Y49.0117 I2.0428 J0.3421
G3 X406.5235 Y47.834 I8.5187 J1.7245
G3 X407.1293 Y46.5673 I6.2277 J2.1999
G3 X408.1605 Y45.3157 I5.1696 J3.2088
G3 X408.811 Y46.4701 I-14.3835 J8.8661
G3 X409.381 Y47.6663 I-19.0758 J9.8227
G1 X409.5307 Y48.0141
G1 X409.6952 Y48.4143
G3 X410.7824 Y51.6969 I-26.9705 J10.754
G3 X411.3009 Y53.9432 I-32.2157 J8.6182
G3 X411.7279 Y56.9856 I-28.6291 J5.5692
G3 X411.7819 Y57.8035 I-22.9215 J1.9246
G1 X411.7908 Y58.0114
G3 X411.7601 Y59.9157 I-16.3387 J0.6891
G2 X411.6821 Y60.3432 I25.3154 J4.8379
G1 X411.6715 Y60.4044
G1 X411.5906 Y60.8945
G1 X411.5405 Y61.2217
G2 X411.4781 Y61.6587 I19.5714 J3.0209
G1 X411.4011 Y62.2423
G1 X411.306 Y63.0213
G1 X411.2941 Y63.1219
G1 X411.166 Y64.1944
G1 X411.0867 Y64.8065
G1 X411.0648 Y64.9643
G1 X411.0155 Y65.3005
G3 X410.662 Y67.0784 I-17.6457 J-2.5845
G3 X410.5321 Y67.5444 I-16.4756 J-4.3386
G3 X410.3729 Y68.0355 I-13.6193 J-4.1447
G3 X409.1173 Y70.4954 I-9.5213 J-3.3097
G3 X408.6742 Y71.0876 I-9.2052 J-6.4238
G3 X408.1605 Y71.6877 I-9.3846 J-7.5141
G3 X407.7137 Y70.9912 I8.9556 J-6.2365
G3 X407.315 Y70.266 I15.178 J-8.8158
G1 X407.2082 Y70.0551
G3 X406.9364 Y69.4862 I24.574 J-12.0898
G1 X406.789 Y69.1575
G3 X405.787 Y66.4596 I23.6811 J-10.3302
G3 X405.2987 Y64.604 I20.4812 J-6.3817
G3 X405.1153 Y63.5224 I12.4661 J-2.6695
G3 X405.0683 Y62.9383 I6.1915 J-0.7926
G3 X405.0972 Y62.3116 I3.3845 J-0.1581
G3 X405.183 Y61.9957 I1.2946 J0.1823
G3 X405.2687 Y61.8494 I0.6257 J0.2682
G3 X405.4095 Y61.7357 I0.3038 J0.232
G3 X405.6037 Y62.3723 I-12.7682 J4.2425
G1 X405.7835 Y63.0131
G1 X405.9046 Y63.44
G2 X406.0767 Y64.006 I18.8321 J-5.4183
G2 X406.1844 Y64.3264 I7.1585 J-2.2282
G2 X406.5253 Y65.1615 I7.8603 J-2.7216
G2 X406.7697 Y65.6161 I4.9208 J-2.3522
G2 X406.8403 Y65.7293 I1.463 J-0.8344
G2 X407.2103 Y66.2155 I3.1678 J-2.0267
G2 X407.7397 Y66.6784 I2.1512 J-1.9261
G2 X408.4757 Y67.0269 I1.4988 J-2.2136
G2 X408.8055 Y65.7172 I-8.345 J-2.7975
G2 X408.8377 Y65.5268 I-3.4265 J-0.6775
G2 X408.9981 Y63.992 I-14.9596 J-2.3395
G1 X409.0094 Y63.7865
G1 X409.0194 Y63.5672
G1 X409.0281 Y63.3333
G2 X409.0354 Y63.0837 I-6.8243 J-0.326
G1 X409.0464 Y62.5132
G1 X409.0592 Y60.9935
G3 X409.0649 Y60.5883 I15.96 J0.0197
G1 X409.0748 Y60.1563
G1 X409.0916 Y59.6958
G3 X408.5284 Y59.5948 I0.6495 J-5.2433
G3 X407.9842 Y59.418 I0.7562 J-3.2528
G3 X407.6476 Y59.2371 I0.7943 J-1.882
G3 X407.2627 Y58.9012 I1.0316 J-1.5707
G3 X406.9015 Y58.3215 I1.7651 J-1.502
G3 X406.763 Y57.9562 I2.9171 J-1.3149
G3 X406.7037 Y57.7569 I4.5552 J-1.4632
G1 X406.6763 Y57.6532
G3 X406.5733 Y57.1775 I5.7963 J-1.5044
G2 X406.3952 Y57.1137 I-0.2379 J0.3836
G2 X406.2124 Y57.1623 I-0.0237 J0.2788
G2 X406.115 Y57.2437 I0.2981 J0.456
G2 X406.0023 Y57.3644 I1.7555 J1.7519
G3 X405.843 Y57.5053 I-0.5985 J-0.5161
G3 X405.5656 Y57.556 I-0.198 J-0.2994
G3 X405.4095 Y57.5001 I0.1171 J-0.5729
G0 Z5.0
G0 X403.1771 Y59.4025
G1 Z0.0
G2 X403.7162 Y63.9071 I48.7606 J-3.5507
G2 X404.6567 Y68.3452 I53.0095 J-8.9142
G1 X404.7296 Y68.6288
G1 X404.8895 Y69.2326
G2 X405.8329 Y72.4263 I71.5035 J-19.3842
G3 X404.7629 Y74.5771 I-24.7432 J-10.9675
G3 X404.7255 Y74.645 I-1.4713 J-0.7673
G3 X403.455 Y76.7744 I-34.8533 J-19.3517
G3 X402.5496 Y78.1574 I-64.9443 J-41.5296
G3 X402.491 Y78.2445 I-2.1596 J-1.3889
G3 X401.9513 Y79.0378 I-66.7386 J-44.8224
G3 X401.8823 Y79.1382 I-3.1804 J-2.1112
G3 X401.8121 Y79.2402 I-3.3947 J-2.2615
G3 X401.7407 Y79.3437 I-3.658 J-2.4458
G3 X401.6681 Y79.4489 I-3.9926 J-2.6796
G3 X401.5943 Y79.5556 I-4.438 J-2.9904
G1 X400.9174 Y80.5297
G1 X400.5562 Y81.0489
G2 X399.7352 Y82.2388 I124.6758 J86.8971
G1 X399.3029 Y82.8771
G1 X399.1939 Y83.0398
G1 X399.0837 Y83.2054
G1 X398.9721 Y83.3739
G1 X398.8594 Y83.5454
G1 X398.7453 Y83.72
G1 X398.6301 Y83.8977
G2 X397.612 Y85.5449 I35.9054 J23.3319
G1 X397.3618 Y85.9776
G2 X396.306 Y88.0051 I24.7835 J14.1942
G3 X395.2838 Y86.5774 I11.0142 J-8.9661
G3 X394.4308 Y85.0426 I14.5707 J-9.1024
G3 X394.2148 Y84.5896 I11.9072 J-5.9547
G3 X393.6914 Y83.3586 I19.0237 J-8.8165
G1 X393.5633 Y83.0257
G3 X392.9488 Y81.2269 I29.9892 J-11.2498
G1 X392.8011 Y80.742
G3 X392.4831 Y79.6287 I47.6851 J-14.2246
G1 X392.3224 Y79.0326
G3 X391.971 Y77.6671 I105.2754 J-27.8198
G1 X391.8825 Y77.3142
G1 X391.7918 Y76.9498
G1 X391.7458 Y76.7646
G2 X391.3227 Y75.0747 I-212.1494 J52.2212
G1 X391.5576 Y74.8307
G1 X391.7971 Y74.591
G3 X391.8295 Y74.5594 I0.276 J0.2506
G3 X392.3647 Y74.0735 I6.8888 J7.0492
G3 X392.7499 Y73.7834 I2.8534 J3.3879
G3 X392.988 Y73.6439 I1.3241 J1.9879
G3 X393.287 Y73.538 I0.5161 J0.9819
G3 X393.6599 Y73.6041 I0.1061 J0.4866
G3 X393.8172 Y73.7545 I-0.3399 J0.5131
G3 X393.9435 Y73.9588 I-1.0814 J0.8093
G3 X394.1526 Y74.4652 I-4.2165 J2.0376
G2 X394.3534 Y75.0001 I14.702 J-5.2127
G1 X394.4093 Y75.1333
G2 X394.7142 Y75.7032 I3.2097 J-1.3506
G2 X395.2012 Y76.2284 I1.8005 J-1.1814
G2 X395.8808 Y76.5611 I1.1953 J-1.5812
G2 X397.2622 Y76.0396 I-2.7987 J-9.504
G2 X398.5279 Y75.2792 I-2.9466 J-6.3378
G1 X398.6826 Y75.1569
G1 X398.761 Y75.0917
G1 X398.8406 Y75.023
G2 X399.603 Y74.2003 I-3.4781 J-3.988
G2 X400.3284 Y72.8902 I-4.4799 J-3.3362
G2 X400.5916 Y72.0741 I-6.7192 J-2.6177
G2 X400.6049 Y72.0217 I-0.5394 J-0.165
G2 X400.7897 Y71.0535 I-8.4686 J-2.1179
G2 X400.8928 Y69.9368 I-12.8236 J-1.7476
G2 X400.921 Y68.6646 I-24.6221 J-1.1821
G2 X400.9208 Y68.5845 I-0.9134 J-0.0371
G1 X400.918 Y68.2543
G1 X400.9059 Y67.5534
G1 X400.8904 Y66.8097
G3 X400.8887 Y65.13 I36.332 J-0.8763
G1 X400.8956 Y64.9171
G1 X400.9051 Y64.7012
G3 X400.9788 Y63.7873 I13.4953 J0.6288
G3 X401.043 Y63.3194 I9.9119 J1.1214
G3 X401.2573 Y62.339 I8.3325 J1.3073
G3 X401.6319 Y61.3367 I6.3641 J1.8071
G3 X403.1771 Y59.4025 I4.8512 J2.2915
G0 Z5.0
G0 X412.5582 Y59.4708
G1 Z0.0
G1 X412.5595 Y59.2993
G1 X412.559 Y58.667
G1 X412.5566 Y58.3057
G1 X412.5445 Y57.3424
G2 X412.426 Y53.4913 I-135.6402 J2.2471
G2 X412.4004 Y52.9782 I-30.3156 J1.2579
G2 X412.3689 Y52.4311 I-79.3301 J4.2864
G2 X412.2678 Y51.1825 I-28.0787 J1.6456
G1 X412.1432 Y50.0757
G3 X412.1024 Y49.7066 I17.2601 J-2.0977
G3 X412.0915 Y49.6082 I1.5153 J-0.2169
G1 X411.9198 Y48.0333
G1 X411.8063 Y46.9833
G2 X411.7991 Y46.9166 I-1.4665 J0.1248
G2 X411.7918 Y46.8488 I-1.4846 J0.1263
G2 X411.3096 Y42.516 I-498.0193 J53.2302
G1 X411.1622 Y41.2791
G1 X411.0808 Y40.6197
G1 X410.9917 Y39.9167
G2 X410.9687 Y39.7382 I-5.9289 J0.6749
G2 X410.9451 Y39.5569 I-6.3533 J0.7347
G2 X410.9209 Y39.3727 I-6.8715 J0.808
G2 X410.8961 Y39.1856 I-7.5257 J0.9006
G2 X410.8708 Y38.9956 I-8.3889 J1.023
G2 X410.8448 Y38.8026 I-9.607 J1.1955
G2 X410.7904 Y38.4043 I-18.4867 J2.3219
G1 X410.6708 Y37.5551
G2 X410.3772 Y35.6169 I-101.1993 J14.3405
G2 X409.4181 Y30.4777 I-92.0068 J14.5113
G1 X409.3467 Y30.1534
G1 X409.2728 Y29.8243
G1 X409.1961 Y29.4904
G2 X409.0328 Y28.8021 I-44.6557 J10.2309
G2 X408.6605 Y27.3394 I-69.8363 J17.0002
G1 X408.6111 Y27.1557
G1 X408.5608 Y26.9708
G1 X408.5095 Y26.7845
G1 X408.4573 Y26.5969
G1 X408.4039 Y26.4081
G1 X408.3496 Y26.2179
G2 X407.8587 Y24.6027 I-48.2837 J13.792
G2 X406.5369 Y20.975 I-45.0494 J14.3594
G1 X406.4435 Y20.7503
G2 X406.0442 Y19.828 I-51.9606 J21.9487
G1 X405.8329 Y19.3634
G2 X404.7429 Y17.3355 I-9.1132 J3.5913
G2 X403.1928 Y15.6334 I-7.5125 J5.2845
G2 X401.9496 Y14.7297 I-6.2123 J7.2398
G2 X400.1137 Y13.8262 I-5.801 J9.4707
G2 X397.4911 Y13.1139 I-4.9001 J12.856
G1 X397.1445 Y13.0584
G2 X395.5527 Y12.901 I-2.4416 J16.5591
G3 X396.4184 Y12.3868 I3.3678 J4.685
G3 X396.727 Y12.2538 I1.7348 J3.6001
G3 X398.0417 Y11.9909 I1.3828 J3.4953
G3 X398.9351 Y12.0771 I0.061 J4.0405
G3 X399.4326 Y12.2028 I-1.0257 J5.1043
G3 X399.9857 Y12.3935 I-2.0057 J6.7174
G3 X400.0202 Y12.4068 I-0.0811 J0.2608
G3 X400.0548 Y12.4203 I-0.0821 J0.2612
G3 X400.6771 Y12.6846 I-4.1587 J10.6581
G3 X401.0039 Y12.8347 I-6.3915 J14.3452
G1 X401.1717 Y12.9135
G1 X401.9323 Y13.2735
G1 X402.1289 Y13.3649
G2 X402.5488 Y13.5544 I5.7877 J-12.2621
G1 X402.7666 Y13.6487
G3 X404.8733 Y15.9084 I-13.2208 J14.4379
G3 X406.6343 Y18.4467 I-18.448 J14.6783
G3 X407.6341 Y20.2476 I-24.6707 J14.8747
G3 X408.1492 Y21.3058 I-25.1603 J12.902
G3 X409.3453 Y24.2035 I-33.9253 J15.6992
G3 X409.6251 Y24.9912 I-41.8605 J15.3134
G3 X410.8812 Y29.2594 I-48.9484 J16.7238
G3 X411.1576 Y30.413 I-44.3087 J11.2275
G3 X411.7106 Y33.0641 I-66.4354 J15.2408
G1 X411.7736 Y33.4022
G1 X411.8361 Y33.7458
G3 X412.339 Y36.8946 I-89.6195 J15.9289
G1 X412.3948 Y37.2956
G1 X412.5045 Y38.1239
G1 X412.6104 Y38.9796
G1 X412.7123 Y39.8633
G1 X412.8099 Y40.7762
G1 X412.9029 Y41.7188
G3 X413.2377 Y46.0278 I-137.9774 J12.8899
G3 X413.2419 Y46.0954 I-1.3198 J0.1154
G3 X413.4693 Y51.0291 I-157.9861 J9.7527
G1 X413.4882 Y51.6559
G3 X413.5208 Y52.9494 I-138.2942 J4.1367
G1 X413.5342 Y53.6064
G3 X413.57 Y59.6004 I-236.5943 J4.4085
G3 X413.5689 Y59.7885 I-10.6793 J0.0294
G3 X413.5676 Y59.9773 I-12.8025 J0.0084
G1 X413.5612 Y60.7441
G1 X413.5419 Y62.3263
G1 X413.514 Y63.9587
G3 X413.3041 Y71.4013 I-437.097 J-8.6032
G1 X413.2333 Y73.3204
G1 X413.2147 Y73.8039
G1 X413.176 Y74.7859
G1 X413.0934 Y76.812
G1 X413.0054 Y78.9022
G1 X412.8166 Y83.3564
G1 X412.7701 Y84.4874
G1 X412.7243 Y85.6362
G1 X412.7187 Y85.7801
G1 X412.6178 Y86.2237
G2 X412.6036 Y86.2872 I0.6925 J0.1884
G2 X412.4915 Y86.795 I28.9085 J6.6456
G2 X412.4768 Y86.8628 I0.7509 J0.199
G1 X412.2452 Y87.9478
G1 X411.7903 Y90.1195
G3 X411.7287 Y90.4089 I-13.8582 J-2.7987
G3 X411.6624 Y90.7175 I-44.0815 J-9.3086
G1 X411.5081 Y91.422
G3 X411.0683 Y93.2947 I-68.913 J-15.1935
G3 X410.7915 Y94.3584 I-44.9302 J-11.1256
G3 X410.4449 Y95.5661 I-51.783 J-14.2087
G1 X410.3494 Y95.876
G3 X409.8765 Y97.2811 I-33.386 J-10.4534
G1 X409.7439 Y97.6401
G1 X409.602 Y98.0088
G1 X409.4499 Y98.3874
G3 X409.1057 Y99.1869 I-22.7234 J-9.3087
G3 X408.7068 Y100.0256 I-18.822 J-8.438
G1 X408.6 Y100.2359
G3 X407.5109 Y102.1009 I-17.596 J-9.0249
G3 X406.0021 Y104.0624 I-14.3318 J-9.4631
G3 X403.9304 Y106.0049 I-11.9443 J-10.6629
G1 X403.7445 Y106.0614
G3 X403.5577 Y106.1149 I-2.509 J-8.395
G3 X403.1815 Y106.2126 I-5.4506 J-20.2285
G3 X402.419 Y106.3622 I-2.0585 J-8.4748
G3 X401.9038 Y106.4189 I-0.9408 J-6.1687
G3 X401.2124 Y106.4217 I-0.3641 J-4.6332
G3 X400.3068 Y106.237 I0.1907 J-3.2476
G3 X399.831 Y105.9976 I0.7646 J-2.1122
G3 X399.3723 Y105.587 I1.1462 J-1.7422
G3 X398.9326 Y105.3138 I2.1622 J-3.9692
G3 X398.5446 Y104.9711 I1.3386 J-1.9066
G3 X398.3548 Y104.6809 I0.7967 J-0.7282
G3 X398.3017 Y104.4876 I0.6178 J-0.2738
G3 X398.3242 Y104.2542 I0.557 J-0.064
G3 X398.4667 Y104.0158 I0.6248 J0.2117
G3 X398.721 Y103.8166 I0.7611 J0.7095
G3 X399.0539 Y103.6715 I0.8813 J1.5678
G3 X399.4459 Y103.5811 I0.722 J2.2343
G3 X399.8872 Y103.5478 I0.4711 J3.3021
G3 X400.8513 Y103.6773 I0.0028 J3.6331
G2 X402.3049 Y103.3745 I-0.4643 J-5.8696
G2 X403.6269 Y102.6987 I-1.7961 J-5.1444
G2 X404.3928 Y102.0694 I-3.7433 J-5.3367
G2 X405.2634 Y101.0793 I-5.7457 J-5.9298
G2 X405.6945 Y100.4627 I-9.471 J-7.0819
G2 X406.1404 Y99.7306 I-14.2001 J-9.1503
G2 X406.362 Y99.3316 I-14.4999 J-8.3127
G1 X406.4727 Y99.124
G2 X406.9532 Y98.1671 I-27.2621 J-14.29
G2 X407.0121 Y98.0446 I-2.1534 J-1.1114
G1 X407.2596 Y97.5219
G1 X407.5198 Y96.9643
G1 X407.5858 Y96.8227
G1 X407.6528 Y96.679
G1 X407.9406 Y96.0691
G1 X408.0917 Y95.7561
G1 X408.2507 Y95.435
G1 X408.4187 Y95.1062
G1 X408.5976 Y94.7701
G3 X408.691 Y94.6008 I4.3117 J2.2688
G1 X408.7878 Y94.4302
G3 X409.2272 Y93.7197 I11.6177 J6.6942
G2 X409.9758 Y90.5019 I-52.1458 J-13.8277
G2 X410.5459 Y87.2477 I-64.3488 J-12.9502
G1 X410.61 Y86.8119
G2 X410.9105 Y84.4819 I-89.0762 J-12.6732
G2 X410.9446 Y84.1806 I-17.1877 J-2.0964
G2 X410.9787 Y83.8696 I-16.1509 J-1.9292
G2 X411.0129 Y83.5483 I-15.4442 J-1.8041
G2 X411.3168 Y80.117 I-110.0417 J-11.4747
G2 X411.3328 Y79.8988 I-11.854 J-0.9827
G2 X411.3488 Y79.6772 I-12.2055 J-0.9917
G2 X411.3647 Y79.452 I-12.6172 J-1.0041
G2 X411.4961 Y77.3928 I-259.3322 J-17.5852
G2 X411.5578 Y76.294 I-227.3563 J-13.3047
G1 X411.6188 Y75.122
G1 X411.6802 Y73.8716
G1 X411.7109 Y73.2262
G1 X411.7757 Y71.8495
G1 X411.8094 Y71.139
G1 X411.8449 Y70.4056
G1 X411.9243 Y68.8415
G3 X412.1421 Y65.2692 I199.4192 J10.3663
G3 X412.4987 Y61.195 I114.6145 J7.9801
G2 X412.513 Y61.0424 I-3.7045 J-0.4241
G1 X412.5234 Y60.8896
G2 X412.5378 Y60.5836 I-12.81 J-0.7564
G1 X412.5445 Y60.3794
G1 X412.5475 Y60.2627
G1 X412.5536 Y59.9515
G1 X412.556 Y59.7736
G1 X412.5582 Y59.4708
G0 Z5.0
G0 X410.8162 Y71.6877
G1 Z0.0
G1 X410.8115 Y72.0696
G1 X410.8053 Y72.4516
G3 X410.7881 Y73.2153 I-43.206 J-0.5912
G1 X410.782 Y73.4335
G1 X410.7744 Y73.6829
G1 X410.7648 Y73.9679
G1 X410.7348 Y74.7276
G3 X410.6843 Y75.74 I-68.3403 J-2.9007
G1 X410.6688 Y76.0099
G3 X410.2936 Y80.3183 I-76.4241 J-4.4843
G3 X409.8995 Y83.1747 I-63.7153 J-7.3362
G3 X409.1719 Y86.95 I-60.5234 J-9.7063
G3 X407.7967 Y91.8894 I-50.4579 J-11.3877
G3 X406.7799 Y94.639 I-44.0694 J-14.7321
G3 X405.395 Y97.6917 I-38.139 J-15.4625
G3 X403.507 Y101.0289 I-35.2797 J-17.7563
G3 X402.6376 Y101.4545 I-5.558 J-10.2523
G3 X401.7302 Y101.7917 I-3.2922 J-7.469
G1 X401.6061 Y101.8273
G3 X400.9319 Y101.9695 I-1.4879 J-5.385
G3 X400.0132 Y102.0134 I-0.6826 J-4.6462
G3 X398.8033 Y101.8025 I0.2876 J-5.2247
G3 X398.1405 Y101.5684 I1.9833 J-6.6698
G3 X397.4138 Y101.2296 I3.7891 J-9.0766
G1 X397.2312 Y101.1325
G1 X397.0446 Y101.0289
G2 X398.1317 Y100.9704 I0.1603 J-7.1517
G2 X399.1942 Y100.734 I-0.7461 J-5.8586
G2 X401.0886 Y99.6759 I-1.6853 J-5.2421
G2 X402.0831 Y98.6188 I-4.4631 J-5.1957
G2 X402.554 Y97.9365 I-6.9701 J-5.3144
G2 X402.5816 Y97.8921 I-0.4271 J-0.2961
G2 X402.6092 Y97.8472 I-0.4305 J-0.2952
G2 X403.0723 Y97.0077 I-9.5781 J-5.8316
G2 X403.2922 Y96.5472 I-10.9285 J-5.5013
G2 X403.7374 Y95.4764 I-18.2439 J-8.2129
G2 X403.9495 Y94.8975 I-17.3982 J-6.7032
G2 X404.0536 Y94.5974 I-16.3352 J-5.8341
G2 X404.4944 Y93.227 I-39.1341 J-13.3426
G1 X404.9694 Y91.6686
G1 X405.095 Y91.2684
G1 X405.111 Y91.2182
G1 X405.1271 Y91.1678
G1 X405.2628 Y90.7544
G3 X405.4095 Y90.3309 I12.841 J4.2098
G2 X405.8448 Y89.5289 I-11.5001 J-6.7619
G2 X406.2179 Y88.696 I-12.3136 J-6.0147
G2 X406.7808 Y86.9613 I-12.6727 J-5.0712
G2 X407.0349 Y85.7721 I-15.081 J-3.8436
G2 X407.2574 Y84.1674 I-23.4519 J-4.0705
G1 X407.2788 Y83.9594
G1 X407.2994 Y83.7447
G1 X407.3194 Y83.5229
G1 X407.3388 Y83.2938
G1 X407.3575 Y83.0574
G2 X407.3943 Y82.5528 I-23.4552 J-1.9643
G1 X407.4303 Y82.0147
G1 X407.5105 Y80.7859
G3 X407.626 Y79.385 I51.3792 J3.5286
G3 X407.8374 Y77.7939 I22.8916 J2.2321
G3 X408.0045 Y76.9541 I15.67 J2.6825
G3 X408.0545 Y76.7424 I4.4332 J0.9342
G3 X408.3063 Y75.8487 I12.2342 J2.9653
G3 X409.1524 Y73.8946 I10.2821 J3.2914
G1 X409.2881 Y73.6599
G3 X410.8162 Y71.6877 I8.9904 J5.3882
G0 Z5.0
G0 X389.511 Y75.5156
G1 Z0.0
G1 X389.5664 Y75.824
G3 X389.9072 Y77.8138 I-165.2302 J29.3294
G1 X389.9923 Y78.3278
G1 X390.1705 Y79.4247
G1 X390.3571 Y80.5953
G1 X390.7774 Y83.2711
G2 X390.8038 Y83.4397 I6.1355 J-0.8768
G1 X391.031 Y84.8778
G1 X391.278 Y86.4108
G1 X391.3418 Y86.8
G2 X391.6212 Y88.4589 I143.0749 J-23.2408
G1 X391.7707 Y89.3142
G2 X392.5182 Y93.2118 I134.1892 J-23.7158
G2 X392.9735 Y95.2789 I81.7901 J-16.9307
G2 X394.2223 Y99.9546 I67.5773 J-15.544
G1 X394.2671 Y100.0997
G1 X394.3124 Y100.2453
G2 X395.1503 Y102.7101 I50.0561 J-15.642
G2 X395.3837 Y103.3289 I82.1942 J-30.6377
G2 X395.6299 Y103.9542 I34.0316 J-13.0408
G2 X396.7934 Y106.5781 I36.8917 J-14.7881
G1 X396.8728 Y106.7399
G2 X397.5596 Y108.061 I36.5685 J-18.1722
G1 X397.7416 Y108.3893
G2 X398.5327 Y109.7239 I28.5844 J-16.0429
G2 X400.4445 Y112.4378 I25.6053 J-16.0071
G2 X401.5521 Y113.7509 I20.9337 J-16.535
G2 X401.6242 Y113.8308 I1.1911 J-1.0011
G2 X401.6967 Y113.9107 I1.1731 J-0.9928
G2 X401.7697 Y113.9904 I1.1557 J-0.9849
G2 X401.8432 Y114.07 I1.1389 J-0.9773
G2 X403.1045 Y115.3444 I19.8618 J-18.395
G2 X404.4961 Y116.5729 I19.2427 J-20.3956
G2 X407.7474 Y118.8776 I17.7126 J-21.5427
G2 X411.5548 Y120.8358 I15.8984 J-26.2304
G1 X412.0326 Y120.8725
G1 X412.1918 Y120.8862
G3 X412.8278 Y120.9474 I-3.7869 J42.6618
G1 X413.0093 Y120.9666
G3 X414.4594 Y121.1394 I-6.3053 J59.0892
G1 X414.8732 Y121.1933
G1 X415.9758 Y121.3421
G1 X417.4457 Y121.5421
G2 X417.492 Y121.5483 I0.1208 J-0.7281
G1 X418.3393 Y121.6588
G2 X420.6031 Y121.9139 I9.5672 J-74.7331
G1 X421.2082 Y121.9676
G2 X422.5941 Y122.0589 I3.3213 J-39.8343
G2 X423.3344 Y122.0863 I1.3931 J-27.594
G1 X423.7168 Y122.0938
G1 X424.1115 Y122.0963
G1 X424.3121 Y122.0954
G1 X424.5159 Y122.093
G1 X424.7229 Y122.0889
G1 X424.9331 Y122.083
G1 X425.1466 Y122.0752
G2 X427.0944 Y121.9062 I-0.7616 J-20.0836
G1 X427.2164 Y121.889
G1 X427.3393 Y121.8709
G1 X427.5886 Y121.8313
G1 X427.8412 Y121.7873
G2 X430.1141 Y121.1857 I-2.511 J-14.0802
G2 X432.5418 Y119.9922 I-3.9449 J-11.0907
G2 X434.9013 Y117.9391 I-6.117 J-9.4121
G2 X435.92 Y116.6003 I-9.478 J-8.2684
G2 X437.0092 Y114.4221 I-30.5296 J-16.6278
G2 X437.9464 Y112.1743 I-34.9988 J-15.9124
G2 X439.3979 Y107.5281 I-38.9283 J-14.7117
G2 X440.0794 Y104.3549 I-45.7596 J-11.4875
G2 X440.668 Y100.0699 I-52.1665 J-9.3477
G2 X440.9398 Y94.3142 I-58.7078 J-5.6565
G2 X440.4867 Y86.6555 I-66.4653 J0.0894
G2 X438.5508 Y76.6318 I-68.1968 J7.9718
G2 X436.7624 Y71.0792 I-60.9604 J16.5702
G2 X435.5919 Y68.1963 I-54.1348 J20.3006
G2 X435.1672 Y67.0812 I-4.6958 J1.15
G2 X434.5093 Y66.0857 I-5.6381 J3.0111
G2 X434.2918 Y65.8227 I-6.8441 J5.4384
G2 X433.6717 Y65.1593 I-8.6834 J7.4939
G1 X433.4992 Y64.9895
G1 X433.3128 Y64.8109
G2 X433.2159 Y64.7196 I-1.4905 J1.4848
G2 X433.1153 Y64.6258 I-2.1754 J2.2305
G1 X433.0113 Y64.5295
G1 X432.7884 Y64.3253
G1 X432.2784 Y63.8608
G3 X432.0083 Y63.6114 I21.1638 J-23.1912
G1 X431.8701 Y63.4815
G1 X431.7285 Y63.3463
G3 X431.1049 Y62.7068 I8.9092 J-9.3126
G3 X430.7951 Y62.3447 I7.4523 J-6.689
G3 X430.1898 Y61.4376 I4.375 J-3.5747
G3 X430.0668 Y61.1833 I3.0251 J-1.6206
G3 X430.0109 Y61.0511 I4.0034 J-1.7692
G3 X429.7438 Y59.7481 I3.3963 J-1.3752
G3 X429.7958 Y59.0291 I4.0738 J-0.0667
G3 X429.8699 Y58.6621 I5.6117 J0.9424
G3 X434.6021 Y60.6923 I-64.0662 J155.8587
G3 X439.2659 Y62.8749 I-63.2727 J141.276
G1 X439.5642 Y63.0212
G1 X439.8718 Y63.1729
G1 X440.189 Y63.3303
G1 X440.5159 Y63.4935
G3 X450.7428 Y69.1583 I-61.8948 J123.8044
G3 X457.2756 Y73.4122 I-71.1466 J116.4056
G3 X465.5935 Y79.644 I-80.6787 J116.3528
G1 X465.8481 Y79.8499
G1 X466.1042 Y80.0581
G3 X466.9772 Y82.5602 I-38.6136 J14.8767
G3 X466.9898 Y82.6004 I-0.5807 J0.204
G1 X467.0431 Y82.7719
G1 X467.1623 Y83.1645
G3 X468.0045 Y86.3363 I-51.2212 J15.2982
G1 X468.0528 Y86.5425
G1 X468.1019 Y86.7556
G3 X468.3175 Y87.7312 I-63.9788 J14.6517
G1 X468.4269 Y88.2528
G3 X468.5396 Y88.8098 I-26.9855 J5.7496
G3 X468.7827 Y90.086 I-68.9959 J13.802
G3 X468.9046 Y90.768 I-38.9414 J7.3135
G3 X469.4779 Y94.4171 I-108.6585 J18.9416
G3 X470.0914 Y99.3019 I-173.1051 J24.2211
G1 X470.1617 Y99.9332
G1 X470.2327 Y100.5851
G1 X470.3796 Y101.976
G1 X470.4161 Y102.3294
G1 X470.4528 Y102.6883
G1 X470.6068 Y104.2199
G1 X470.952 Y107.7204
G1 X471.1397 Y109.5866
G1 X471.1885 Y110.0605
G2 X471.2913 Y111.0385 I92.79 J-9.2589
G2 X471.4009 Y112.0476 I230.6348 J-24.5603
G2 X471.5816 Y112.4664 I1.8021 J-0.5291
G2 X471.8375 Y112.8439 I2.6926 J-1.5497
G2 X472.4774 Y113.4885 I3.124 J-2.4614
G2 X472.9834 Y113.8214 I1.9293 J-2.3811
G2 X473.3052 Y113.9519 I0.8256 J-1.5743
G2 X473.37 Y114.2521 I1.5435 J-0.1762
G2 X473.4742 Y114.541 I3.6922 J-1.1673
G2 X473.7388 Y115.0938 I5.7235 J-2.4002
G1 X473.8222 Y115.2478
G1 X473.8675 Y115.3295
G1 X473.9164 Y115.4162
G1 X474.03 Y115.6133
G1 X474.0913 Y115.718
G1 X474.4222 Y116.2727
G3 X474.4433 Y116.3079 I-0.3745 J0.2482
G1 X474.6349 Y116.63
G1 X474.8495 Y117.0004
G3 X474.9608 Y117.1997 I-6.4604 J3.7383
G3 X475.0171 Y117.3032 I-4.8953 J2.7291
G1 X475.1339 Y117.5256
G3 X475.3776 Y118.0458 I-6.0169 J3.1359
G3 X475.5878 Y118.669 I-3.7329 J1.6061
G3 X475.6445 Y119.0169 I-2.2061 J0.5382
G3 X475.6272 Y119.3969 I-1.3813 J0.1274
G3 X475.4674 Y119.7842 I-0.9894 J-0.1814
G3 X475.1158 Y120.1043 I-0.9286 J-0.6669
G3 X474.6197 Y120.3078 I-1.0052 J-1.7445
G3 X474.0438 Y120.4125 I-0.9002 J-3.3146
G2 X474.1211 Y122.4679 I56.1152 J-1.0794
G1 X474.1249 Y122.5342
G1 X474.1288 Y122.6026
G2 X474.1761 Y123.3317 I140.7882 J-8.7528
G2 X474.2067 Y123.7481 I33.3222 J-2.2455
G1 X474.2448 Y124.2237
G1 X474.2918 Y124.767
G2 X474.4317 Y126.2143 I151.6921 J-13.9337
G1 X474.6348 Y128.1423
G1 X474.7482 Y129.2443
G1 X474.762 Y129.3843
G1 X474.8187 Y129.9818
G3 X474.9292 Y131.3491 I-55.5685 J5.1786
G1 X474.9521 Y131.7024
G1 X474.9627 Y131.8819
G1 X474.9726 Y132.0644
G1 X474.9906 Y132.4411
G3 X475.021 Y134.1655 I-34.4511 J1.4687
G3 X475.0197 Y134.2742 I-1.5117 J0.0361
G3 X475.0179 Y134.3837 I-1.4549 J0.0316
G3 X475.0169 Y134.4387 I-1.0011 J0.0086
G3 X474.8988 Y136.447 I-25.8648 J-0.5133
G3 X474.8924 Y136.5099 I-0.676 J-0.0368
G2 X455.7758 Y134.4795 I-159.9293 J1414.7668
G2 X455.6252 Y134.4644 I-0.7413 J6.6592
G2 X455.4733 Y134.4493 I-0.7457 J6.7033
G2 X455.3203 Y134.434 I-0.7502 J6.7478
G2 X455.1661 Y134.4187 I-0.7548 J6.7929
G2 X455.0106 Y134.4032 I-0.7594 J6.8385
G2 X454.8539 Y134.3876 I-0.764 J6.8847
G2 X454.696 Y134.3719 I-0.7687 J6.9315
G1 X451.8087 Y134.0871
G2 X444.1073 Y133.3454 I-323.0019 J3313.3471
G2 X443.8647 Y133.3224 I-1.1646 J10.991
G2 X443.6202 Y133.2992 I-1.1763 J11.114
G2 X443.3737 Y133.2759 I-1.1884 J11.2402
G2 X443.1253 Y133.2524 I-1.2007 J11.3697
G1 X438.5833 Y132.8259
G1 X433.3919 Y132.3444
G1 X419.5469 Y131.0734
G3 X401.0901 Y129.3455 I383.3909 J-4194.8009
G1 X400.5089 Y129.2894
G3 X398.1095 Y129.0564 I62.0456 J-651.4301
G1 X395.6329 Y128.8132
G1 X394.375 Y128.6885
G1 X391.7784 Y128.4284
G1 X391.1242 Y128.3623
G1 X390.4648 Y128.2953
G1 X389.8002 Y128.2277
G1 X389.1305 Y128.1592
G1 X386.3656 Y127.8734
G1 X383.5121 Y127.573
G1 X382.7931 Y127.4964
G1 X379.8252 Y127.1761
G3 X373.4961 Y126.4687 I125.8101 J-1154.3035
G1 X373.0991 Y126.4232
G1 X372.7005 Y126.3773
G1 X372.3004 Y126.3311
G1 X371.8988 Y126.2845
G1 X371.4955 Y126.2376
G1 X371.0907 Y126.1904
G1 X370.6844 Y126.1428
G1 X370.2765 Y126.0949
G1 X369.867 Y126.0466
G1 X369.4559 Y125.998
G1 X369.0432 Y125.949
G1 X368.6289 Y125.8996
G1 X366.9459 Y125.6972
G1 X365.2365 Y125.4885
G1 X363.5003 Y125.2733
G1 X361.737 Y125.0511
G1 X361.2945 Y124.9947
G1 X360.8503 Y124.9379
G1 X360.4044 Y124.8807
G1 X359.9568 Y124.823
G1 X359.5074 Y124.7648
G1 X359.0563 Y124.7061
G1 X358.6035 Y124.647
G1 X358.1489 Y124.5873
G1 X357.6926 Y124.5272
G1 X356.7729 Y124.4052
G1 X354.9048 Y124.1539
G1 X353.0077 Y123.8939
G1 X351.0811 Y123.6246
G1 X350.1105 Y123.4869
G1 X349.1324 Y123.3468
G1 X348.1469 Y123.2041
G1 X347.1538 Y123.0588
G3 X338.6889 Y121.7547 I88.2635 J-601.0713
G1 X337.6237 Y121.5818
G2 X338.0706 Y105.0517 I-246.8257 J-14.9441
G2 X337.9798 Y99.5394 I-263.9608 J1.593
G1 X337.9602 Y98.8283
G1 X337.9128 Y97.3115
G1 X337.9063 Y97.1204
G2 X337.5353 Y88.972 I-386.9755 J13.5341
G1 X337.4765 Y87.9211
G2 X337.4613 Y87.6563 I-11.1304 J0.5037
G2 X337.4459 Y87.3894 I-9.403 J0.408
G2 X337.4382 Y87.2555 I-6.0311 J0.2823
G1 X337.373 Y86.1494
G1 X337.2286 Y83.7902
G2 X337.2194 Y83.6422 I-3.0976 J0.1195
G2 X337.2101 Y83.4935 I-3.0573 J0.1171
G1 X337.1324 Y82.2665
G1 X337.0925 Y81.6433
G1 X336.723 Y75.9461
G1 X336.5292 Y72.9075
G3 X336.5232 Y72.8123 I1.4346 J-0.1377
G1 X336.475 Y72.0389
G3 X336.0685 Y64.9675 I788.6623 J-48.8902
G3 X335.7111 Y56.8808 I468.3956 J-24.7494
G3 X335.7089 Y56.8175 I0.9457 J-0.0653
G3 X335.7066 Y56.7542 I0.9458 J-0.0652
G3 X335.5747 Y56.1833 I32.3149 J-7.7666
G1 X335.5324 Y55.9926
G3 X335.3712 Y55.2283 I35.3653 J-7.8587
G3 X335.0829 Y53.6929 I62.7076 J-12.5717
G3 X335.0744 Y53.644 I0.768 J-0.1586
G1 X335.0386 Y53.4354
G3 X334.5441 Y50.0865 I82.0935 J-13.8333
G3 X334.4235 Y49.1269 I65.1428 J-8.6737
G1 X334.3618 Y48.6147
G1 X334.2977 Y48.0682
G1 X334.2309 Y47.4851
G1 X334.0828 Y46.1519
G1 X334.0453 Y45.8078
G1 X333.8747 Y44.2346
G2 X333.392 Y40.0434 I-248.7054 J26.5198
G2 X333.3583 Y39.7777 I-11.7451 J1.357
G2 X333.2868 Y39.2292 I-184.7618 J23.7806
G1 X333.2105 Y38.6635
G2 X333.0374 Y37.4581 I-110.7884 J15.2917
G2 X332.5772 Y34.7126 I-77.8213 J11.635
G2 X331.9062 Y31.6017 I-53.3494 J9.8787
G1 X331.8576 Y31.4071
G1 X331.8079 Y31.2112
G2 X330.7341 Y27.6721 I-39.3328 J10.0019
G1 X330.5733 Y27.2306
G2 X330.4037 Y26.7843 I-25.4582 J9.4156
G2 X329.6058 Y24.9076 I-28.2023 J10.8831
G2 X329.3832 Y24.4398 I-61.2482 J28.8477
G2 X329.2679 Y24.2054 I-8.3921 J3.9856
G2 X329.1494 Y23.9703 I-6.3441 J3.0485
G2 X329.0891 Y23.8526 I-3.9149 J1.9324
G2 X327.9708 Y21.889 I-24.5523 J12.6835
G2 X327.933 Y21.8291 I-1.273 J0.76
G2 X327.895 Y21.7692 I-1.2556 J0.7537
G2 X326.495 Y19.7868 I-20.6555 J13.1019
G2 X330.7185 Y21.0035 I38.3975 J-125.3422
G2 X330.8554 Y21.0407 I0.8817 J-2.9747
G2 X335.2444 Y22.19 I80.2184 J-297.3824
G1 X336.5004 Y22.5105
G3 X339.8488 Y23.3692 I-146.8919 J579.7379
G1 X340.2804 Y23.4817
G1 X340.7257 Y23.5985
G1 X341.6751 Y23.8503
G3 X343.8404 Y24.4433 I-36.1462 J136.238
G1 X344.3979 Y24.6012
G1 X344.6809 Y24.6823
G1 X344.9681 Y24.7653
G1 X345.2598 Y24.8503
G1 X345.5558 Y24.9373
G3 X346.8161 Y25.3177 I-21.4367 J73.3117
G1 X347.1354 Y25.4167
G1 X347.4595 Y25.5184
G1 X348.1274 Y25.7321
G1 X348.8152 Y25.958
G3 X350.2758 Y26.4601 I-20.0443 J60.6876
G3 X351.822 Y27.029 I-25.1878 J70.8385
G1 X352.0159 Y27.1034
G3 X355.5136 Y28.5823 I-19.9537 J52.0656
G3 X356.6844 Y28.8739 I-5.6006 J24.9839
G1 X357.0717 Y28.9826
G3 X357.5855 Y29.1364 I-6.3287 J22.0808
G3 X359.6078 Y29.8503 I-8.2433 J26.572
G3 X363.4641 Y31.7209 I-10.9433 J27.4715
G3 X365.8743 Y33.2575 I-16.8119 J29.0274
G3 X365.948 Y33.3093 I-1.289 J1.9143
G3 X367.2715 Y34.2885 I-18.4206 J26.2806
G1 X367.6056 Y34.551
G3 X370.9788 Y37.5679 I-25.0223 J31.3707
G3 X372.7559 Y39.4456 I-31.0091 J31.1294
G3 X372.81 Y39.5061 I-1.4045 J1.3102
G3 X372.8642 Y39.5669 I-1.4132 J1.3139
G3 X372.9185 Y39.628 I-1.4221 J1.3177
G3 X372.9729 Y39.6895 I-1.4311 J1.3216
G3 X373.0274 Y39.7513 I-1.4403 J1.3256
G3 X374.9498 Y42.0673 I-41.0011 J35.9889
G3 X376.9879 Y44.8331 I-46.6372 J36.5002
G3 X378.0106 Y46.3521 I-53.65 J37.2249
G3 X380.1916 Y49.9153 I-60.6655 J39.5817
G3 X380.7219 Y50.8536 I-69.8734 J40.1014
G1 X380.8535 Y51.0912
G3 X383.1197 Y55.4954 I-76.1154 J41.9518
G1 X383.1869 Y55.6355
G1 X383.4573 Y56.206
G3 X385.7549 Y61.4824 I-91.985 J43.1941
G1 X386.0259 Y62.1609
G3 X387.3873 Y66.1528 I-44.8175 J17.5124
G3 X388.4487 Y70.2347 I-64.7342 J19.0114
G1 X388.5726 Y70.7832
G1 X388.7009 Y71.3692
G1 X388.8336 Y71.9952
G1 X388.9709 Y72.6638
G1 X389.1126 Y73.3778
G1 X389.259 Y74.1403
G1 X389.4102 Y74.9546
G1 X389.511 Y75.5156
G0 Z5.0
G0 X405.4095 Y44.5698
G1 Z0.0
G2 X404.3994 Y41.2918 I-25.3856 J6.0278
G2 X403.009 Y38.1562 I-30.1913 J11.5108
G2 X401.9151 Y36.148 I-35.4294 J17.998
G2 X400.296 Y33.5661 I-40.8776 J23.8355
G2 X400.188 Y33.4055 I-4.9394 J3.2057
G2 X400.0777 Y33.2427 I-5.4442 J3.5707
G2 X399.9651 Y33.0778 I-6.1617 J4.086
G2 X399.8501 Y32.9107 I-7.2976 J4.8965
G2 X398.7745 Y31.4007 I-49.6665 J34.2425
G1 X398.4903 Y31.0159
G2 X397.8762 Y30.2011 I-49.9642 J37.02
G1 X397.7186 Y29.9954
G1 X397.5579 Y29.7869
G1 X397.394 Y29.5755
G2 X395.8722 Y27.6646 I-80.2411 J62.3411
G1 X395.775 Y27.5452
G1 X395.6769 Y27.425
G2 X395.4774 Y27.1811 I-18.5417 J14.9687
G1 X395.0641 Y26.679
G1 X394.6357 Y26.1622
G1 X393.7178 Y25.0639
G1 X392.7359 Y23.8957
G1 X392.4865 Y23.599
G3 X398.0244 Y26.795 I-4.5688 J14.3127
G3 X399.5128 Y28.3405 I-11.0798 J12.1591
G3 X401.1707 Y30.6679 I-13.5649 J11.4176
G3 X401.953 Y32.1011 I-17.5808 J10.5264
G3 X402.7068 Y33.8057 I-18.7653 J9.3171
G3 X402.7495 Y33.9152 I-1.5226 J0.6571
G3 X402.792 Y34.0257 I-1.5381 J0.6545
G3 X403.4704 Y36.0759 I-23.7954 J9.0102
G3 X403.4888 Y36.1412 I-1.3934 J0.4281
G3 X403.507 Y36.2067 I-1.4063 J0.4279
G2 X403.9658 Y37.2245 I19.6697 J-8.2543
G1 X404.4506 Y38.2303
G3 X404.769 Y38.9029 I-26.0319 J12.7344
G1 X404.9448 Y39.2902
G3 X405.0359 Y39.4979 I-5.9803 J2.7472
G1 X405.0821 Y39.6055
G1 X405.1785 Y39.836
G3 X405.2775 Y40.0834 I-13.98 J5.7401
G1 X405.3782 Y40.3491
G3 X405.5852 Y40.9652 I-11.2486 J4.1221
G3 X405.7691 Y41.6855 I-7.7855 J2.3718
G3 X405.8807 Y42.5298 I-5.6348 J1.1738
G3 X405.8183 Y43.5076 I-3.969 J0.238
G3 X405.4095 Y44.5698 I-3.1231 J-0.5925
G0 Z5.0
G0 X408.4757 Y34.3043
G1 Z0.0
G1 X407.7433 Y33.6179
G1 X407.4978 Y33.3905
G2 X406.494 Y32.5051 I-16.7637 J17.994
G1 X406.4271 Y32.4504
G2 X406.1159 Y32.2074 I-10.3001 J12.8699
G1 X405.9451 Y32.084
G2 X405.8552 Y32.0227 I-2.246 J3.1953
G2 X405.4234 Y31.7749 I-1.8919 J2.7967
G2 X405.1726 Y31.6832 I-0.7071 J1.5444
G2 X404.8834 Y31.6609 I-0.2004 J0.7115
G2 X404.5892 Y31.8225 I0.0671 J0.4706
G2 X404.4855 Y31.9785 I0.5049 J0.4482
G2 X404.3556 Y32.3945 I1.4266 J0.6737
G3 X403.7969 Y31.569 I10.1569 J-7.4761
G3 X403.2963 Y30.7071 I14.9265 J-9.2449
G1 X403.1627 Y30.4555
G1 X403.0146 Y30.1656
G1 X402.8508 Y29.8316
G3 X402.4382 Y28.9297 I21.3189 J-10.2987
G3 X402.2147 Y28.409 I30.6877 J-13.4855
G1 X401.9664 Y27.8111
G1 X401.3155 Y26.2132
G1 X401.2302 Y26.0075
G2 X400.8284 Y25.0728 I-32.5531 J13.4429
G1 X400.7203 Y24.8336
G1 X400.6064 Y24.5877
G2 X400.3542 Y24.0674 I-19.9407 J9.3454
G1 X400.2185 Y23.8016
G2 X399.5393 Y22.6179 I-13.4633 J6.9386
G2 X399.1312 Y22.0143 I-10.4006 J6.5918
G2 X399.0773 Y21.94 I-0.886 J0.5857
G2 X399.0224 Y21.8654 I-0.8522 J0.5706
G1 X398.909 Y21.7154
G2 X395.8808 Y19.0481 I-8.156 J6.2072
G2 X395.0156 Y18.6564 I-1.5676 J2.3109
G2 X394.0676 Y18.5954 I-0.6454 J2.6334
G2 X393.4454 Y18.7176 I0.4225 J3.7965
G2 X393.2832 Y18.7656 I0.8207 J3.0695
G2 X392.4479 Y19.0842 I2.6272 J8.1435
G1 X392.2297 Y19.1791
G1 X391.7342 Y19.3956
G1 X391.4685 Y19.5055
G1 X391.3303 Y19.5591
G3 X391.2597 Y19.5852 I-0.3478 J-0.8307
G3 X390.601 Y19.7721 I-1.4599 J-3.8905
G3 X390.2374 Y19.813 I-0.4262 J-2.155
G3 X389.8454 Y19.7868 I-0.0736 J-1.8408
G1 X389.93 Y19.6104
G2 X390.0102 Y19.4321 I-2.8503 J-1.3896
G2 X390.1602 Y19.071 I-16.8259 J-7.2009
G1 X390.2547 Y18.828
G1 X390.3774 Y18.5028
G3 X390.4099 Y18.416 I2.05 J0.7188
G3 X390.5867 Y17.9544 I16.3937 J6.015
G3 X390.6103 Y17.8952 I0.8284 J0.2958
G3 X390.722 Y17.6258 I6.9805 J2.7358
G3 X390.752 Y17.5568 I0.6729 J0.2513
G3 X391.1133 Y16.8397 I6.1344 J2.6419
G3 X391.7479 Y15.9746 I4.3312 J2.5113
G3 X393.2393 Y14.9778 I3.5964 J3.7668
G3 X394.9732 Y14.518 I2.3473 J5.3526
G3 X396.1699 Y14.4905 I0.761 J7.0813
G3 X397.7388 Y14.7489 I-0.5121 J8.0038
G3 X399.6875 Y15.5512 I-2.0563 J7.762
G3 X401.3871 Y16.9716 I-7.9751 J11.2693
G3 X402.838 Y18.6452 I-10.1446 J10.2609
G3 X403.6602 Y19.8726 I-12.4116 J9.2033
G3 X403.8606 Y20.2119 I-8.1927 J5.0662
G3 X403.961 Y20.3887 I-3.786 J2.2666
G3 X404.9142 Y22.3338 I-18.0908 J10.0715
G3 X405.1358 Y22.8673 I-17.3695 J7.5276
G1 X405.2454 Y23.1445
G1 X405.3554 Y23.4318
G1 X405.4657 Y23.7295
G1 X405.5762 Y24.0379
G1 X405.6871 Y24.3573
G1 X405.7981 Y24.6881
G1 X405.9095 Y25.0305
G1 X406.0212 Y25.385
G3 X406.2496 Y26.1435 I-74.3533 J22.7988
G1 X406.3629 Y26.5362
G3 X406.8509 Y28.3358 I-74.7723 J21.2447
G1 X407.0992 Y29.2977
G1 X407.1617 Y29.5421
G1 X407.2252 Y29.7903
G1 X407.2897 Y30.0424
G1 X407.3553 Y30.2983
G2 X407.9743 Y32.6268 I102.3543 J-25.9638
G1 X408.1454 Y33.2242
G2 X408.3295 Y33.8384 I68.8303 J-20.2974
G1 X408.3772 Y33.9927
G1 X408.426 Y34.148
G1 X408.4757 Y34.3043
G0 Z5.0
G0 X471.3121 Y82.3865
G1 Z0.0
G3 X471.3892 Y82.2885 I3.772 J2.8863
G3 X471.747 Y81.9174 I2.1432 J1.7085
G3 X472.027 Y81.717 I1.2294 J1.4219
G3 X472.4576 Y81.5527 I0.6974 J1.1814
G3 X473.0777 Y81.5899 I0.2343 J1.2818
G3 X473.4097 Y81.724 I-0.6299 J2.0366
G3 X473.7574 Y81.9358 I-1.2734 J2.482
G3 X474.1186 Y82.2201 I-2.5916 J3.664
G3 X474.4959 Y82.5724 I-5.6261 J6.4044
G1 X474.6866 Y82.7671
G1 X474.8831 Y82.9766
G1 X475.0862 Y83.2005
G1 X475.297 Y83.4382
G1 X475.759 Y83.9677
G1 X476.0025 Y84.2451
G1 X476.2614 Y84.534
G2 X476.8567 Y85.1575 I12.7738 J-11.5997
G2 X477.5778 Y85.7956 I5.8835 J-5.923
G2 X477.9955 Y86.0882 I3.506 J-4.5596
G2 X478.4738 Y86.3425 I2.0635 J-3.3045
G2 X479.0254 Y86.5187 I1.0886 J-2.4569
G1 X479.1441 Y86.6176
G1 X479.2621 Y86.7175
G1 X479.4955 Y86.9202
G3 X479.6492 Y87.0574 I-9.2274 J10.4896
G1 X479.7364 Y87.1366
G3 X479.8354 Y87.2279 I-2.3867 J2.6896
G3 X480.6022 Y87.9837 I-12.722 J13.6733
G3 X481.9878 Y89.6309 I-12.6181 J12.0208
G3 X484.0775 Y93.3853 I-13.7412 J10.107
G3 X484.9491 Y96.1175 I-18.2541 J7.3282
G3 X485.2775 Y97.723 I-21.2355 J5.18
G1 X485.3442 Y98.1406
G1 X485.4059 Y98.5727
G1 X485.4621 Y99.0196
G3 X485.6309 Y101.068 I-29.2259 J3.4389
G3 X485.6737 Y103.4113 I-40.1828 J1.9066
G3 X485.6696 Y103.7088 I-10.5893 J0.0027
G3 X485.6635 Y104.011 I-321.9951 J-6.3636
G3 X485.5305 Y106.7613 I-60.7524 J-1.559
G3 X485.2603 Y109.8835 I-106.2504 J-7.6218
G1 X485.2208 Y110.2793
G1 X485.0482 Y111.9637
G1 X485.0043 Y112.3913
G1 X484.9156 Y113.2731
G1 X484.8288 Y114.1827
G2 X484.7473 Y115.1212 I113.7096 J10.3465
G2 X484.3686 Y114.6165 I-12.2811 J8.8193
G2 X483.9721 Y114.1256 I-15.0987 J11.7929
G1 X483.7035 Y113.8019
G1 X483.344 Y113.3716
G3 X482.8667 Y112.796 I44.3358 J-37.2462
G1 X482.7405 Y112.6416
G3 X482.0799 Y111.8082 I28.67 J-23.4011
G3 X481.2487 Y110.6592 I19.3499 J-14.8746
G3 X480.8104 Y109.9774 I12.3404 J-8.4154
G3 X480.7026 Y109.7979 I4.4167 J-2.7726
G3 X480.2445 Y108.9577 I11.9283 J-7.0491
G3 X479.8053 Y107.9545 I9.7117 J-4.849
G3 X479.4506 Y106.7509 I7.5748 J-2.8868
G3 X479.3194 Y106.3977 I2.1537 J-1.0009
G3 X479.2329 Y106.0309 I3.4077 J-0.9975
G3 X479.1351 Y105.2851 I8.1321 J-1.4457
G1 X479.1177 Y105.0709
G3 X479.0822 Y104.4997 I31.759 J-2.2573
G3 X479.0803 Y104.4633 I0.2907 J-0.0339
G1 X479.0721 Y104.3085
G1 X479.0532 Y103.9549
G1 X479.0285 Y103.5512
G2 X479.0128 Y103.3361 I-7.8142 J0.4637
G1 X478.9931 Y103.107
G1 X478.968 Y102.8629
G1 X478.9354 Y102.6033
G2 X478.9157 Y102.4696 I-3.3282 J0.4216
G2 X478.7941 Y101.8641 I-7.2326 J1.1374
G2 X478.5645 Y101.1947 I-3.8528 J0.9474
G2 X478.1173 Y100.5106 I-2.2806 J1.0025
G2 X477.3081 Y99.9873 I-1.461 J1.3721
G2 X476.7949 Y99.8651 I-0.8629 J2.4837
G2 X476.3253 Y101.4735 I4.9702 J2.3235
G2 X476.2752 Y102.0317 I6.0032 J0.8212
G2 X476.2772 Y102.7782 I7.0488 J0.3543
G2 X476.3076 Y103.2035 I8.4064 J-0.3872
G2 X476.4632 Y104.3272 I14.5542 J-1.443
G2 X476.584 Y104.9632 I19.6023 J-3.3952
G2 X476.6004 Y105.0438 I0.8383 J-0.1281
G2 X476.6172 Y105.1256 I0.8622 J-0.1341
G2 X476.6344 Y105.2087 I0.8885 J-0.1405
G2 X476.652 Y105.2931 I0.9171 J-0.1473
G2 X476.67 Y105.3788 I0.9485 J-0.1546
G2 X476.6884 Y105.4657 I0.9831 J-0.1624
G2 X476.7071 Y105.5541 I1.0215 J-0.1708
G1 X476.8783 Y106.3593
G1 X476.9657 Y106.7891
G3 X477.0087 Y107.0112 I-5.9946 J1.2753
G3 X477.1751 Y108.0299 I-18.188 J3.4943
G3 X477.2719 Y109.2042 I-10.8606 J1.4858
G3 X477.1965 Y110.5505 I-7.733 J0.2424
G3 X476.7949 Y112.0476 I-6.4284 J-0.9222
G2 X476.8609 Y112.7649 I5.0039 J-0.099
G2 X477.059 Y113.4575 I3.0 J-0.4837
G2 X477.3015 Y113.874 I1.8425 J-0.7935
G2 X477.78 Y114.3078 I1.4172 J-1.0827
G2 X478.1094 Y114.4792 I1.2145 J-1.9317
G2 X478.5081 Y114.6213 I1.2727 J-2.9396
G2 X478.9734 Y114.7416 I2.2281 J-7.6603
G1 X479.5034 Y114.8605
G1 X479.7834 Y114.9278
G3 X479.8186 Y114.9368 I-0.0775 J0.3741
G3 X479.9626 Y114.9757 I-0.5653 J2.3819
G3 X480.11 Y115.0191 I-0.7602 J2.8559
G3 X480.2603 Y115.0679 I-0.6462 J2.2456
G3 X480.9114 Y115.3575 I-1.2208 J3.6214
G3 X481.5512 Y115.8516 I-1.4286 J2.5109
G3 X482.0916 Y116.6003 I-2.3727 J2.2821
G2 X482.3516 Y116.7938 I0.8982 J-0.9352
G1 X482.4469 Y116.8455
G2 X482.5774 Y116.9073 I0.7728 J-1.4643
G2 X483.1171 Y117.1042 I2.0325 J-4.7321
G1 X483.2739 Y117.153
G1 X483.6914 Y117.2808
G1 X483.9282 Y117.3588
G3 X484.0533 Y117.4038 I-0.6827 J2.0942
G3 X484.1852 Y117.4556 I-1.1181 J3.0383
G3 X484.4771 Y117.5968 I-0.8672 J2.1651
G3 X484.772 Y117.8251 I-0.606 J1.0875
G3 X484.9492 Y118.2326 I-0.4757 J0.4493
G3 X484.925 Y118.4824 I-0.8651 J0.0422
G3 X484.8321 Y118.7418 I-1.2489 J-0.3008
G3 X484.688 Y119.0023 I-1.902 J-0.8827
G3 X484.6024 Y119.1302 I-1.3675 J-0.8228
G1 X484.5567 Y119.1937
G3 X483.9558 Y120.1272 I-3.3795 J-1.5152
G3 X483.1409 Y120.8809 I-4.0307 J-3.5406
G3 X482.527 Y121.2939 I-3.9651 J-5.2316
G3 X479.7993 Y122.338 I-4.4313 J-7.4912
G3 X478.97 Y122.453 I-1.3441 J-6.6462
G3 X478.5235 Y122.4683 I-0.4399 J-6.2932
G3 X478.0473 Y122.4366 I0.0147 J-3.8055
G3 X477.5481 Y122.3222 I0.3399 J-2.6307
G2 X478.3113 Y121.9676 I-4.1516 J-9.9309
G2 X479.04 Y121.5467 I-3.7994 J-7.4195
G2 X479.0853 Y121.5167 I-0.3392 J-0.5613
G2 X479.5502 Y121.1706 I-2.8367 J-4.2963
G2 X480.0944 Y120.6208 I-2.4839 J-3.0026
G2 X480.3428 Y120.253 I-1.9626 J-1.5935
G1 X480.3966 Y120.1516
G2 X480.6144 Y118.9334 I-1.8909 J-0.9666
G2 X479.9932 Y118.1839 I-3.1977 J2.0182
G2 X479.2329 Y117.576 I-4.1826 J4.4512
G2 X478.6839 Y117.2304 I-4.5368 J6.5975
G2 X476.3293 Y116.1897 I-6.2793 J11.0239
G3 X475.2877 Y112.2351 I38.943 J-12.3722
G3 X474.6089 Y108.2025 I49.2865 J-10.3696
G3 X474.3151 Y105.492 I66.241 J-8.5505
G3 X474.1882 Y103.9395 I106.1602 J-9.4612
G3 X474.0676 Y102.1637 I120.9935 J-9.105
G1 X474.0394 Y101.7053
G1 X474.0111 Y101.232
G1 X473.8856 Y99.0689
G2 X473.7289 Y96.5984 I-210.844 J12.1396
G2 X473.7178 Y96.4429 I-4.3031 J0.2283
G2 X473.7064 Y96.2861 I-4.1371 J0.221
G1 X473.6573 Y95.6391
G2 X473.3726 Y92.6873 I-79.6606 J6.1932
G1 X473.3277 Y92.3134
G2 X473.1089 Y90.7215 I-63.0778 J7.8576
G2 X473.0936 Y90.6218 I-1.4809 J0.1763
G2 X472.3868 Y87.0016 I-44.2541 J6.7608
G1 X472.332 Y86.7757
G2 X471.0875 Y82.7065 I-36.3777 J8.8999
G3 X471.3121 Y82.3865 I3.9965 J2.5663
G0 Z5.0
G0 X-414.7796 Y133.4833
G1 Z0.0
G3 X-414.764 Y133.78 I-31.1639 J1.7971
G3 X-414.7696 Y137.1383 I-32.8167 J1.624
G3 X-415.5763 Y142.9566 I-34.2678 J-1.7861
G1 X-415.6385 Y143.2254
G3 X-416.9051 Y147.3791 I-32.8797 J-7.7561
G3 X-418.2101 Y150.3657 I-30.0279 J-11.3422
G3 X-419.3899 Y152.5078 I-27.6229 J-13.8176
G3 X-421.4826 Y155.5192 I-24.2407 J-14.6128
G3 X-423.9558 Y158.2266 I-20.9542 J-16.6582
G1 X-424.65 Y158.6328
G3 X-424.8134 Y158.7272 I-3.321 J-5.5564
G1 X-425.136 Y158.912
G1 X-425.2144 Y158.9565
G1 X-425.2922 Y159.0005
G1 X-425.6019 Y159.174
G3 X-425.9032 Y159.3399 I-15.7093 J-28.1753
G1 X-426.0498 Y159.4195
G1 X-426.3394 Y159.5743
G3 X-426.6213 Y159.7219 I-9.3933 J-17.6067
G1 X-426.7585 Y159.7924
G1 X-427.0296 Y159.9294
G3 X-428.0946 Y160.4318 I-12.1681 J-24.4151
G3 X-430.0232 Y161.1664 I-7.5414 J-16.8999
G3 X-431.5281 Y161.5468 I-3.9638 J-12.5143
G3 X-432.1037 Y161.6402 I-2.4435 J-13.2335
G3 X-434.1408 Y161.7046 I-1.3204 J-9.5213
G3 X-436.1384 Y161.3002 I0.6455 J-8.3247
G1 X-436.5046 Y161.1634
G1 X-436.8583 Y161.0276
G3 X-437.1999 Y160.8929 I16.6499 J-42.7208
G3 X-437.365 Y160.8265 I1.8697 J-4.882
G3 X-437.5272 Y160.7602 I1.4572 J-3.8012
G3 X-437.6865 Y160.6943 I1.2404 J-3.2216
G3 X-438.3108 Y160.4264 I9.441 J-22.867
G3 X-438.8909 Y160.1627 I16.9679 J-38.0868
G1 X-439.1608 Y160.0345
G1 X-439.4211 Y159.9073
G3 X-441.3796 Y158.8114 I9.3942 J-19.0872
G3 X-442.7566 Y157.8378 I8.8754 J-14.0137
G3 X-443.7136 Y157.0089 I8.1186 J-10.34
G3 X-444.3762 Y156.3283 I8.633 J-9.0674
G3 X-445.9952 Y153.991 I8.1561 J-7.3788
G3 X-448.2161 Y149.8489 I30.1824 J-18.8496
G3 X-450.7525 Y142.0315 I33.4638 J-15.1776
G3 X-451.4818 Y135.8949 I35.9989 J-7.3904
G3 X-451.3356 Y131.2538 I35.0241 J-1.2191
G3 X-451.1196 Y129.5233 I33.0705 J3.2485
G3 X-450.5192 Y126.531 I31.0592 J4.6762
G1 X-450.4479 Y126.2537
G3 X-449.8047 Y124.1302 I27.0674 J7.039
G3 X-448.5256 Y121.0585 I25.017 J8.6153
G1 X-448.4326 Y120.8723
G3 X-446.8437 Y118.1875 I20.1432 J10.1078
G3 X-444.3248 Y114.8361 I13.5135 J7.5348
G3 X-441.9088 Y112.8225 I11.5706 J11.4263
G3 X-437.6943 Y110.7228 I9.7951 J14.3808
G3 X-433.0721 Y109.8244 I5.608 J16.515
G3 X-430.2137 Y110.4369 I-2.0286 J16.4444
G3 X-427.8373 Y111.3693 I-5.175 J16.6834
G3 X-425.8858 Y112.4511 I-8.2147 J17.1204
G3 X-422.8079 Y114.8434 I-11.1206 J17.4837
G1 X-422.5431 Y115.0958
G3 X-419.0028 Y119.5065 I-16.0498 J16.5088
G3 X-417.6622 Y122.0028 I-19.8726 J12.2809
G3 X-417.1113 Y123.3088 I-20.1625 J9.2728
G3 X-417.0797 Y123.3916 I-1.138 J0.4822
G3 X-417.0503 Y123.4694 I-1.0985 J0.4591
G3 X-416.6467 Y124.6481 I-18.349 J6.9426
G3 X-416.2592 Y125.7133 I-21.6489 J8.4778
G3 X-415.1836 Y129.966 I-26.875 J9.0597
G3 X-414.7796 Y133.4833 I-30.76 J5.3144
G0 Z5.0
G0 X-466.9659 Y50.2917
G1 Z0.0
G2 X-467.6706 Y50.2225 I-0.5288 J1.7608
G2 X-467.9317 Y50.2621 I0.1629 J1.9533
G2 X-468.3761 Y50.3864 I0.7387 J3.4961
G1 X-468.7034 Y50.4998
G3 X-469.2009 Y50.6517 I-1.7927 J-4.9834
G3 X-469.717 Y50.7169 I-0.5295 J-2.1136
G2 X-470.8107 Y49.114 I-32.9834 J21.3318
G1 X-471.3081 Y48.4238
G1 X-472.2478 Y47.1328
G1 X-472.6562 Y46.5643
G1 X-472.8461 Y46.2964
G3 X-473.2097 Y45.7739 I23.1607 J-16.5081
G1 X-473.3779 Y45.5272
G3 X-474.0106 Y44.5582 I23.994 J-16.3578
G3 X-474.0777 Y44.4506 I1.8947 J-1.2574
G3 X-475.0582 Y42.7124 I18.922 J-11.8186
G3 X-475.3798 Y42.0351 I16.8926 J-8.4367
G3 X-475.4131 Y41.9602 I1.6317 J-0.77
G3 X-475.8824 Y40.7566 I13.2668 J-5.8657
G1 X-475.9577 Y40.5261
G3 X-476.373 Y38.7579 I11.2573 J-3.577
G3 X-476.4928 Y36.9453 I10.5736 J-1.6091
G2 X-476.3992 Y36.8927 I-0.7533 J-1.4501
G1 X-476.033 Y36.681
G1 X-475.6907 Y36.4785
G1 X-475.3688 Y36.2881
G3 X-474.7587 Y35.9395 I10.7366 J18.0784
G3 X-474.623 Y35.8657 I2.8977 J5.1732
G3 X-473.5379 Y35.3595 I4.5319 J8.2972
G3 X-473.485 Y35.3395 I0.2378 J0.5492
G3 X-473.2751 Y35.2652 I1.2005 J3.0613
G1 X-473.0758 Y35.2027
G3 X-472.3096 Y35.0418 I1.3924 J4.7252
G3 X-471.1376 Y35.077 I0.474 J3.7457
G3 X-470.0322 Y35.4681 I-0.7462 J3.8665
G1 X-470.0647 Y35.5403
G1 X-470.0963 Y35.6123
G2 X-470.5105 Y36.7872 I7.7068 J3.3772
G2 X-470.798 Y38.9368 I8.0796 J2.1748
G1 X-470.7972 Y39.1397
G2 X-470.7559 Y39.9243 I12.1575 J-0.2455
G2 X-470.721 Y40.2661 I15.753 J-1.4368
G2 X-470.521 Y41.5382 I18.6684 J-2.2843
G2 X-470.3242 Y42.4835 I28.4068 J-5.4178
G1 X-470.0064 Y43.8966
G3 X-469.8546 Y44.6047 I-75.6394 J16.5833
G1 X-469.8186 Y44.7821
G3 X-469.7923 Y44.9154 I-2.2789 J0.52
G1 X-469.7539 Y45.1154
G1 X-469.717 Y45.3157
G2 X-469.3921 Y45.9837 I2.0561 J-0.5869
G2 X-468.965 Y46.4735 I2.8488 J-2.0535
G1 X-468.9132 Y46.5231
G2 X-468.4877 Y46.8958 I6.0496 J-6.4764
G2 X-468.2946 Y47.0547 I8.1105 J-9.6639
G1 X-468.1125 Y47.2041
G1 X-467.9425 Y47.3464
G1 X-467.8634 Y47.4145
G1 X-467.7874 Y47.4813
G3 X-467.5031 Y47.7522 I-3.8656 J4.3429
G3 X-467.2744 Y48.0106 I-2.3035 J2.2689
G3 X-466.9566 Y48.5244 I-1.8633 J1.5077
G3 X-466.7881 Y49.409 I-1.8061 J0.8024
G3 X-466.8437 Y49.857 I-2.7151 J-0.1098
G1 X-466.8689 Y49.9671
G3 X-466.9659 Y50.2917 I-4.0951 J-1.0479
G0 Z5.0
M5
M30
