( Made using CamBam - http://www.cambam.co.uk )
( car1 1/21/2014 10:05:32 PM )
( T0 : 0.0 )
G21 G90 G64 G40
G0 Z5.0
( T0 : 0.0 )
T0 M6
( 81-110 )
G17
M3 S1000
G0 X-373.226 Y1.4644
G1 F1.0 Z0.0
G3 X-353.9123 Y-0.9023 I83.9846 J605.3918
G1 X-353.2881 Y-0.9687
G1 X-352.6437 Y-1.0367
G1 X-351.9784 Y-1.1063
G1 X-351.2916 Y-1.1774
G1 X-350.5826 Y-1.2501
G1 X-349.8506 Y-1.3244
G1 X-349.0949 Y-1.4003
G1 X-348.3148 Y-1.4778
G1 X-347.5094 Y-1.5569
G1 X-346.678 Y-1.6376
G1 X-345.8196 Y-1.7199
G1 X-344.9335 Y-1.8038
G1 X-344.0187 Y-1.8893
G3 X-334.2548 Y-2.7355 I77.1564 J833.5488
G1 X-332.9943 Y-2.8364
G3 X-319.5407 Y-3.8083 I77.8385 J983.837
G1 X-317.804 Y-3.9212
G1 X-316.0109 Y-4.0351
G1 X-314.16 Y-4.1499
G1 X-312.2491 Y-4.2657
G1 X-310.2764 Y-4.3824
G3 X-306.0675 Y-4.6223 I237.853 J4134.8872
G3 X-305.8034 Y-4.637 I0.7281 J10.7193
G3 X-305.5382 Y-4.6517 I0.7248 J10.6832
G3 X-305.272 Y-4.6664 I0.7217 J10.648
G1 X-303.0737 Y-4.7862
G3 X-293.023 Y-5.3022 I126.811 J2371.9002
G3 X-292.8656 Y-5.3099 I0.4098 J6.7387
G3 X-292.708 Y-5.3177 I0.4092 J6.732
G3 X-292.5499 Y-5.3254 I0.4086 J6.7253
G3 X-292.3916 Y-5.3331 I0.4081 J6.7187
G3 X-292.233 Y-5.3409 I0.4075 J6.7122
G3 X-292.0741 Y-5.3487 I0.407 J6.7057
G3 X-291.9148 Y-5.3564 I0.4064 J6.6991
G3 X-291.7553 Y-5.3642 I0.4059 J6.6927
G3 X-291.5954 Y-5.372 I0.4053 J6.6863
G1 X-288.9552 Y-5.4991
G3 X-288.7898 Y-5.507 I0.397 J6.5821
G3 X-288.6242 Y-5.5149 I0.3966 J6.5764
G3 X-288.4581 Y-5.5228 I0.3961 J6.5707
G3 X-288.2918 Y-5.5308 I0.3957 J6.5651
G3 X-288.1251 Y-5.5387 I0.3953 J6.5596
G3 X-287.9582 Y-5.5466 I0.3949 J6.554
G3 X-287.7908 Y-5.5545 I0.3945 J6.5485
G3 X-287.6232 Y-5.5625 I0.3941 J6.543
G3 X-287.4552 Y-5.5704 I0.3937 J6.5376
G3 X-287.2869 Y-5.5784 I0.3933 J6.5322
G3 X-287.1183 Y-5.5864 I0.3929 J6.5267
G3 X-286.9493 Y-5.5943 I0.3925 J6.5214
G1 X-281.1829 Y-5.8626
G1 X-278.2067 Y-5.9988
G1 X-264.6012 Y-6.6167
G1 X-261.0902 Y-6.7784
G1 X-259.3069 Y-6.8614
G1 X-255.6253 Y-7.0351
G1 X-254.6977 Y-7.0795
G1 X-253.7628 Y-7.1244
G1 X-252.8205 Y-7.17
G2 X-235.5952 Y-8.068 I-106.2094 J-2202.8532
G2 X-235.4605 Y-8.0757 I-0.167 J-4.149
G2 X-235.3257 Y-8.0833 I-0.1672 J-4.1486
G1 X-233.1347 Y-8.2089
G2 X-223.7886 Y-8.7801 I-96.6641 J-1658.3767
G2 X-223.6424 Y-8.7895 I-0.1926 J-4.1241
G2 X-223.496 Y-8.799 I-0.193 J-4.1239
G2 X-223.3496 Y-8.8084 I-0.1933 J-4.1236
G1 X-223.2712 Y-8.5258
G1 X-223.197 Y-8.2421
G3 X-223.0624 Y-7.6713 I-22.195 J5.5347
G3 X-222.8615 Y-6.5157 I-13.0479 J2.864
G3 X-222.7949 Y-5.7364 I-8.405 J1.1112
G3 X-222.7889 Y-5.5279 I-4.7729 J0.2422
G3 X-222.8673 Y-4.417 I-6.0072 J0.1341
G3 X-223.0208 Y-3.7971 I-4.4549 J-0.7742
G3 X-223.3244 Y-3.1291 I-3.1171 J-1.0139
G3 X-223.8581 Y-2.4706 I-2.5431 J-1.5159
G3 X-224.6715 Y-1.9202 I-2.2968 J-2.5179
G3 X-225.7392 Y-1.5503 I-2.1633 J-4.5189
G3 X-226.3311 Y-1.4389 I-1.5301 J-6.5002
G3 X-227.6841 Y-1.3314 I-1.5593 J-11.0583
G1 X-227.8561 Y-1.3284
G1 X-228.0306 Y-1.3272
G3 X-229.5915 Y-1.384 I0.0735 J-23.4911
G3 X-231.3182 Y-1.5368 I3.028 J-44.0606
G1 X-232.2207 Y-1.6353
G1 X-234.192 Y-1.8583
G2 X-235.2216 Y-1.9638 I-15.9723 J150.6816
G2 X-235.7481 Y-2.0113 I-3.748 J38.6301
G2 X-236.8498 Y-2.0898 I-4.1138 J50.0049
G1 X-237.1286 Y-2.104
G1 X-237.1985 Y-2.1071
G2 X-237.3392 Y-2.113 I-0.1719 J2.4515
G2 X-238.5184 Y-2.1295 I-0.8722 J20.149
G2 X-239.122 Y-2.1109 I0.3635 J21.5554
G1 X-239.4271 Y-2.0929
G2 X-240.7039 Y-1.9387 I0.7883 J11.8935
G2 X-242.0191 Y-1.5921 I1.3526 J7.8015
G2 X-242.6644 Y-1.3156 I2.2115 J6.052
G2 X-243.897 Y-0.4454 I2.1645 J4.374
G2 X-248.2277 Y-1.0027 I-5.3642 J24.5809
G2 X-249.6845 Y-1.0287 I-1.2684 J30.242
G2 X-250.517 Y-1.0117 I0.0837 J24.5937
G2 X-252.7315 Y-0.8668 I1.1507 J34.562
G2 X-252.8718 Y-0.8531 I0.4192 J5.0466
G2 X-253.0143 Y-0.8388 I0.403 J4.7218
G2 X-253.159 Y-0.8238 I0.3917 J4.4667
G2 X-256.2296 Y-0.3998 I5.7961 J53.3087
G2 X-257.0442 Y-0.2598 I8.1037 J49.6163
G1 X-257.4641 Y-0.1843
G1 X-257.897 Y-0.1042
G1 X-258.3435 Y-0.0197
G1 X-259.2946 Y0.1662
G1 X-259.785 Y0.2644
G1 X-260.2908 Y0.3669
G1 X-262.6004 Y0.8402
G1 X-263.8326 Y1.0879
G3 X-263.9879 Y1.1185 I-0.6778 J-3.0297
G3 X-264.1446 Y1.1492 I-0.6784 J-3.0466
G3 X-264.2232 Y1.1646 I-0.4631 J-2.1645
G3 X-264.3022 Y1.1799 I-0.463 J-2.17
G3 X-264.3814 Y1.1953 I-0.4629 J-2.1754
G3 X-264.461 Y1.2107 I-0.4626 J-2.1806
G3 X-264.5409 Y1.2261 I-0.4623 J-2.1855
G3 X-264.6212 Y1.2415 I-0.4618 J-2.1904
G3 X-264.7017 Y1.2569 I-0.4613 J-2.1949
G3 X-264.7826 Y1.2723 I-0.4607 J-2.1992
G1 X-265.4506 Y1.397
G3 X-268.5145 Y1.8949 I-13.2287 J-71.7352
G1 X-268.9052 Y1.9473
G3 X-272.4934 Y2.2731 I-5.6934 J-42.7873
G3 X-276.6151 Y2.2169 I-1.6153 J-32.7429
G3 X-281.2804 Y1.4644 I2.1881 J-28.4012
G3 X-283.3652 Y2.0714 I-4.1363 J-10.3218
G3 X-285.5277 Y2.2668 I-2.1237 J-11.4403
G3 X-286.9739 Y2.1904 I0.0408 J-14.5021
G3 X-287.7948 Y2.087 I1.4476 J-14.7986
G3 X-287.8987 Y2.0712 I0.1418 J-1.2841
G3 X-290.0899 Y1.6291 I4.3686 J-27.3053
G3 X-291.3268 Y1.3174 I17.5587 J-72.2716
G1 X-291.9839 Y1.1436
G1 X-292.183 Y1.212
G1 X-292.3825 Y1.2793
G1 X-292.7827 Y1.4105
G3 X-293.587 Y1.6598 I-11.5262 J-35.7604
G1 X-294.1261 Y1.8167
G3 X-294.8481 Y2.0146 I-7.4808 J-25.8788
G1 X-295.0413 Y2.0653
G1 X-295.2475 Y2.1183
G3 X-298.5785 Y2.8294 I-10.8975 J-42.8861
G3 X-300.8258 Y3.1572 I-6.9255 J-39.6157
G3 X-302.117 Y3.2878 I-4.2261 J-35.3388
G3 X-305.5759 Y3.4022 I-2.8028 J-32.3926
G3 X-306.4987 Y3.3652 I0.6646 J-28.0804
G3 X-308.5994 Y3.1456 I1.2442 J-22.0619
G3 X-309.137 Y3.0534 I2.3097 J-15.0805
G1 X-309.4037 Y3.1213
G1 X-309.6701 Y3.1898
G1 X-310.2026 Y3.3286
G1 X-310.5573 Y3.4222
G1 X-311.9747 Y3.8023
G3 X-314.8091 Y4.5636 I-128.3207 J-472.0797
G3 X-314.8993 Y4.5873 I-0.5781 J-2.0171
G3 X-314.9909 Y4.6113 I-0.5944 J-2.081
G3 X-315.0839 Y4.6357 I-0.6118 J-2.1499
G1 X-315.9353 Y4.855
G3 X-316.0436 Y4.8824 I-0.8896 J-3.2843
G3 X-316.1536 Y4.9102 I-0.9441 J-3.5111
G3 X-316.2653 Y4.9382 I-1.0098 J-3.785
G3 X-318.6579 Y5.5011 I-18.1006 J-71.5691
G1 X-319.2992 Y5.637
G3 X-320.771 Y5.9184 I-9.2965 J-44.6352
G3 X-321.5594 Y6.0493 I-9.9846 J-57.662
G1 X-321.76 Y6.0803
G1 X-321.964 Y6.1106
G3 X-323.8365 Y6.3354 I-5.0906 J-34.492
G3 X-325.99 Y6.4554 I-2.6363 J-27.9261
G3 X-328.4568 Y6.3714 I-0.4243 J-23.8066
G3 X-329.091 Y6.3056 I2.7622 J-29.7149
G3 X-331.958 Y5.7434 I2.1886 J-18.7517
G3 X-335.0893 Y4.5379 I4.6546 J-16.7601
G2 X-340.8035 Y4.7933 I1.2799 J92.694
G2 X-342.7037 Y4.9519 I8.8155 J117.0948
G1 X-343.21 Y4.9996
G1 X-343.7499 Y5.0527
G1 X-344.3254 Y5.112
G2 X-345.6398 Y5.257 I12.003 J114.889
G1 X-346.3403 Y5.3393
G1 X-347.087 Y5.4307
G1 X-347.4722 Y5.4793
G1 X-347.8698 Y5.5304
G2 X-352.1028 Y6.1259 I29.3247 J223.7912
G1 X-352.6482 Y6.2082
G1 X-353.211 Y6.2943
G1 X-353.7919 Y6.3841
G1 X-355.0304 Y6.5785
G1 X-356.351 Y6.7891
G1 X-356.6864 Y6.843
G1 X-357.027 Y6.8978
G1 X-357.3731 Y6.9536
G1 X-360.5363 Y7.4646
G1 X-362.2238 Y7.7334
G1 X-363.0951 Y7.87
G1 X-363.9949 Y8.0088
G3 X-365.9155 Y8.2958 I-38.7339 J-252.6283
G3 X-370.3149 Y8.8849 I-25.9491 J-177.0702
G3 X-375.363 Y9.3884 I-14.4085 J-118.8968
G1 X-375.6817 Y9.4123
G3 X-381.5236 Y9.6429 I-6.1575 J-81.8999
G1 X-382.2663 Y9.6406
G3 X-382.6406 Y9.6364 I0.2065 J-35.2656
G3 X-385.8338 Y9.514 I0.8364 J-63.532
G3 X-386.6494 Y9.3269 I0.2899 J-3.1357
G3 X-387.4095 Y8.977 I2.0581 J-5.4719
G1 X-387.8977 Y8.7082
G2 X-388.1871 Y8.5756 I-0.9982 J1.7964
G3 X-388.5595 Y8.3732 I0.3212 J-1.0349
G3 X-388.8268 Y8.0443 I0.7251 J-0.8623
G3 X-388.9418 Y7.786 I1.4234 J-0.7882
G3 X-389.038 Y7.4243 I2.6882 J-0.9089
G3 X-389.1038 Y6.9357 I4.7601 J-0.8895
G3 X-389.1353 Y6.2895 I10.1728 J-0.8199
G1 X-389.1403 Y5.9225
G1 X-389.1426 Y5.5062
G1 X-389.1472 Y5.0337
G2 X-389.2153 Y3.792 I-13.7002 J0.1289
G1 X-387.9047 Y3.5941
G1 X-386.5939 Y3.3977
G1 X-383.9717 Y3.0086
G1 X-382.2231 Y2.7519
G3 X-375.2261 Y1.7455 I187.0922 J1275.9265
G1 X-373.226 Y1.4644
G0 Z5.0
G0 X-376.021 Y-11.4181
G1 Z0.0
G2 X-377.5315 Y-11.0886 I143.3796 J660.8614
G2 X-393.7734 Y-7.3294 I150.2361 J686.0682
G3 X-394.114 Y-7.2422 I-0.3462 J-0.6433
G3 X-394.454 Y-7.331 I0.0142 J-0.7499
G3 X-394.6526 Y-7.4552 I0.7216 J-1.374
G3 X-394.7576 Y-7.5372 I1.0293 J-1.4261
G3 X-395.0186 Y-7.7688 I2.8416 J-3.4659
G2 X-395.3606 Y-8.0698 I-4.511 J4.7806
G3 X-376.3187 Y-12.3064 I228.54 J982.2874
G3 X-357.1976 Y-16.1698 I200.1959 J941.5852
G3 X-318.7381 Y-22.7195 I175.9351 J916.8917
G1 X-317.5129 Y-22.9008
G3 X-316.8282 Y-23.0504 I3.4017 J13.9202
G1 X-316.5989 Y-23.0955
G1 X-316.2929 Y-23.1531
G3 X-316.2734 Y-23.1567 I0.0291 J0.1032
G3 X-316.2535 Y-23.1604 I0.0294 J0.1046
G3 X-315.8317 Y-23.2358 I4.1804 J22.1601
G1 X-315.2683 Y-23.3317
G3 X-315.2325 Y-23.3376 I0.0477 J0.1766
G3 X-314.4683 Y-23.4607 I10.6828 J63.8817
G3 X-314.4442 Y-23.4645 I0.0386 J0.167
G3 X-314.4199 Y-23.4683 I0.0388 J0.1683
G3 X-314.3953 Y-23.4721 I0.0391 J0.1696
G3 X-314.3706 Y-23.476 I0.0394 J0.1709
G3 X-313.3177 Y-23.6359 I22.3513 J143.6372
G3 X-313.2845 Y-23.6408 I0.051 J0.2302
G3 X-313.2509 Y-23.6458 I0.0514 J0.2321
G3 X-313.2171 Y-23.6508 I0.0518 J0.234
G3 X-313.1831 Y-23.6558 I0.0521 J0.2359
G3 X-313.1488 Y-23.6608 I0.0525 J0.2379
G3 X-313.1142 Y-23.6659 I0.0529 J0.2399
G3 X-313.0793 Y-23.671 I0.0533 J0.2418
G3 X-313.0442 Y-23.6761 I0.0536 J0.2438
G3 X-313.0087 Y-23.6813 I0.054 J0.2458
G3 X-312.973 Y-23.6865 I0.0544 J0.2479
G3 X-312.937 Y-23.6918 I0.0548 J0.2499
G3 X-312.9008 Y-23.6971 I0.0552 J0.252
G3 X-312.8642 Y-23.7024 I0.0556 J0.2541
G1 X-312.1971 Y-23.798
G1 X-311.4342 Y-23.9046
G1 X-311.3373 Y-23.9179
G1 X-311.2387 Y-23.9314
G1 X-310.3385 Y-24.0533
G1 X-309.3092 Y-24.1889
G1 X-308.1324 Y-24.3399
G3 X-307.8286 Y-24.3783 I2.6534 J19.8085
G1 X-307.1804 Y-24.4592
G1 X-305.6984 Y-24.6402
G1 X-304.004 Y-24.8409
G1 X-302.0667 Y-25.0628
G1 X-301.0331 Y-25.1779
G3 X-300.9029 Y-25.1922 I0.4128 J3.1483
G1 X-299.7915 Y-25.3132
G1 X-299.5092 Y-25.3436
G1 X-299.2223 Y-25.3742
G1 X-298.6301 Y-25.4369
G1 X-297.3666 Y-25.5682
G1 X-296.0184 Y-25.7044
G1 X-295.6759 Y-25.7383
G1 X-294.2145 Y-25.8796
G3 X-290.8718 Y-26.1797 I28.1072 J294.3554
G1 X-290.0086 Y-26.2507
G3 X-288.1662 Y-26.3904 I11.1108 J134.3169
G3 X-279.3745 Y-27.2502 I126.7451 J1250.6201
G1 X-276.4425 Y-27.5219
G1 X-275.6605 Y-27.5931
G1 X-274.8263 Y-27.6684
G3 X-261.4722 Y-28.7902 I98.1196 J1088.0529
G3 X-252.5626 Y-29.4492 I94.7839 J1220.8039
G1 X-250.1858 Y-29.6128
G3 X-212.1167 Y-31.5215 I73.2865 J1081.1095
G3 X-186.71 Y-32.0423 I34.539 J1064.9934
G3 X-186.3113 Y-32.0457 I0.3673 J19.9144
G3 X-152.2972 Y-31.7916 I8.932 J1081.3128
G1 X-150.1381 Y-31.7398
G1 X-147.9448 Y-31.6829
G3 X-127.898 Y-30.9644 I-30.9613 J1143.9108
G3 X-127.7413 Y-30.9574 I-0.1965 J6.1505
G3 X-127.5844 Y-30.9504 I-0.1971 J6.1478
G1 X-126.5936 Y-30.8492
G1 X-125.6022 Y-30.7534
G1 X-124.941 Y-30.6924
G1 X-124.0591 Y-30.6142
G1 X-122.8827 Y-30.5154
G1 X-122.5689 Y-30.49
G2 X-117.5454 Y-30.1284 I26.0592 J-326.9558
G2 X-117.4662 Y-30.1233 I0.1504 J-1.6999
G2 X-117.3863 Y-30.1181 I0.1511 J-1.7114
G2 X-117.3059 Y-30.1129 I0.1519 J-1.7229
G2 X-117.2248 Y-30.1077 I0.1527 J-1.7346
G2 X-117.1431 Y-30.1024 I0.1535 J-1.7464
G2 X-117.0607 Y-30.0971 I0.1543 J-1.7584
G2 X-116.9777 Y-30.0918 I0.1551 J-1.7706
G1 X-115.4604 Y-29.9968
G1 X-113.7262 Y-29.8925
G1 X-111.7439 Y-29.7768
G2 X-111.619 Y-29.7696 I0.2202 J-2.7283
G2 X-111.4931 Y-29.7623 I0.2222 J-2.7571
G2 X-111.3662 Y-29.755 I0.2243 J-2.7865
G2 X-111.2383 Y-29.7476 I0.2264 J-2.8167
G2 X-111.1094 Y-29.7402 I0.2286 J-2.8475
G2 X-110.9795 Y-29.7327 I0.2309 J-2.8791
G2 X-110.8486 Y-29.7252 I0.2332 J-2.9115
G2 X-110.7167 Y-29.7176 I0.2355 J-2.9448
G2 X-110.5837 Y-29.71 I0.238 J-2.9788
G2 X-110.4496 Y-29.7023 I0.2405 J-3.0138
G1 X-107.9992 Y-29.5609
G1 X-105.1991 Y-29.3944
G1 X-103.706 Y-29.3015
G1 X-102.1136 Y-29.198
G3 X-98.4754 Y-28.9384 I-20.2982 J309.9915
G3 X-94.3215 Y-28.588 I-18.9451 J249.4182
G1 X-93.2506 Y-28.4859
G1 X-92.9808 Y-28.4593
G1 X-92.7089 Y-28.4322
G1 X-92.435 Y-28.4045
G3 X-91.8785 Y-28.3469 I-5.9929 J60.6978
G1 X-90.7301 Y-28.223
G3 X-88.283 Y-27.9331 I-23.28 J207.0238
G1 X-87.975 Y-27.894
G3 X-82.3591 Y-27.0572 I-16.5163 J130.1124
G1 X-81.6488 Y-26.9327
G3 X-78.6276 Y-26.3479 I-19.2372 J107.4754
G1 X-78.4386 Y-26.3081
G3 X-75.2262 Y-25.5682 I-18.077 J85.8322
G1 X-75.0256 Y-25.5178
G3 X-71.6216 Y-24.5748 I-19.2314 J76.0391
G1 X-71.4096 Y-24.5103
G1 X-71.1969 Y-24.4448
G3 X-67.5995 Y-23.2179 I-19.1038 J61.8985
G3 X-67.1516 Y-23.0479 I-8.4159 J22.8528
G3 X-66.7016 Y-22.8729 I-7.8851 J20.9478
G3 X-66.2494 Y-22.6928 I-7.2958 J18.9708
G3 X-62.4544 Y-20.991 I-20.0003 J49.6837
G3 X-63.9406 Y-20.5142 I-2.5952 J-5.535
G3 X-65.499 Y-20.425 I-1.1411 J-6.279
G3 X-66.5318 Y-20.5589 I0.5005 J-7.914
G3 X-67.8709 Y-20.9117 I2.1843 J-11.0075
G1 X-68.0404 Y-20.9681
G1 X-68.2147 Y-21.0283
G1 X-68.3938 Y-21.0924
G1 X-68.5778 Y-21.1606
G1 X-68.767 Y-21.2328
G1 X-68.9615 Y-21.3092
G3 X-69.8405 Y-21.6757 I11.0028 J-27.6283
G3 X-69.8955 Y-21.6995 I0.3475 J-0.8779
G1 X-70.3635 Y-21.9048
G1 X-70.8608 Y-22.1258
G2 X-71.9954 Y-22.623 I-27.6681 J61.5945
G2 X-73.3068 Y-23.1419 I-9.3066 J21.6042
G2 X-74.8484 Y-23.5973 I-4.3757 J11.9774
G1 X-74.9474 Y-23.6188
G1 X-75.0475 Y-23.6394
G2 X-84.8698 Y-25.2749 I-49.872 J269.1937
G2 X-85.0262 Y-25.2981 I-0.5939 J3.4652
G1 X-86.4562 Y-25.5064
G2 X-97.9272 Y-26.9423 I-47.1421 J330.0816
G1 X-99.4601 Y-27.1049
G1 X-101.0959 Y-27.2715
G1 X-102.8415 Y-27.4415
G2 X-112.1621 Y-28.2223 I-39.8247 J419.3798
G2 X-124.6098 Y-28.9708 I-35.8448 J492.2367
G2 X-124.8053 Y-28.9801 I-0.508 J8.5504
G2 X-125.0014 Y-28.9895 I-0.5102 J8.6507
G2 X-125.1984 Y-28.9988 I-0.5125 J8.7543
G2 X-125.3961 Y-29.0081 I-0.5148 J8.8614
G2 X-125.5946 Y-29.0173 I-0.5172 J8.9721
G2 X-132.8552 Y-29.3094 I-27.8165 J601.0329
G2 X-133.3127 Y-29.325 I-1.3075 J31.7442
G2 X-133.7738 Y-29.3403 I-1.4728 J37.3345
G2 X-134.2386 Y-29.3554 I-1.7771 J47.44
G2 X-135.1828 Y-29.3852 I-7.6751 J228.7235
G1 X-137.1322 Y-29.4424
G2 X-146.0451 Y-29.6372 I-20.7966 J747.5088
G1 X-148.3454 Y-29.6711
G2 X-150.72 Y-29.6998 I-6.7676 J461.7432
G1 X-153.1711 Y-29.723
G1 X-155.7015 Y-29.7405
G1 X-156.9867 Y-29.7469
G1 X-159.64 Y-29.7555
G1 X-162.3789 Y-29.7579
G1 X-162.7227 Y-29.7577
G1 X-163.0678 Y-29.7575
G1 X-164.4698 Y-29.7556
G1 X-165.8942 Y-29.7522
G1 X-168.8346 Y-29.7407
G1 X-169.2037 Y-29.7388
G1 X-169.5741 Y-29.7368
G1 X-171.0794 Y-29.7281
G1 X-174.1869 Y-29.7058
G1 X-174.9699 Y-29.6994
G1 X-178.2027 Y-29.67
G1 X-179.0173 Y-29.6618
G1 X-179.8383 Y-29.6534
G1 X-183.2279 Y-29.6162
G1 X-183.6534 Y-29.6113
G1 X-187.1658 Y-29.5692
G2 X-187.6067 Y-29.5638 I0.0853 J24.7688
G1 X-191.2466 Y-29.518
G1 X-199.0111 Y-29.4208
G1 X-199.2542 Y-29.4179
G1 X-203.2694 Y-29.3721
G1 X-204.2812 Y-29.3614
G3 X-207.1984 Y-29.1059 I-23.2368 J-248.6052
G3 X-207.2926 Y-29.0984 I-0.2715 J-2.7904
G3 X-207.3898 Y-29.0906 I-0.2758 J-2.8401
G3 X-210.5019 Y-28.8634 I-22.5515 J-287.4069
G3 X-210.6008 Y-28.8568 I-0.2537 J-3.0641
G3 X-210.7012 Y-28.8501 I-0.2554 J-3.0957
G3 X-210.8033 Y-28.8434 I-0.2571 J-3.1275
G3 X-217.3359 Y-28.4832 I-21.5796 J-331.9163
G1 X-218.2074 Y-28.4437
G1 X-219.137 Y-28.4033
G1 X-221.2621 Y-28.3168
G1 X-223.691 Y-28.2257
G1 X-224.9865 Y-28.1795
G1 X-231.896 Y-27.9406
G1 X-233.7384 Y-27.8735
G1 X-234.6892 Y-27.8375
G1 X-235.1722 Y-27.8187
G1 X-235.6628 Y-27.7993
G1 X-237.756 Y-27.712
G1 X-238.2875 Y-27.6886
G1 X-238.8275 Y-27.6641
G2 X-243.7623 Y-27.4067 I16.6221 J366.0183
G1 X-244.073 Y-27.3881
G1 X-244.3862 Y-27.369
G1 X-244.7018 Y-27.3494
G2 X-250.4683 Y-26.923 I15.8315 J253.2896
G1 X-251.1997 Y-26.8583
G1 X-251.9425 Y-26.7898
G1 X-252.6969 Y-26.7173
G1 X-253.4629 Y-26.6406
G1 X-254.2407 Y-26.5592
G1 X-255.0305 Y-26.473
G1 X-255.8324 Y-26.3816
G2 X-259.2488 Y-25.9452 I17.0792 J147.2912
G2 X-261.008 Y-25.6881 I17.8122 J128.0458
G1 X-261.4508 Y-25.6197
G1 X-261.8968 Y-25.5492
G2 X-284.9069 Y-24.5031 I12.9464 J538.4084
G2 X-285.2717 Y-24.4788 I1.1708 J20.2492
G2 X-285.6424 Y-24.4537 I1.1964 J20.4725
G2 X-286.0189 Y-24.428 I1.2227 J20.7001
G2 X-289.4601 Y-24.1816 I43.3089 J628.8607
G2 X-298.6286 Y-23.4225 I41.1129 J552.3318
G2 X-310.8324 Y-22.1852 I53.7921 J591.3591
G2 X-311.2163 Y-22.1421 I3.1164 J29.5149
G2 X-327.5701 Y-20.0776 I67.3873 J599.5923
G2 X-328.0843 Y-20.0054 I10.378 J75.8547
G2 X-329.1287 Y-19.8576 I16.3698 J119.4087
G2 X-330.1895 Y-19.7056 I20.4198 J146.2936
G2 X-331.2668 Y-19.5494 I29.3713 J206.3061
G1 X-333.4901 Y-19.2209
G1 X-334.619 Y-19.0511
G2 X-344.9252 Y-17.4049 I99.4221 J655.5503
G1 X-346.2319 Y-17.184
G1 X-347.559 Y-16.9569
G1 X-348.9065 Y-16.7233
G2 X-376.021 Y-11.4181 I116.2652 J666.1666
G0 Z5.0
G0 X-391.4467 Y-1.3903
G1 Z0.0
G3 X-391.2669 Y-1.1003 I-6.6442 J4.3193
G3 X-390.3773 Y1.4644 I-5.6965 J3.4127
G2 X-390.481 Y1.835 I13.3009 J3.9197
G1 X-390.5791 Y2.2072
G2 X-390.5918 Y2.2569 I0.4882 J0.1511
G2 X-390.7829 Y3.0555 I21.7232 J5.6202
G2 X-391.1048 Y4.6655 I36.6986 J8.1742
G2 X-391.1139 Y4.7169 I0.5555 J0.1245
G1 X-391.1937 Y5.1867
G2 X-391.3825 Y6.4435 I44.8963 J7.387
G1 X-391.4275 Y6.7793
G1 X-391.4733 Y7.1379
G2 X-391.6837 Y9.0538 I67.2275 J8.3517
G1 X-391.7072 Y9.3015
G1 X-391.7308 Y9.5571
G1 X-391.7543 Y9.8211
G1 X-391.7779 Y10.0937
G2 X-391.99 Y13.0028 I138.794 J11.5848
G2 X-391.9958 Y13.0945 I1.3295 J0.1301
G2 X-392.0016 Y13.187 I1.3484 J0.131
G1 X-392.0496 Y13.9755
G1 X-392.0985 Y14.8168
G1 X-392.2059 Y16.7395
G1 X-392.2635 Y17.7648
G1 X-392.294 Y18.294
G3 X-392.4465 Y20.7115 I-174.2776 J-9.7783
G1 X-392.491 Y21.335
G3 X-392.7367 Y24.1816 I-106.9757 J-7.8
G1 X-392.8145 Y24.9148
G1 X-392.8352 Y25.0995
G3 X-393.033 Y26.6726 I-60.4689 J-6.8034
G2 X-392.3019 Y29.2482 I37.525 J-9.2602
G1 X-392.183 Y29.6118
G1 X-392.0429 Y30.026
G2 X-390.7768 Y33.2853 I44.1624 J-15.2799
G2 X-390.687 Y33.4923 I5.879 J-2.4267
G2 X-390.5934 Y33.7055 I5.8046 J-2.4204
G2 X-389.5406 Y35.9552 I57.0511 J-25.3281
G2 X-388.0071 Y38.8893 I68.6523 J-34.013
G2 X-387.0796 Y40.5379 I75.5184 J-41.4018
G2 X-386.9597 Y40.7461 I12.279 J-6.9359
G2 X-386.8374 Y40.9573 I16.0599 J-9.1566
G1 X-386.5837 Y41.3924
G2 X-385.4048 Y43.3698 I112.7875 J-65.9052
G1 X-385.0964 Y43.8775
G1 X-384.4349 Y44.9581
G1 X-384.0919 Y45.5149
G1 X-382.5205 Y48.0562
G1 X-381.6866 Y49.4138
G1 X-381.5821 Y49.5851
G1 X-381.1521 Y50.2935
G3 X-380.7116 Y51.0266 I-68.8563 J41.8751
G3 X-378.7621 Y54.4141 I-92.2487 J55.3418
G1 X-378.5246 Y54.8499
G1 X-378.677 Y55.0024
G1 X-378.8309 Y55.1534
G1 X-379.1386 Y55.4556
G2 X-379.3398 Y55.661 I16.7755 J16.6396
G1 X-379.3925 Y55.7168
G2 X-379.5105 Y55.8464 I3.3733 J3.1906
G2 X-379.8031 Y56.2111 I2.942 J2.6602
G2 X-380.1118 Y56.7542 I2.2732 J1.6515
G1 X-380.1463 Y56.9035
G1 X-380.1847 Y57.0519
G3 X-380.2693 Y57.3465 I-6.3086 J-1.6527
G1 X-380.33 Y57.5417
G3 X-380.4148 Y57.8007 I-12.0184 J-3.7916
G3 X-380.4381 Y57.8696 I-1.0403 J-0.3129
G3 X-380.8365 Y58.9613 I-26.3029 J-8.9802
G1 X-380.9575 Y59.2705
G3 X-381.0232 Y59.435 I-3.9666 J-1.4881
G1 X-381.094 Y59.6101
G3 X-382.3347 Y62.3635 I-36.6575 J-14.8617
G1 X-382.4227 Y62.5374
G1 X-382.6147 Y62.9062
G3 X-383.0827 Y63.7333 I-15.1693 J-8.0381
G1 X-383.2129 Y63.9414
G3 X-383.5124 Y64.3712 I-5.0986 J-3.2339
G3 X-383.686 Y64.5792 I-2.0692 J-1.5504
G3 X-383.8937 Y64.7689 I-0.9778 J-0.8622
G3 X-384.0217 Y64.8371 I-0.2925 J-0.3945
G3 X-384.1816 Y64.829 I-0.071 J-0.1801
G3 X-384.2508 Y64.7652 I0.1096 J-0.1884
G3 X-384.3018 Y64.6697 I0.3095 J-0.2267
G3 X-384.3642 Y64.403 I1.0966 J-0.3971
G3 X-384.3854 Y64.0904 I2.5517 J-0.3301
G3 X-384.3485 Y63.2742 I7.5578 J-0.0675
G3 X-384.2658 Y62.5532 I16.7921 J1.5619
G1 X-384.2188 Y62.2217
G3 X-384.1939 Y62.0577 I6.8428 J0.9532
G3 X-384.0395 Y61.14 I54.2846 J8.6631
G3 X-384.2959 Y60.772 I0.9102 J-0.9074
G3 X-384.4284 Y60.3434 I1.7667 J-0.7809
G1 X-384.4535 Y60.2176
G2 X-384.5337 Y59.8868 I-2.6308 J0.4625
G2 X-384.6145 Y59.7094 I-0.7976 J0.2564
G2 X-384.7605 Y59.5377 I-0.5624 J0.3304
G2 X-384.9852 Y59.4025 I-0.5589 J0.6746
G3 X-387.2257 Y59.603 I-2.3879 J-14.0653
G3 X-389.4715 Y59.4745 I-0.1688 J-16.7314
G3 X-390.1085 Y59.3861 I1.829 J-15.5273
G3 X-390.2725 Y59.36 I0.6726 J-4.7579
G3 X-392.006 Y59.0093 I4.058 J-24.5141
G3 X-394.2765 Y58.3829 I8.7197 J-36.0354
G3 X-394.4194 Y58.3387 I1.4353 J-4.8996
G3 X-394.5645 Y58.2935 I1.7085 J-5.7311
G3 X-394.7117 Y58.2471 I2.2096 J-7.2721
G3 X-395.0151 Y58.1503 I13.5317 J-42.9137
G1 X-395.6608 Y57.9392
G1 X-396.3475 Y57.7092
G1 X-396.7014 Y57.5893
G1 X-397.4556 Y57.3323
G2 X-399.1802 Y56.7542 I-59.2252 J173.8016
G2 X-399.9572 Y53.48 I-106.9017 J23.639
G1 X-400.235 Y52.3932
G1 X-400.3966 Y51.773
G2 X-400.8345 Y50.1207 I-318.9781 J83.6525
G2 X-400.8625 Y50.0159 I-3.0313 J0.7543
G2 X-400.891 Y49.9093 I-3.0991 J0.7721
G1 X-401.4999 Y47.6376
G1 X-401.8446 Y46.3387
G1 X-402.026 Y45.6453
G1 X-402.217 Y44.905
G1 X-402.4171 Y44.1145
G3 X-403.3925 Y39.8758 I97.971 J-24.7745
G1 X-403.4475 Y39.6051
G1 X-403.5024 Y39.3299
G3 X-403.9509 Y36.8038 I64.5037 J-12.755
G1 X-404.0491 Y36.1489
G1 X-404.0958 Y35.8159
G1 X-404.1412 Y35.4772
G3 X-404.442 Y32.3658 I45.9639 J-6.0145
G1 X-404.4641 Y31.9693
G3 X-404.0925 Y31.5019 I3.5367 J2.4304
G3 X-403.6502 Y31.1008 I2.5654 J2.3841
G3 X-402.5765 Y30.587 I1.8116 J2.4071
G3 X-401.7892 Y30.4698 I0.9739 J3.8382
G3 X-401.3349 Y30.4639 I0.3029 J5.9051
G1 X-401.0931 Y30.4741
G3 X-400.8362 Y30.4928 I-0.1962 J4.4653
G3 X-400.2541 Y30.5572 I-0.9071 J10.8625
G1 X-399.9454 Y30.5992
G1 X-399.2458 Y30.6991
G1 X-398.8734 Y30.7477
G2 X-398.0251 Y30.8204 I1.3711 J-11.0276
G2 X-397.0584 Y30.7806 I0.2597 J-5.4554
G2 X-396.5523 Y30.6763 I-0.5407 J-3.9053
G1 X-396.4264 Y30.6386
G2 X-395.3606 Y30.0614 I-0.9933 J-3.1067
G2 X-395.3352 Y28.5095 I-46.0859 J-1.5322
G1 X-395.3348 Y27.9921
G1 X-395.3375 Y27.3023
G1 X-395.3431 Y26.3826
G3 X-395.3451 Y25.1563 I94.1541 J-0.7634
G1 X-395.3387 Y24.4555
G1 X-395.3357 Y24.2747
G1 X-395.332 Y24.088
G1 X-395.3217 Y23.6899
G3 X-395.2833 Y22.7803 I39.1487 J1.1982
G3 X-395.2076 Y21.7425 I29.0109 J1.5929
G1 X-395.1815 Y21.4752
G3 X-395.0207 Y20.2576 I22.0079 J2.2876
G1 X-394.9949 Y20.1037
G1 X-394.9373 Y19.7868
G3 X-394.9582 Y18.9307 I14.4227 J-0.7808
G3 X-394.9323 Y18.0749 I15.6073 J0.0434
G3 X-394.8935 Y17.5054 I13.9254 J0.6635
G1 X-394.8806 Y17.3537
G1 X-394.8658 Y17.192
G1 X-394.8279 Y16.8229
G1 X-394.7785 Y16.4017
G3 X-394.621 Y15.2822 I38.3028 J4.8191
G1 X-394.5181 Y14.6444
G3 X-394.2184 Y12.949 I103.0495 J17.3421
G1 X-394.1359 Y12.4974
G1 X-393.9499 Y11.4649
G1 X-393.8544 Y10.9136
G1 X-393.7573 Y10.3249
G1 X-393.7336 Y10.1752
G2 X-393.5413 Y8.8034 I-45.8406 J-7.1253
G2 X-393.4618 Y8.0688 I-32.8401 J-3.9248
G2 X-393.3653 Y6.3822 I-21.2464 J-2.0623
G1 X-393.364 Y6.2757
G2 X-393.4708 Y4.3289 I-14.3927 J-0.1868
G2 X-393.5045 Y4.0833 I-12.0525 J1.5283
G2 X-394.0731 Y1.8783 I-10.2734 J1.4732
G2 X-395.3592 Y-0.4197 I-8.5664 J3.2856
G2 X-396.2996 Y-1.4815 I-8.1875 J6.3039
G2 X-397.4539 Y-2.4746 I-8.3419 J8.5278
G2 X-398.81 Y-3.3815 I-8.801 J11.6926
G2 X-402.7224 Y-4.6788 I-9.4756 J22.0297
G2 X-406.8038 Y-5.2545 I-5.0852 J21.2939
G2 X-409.554 Y-5.1923 I-0.9119 J20.5135
G2 X-413.1589 Y-4.5149 I1.7236 J19.1023
G2 X-417.6369 Y-2.5467 I5.1543 J17.8049
G2 X-419.9178 Y-0.9181 I10.0598 J16.5008
G2 X-420.4662 Y-0.4454 I14.3597 J17.2141
G2 X-420.5036 Y0.434 I3.3188 J0.5816
G2 X-420.2943 Y1.289 I2.7629 J-0.2231
G2 X-419.983 Y1.7899 I1.7082 J-0.7144
G2 X-419.3024 Y2.2048 I0.9714 J-0.8279
G3 X-417.8585 Y2.6632 I-3.1812 J12.5236
G3 X-416.4853 Y3.303 I-3.9086 J10.182
G3 X-414.1231 Y5.1904 I-4.3369 J7.8501
G3 X-412.9533 Y6.8407 I-7.1975 J6.3416
G3 X-412.4367 Y7.8756 I-9.8746 J5.5754
G3 X-411.963 Y9.1074 I-12.7491 J5.6095
G3 X-411.544 Y10.5513 I-18.6419 J6.1921
G1 X-411.4526 Y10.9281
G1 X-411.3643 Y11.318
G1 X-411.2788 Y11.7212
G3 X-410.9451 Y13.5638 I-42.6131 J8.6692
G1 X-410.8691 Y14.0402
G1 X-410.7141 Y15.0539
G3 X-410.6949 Y15.1816 I-3.2152 J0.5488
G1 X-410.5307 Y16.2669
G1 X-410.488 Y16.5421
G1 X-410.4439 Y16.8213
G2 X-410.2438 Y18.0054 I47.459 J-7.4102
G1 X-410.1887 Y18.305
G1 X-410.1601 Y18.4558
G1 X-410.1306 Y18.6077
G2 X-409.8516 Y19.8914 I27.0316 J-5.2045
G2 X-409.683 Y20.5468 I17.6316 J-4.1836
G1 X-409.5898 Y20.8774
G1 X-409.4892 Y21.2113
G2 X-408.9848 Y22.6065 I15.075 J-4.6614
G2 X-408.2837 Y24.0242 I11.1829 J-4.6483
G2 X-408.0816 Y28.0224 I40.9604 J-0.0656
G2 X-407.5298 Y31.9876 I51.6905 J-5.1726
G1 X-407.4347 Y32.513
G2 X-407.2018 Y33.7108 I69.1375 J-12.8259
G1 X-407.0693 Y34.3479
G2 X-406.9224 Y35.0263 I41.1525 J-8.5563
G2 X-406.8445 Y35.376 I16.7758 J-3.5552
G2 X-406.7627 Y35.7366 I14.2057 J-3.0344
G2 X-406.7206 Y35.9197 I9.2217 J-2.0241
G2 X-406.6774 Y36.1056 I8.8095 J-1.945
G2 X-406.2692 Y37.8014 I140.0127 J-32.8116
G2 X-406.0429 Y38.7035 I91.239 J-22.4091
G1 X-405.7967 Y39.6646
G1 X-405.5304 Y40.6886
G1 X-405.2441 Y41.7801
G1 X-404.9386 Y42.9443
G1 X-404.6157 Y44.1865
G3 X-404.278 Y45.5131 I-118.8638 J30.9648
G3 X-404.2361 Y45.6804 I-5.1298 J1.3724
G3 X-404.1941 Y45.8491 I-5.1109 J1.3626
G1 X-404.0227 Y46.546
G1 X-403.8499 Y47.2662
G1 X-403.6763 Y48.0108
G3 X-402.9651 Y51.4323 I-79.566 J18.3254
G3 X-402.9453 Y51.5401 I-2.6146 J0.5334
G3 X-402.9257 Y51.6485 I-2.5941 J0.5254
G1 X-402.848 Y52.0889
G3 X-402.5535 Y53.9746 I-55.9888 J9.7109
G3 X-402.3138 Y55.9969 I-49.2884 J6.8665
G3 X-402.1106 Y60.6523 I-42.094 J4.17
G3 X-402.5617 Y65.9731 I-37.268 J-0.4802
G2 X-402.4244 Y66.4342 I1.4904 J-0.1927
G2 X-402.0966 Y66.7862 I0.7234 J-0.3448
G2 X-401.7843 Y66.8798 I0.3883 J-0.7284
G2 X-401.3544 Y66.8465 I0.1136 J-1.328
G2 X-400.8313 Y66.6561 I-0.559 J-2.3494
G2 X-400.234 Y66.2883 I-1.6939 J-3.4196
G2 X-398.685 Y67.7199 I7.7054 J-6.7841
G2 X-396.8975 Y68.8399 I7.6293 J-10.1895
G1 X-396.6466 Y68.9675
G2 X-396.0649 Y69.2422 I5.8361 J-11.6093
G1 X-395.7505 Y69.3794
G1 X-395.4125 Y69.5194
G2 X-393.5762 Y70.1679 I9.0219 J-22.6204
G2 X-392.5095 Y70.4815 I11.118 J-35.8435
G1 X-391.9376 Y70.6369
G1 X-391.3262 Y70.7958
G1 X-390.6731 Y70.9596
G1 X-389.976 Y71.1306
G1 X-389.7989 Y71.1737
G1 X-389.4334 Y71.2627
G1 X-388.6549 Y71.454
G1 X-388.2537 Y71.5546
G3 X-387.8403 Y71.6606 I-8.1713 J32.7368
G1 X-387.7362 Y71.6877
G2 X-387.1308 Y71.1456 I-2.0318 J-2.878
G2 X-386.6604 Y70.4829 I-3.043 J-2.6581
G2 X-386.5485 Y70.2791 I-3.1225 J-1.8474
G2 X-386.2841 Y69.7199 I-6.8908 J-3.6012
G1 X-386.1462 Y69.3948
G1 X-386.1112 Y69.3106
G1 X-386.037 Y69.1311
G1 X-385.8651 Y68.7228
G1 X-385.8193 Y68.618
G3 X-385.2611 Y67.5392 I7.8402 J3.3735
G3 X-384.2319 Y66.2883 I5.1996 J3.229
G3 X-384.211 Y67.7335 I-8.3529 J0.844
G3 X-384.4152 Y69.1642 I-10.0822 J-0.7097
G1 X-384.4574 Y69.3523
G1 X-384.5059 Y69.5522
G3 X-384.5616 Y69.7644 I-4.6451 J-1.1054
G3 X-384.9217 Y70.8766 I-11.7325 J-3.1835
G3 X-385.545 Y72.3032 I-14.344 J-5.4184
G3 X-386.58 Y74.0977 I-16.0093 J-8.0379
G1 X-386.728 Y74.3203
G3 X-388.4748 Y76.5611 I-17.6594 J-11.9651
G3 X-389.9261 Y77.5948 I-5.5667 J-6.2801
G3 X-391.5778 Y78.2629 I-3.4931 J-6.2598
G3 X-392.7485 Y78.4752 I-1.9373 J-7.35
G3 X-394.3323 Y78.4972 I-0.9206 J-9.2636
G3 X-395.232 Y78.4045 I0.903 J-13.177
G3 X-396.2485 Y78.2317 I2.4534 J-17.5166
G3 X-397.3943 Y77.9753 I5.535 J-27.4161
G1 X-397.688 Y77.9022
G1 X-397.9904 Y77.8249
G1 X-398.6329 Y77.6555
G3 X-398.7138 Y77.6338 I0.2892 J-1.243
G3 X-398.7953 Y77.612 I0.3014 J-1.2874
G1 X-399.1311 Y77.5218
G2 X-400.6604 Y77.1223 I-17.8158 J65.0807
G2 X-401.4788 Y76.9306 I-7.9702 J32.1794
G1 X-401.9029 Y76.8413
G2 X-402.8108 Y76.6803 I-3.7362 J18.429
G1 X-403.0426 Y76.6469
G1 X-403.2784 Y76.6166
G2 X-404.2875 Y76.533 I-1.6509 J13.7951
G2 X-405.3672 Y76.5408 I-0.4664 J10.1373
G2 X-405.6408 Y76.5611 I0.2325 J4.9805
G2 X-405.306 Y76.2163 I-0.2249 J-0.5533
G2 X-405.2633 Y76.0578 I-0.7073 J-0.2756
G2 X-405.2421 Y75.842 I-1.2371 J-0.2306
G2 X-405.2436 Y75.5574 I-5.0408 J-0.1146
G2 X-405.2461 Y75.4818 I-0.7742 J-0.012
G1 X-405.2516 Y75.3105
G3 X-405.2414 Y74.8621 I3.459 J-0.1449
G1 X-405.2272 Y74.7437
G3 X-405.1682 Y74.4785 I1.7544 J0.2511
G3 X-404.7932 Y73.8583 I1.4031 J0.4248
G3 X-404.4641 Y73.5975 I1.3916 J1.4183
G3 X-405.075 Y72.7007 I5.3286 J-4.2862
G3 X-405.498 Y71.7013 I3.8994 J-2.2396
G3 X-405.6203 Y70.9861 I3.2898 J-0.9306
G3 X-405.5556 Y70.0194 I3.7982 J-0.2312
G3 X-405.4255 Y69.4806 I5.9486 J1.1512
G1 X-405.3846 Y69.3435
G3 X-405.2907 Y69.0538 I8.1832 J2.4921
G3 X-405.0597 Y68.4008 I47.7274 J16.5136
G2 X-405.045 Y68.3597 I-0.3914 J-0.1629
G1 X-404.923 Y68.0093
G2 X-404.8028 Y67.6337 I-24.2834 J-7.9703
G2 X-404.693 Y67.2289 I-7.0993 J-2.1435
G1 X-404.6459 Y67.018
G2 X-404.5366 Y66.041 I-5.0665 J-1.0614
G2 X-404.6532 Y64.9238 I-4.857 J-0.0579
G2 X-405.0653 Y63.7078 I-6.0066 J1.3578
G2 X-405.5774 Y62.2386 I-7.1904 J1.6827
G2 X-406.4217 Y60.9319 I-5.3985 J2.5622
G2 X-407.1524 Y60.1933 I-5.297 J4.509
G1 X-407.2539 Y60.1057
G2 X-407.733 Y59.7239 I-5.8612 J6.8645
G2 X-407.7954 Y59.6773 I-0.5308 J0.6457
G1 X-408.064 Y59.4828
G1 X-408.3544 Y59.2813
G1 X-408.6668 Y59.071
G1 X-409.0013 Y58.8495
G3 X-409.7609 Y58.3413 I51.2833 J-77.479
G2 X-410.1167 Y58.6654 I1.8558 J2.3953
G2 X-410.4158 Y59.0424 I1.773 J1.7133
G2 X-410.7671 Y59.9353 I1.9686 J1.2902
G2 X-410.8092 Y60.5758 I3.0338 J0.5209
G2 X-410.7817 Y60.9412 I3.8196 J-0.1035
G2 X-410.6063 Y61.8909 I8.5553 J-1.0894
G1 X-410.5467 Y62.1408
G2 X-410.5313 Y62.2042 I0.6438 J-0.1231
G1 X-410.3926 Y62.7787
G1 X-410.3248 Y63.0852
G1 X-410.3088 Y63.1633
G3 X-410.2778 Y63.3246 I-10.9941 J2.1941
G3 X-410.1861 Y64.0633 I-5.8721 J1.1043
G3 X-410.9458 Y63.931 I0.4133 J-4.6215
G3 X-411.656 Y63.6304 I0.648 J-2.52
G3 X-412.0503 Y63.2961 I0.9325 J-1.4998
G3 X-412.396 Y62.6954 I1.3666 J-1.1863
G3 X-412.4984 Y62.3109 I2.7823 J-0.9466
G3 X-412.5541 Y61.8615 I3.8209 J-0.7016
G1 X-412.5607 Y61.7448
G3 X-412.5634 Y61.2167 I6.6198 J-0.2978
G1 X-412.5523 Y60.9368
G1 X-412.5353 Y60.6408
G3 X-412.533 Y60.6035 I0.2962 J0.0002
G1 X-412.4884 Y59.9347
G1 X-412.4693 Y59.5812
G2 X-412.4656 Y59.4916 I-4.239 J-0.2206
G1 X-412.4599 Y59.3075
G2 X-412.4584 Y58.9184 I-6.8573 J-0.221
G1 X-412.4646 Y58.7187
G2 X-412.5773 Y57.8295 I-5.0275 J0.1854
G2 X-412.7119 Y57.3728 I-3.409 J0.7564
G2 X-413.2652 Y56.4389 I-2.7759 J1.0137
G1 X-414.1916 Y52.63
G1 X-415.1127 Y48.82
G3 X-416.9194 Y41.1913 I1082.959 J-260.4984
G3 X-416.9756 Y40.9489 I9.1161 J-2.2427
G3 X-417.0327 Y40.7025 I9.3115 J-2.2867
G1 X-417.5502 Y38.4496
G3 X-417.6153 Y38.1633 I11.77 J-2.8295
G3 X-418.9696 Y32.0494 I504.1244 J-114.8765
G3 X-419.0531 Y31.6606 I42.3868 J-9.3019
G3 X-419.2243 Y30.8578 I117.0652 J-25.3861
G1 X-419.5845 Y29.1441
G3 X-420.3804 Y25.2214 I326.1382 J-68.2105
G3 X-421.2371 Y20.7278 I348.2786 J-68.7244
G1 X-421.3414 Y20.1563
G1 X-421.4463 Y19.5755
G1 X-421.5518 Y18.9854
G1 X-421.6577 Y18.3856
G3 X-422.5668 Y12.892 I264.8374 J-46.6488
G3 X-423.0043 Y9.9544 I286.5828 J-44.1821
G3 X-423.431 Y6.8152 I234.2896 J-33.4447
G1 X-423.5325 Y6.017
G2 X-423.2789 Y5.1026 I-11.8571 J-3.781
G1 X-423.2084 Y4.7941
G2 X-422.9705 Y3.5515 I-27.178 J-5.8473
G1 X-422.9098 Y3.1951
G1 X-422.8414 Y2.7877
G1 X-422.7621 Y2.3223
G3 X-422.5242 Y1.0865 I29.8489 J5.1069
G1 X-422.4491 Y0.7594
G3 X-422.2492 Y0.0184 I13.1325 J3.1444
G3 X-421.9581 Y-0.8098 I8.451 J2.5052
G3 X-421.7688 Y-1.2385 I6.772 J2.7337
G3 X-421.5366 Y-1.6822 I6.3432 J3.0383
G3 X-420.8751 Y-2.622 I5.1202 J2.901
G3 X-419.8987 Y-3.5164 I4.3371 J3.7548
G3 X-418.5638 Y-4.2576 I3.8691 J5.3953
G1 X-418.1081 Y-4.3838
G1 X-417.6513 Y-4.5052
G3 X-416.7339 Y-4.7343 I9.3987 J35.6754
G3 X-414.8876 Y-5.1426 I11.8856 J49.3748
G1 X-414.6404 Y-5.1924
G3 X-414.0746 Y-5.3023 I13.0797 J65.7853
G1 X-413.7724 Y-5.3589
G3 X-408.9105 Y-6.088 I13.8574 J75.8277
G3 X-408.5955 Y-6.1251 I1.4829 J11.2397
G3 X-408.2701 Y-6.1623 I1.7173 J13.5882
G3 X-404.7938 Y-6.4943 I12.0946 J108.2481
G1 X-403.8653 Y-6.5649
G3 X-403.3858 Y-6.5987 I2.1676 J27.3502
G3 X-401.193 Y-6.7317 I8.9178 J128.8883
G1 X-400.9144 Y-6.7462
G1 X-400.3392 Y-6.7747
G1 X-399.7454 Y-6.8019
G1 X-399.4437 Y-6.8149
G1 X-399.1372 Y-6.8275
G1 X-398.5044 Y-6.852
G1 X-398.1829 Y-6.8635
G1 X-397.8563 Y-6.8747
G1 X-397.5246 Y-6.8855
G1 X-396.8397 Y-6.906
G1 X-396.7474 Y-6.7855
G1 X-396.6526 Y-6.6669
G1 X-396.5881 Y-6.5889
G2 X-396.3212 Y-6.2845 I8.0129 J-6.7576
G2 X-395.7541 Y-5.7067 I8.7995 J-8.0705
G2 X-395.676 Y-5.6322 I2.3411 J-2.3752
G2 X-395.5922 Y-5.5533 I1.7246 J-1.7462
G2 X-395.5022 Y-5.4695 I1.5131 J-1.5353
G1 X-395.2951 Y-5.2802
G1 X-395.056 Y-5.0663
G1 X-394.7809 Y-4.8243
G1 X-394.4651 Y-4.5492
G3 X-393.6273 Y-3.8115 I-33.0298 J38.3591
G3 X-393.5747 Y-3.764 I-0.6925 J0.8186
G3 X-393.5214 Y-3.7156 I-0.7285 J0.8551
G3 X-393.0412 Y-3.2655 I-13.1449 J14.5064
G3 X-392.9197 Y-3.1468 I-2.1094 J2.2801
G3 X-392.7956 Y-3.0229 I-2.6475 J2.7778
G3 X-392.6689 Y-2.8936 I-3.4687 J3.5238
G3 X-392.4043 Y-2.6121 I-6.5244 J6.3982
G3 X-391.8355 Y-1.9364 I-7.4033 J6.8092
G3 X-391.4467 Y-1.3903 I-6.2553 J4.8654
G0 Z5.0
G0 X-425.2274 Y8.905
G1 Z0.0
G3 X-425.1617 Y9.1512 I-3.4803 J1.0607
G3 X-425.149 Y9.2066 I-0.5169 J0.1482
G1 X-425.1222 Y9.3337
G3 X-425.0955 Y9.4797 I-2.2408 J0.4864
G3 X-425.0404 Y9.8712 I-6.7008 J1.1416
G3 X-424.9919 Y10.3958 I-11.8773 J1.3623
G1 X-424.9704 Y10.6957
G2 X-424.905 Y11.4936 I26.0929 J-1.7349
G2 X-424.8441 Y11.9469 I6.8257 J-0.6871
G2 X-424.7339 Y12.4579 I5.2596 J-0.867
G1 X-424.6963 Y12.5876
G2 X-426.8435 Y12.9633 I11.3822 J71.3759
G2 X-426.9127 Y12.9763 I0.1567 J1.0229
G2 X-426.984 Y12.9897 I0.1623 J1.0557
G2 X-427.0577 Y13.0037 I0.1684 J1.0906
G2 X-427.1337 Y13.0181 I0.1748 J1.128
G2 X-427.2122 Y13.0331 I0.1818 J1.1681
G2 X-427.2932 Y13.0486 I0.1894 J1.2112
G2 X-427.3768 Y13.0646 I0.1976 J1.2578
G1 X-430.0493 Y13.5846
G1 X-430.8136 Y13.7294
G1 X-431.2216 Y13.8047
G1 X-431.4324 Y13.8428
G3 X-432.3968 Y14.0099 I-13.9073 J-77.4185
G1 X-432.9122 Y14.093
G3 X-434.0935 Y14.2628 I-5.8622 J-36.5941
G3 X-434.7254 Y14.3392 I-3.0869 J-22.8856
G1 X-435.0521 Y14.3741
G1 X-435.1345 Y14.3823
G1 X-435.2176 Y14.3904
G3 X-435.3864 Y14.4061 I-0.4197 J-3.5939
G3 X-436.1078 Y14.4616 I-2.4786 J-27.5141
G3 X-436.8789 Y14.4973 I-1.6323 J-26.875
G2 X-437.3427 Y14.9702 I1.3715 J1.8092
G2 X-437.6837 Y15.5379 I2.9496 J2.1579
G2 X-437.7026 Y15.5763 I0.4139 J0.2277
G1 X-437.7855 Y15.7533
G1 X-437.8744 Y15.9579
G1 X-437.92 Y16.0678
G1 X-438.1551 Y16.6548
G3 X-438.2972 Y16.9864 I-13.3843 J-5.5397
G1 X-438.3367 Y17.0707
G3 X-438.4266 Y17.2476 I-2.443 J-1.1304
G3 X-438.5341 Y17.4302 I-3.3053 J-1.8239
G3 X-438.8503 Y17.8002 I-1.3919 J-0.8693
G3 X-439.3746 Y18.0347 I-0.6655 J-0.7843
G3 X-439.6924 Y18.0392 I-0.1779 J-1.3413
G3 X-440.0315 Y17.9727 I0.1811 J-1.8223
G3 X-440.3822 Y17.8485 I1.0035 J-3.3901
G3 X-441.1218 Y17.461 I2.1348 J-4.9727
G3 X-443.8403 Y18.3205 I-10.9388 J-29.8678
G3 X-446.6176 Y18.9653 I-10.9952 J-41.0538
G3 X-446.7065 Y18.9829 I-0.2796 J-1.1819
G3 X-448.6076 Y19.3211 I-10.8223 J-55.3216
G1 X-449.1163 Y19.4007
G3 X-451.8373 Y19.7655 I-12.0694 J-79.7026
G3 X-453.3963 Y19.9384 I-10.4019 J-86.6917
G1 X-453.799 Y19.9798
G1 X-454.2147 Y20.0215
G1 X-454.644 Y20.0635
G1 X-455.5598 Y20.1499
G1 X-456.5369 Y20.2386
G3 X-457.0413 Y20.2834 I-4.1898 J-44.3153
G1 X-459.3464 Y20.4858
G1 X-460.5754 Y20.5966
G1 X-461.8856 Y20.721
G1 X-462.5614 Y20.7887
G1 X-463.2586 Y20.8618
G1 X-463.6127 Y20.9003
G1 X-463.9722 Y20.9405
G1 X-464.7139 Y21.0272
G1 X-465.4787 Y21.1225
G1 X-465.6713 Y21.1476
G1 X-466.4659 Y21.2556
G1 X-466.6659 Y21.2841
G1 X-466.8675 Y21.3134
G2 X-470.5344 Y21.9623 I8.4128 J58.2293
G2 X-472.4688 Y22.4169 I9.6534 J45.4152
G2 X-474.5061 Y23.007 I9.3058 J35.9383
G1 X-474.7602 Y23.0899
G1 X-475.0156 Y23.1756
G2 X-477.9979 Y25.0447 I3.8102 J9.3931
G2 X-480.1827 Y27.8042 I7.1711 J7.9224
G2 X-481.4762 Y34.6195 I9.7609 J5.3829
G3 X-482.2653 Y32.2079 I10.4785 J-4.7637
G3 X-482.4006 Y31.3713 I9.142 J-1.9075
G3 X-482.2135 Y27.9992 I9.6871 J-1.1537
G3 X-481.4738 Y25.866 I10.6911 J2.5123
G1 X-481.3479 Y25.6027
G3 X-480.6987 Y24.4398 I12.1613 J6.0274
G3 X-480.654 Y24.3688 I0.748 J0.4209
G3 X-479.7705 Y23.119 I13.4106 J8.5429
G3 X-478.6305 Y21.8001 I14.4485 J11.3366
G3 X-477.2002 Y20.427 I16.1869 J15.4292
G3 X-477.0103 Y20.2618 I4.1997 J4.6365
G3 X-475.2142 Y18.8482 I17.6532 J20.5822
G3 X-473.0509 Y17.421 I19.0294 J26.4917
G3 X-466.9659 Y14.4973 I18.6425 J31.0057
G1 X-465.4989 Y14.2713
G1 X-464.033 Y14.0383
G1 X-463.0562 Y13.8796
G1 X-461.7544 Y13.6643
G1 X-461.4073 Y13.6062
G1 X-459.5571 Y13.2929
G2 X-452.162 Y12.0068 I-359.4239 J-2088.5881
G1 X-450.0491 Y11.6395
G3 X-447.6334 Y11.2251 I398.4314 J2315.4146
G1 X-447.0097 Y11.1195
G3 X-440.3488 Y10.0469 I64.6681 J380.3894
G1 X-439.9251 Y9.9831
G1 X-439.4947 Y9.919
G3 X-439.0573 Y9.8545 I6.2675 J41.006
G1 X-438.1541 Y9.7238
G1 X-437.2211 Y9.5922
G1 X-436.9859 Y9.5597
G1 X-436.7488 Y9.5271
G1 X-436.5098 Y9.4945
G1 X-435.5229 Y9.3628
G1 X-434.5034 Y9.2318
G1 X-434.2464 Y9.1996
G1 X-433.1848 Y9.0705
G1 X-432.0882 Y8.9438
G1 X-431.5308 Y8.8822
G3 X-426.4248 Y8.4164 I15.6038 J142.8113
G3 X-426.1026 Y8.3936 I1.1311 J13.7357
G1 X-425.4477 Y8.3501
G3 X-425.2274 Y8.905 I-3.26 J1.6155
G0 Z5.0
G0 X-425.3372 Y30.4607
G1 Z0.0
G3 X-425.1502 Y30.4689 I-0.0123 J2.4145
G3 X-424.7424 Y30.5266 I-0.4252 J4.4772
G1 X-424.6912 Y30.5367
G3 X-424.2364 Y30.6451 I-1.3802 J6.7978
G3 X-423.7379 Y30.7884 I-3.8803 J14.4357
G1 X-423.6108 Y30.8269
G1 X-423.053 Y30.9952
G1 X-422.9099 Y31.0365
G2 X-422.2762 Y31.194 I2.1981 J-7.4886
G1 X-422.112 Y31.2244
G1 X-421.9427 Y31.2492
G2 X-421.5836 Y31.2721 I0.362 J-2.8438
G2 X-421.2048 Y31.2307 I0.0087 J-1.6719
G2 X-420.9106 Y33.1726 I54.2571 J-7.2278
G2 X-420.5582 Y35.1049 I75.3459 J-12.7437
G1 X-420.4483 Y35.6553
G1 X-420.3183 Y36.2833
G1 X-420.1644 Y36.9999
G2 X-419.7309 Y38.9057 I128.5651 J-28.2429
G1 X-419.6106 Y39.4129
G1 X-419.3303 Y40.5706
G1 X-419.1783 Y41.1875
G1 X-418.8273 Y42.5965
G2 X-418.7825 Y42.7754 I10.6546 J-2.5719
G3 X-417.8398 Y46.5939 I-340.8046 J86.1698
G1 X-417.5992 Y47.6147
G1 X-417.478 Y48.1423
G3 X-417.3554 Y48.6874 I-52.9889 J12.2075
G3 X-417.3249 Y48.8249 I-2.9658 J0.7297
G3 X-417.2943 Y48.9635 I-2.9396 J0.7205
G3 X-417.2637 Y49.1032 I-2.9138 J0.7112
G3 X-417.2331 Y49.2441 I-2.8883 J0.702
G3 X-417.2024 Y49.3862 I-2.8632 J0.6928
G1 X-417.078 Y49.973
G3 X-416.5631 Y52.6668 I-71.4286 J15.0494
G3 X-416.3314 Y54.1113 I-54.7982 J9.5291
G1 X-417.0754 Y54.1338
G1 X-417.8193 Y54.1579
G1 X-418.3152 Y54.1748
G2 X-420.2987 Y54.2493 I7.9987 J239.4535
G1 X-421.6208 Y54.3046
G1 X-423.3833 Y54.385
G1 X-424.3903 Y54.434
G1 X-425.5411 Y54.4927
G1 X-426.1548 Y54.525
G1 X-426.8093 Y54.5602
G1 X-427.5075 Y54.5986
G1 X-428.2522 Y54.6405
G1 X-429.0464 Y54.6861
G1 X-430.8615 Y54.7935
G1 X-431.092 Y54.8074
G1 X-431.5679 Y54.8363
G1 X-433.7429 Y54.9712
G1 X-439.5422 Y55.3407
G1 X-442.8563 Y55.5485
G3 X-442.9603 Y55.5549 I-0.2152 J-2.6537
G1 X-444.735 Y55.6621
G3 X-448.7924 Y55.8915 I-38.4741 J-644.6558
G1 X-449.8397 Y55.9462
G1 X-450.9209 Y56.0003
G1 X-452.037 Y56.0536
G1 X-453.1894 Y56.1057
G1 X-454.379 Y56.1561
G1 X-454.6788 Y56.1683
G1 X-454.981 Y56.1803
G3 X-457.5597 Y56.2729 I-12.3017 J-306.6057
G1 X-458.891 Y56.3134
G3 X-459.2264 Y56.3228 I-0.631 J-16.5335
G1 X-460.6116 Y56.358
G3 X-463.5673 Y56.4133 I-7.7957 J-337.8113
G3 X-463.6599 Y56.4146 I-0.0644 J-1.306
G3 X-463.7526 Y56.4159 I-0.0641 J-1.3058
G1 X-465.2843 Y56.4325
G1 X-466.0624 Y56.438
G1 X-466.8528 Y56.4415
G1 X-467.6557 Y56.4429
G1 X-468.0604 Y56.4428
G1 X-468.4682 Y56.4421
G1 X-468.8793 Y56.4408
G1 X-469.2936 Y56.4389
G3 X-471.185 Y53.834 I36.1093 J-28.2072
G3 X-472.9185 Y51.1215 I54.2554 J-36.585
G1 X-473.0263 Y50.9439
G1 X-473.1371 Y50.7603
G1 X-473.251 Y50.5706
G3 X-474.445 Y48.5345 I117.4642 J-70.2513
G1 X-476.0116 Y45.8056
G1 X-476.4321 Y45.0796
G2 X-477.4091 Y43.4296 I-84.7286 J49.0547
G2 X-477.5354 Y43.2213 I-6.844 J4.0052
G2 X-477.6642 Y43.0101 I-6.165 J3.6151
G2 X-478.2212 Y42.1136 I-44.9277 J27.2954
G1 X-478.514 Y41.6542
G2 X-478.8204 Y41.1828 I-23.9012 J15.1988
G2 X-478.9089 Y40.6852 I-16.6685 J2.7055
G1 X-479.0029 Y40.1886
G1 X-479.0294 Y40.0466
G3 X-479.2113 Y38.9057 I18.4563 J-3.5274
G3 X-479.2762 Y38.138 I10.5169 J-1.2755
G1 X-479.2817 Y37.9325
G3 X-479.2704 Y37.4624 I6.6627 J-0.0745
G3 X-479.2068 Y36.9282 I4.865 J0.3081
G3 X-479.0487 Y36.3318 I3.8603 J0.7045
G3 X-478.7286 Y35.6977 I2.6541 J0.942
G3 X-478.1691 Y35.0944 I2.2256 J1.503
G3 X-477.3414 Y34.6195 I2.053 J2.6194
G3 X-475.9337 Y34.1582 I10.2957 J29.0372
G3 X-475.7309 Y34.0977 I1.5138 J4.7064
G3 X-474.0975 Y33.6531 I12.4729 J42.5943
G3 X-473.9915 Y33.6264 I0.7923 J2.9234
G3 X-473.8821 Y33.5991 I0.8038 J2.9867
G3 X-473.7691 Y33.5711 I0.8167 J3.0558
G3 X-473.6524 Y33.5424 I0.831 J3.1318
G1 X-473.1184 Y33.4141
G1 X-472.5071 Y33.2718
G1 X-471.8076 Y33.1132
G3 X-471.6269 Y33.0728 I1.491 J6.2354
G3 X-471.4404 Y33.0312 I1.6692 J7.0402
G3 X-471.2478 Y32.9883 I1.9354 J8.2388
G3 X-471.0491 Y32.9441 I2.3954 J10.3046
G2 X-470.8439 Y32.8985 I-3.3098 J-15.3754
G1 X-470.4063 Y32.8011
G1 X-469.4069 Y32.575
G1 X-468.8747 Y32.451
G2 X-467.6618 Y32.1527 I-11.9302 J-51.127
G1 X-467.3499 Y32.0714
G1 X-467.0285 Y31.9853
G1 X-466.6974 Y31.8937
G1 X-466.3566 Y31.7961
G2 X-464.8118 Y31.3045 I-9.0923 J-31.2453
G2 X-463.0848 Y30.6298 I-7.8206 J-22.563
G2 X-461.189 Y29.6765 I-7.6218 J-17.5197
G1 X-460.7744 Y29.4316
G3 X-460.3575 Y29.1906 I21.7954 J37.2355
G1 X-460.2371 Y29.1242
G1 X-460.1724 Y29.0895
G3 X-459.8204 Y28.918 I2.3266 J4.3284
G3 X-459.6092 Y28.8432 I0.6557 J1.5168
G3 X-459.49 Y28.8272 I0.1154 J0.4066
G3 X-459.4279 Y28.8431 I-0.0002 J0.13
G3 X-459.3899 Y28.9123 I-0.0441 J0.0693
G3 X-459.4067 Y29.0141 I-0.3249 J-0.0012
G3 X-459.5142 Y29.2376 I-1.1769 J-0.4288
G3 X-459.7796 Y29.6288 I-3.5893 J-2.1489
G2 X-459.8631 Y30.1353 I3.9272 J0.9074
G2 X-459.8847 Y30.6481 I4.4728 J0.4457
G2 X-459.7686 Y31.6661 I5.2372 J-0.0815
G2 X-459.0135 Y33.5584 I5.9261 J-1.2683
G2 X-457.9758 Y34.1896 I2.1915 J-2.434
G2 X-456.7846 Y34.4271 I1.3259 J-3.5435
G2 X-454.4602 Y33.8615 I0.1502 J-4.4419
G2 X-453.24 Y32.824 I-1.9851 J-3.5709
G2 X-452.4704 Y30.8348 I-2.889 J-2.2612
G1 X-452.5687 Y30.3277
G1 X-452.582 Y30.255
G3 X-452.6759 Y29.6721 I13.7376 J-2.513
G3 X-452.7132 Y29.28 I4.1408 J-0.5913
G3 X-452.7077 Y29.0547 I1.377 J-0.0791
G3 X-452.679 Y28.9369 I0.4272 J0.0416
G3 X-452.6422 Y28.8841 I0.123 J0.0464
G3 X-452.5688 Y28.8643 I0.0585 J0.0707
G3 X-452.4793 Y28.9008 I-0.0473 J0.2435
G3 X-452.3896 Y28.9696 I-0.2923 J0.4742
G3 X-452.2049 Y29.1641 I-1.3555 J1.4718
G3 X-451.892 Y29.577 I-4.9528 J4.078
G1 X-451.7516 Y29.7819
G1 X-451.55 Y30.0897
G3 X-451.5247 Y30.1292 I-0.6127 J0.4196
G3 X-448.0275 Y30.2171 I0.5678 J47.0054
G1 X-447.5287 Y30.2493
G1 X-446.9589 Y30.2913
G1 X-446.3083 Y30.3457
G1 X-445.5656 Y30.4157
G1 X-445.374 Y30.4349
G1 X-445.1762 Y30.4554
G1 X-444.9722 Y30.477
G1 X-444.7616 Y30.4998
G1 X-444.3127 Y30.5503
G3 X-441.9225 Y30.8528 I-11.817 J102.9725
G1 X-441.6145 Y30.895
G1 X-441.2966 Y30.9391
G1 X-440.6188 Y31.0347
G1 X-439.0703 Y31.2581
G1 X-437.3008 Y31.5131
G2 X-435.2766 Y31.7893 I22.427 J-156.7684
G2 X-435.1489 Y31.8058 I0.497 J-3.3459
G1 X-434.6218 Y31.8724
G2 X-434.0773 Y31.9383 I5.918 J-46.5651
G2 X-433.94 Y31.9545 I0.4141 J-2.9287
G2 X-431.4258 Y32.2085 I9.1161 J-77.6526
G2 X-431.3467 Y32.2151 I0.1775 J-1.6685
G2 X-431.2673 Y32.2215 I0.1748 J-1.6592
G2 X-431.1877 Y32.2279 I0.1721 J-1.65
G2 X-431.1076 Y32.2342 I0.1694 J-1.641
G2 X-428.1772 Y32.3855 I4.1342 J-51.5986
G2 X-426.6116 Y32.3945 I1.0586 J-48.0459
G3 X-426.6162 Y31.9386 I4.8563 J-0.2775
G3 X-426.5666 Y31.4852 I2.945 J0.0931
G3 X-426.4866 Y31.1915 I1.9827 J0.3821
G3 X-426.2892 Y30.835 I1.1777 J0.4192
G3 X-425.8312 Y30.5269 I0.7413 J0.6074
G3 X-425.5158 Y30.4664 I0.422 J1.349
G3 X-425.3372 Y30.4607 I0.1663 J2.4088
G0 Z5.0
G0 X-424.5711 Y56.9228
G1 Z0.0
G1 X-424.0347 Y56.9073
G1 X-422.7722 Y56.8739
G1 X-421.4689 Y56.8431
G1 X-421.1404 Y56.8359
G1 X-420.8094 Y56.8289
G1 X-420.4757 Y56.8221
G1 X-420.1394 Y56.8156
G1 X-419.8005 Y56.8092
G1 X-419.4589 Y56.8031
G1 X-418.0484 Y56.781
G1 X-416.5924 Y56.7635
G1 X-416.2254 Y56.7601
G1 X-415.8556 Y56.7569
G1 X-415.4829 Y56.7542
G1 X-415.5418 Y56.9211
G2 X-415.593 Y57.0904 I2.333 J0.7986
G2 X-415.6224 Y57.2047 I1.707 J0.4988
G2 X-415.6912 Y57.6714 I2.5211 J0.6101
G2 X-415.5122 Y58.5948 I1.9025 J0.1103
G2 X-415.1856 Y59.1342 I3.0085 J-1.4528
G2 X-415.1378 Y59.2001 I0.7196 J-0.472
G1 X-415.0345 Y59.3392
G1 X-414.9245 Y59.4871
G1 X-414.8099 Y59.6461
G3 X-414.5758 Y60.0244 I-2.8881 J2.0492
G3 X-414.3911 Y60.4966 I-1.9193 J1.0231
G3 X-414.3281 Y61.0752 I-2.002 J0.5106
G3 X-414.429 Y61.7357 I-2.933 J-0.1101
G1 X-414.4084 Y61.9568
G1 X-414.39 Y62.1782
G3 X-414.3616 Y62.6215 I-16.8358 J1.3033
G3 X-414.3507 Y63.5098 I-10.6018 J0.5746
G3 X-414.4004 Y64.1004 I-5.6747 J-0.1811
G3 X-414.4666 Y64.433 I-3.0345 J-0.4303
G3 X-414.6042 Y64.7972 I-1.7022 J-0.4353
G3 X-414.7228 Y64.9703 I-0.8022 J-0.4223
G3 X-415.1835 Y65.1887 I-0.4725 J-0.4017
G3 X-415.4741 Y65.1554 I-0.0213 J-1.0996
G3 X-415.7767 Y65.051 I0.4755 J-1.8695
G3 X-416.4126 Y64.7013 I1.8963 J-4.2009
G3 X-416.5665 Y64.6004 I1.7738 J-2.8734
G3 X-417.1896 Y64.1586 I8.7406 J-12.9874
G1 X-417.3464 Y64.0426
G1 X-418.0489 Y63.5213
G1 X-418.2287 Y63.3909
G2 X-418.9671 Y62.8886 I-8.6251 J11.887
G1 X-419.1571 Y62.7719
G2 X-419.9667 Y62.3624 I-2.9786 J4.8842
G2 X-420.4098 Y62.2205 I-1.1956 J2.9708
G2 X-420.8896 Y62.1609 I-0.5129 J2.1662
G2 X-422.9367 Y62.056 I-6.5527 J107.8543
G1 X-423.2293 Y62.0438
G2 X-424.0096 Y62.0145 I-5.4862 J135.8262
G2 X-427.1321 Y61.9389 I-5.1892 J149.7469
G1 X-428.0244 Y61.928
G1 X-429.0443 Y61.9205
G2 X-431.764 Y61.923 I-1.1732 J202.3858
G1 X-433.318 Y61.9365
G2 X-433.5154 Y61.9388 I-0.0093 J7.8776
G1 X-435.3195 Y61.9638
G1 X-437.3811 Y62.0003
G1 X-442.8782 Y62.1122
G1 X-444.344 Y62.1393
G3 X-444.7163 Y62.1456 I-0.6388 J-26.645
G1 X-445.485 Y62.1578
G1 X-445.8755 Y62.1635
G1 X-446.2722 Y62.1688
G1 X-447.0911 Y62.1785
G3 X-450.8346 Y62.1914 I-2.6399 J-222.5567
G1 X-451.8007 Y62.1839
G1 X-452.2913 Y62.178
G1 X-453.3043 Y62.1609
G2 X-454.281 Y62.3979 I6.3234 J28.193
G1 X-454.4196 Y62.4353
G1 X-454.5776 Y62.4795
G1 X-454.7576 Y62.532
G2 X-455.234 Y62.6842 I4.0205 J13.4017
G2 X-455.5031 Y62.7803 I2.7169 J8.032
G2 X-455.8072 Y62.8997 I3.3129 J8.8884
G2 X-455.9675 Y62.9679 I1.3609 J3.4196
G1 X-456.1368 Y63.0446
G2 X-456.9997 Y63.5341 I2.4856 J5.3858
G2 X-457.4441 Y63.8888 I2.2225 J3.2408
G2 X-457.8789 Y64.3756 I2.1348 J2.3441
G2 X-458.233 Y65.0402 I2.2466 J1.6239
G2 X-458.4001 Y65.8972 I2.6231 J0.9562
G2 X-458.3026 Y66.9018 I3.8445 J0.134
G2 X-458.273 Y67.0269 I1.6153 J-0.3163
G3 X-457.1237 Y69.2881 I-71.0686 J37.5468
G1 X-456.9641 Y69.6135
G1 X-456.5427 Y70.483
G1 X-455.9874 Y71.6455
G3 X-455.9161 Y71.7957 I-3.2067 J1.6147
G3 X-455.8425 Y71.9508 I-3.3698 J1.6937
G3 X-455.7666 Y72.1109 I-3.5541 J1.783
G1 X-454.9573 Y73.8182
G2 X-454.7404 Y74.2731 I37.2322 J-17.471
G1 X-454.241 Y75.3108
G1 X-453.9718 Y75.8629
G1 X-453.8318 Y76.1473
G2 X-453.5305 Y76.7529 I87.4185 J-43.1135
G1 X-453.2047 Y77.3966
G1 X-453.0344 Y77.7277
G1 X-452.8571 Y78.0688
G2 X-452.4728 Y78.7931 I56.6567 J-29.5918
G2 X-451.5588 Y80.4296 I49.3784 J-26.5056
G1 X-451.4387 Y80.6352
G1 X-451.3156 Y80.8435
G1 X-451.1896 Y81.0544
G1 X-451.0603 Y81.2679
G2 X-449.8203 Y83.1845 I33.418 J-20.2627
G2 X-448.2541 Y85.2736 I25.894 J-17.7812
G2 X-448.0426 Y85.5291 I20.0034 J-16.3387
G2 X-447.8247 Y85.7862 I7.3746 J-6.0302
G2 X-445.6799 Y88.0051 I19.2812 J-16.4915
G2 X-446.579 Y88.6004 I1.4457 J3.1601
G2 X-447.2545 Y89.4409 I2.3222 J2.558
G2 X-447.5291 Y90.1079 I2.4267 J1.3891
G2 X-447.5824 Y91.0713 I2.2458 J0.6072
G1 X-447.9859 Y90.3778
G1 X-448.3906 Y89.6849
G1 X-449.2022 Y88.3005
G1 X-450.8277 Y85.533
G1 X-451.9068 Y83.6853
G1 X-452.5196 Y82.6273
G1 X-453.2152 Y81.4154
G1 X-453.3937 Y81.102
G3 X-455.2649 Y77.7413 I167.29 J-95.3472
G1 X-455.5011 Y77.3047
G3 X-457.9198 Y72.5948 I108.4889 J-58.6875
G1 X-458.216 Y71.9791
G3 X-459.5136 Y69.1375 I82.8111 J-39.5337
G3 X-459.832 Y68.3968 I81.3416 J-35.4043
G3 X-461.1895 Y64.9693 I70.9669 J-30.09
G3 X-461.2293 Y64.8607 I3.6808 J-1.4096
G3 X-461.8796 Y62.9964 I72.3246 J-26.2763
G3 X-463.1464 Y58.6621 I58.9231 J-19.5734
G1 X-461.7731 Y58.6058
G1 X-460.4 Y58.5472
G2 X-459.4846 Y58.507 I-6.3169 J-154.0322
G2 X-459.2405 Y58.4961 I-0.2213 J-7.703
G2 X-459.1145 Y58.4904 I-0.1865 J-5.5734
G2 X-455.0832 Y58.3023 I-53.4972 J-1189.4231
G1 X-453.9315 Y58.2463
G1 X-450.8606 Y58.0936
G1 X-446.7662 Y57.886
G1 X-444.4265 Y57.7673
G1 X-443.1787 Y57.7044
G1 X-440.3263 Y57.563
G1 X-437.0662 Y57.4073
G1 X-435.3272 Y57.3279
G1 X-434.4296 Y57.288
G1 X-433.9737 Y57.2681
G1 X-433.5105 Y57.2482
G1 X-431.5342 Y57.1659
G1 X-431.0322 Y57.1458
G3 X-426.4424 Y56.9797 I26.9469 J681.4132
G1 X-425.2577 Y56.9427
G1 X-424.5711 Y56.9228
G0 Z5.0
G0 X-424.7027 Y63.5833
G1 Z0.0
G1 X-424.6834 Y63.5837
G1 X-423.7089 Y63.6023
G1 X-421.63 Y63.6381
G2 X-421.5453 Y63.7974 I0.6323 J-0.2342
G2 X-421.4246 Y63.9314 I0.7481 J-0.5523
G2 X-421.4068 Y63.9476 I0.0629 J-0.0512
G2 X-421.0963 Y64.1694 I1.4041 J-1.6382
G1 X-421.0022 Y64.2244
G2 X-420.7481 Y64.3624 I4.8907 J-8.7009
G2 X-420.6799 Y64.3983 I0.4818 J-0.8318
G1 X-420.5247 Y64.4807
G3 X-420.1244 Y64.7202 I-1.9088 J3.6443
G3 X-419.9195 Y64.8911 I-0.8237 J1.1953
G3 X-419.7533 Y65.152 I-0.4807 J0.4899
G1 X-420.1067 Y65.1551
G1 X-420.4602 Y65.1572
G1 X-420.6959 Y65.158
G1 X-421.6386 Y65.1568
G1 X-422.267 Y65.1524
G3 X-423.1049 Y65.1424 I0.3481 J-64.8108
G1 X-424.222 Y65.1228
G1 X-424.8603 Y65.1087
G3 X-426.5621 Y65.0625 I5.1645 J-221.6471
G3 X-426.6702 Y65.0592 I-0.0082 J-1.5059
G1 X-427.658 Y65.0274
G1 X-428.7867 Y64.988
G1 X-430.0767 Y64.9401
G1 X-431.5507 Y64.8831
G1 X-433.2354 Y64.8176
G1 X-433.6702 Y64.8009
G1 X-434.119 Y64.7839
G1 X-436.1708 Y64.7101
G2 X-438.516 Y64.6383 I-15.8437 J479.5185
G2 X-441.1969 Y64.5816 I-5.5365 J198.3299
G1 X-441.8889 Y64.5726
G1 X-442.2404 Y64.5691
G1 X-442.5975 Y64.5662
G1 X-442.9603 Y64.5641
G2 X-444.508 Y64.5645 I-0.7256 J162.0179
G1 X-444.9012 Y64.5673
G1 X-445.3005 Y64.5713
G1 X-445.7062 Y64.5766
G2 X-449.4139 Y64.6913 I1.5575 J110.2962
G2 X-451.3891 Y64.8093 I5.4085 J107.1626
G2 X-451.5425 Y66.1483 I16.9981 J2.6263
G1 X-451.5492 Y66.238
G2 X-451.596 Y67.675 I19.1827 J1.3441
G2 X-451.3581 Y70.5383 I19.4357 J-0.1737
G2 X-450.9721 Y72.4153 I21.3033 J-3.4018
G2 X-450.6789 Y73.4704 I22.9491 J-5.8113
G2 X-449.6753 Y76.2085 I25.1608 J-7.6687
G2 X-448.9798 Y77.7224 I29.5214 J-12.6455
G1 X-448.7882 Y78.1071
G1 X-448.5856 Y78.5018
G1 X-448.3717 Y78.9066
G2 X-447.3389 Y80.7237 I40.5576 J-21.8509
G1 X-447.2018 Y80.951
G1 X-446.9153 Y81.4178
G1 X-446.6148 Y81.8965
G1 X-446.2999 Y82.3873
G1 X-446.2199 Y82.5105
G1 X-446.1389 Y82.6345
G1 X-445.8019 Y83.1443
G1 X-445.4497 Y83.6673
G1 X-445.0822 Y84.204
G1 X-444.6991 Y84.7551
G1 X-444.5033 Y85.0341
G1 X-444.1103 Y85.0727
G1 X-443.7175 Y85.1117
G1 X-442.9318 Y85.1913
G3 X-442.827 Y85.2021 I-0.0898 J1.3908
G1 X-441.1515 Y85.3781
G1 X-440.0349 Y85.4989
G1 X-439.3969 Y85.569
G1 X-438.6679 Y85.6499
G1 X-437.8348 Y85.7431
G1 X-431.1715 Y86.4979
G2 X-431.0665 Y86.5096 I0.3756 J-2.8847
G2 X-430.9607 Y86.5214 I0.3812 J-2.935
G2 X-430.8541 Y86.5333 I0.3872 J-2.9875
G2 X-430.7466 Y86.5453 I0.3933 J-3.0424
G2 X-430.6382 Y86.5573 I0.3997 J-3.0999
G2 X-430.529 Y86.5695 I0.4064 J-3.1603
G1 X-428.5326 Y86.7881
G1 X-427.4676 Y86.9018
G2 X-427.197 Y86.9303 I1.9273 J-17.0093
G2 X-421.4204 Y87.4875 I34.8438 J-330.9808
G1 X-421.0533 Y87.5189
G1 X-420.6802 Y87.5501
G1 X-420.3012 Y87.5813
G1 X-419.5186 Y87.6435
G2 X-415.9378 Y87.8872 I13.7603 J-175.6958
G2 X-415.4828 Y87.9129 I2.1681 J-34.4492
G1 X-414.5431 Y87.9615
G1 X-414.0656 Y87.9839
G1 X-413.5804 Y88.0051
G3 X-413.0041 Y87.6334 I1.8393 J2.2191
G3 X-412.3692 Y87.374 I2.2616 J4.6291
G3 X-411.9328 Y87.2384 I3.2751 J9.7719
G1 X-411.3472 Y87.074
G2 X-411.2717 Y87.0526 I-0.4713 J-1.806
G1 X-411.111 Y87.0059
G2 X-410.271 Y86.7087 I-1.9535 J-6.8565
G2 X-409.8176 Y86.4755 I-1.5865 J-3.6421
G1 X-409.7062 Y86.4052
G2 X-409.4784 Y86.2396 I-1.5956 J-2.4346
G2 X-409.0223 Y85.7801 I-1.8204 J-2.2629
G1 X-408.9639 Y85.8932
G1 X-408.9063 Y86.0069
G1 X-408.8684 Y86.0829
G3 X-408.8468 Y86.1265 I-0.3561 J0.2029
G3 X-408.6806 Y86.4775 I-8.059 J4.0321
G3 X-408.395 Y87.1997 I-6.0897 J2.8254
G3 X-408.2831 Y87.706 I-2.2985 J0.7738
G3 X-408.3027 Y88.0047 I-0.8661 J0.093
G3 X-408.5431 Y88.2816 I-0.3932 J-0.0985
G3 X-408.7501 Y88.3341 I-0.2813 J-0.6754
G3 X-408.9836 Y88.342 I-0.1692 J-1.5366
G3 X-409.2326 Y88.3221 I0.1943 J-3.9889
G3 X-409.7594 Y88.2389 I1.1157 J-8.7749
G1 X-410.3064 Y88.1399
G1 X-410.5986 Y88.0937
G2 X-410.6731 Y88.0834 I-0.183 J1.0467
G1 X-410.8269 Y88.0645
G1 X-410.9048 Y88.0563
G2 X-411.2253 Y88.0348 I-0.4391 J4.146
G2 X-411.865 Y88.0765 I-0.1251 J3.0058
G2 X-412.4859 Y88.312 I0.2897 J1.7001
G2 X-412.9895 Y88.8428 I0.8309 J1.2927
G2 X-413.1539 Y89.1964 I1.7081 J1.0092
G2 X-413.2652 Y89.5923 I2.8153 J1.0051
G3 X-422.5248 Y89.0308 I34.9885 J-653.7103
G3 X-431.774 Y88.3207 I36.0609 J-530.3018
G3 X-431.9196 Y88.3083 I0.2923 J-4.261
G3 X-432.0664 Y88.2956 I0.2866 J-4.1872
G1 X-432.6721 Y88.243
G1 X-433.964 Y88.1284
G3 X-436.9158 Y87.8539 I34.8386 J-390.6821
G1 X-438.4895 Y87.7004
G1 X-438.8891 Y87.6607
G1 X-439.714 Y87.5775
G1 X-440.5653 Y87.4903
G1 X-442.3809 Y87.2994
G3 X-447.1235 Y84.1439 I4.3851 J-11.7324
G3 X-448.3418 Y82.6688 I10.564 J-9.965
G3 X-448.9549 Y81.7637 I14.9991 J-10.8216
G1 X-449.1042 Y81.5243
G3 X-449.7437 Y80.4063 I16.7444 J-10.3197
G3 X-450.4003 Y79.0916 I26.7917 J-14.2008
G3 X-451.076 Y77.5581 I37.0534 J-17.2424
G3 X-451.1165 Y77.4606 I1.4848 J-0.6747
G3 X-451.1572 Y77.3623 I1.5163 J-0.6845
G3 X-451.1979 Y77.2631 I1.55 J-0.6951
G1 X-451.3641 Y76.8532
G1 X-451.5326 Y76.4293
G1 X-451.7037 Y75.9909
G1 X-451.8781 Y75.5378
G1 X-452.6608 Y73.4699
G1 X-452.8642 Y72.9373
G2 X-453.8378 Y70.5313 I-57.185 J21.7415
G2 X-454.4121 Y69.2741 I-32.5763 J14.1204
G2 X-455.0894 Y67.9668 I-24.5334 J11.8821
G1 X-455.1805 Y67.8051
G1 X-455.2738 Y67.6431
G1 X-455.3692 Y67.4806
G1 X-455.467 Y67.3178
G2 X-456.3706 Y65.9731 I-15.127 J9.1885
G3 X-456.2982 Y65.3802 I1.5306 J-0.114
G3 X-456.271 Y65.2988 I0.9889 J0.2852
G3 X-455.9615 Y64.6916 I2.8147 J1.0522
G3 X-455.6952 Y64.3245 I3.8655 J2.524
G3 X-455.298 Y63.8723 I5.0164 J4.0057
G3 X-455.0569 Y63.6283 I5.3133 J5.0102
G1 X-454.9263 Y63.5004
G1 X-454.8934 Y63.4677
G3 X-450.3429 Y63.3188 I8.6803 J195.6628
G1 X-450.0394 Y63.3125
G1 X-449.7156 Y63.3062
G3 X-444.5356 Y63.2609 I4.8624 J259.8149
G1 X-443.0555 Y63.2641
G3 X-439.1089 Y63.2994 I-2.5348 J504.3867
G3 X-438.9846 Y63.301 I0.01 J3.9471
G3 X-438.8593 Y63.3027 I0.0083 J4.0464
G3 X-438.733 Y63.3045 I0.0064 J4.1527
G3 X-438.6057 Y63.3062 I0.0044 J4.2668
G1 X-437.5198 Y63.3224
G1 X-436.3616 Y63.3416
G3 X-436.0674 Y63.3468 I-0.2519 J22.671
G1 X-434.8124 Y63.3701
G1 X-431.944 Y63.4286
G1 X-428.6659 Y63.5
G1 X-424.9195 Y63.579
G1 X-424.7027 Y63.5833
G0 Z5.0
G0 X-430.1923 Y98.6705
G1 Z0.0
G1 X-429.8848 Y98.7186
G1 X-429.0065 Y98.8535
G2 X-414.9237 Y100.8059 I81.5125 J-536.191
G1 X-414.0135 Y100.9198
G1 X-413.0737 Y101.0358
G1 X-411.0685 Y101.2788
G2 X-406.4823 Y101.8116 I70.6167 J-587.9277
G2 X-406.3383 Y101.8278 I0.7923 J-6.3831
G2 X-406.1938 Y101.844 I0.7987 J-6.449
G1 X-405.0003 Y101.9772
G1 X-403.7682 Y102.1126
G2 X-390.6133 Y103.4408 I93.0784 J-856.0539
G1 X-388.9145 Y103.5983
G1 X-388.0515 Y103.6773
G2 X-381.1012 Y111.7689 I153.9399 J-125.1961
G2 X-373.7465 Y119.4949 I164.6986 J-149.4185
G1 X-373.2595 Y119.9813
G1 X-372.7553 Y120.4818
G2 X-367.2853 Y125.7257 I168.7273 J-170.5272
G2 X-359.7479 Y132.4527 I176.2637 J-189.9099
G2 X-355.3251 Y136.1631 I176.0866 J-205.4079
G2 X-355.0438 Y136.3936 I13.3984 J-16.0645
G2 X-354.76 Y136.6255 I14.7469 J-17.7575
G2 X-354.4736 Y136.8589 I16.6111 J-20.0933
G2 X-349.1814 Y141.0561 I170.7978 J-209.9182
G1 X-348.502 Y141.5796
G1 X-347.8101 Y142.1092
G2 X-346.3765 Y143.1956 I261.1764 J-343.1698
G2 X-330.6565 Y154.1869 I164.7177 J-218.8462
G2 X-326.3367 Y156.9276 I134.9544 J-207.9361
G1 X-325.7887 Y157.267
G2 X-323.5174 Y158.6538 I110.0321 J-177.6504
G2 X-312.9547 Y164.6872 I130.0389 J-215.3974
G1 X-312.2802 Y164.9673
G1 X-311.6077 Y165.2519
G3 X-311.1603 Y165.444 I-27.2483 J64.0477
G3 X-310.5651 Y165.7032 I-15.0863 J35.4645
G3 X-310.2257 Y165.8527 I-9.2297 J21.4153
G3 X-307.5254 Y167.0836 I-50.7606 J114.9283
G3 X-307.3521 Y167.165 I-4.3048 J9.3947
G3 X-305.5097 Y168.0457 I-53.9344 J115.2032
G3 X-305.2726 Y168.1609 I-4.8121 J10.1977
G3 X-305.0282 Y168.2802 I-4.8908 J10.3315
G3 X-302.4306 Y169.5726 I-85.9364 J175.9844
G3 X-302.2662 Y169.6557 I-4.3816 J8.8679
G3 X-298.7709 Y171.4515 I-149.2296 J294.7626
G3 X-298.5495 Y171.5666 I-7.2361 J14.1843
G1 X-296.5275 Y172.6225
G3 X-296.006 Y172.8955 I-25.6677 J49.6524
G1 X-293.6219 Y174.1434
G1 X-292.3491 Y174.8066
G1 X-290.9897 Y175.5104
G1 X-290.287 Y175.8717
G1 X-289.5608 Y176.2429
G1 X-288.8101 Y176.624
G1 X-288.034 Y177.0148
G1 X-287.2313 Y177.4153
G1 X-286.4009 Y177.8253
G1 X-285.5418 Y178.2443
G1 X-284.6527 Y178.672
G2 X-282.747 Y179.566 I74.2936 J-155.8765
G2 X-278.3385 Y181.495 I50.1747 J-108.6695
G2 X-273.1947 Y183.4473 I35.2002 J-84.9911
G2 X-270.4018 Y184.3515 I25.1719 J-72.9838
G2 X-267.384 Y185.1937 I20.682 J-68.2821
G2 X-267.2889 Y185.2179 I0.616 J-2.2238
G2 X-267.1936 Y185.242 I0.6101 J-2.2136
G1 X-266.8479 Y185.3846
G2 X-266.7323 Y185.4312 I0.8793 J-2.0136
G1 X-266.268 Y185.6132
G1 X-265.957 Y185.7306
G1 X-265.5405 Y185.8825
G2 X-263.8576 Y186.44 I13.9764 J-39.3681
G2 X-260.4345 Y187.3605 I15.7633 J-51.7965
G1 X-259.9742 Y187.4681
G2 X-258.9199 Y187.7039 I16.2137 J-69.9979
G1 X-258.3566 Y187.8248
G2 X-258.2135 Y187.855 I0.6922 J-2.9248
G2 X-258.068 Y187.8856 I0.7092 J-3.0184
G2 X-257.9201 Y187.9164 I0.7278 J-3.1205
G2 X-257.7699 Y187.9475 I0.7485 J-3.233
G2 X-257.6172 Y187.979 I0.7714 J-3.3572
G2 X-257.4621 Y188.0108 I0.7971 J-3.4955
G1 X-256.8001 Y188.1446
G1 X-256.0936 Y188.2848
G2 X-255.9141 Y188.3201 I1.4283 J-6.7919
G2 X-255.7316 Y188.3559 I1.6687 J-8.032
G2 X-255.3551 Y188.4294 I3.6822 J-17.8629
G1 X-253.6337 Y188.7637
G1 X-252.716 Y188.9437
G1 X-252.4831 Y188.9899
G1 X-251.4898 Y189.1904
G1 X-251.2378 Y189.2423
G1 X-250.9818 Y189.2955
G1 X-250.722 Y189.3502
G3 X-248.3539 Y189.8837 I-16.8421 J80.2828
G1 X-248.2053 Y189.9198
G1 X-247.5927 Y190.0726
G3 X-244.8167 Y190.8643 I-11.5946 J45.9187
G3 X-243.3597 Y191.3641 I-11.7807 J36.7139
G3 X-242.6167 Y191.6475 I-16.0549 J43.2129
G3 X-242.242 Y191.7986 I-4.6474 J12.0601
G1 X-242.0539 Y191.8767
G3 X-240.4719 Y192.5991 I-11.0927 J26.387
G3 X-239.6748 Y193.0135 I-10.217 J20.6265
G3 X-238.8684 Y193.4731 I-10.5904 J19.5175
G3 X-237.2137 Y194.5683 I-10.4692 J17.6157
G3 X-236.4018 Y195.1958 I-10.373 J14.2594
G3 X-234.7807 Y196.6786 I-12.0951 J14.8512
G1 X-233.6861 Y196.8184
G1 X-232.5908 Y196.9531
G1 X-231.8603 Y197.0406
G1 X-230.8862 Y197.1549
G1 X-229.5869 Y197.3045
G1 X-227.8544 Y197.5019
G1 X-225.5447 Y197.7681
G1 X-224.2254 Y197.9255
G1 X-223.885 Y197.967
G1 X-223.5337 Y198.0104
G3 X-219.7921 Y198.5123 I-21.1349 J171.7701
G3 X-217.6602 Y198.843 I-20.3087 J137.9407
G3 X-217.1111 Y198.935 I-7.3922 J45.8228
G1 X-216.5448 Y199.0331
G1 X-215.9608 Y199.1379
G3 X-213.3007 Y199.6681 I-14.5235 J79.8069
G1 X-212.6174 Y199.8199
G3 X-211.9135 Y199.9837 I-9.2976 J41.5387
G3 X-208.7199 Y200.8338 I-13.7666 J58.1426
G1 X-208.318 Y200.9545
G1 X-207.9106 Y201.0804
G3 X-206.1836 Y201.6546 I-14.3119 J45.9257
G1 X-207.308 Y201.6741
G3 X-207.383 Y201.6753 I-0.0607 J-1.5038
G1 X-208.5826 Y201.6913
G3 X-210.9818 Y201.7099 I-4.1529 J-380.6013
G1 X-212.5812 Y201.7129
G1 X-213.0078 Y201.7125
G1 X-213.9827 Y201.7096
G1 X-215.0969 Y201.7032
G3 X-224.0088 Y201.5443 I3.1049 J-424.0216
G1 X-225.1968 Y201.5101
G3 X-227.9118 Y201.4218 I13.1326 J-445.6173
G1 X-228.6124 Y201.3968
G1 X-229.3356 Y201.3701
G1 X-230.0821 Y201.3417
G1 X-230.8526 Y201.3113
G1 X-231.6479 Y201.2789
G3 X-240.1283 Y200.8756 I29.6499 J-712.8031
G3 X-240.2613 Y200.8685 I0.1355 J-3.7928
G3 X-240.3949 Y200.8614 I0.1371 J-3.8168
G3 X-240.529 Y200.8542 I0.1388 J-3.8412
G3 X-240.6636 Y200.8469 I0.1404 J-3.866
G3 X-240.7987 Y200.8396 I0.1422 J-3.8913
G3 X-240.9344 Y200.8323 I0.1439 J-3.9168
G3 X-241.0705 Y200.8249 I0.1457 J-3.9427
G3 X-241.2073 Y200.8175 I0.1475 J-3.9691
G3 X-241.3445 Y200.81 I0.1493 J-3.9959
G3 X-241.4823 Y200.8024 I0.1511 J-4.023
G1 X-243.833 Y200.6705
G3 X-243.9805 Y200.662 I0.1895 J-4.5824
G3 X-244.1286 Y200.6534 I0.1921 J-4.6202
G1 X-246.6552 Y200.5043
G1 X-247.9592 Y200.425
G1 X-250.7406 Y200.2508
G3 X-250.9151 Y200.2396 I0.4023 J-7.6728
G1 X-252.3562 Y200.1467
G1 X-255.43 Y199.9436
G1 X-258.7082 Y199.7206
G1 X-259.5407 Y199.6631
G1 X-260.3864 Y199.6044
G1 X-262.1323 Y199.4821
G1 X-263.0192 Y199.4196
G1 X-263.92 Y199.3557
G1 X-265.7797 Y199.2233
G1 X-267.6993 Y199.0857
G1 X-276.474 Y198.4526
G1 X-276.7494 Y198.4328
G1 X-281.4478 Y198.0977
G1 X-282.0398 Y198.0559
G1 X-282.6364 Y198.014
G1 X-285.0999 Y197.8424
G1 X-286.1942 Y197.6632
G1 X-287.2887 Y197.4854
G1 X-289.4784 Y197.1343
G1 X-290.1043 Y197.0352
G1 X-290.4381 Y196.9826
G1 X-292.219 Y196.7046
G1 X-293.2369 Y196.5481
G1 X-294.4006 Y196.3712
G2 X-303.7237 Y195.0499 I-74.0092 J488.665
G2 X-322.4448 Y193.0099 I-54.6492 J414.5932
G1 X-323.6555 Y192.9063
G1 X-324.9054 Y192.8026
G1 X-325.5405 Y192.7511
G1 X-326.8516 Y192.6474
G1 X-328.2054 Y192.5438
G3 X-328.4589 Y192.268 I0.5285 J-0.7404
G3 X-328.5754 Y191.9119 I0.7949 J-0.4571
G3 X-328.588 Y191.6623 I1.6726 J-0.2095
G3 X-328.5714 Y191.3331 I7.5939 J0.2177
G1 X-328.5622 Y191.146
G1 X-328.5612 Y191.0465
G1 X-328.5654 Y190.9406
G2 X-328.6044 Y190.7024 I-1.1693 J0.0692
G2 X-328.7195 Y190.4498 I-0.8182 J0.2205
G2 X-328.944 Y190.218 I-0.8162 J0.5657
G3 X-338.2229 Y188.8071 I51.4082 J-369.3223
G1 X-339.5457 Y188.5879
G3 X-350.1044 Y186.6995 I84.6622 J-503.8505
G1 X-350.7844 Y186.5703
G1 X-351.4861 Y186.4361
G1 X-352.2102 Y186.2967
G1 X-352.9576 Y186.1519
G3 X-360.9183 Y184.5555 I140.2427 J-719.9544
G1 X-363.0383 Y184.1154
G1 X-365.2983 Y183.6404
G1 X-366.4643 Y183.393
G3 X-371.7911 Y182.246 I239.7442 J-1126.3179
G3 X-372.1265 Y182.1729 I4.9925 J-23.7245
G3 X-372.4645 Y182.0992 I5.5368 J-26.1977
G1 X-375.348 Y181.4668
G3 X-381.9347 Y180.0037 I369.4526 J-1678.7148
G1 X-385.446 Y179.2165
G1 X-389.1908 Y178.3742
G1 X-391.1236 Y177.9391
G2 X-399.9601 Y175.9576 I-837.3966 J3713.5813
G1 X-401.0826 Y175.7078
G3 X-402.693 Y176.3025 I-3.274 J-6.3871
G3 X-404.3955 Y176.5239 I-1.9144 J-8.0649
G1 X-404.6248 Y176.5281
G3 X-405.844 Y176.4653 I-0.0206 J-11.4774
G3 X-407.4464 Y176.2014 I1.6252 J-14.8597
G1 X-407.6509 Y176.1554
G3 X-409.7915 Y175.5493 I5.7385 J-24.3496
G1 X-410.0639 Y175.4591
G3 X-411.2988 Y175.0268 I14.6392 J-43.7903
G1 X-411.3763 Y174.9986
G1 X-411.6958 Y174.8821
G1 X-413.15 Y174.3472
G1 X-413.5259 Y174.2116
G1 X-413.7171 Y174.1437
G1 X-413.9116 Y174.0756
G2 X-414.7442 Y173.798 I-13.4639 J39.0023
G2 X-406.3368 Y167.1321 I-13.1968 J-25.2797
G2 X-404.1535 Y164.2758 I-22.9683 J-19.8187
G2 X-401.77 Y160.1216 I-27.5048 J-18.542
G2 X-400.6713 Y157.6149 I-32.8718 J-15.9024
G2 X-399.6374 Y154.6657 I-36.9514 J-14.6096
G1 X-399.5223 Y154.2858
G1 X-399.4089 Y153.8989
G2 X-398.5376 Y150.3237 I-43.7869 J-12.5654
G2 X-397.881 Y146.1781 I-50.3971 J-10.1072
G2 X-397.5313 Y141.4063 I-55.2377 J-6.4473
G2 X-397.5267 Y141.2563 I-3.0229 J-0.1664
G2 X-397.6124 Y135.7859 I-61.514 J-1.7719
G2 X-397.6228 Y135.6145 I-6.5627 J0.3102
G2 X-397.6336 Y135.4425 I-6.9407 J0.3511
G2 X-398.3316 Y129.2062 I-66.4011 J4.2744
G1 X-398.4411 Y128.7259
G2 X-398.4572 Y128.6574 I-0.7697 J0.1451
G2 X-398.4758 Y128.5791 I-0.8262 J0.1548
G2 X-398.6301 Y127.9544 I-24.0153 J5.6012
G1 X-398.7385 Y127.5394
G2 X-399.2143 Y125.8908 I-45.3633 J12.199
G2 X-400.3581 Y122.6562 I-43.7002 J13.6335
G2 X-403.3615 Y116.4927 I-42.2918 J16.7951
G2 X-405.8801 Y112.6753 I-36.3891 J21.2686
G2 X-406.6224 Y111.7069 I-33.4913 J24.9017
G2 X-408.4337 Y109.5856 I-28.7013 J22.6736
G2 X-409.4657 Y108.5134 I-25.2168 J23.2395
G2 X-412.0011 Y106.2434 I-22.2035 J22.2477
G1 X-412.169 Y106.1098
G2 X-413.6412 Y105.0209 I-17.3352 J21.8967
G2 X-415.2886 Y103.9678 I-14.6317 J21.075
G2 X-419.3372 Y102.051 I-12.4107 J20.9798
G2 X-421.63 Y101.3515 I-7.7418 J21.2658
G1 X-421.9761 Y101.2614
G1 X-422.3226 Y101.1733
G1 X-422.554 Y101.1157
G1 X-422.8628 Y101.0406
G1 X-423.0396 Y100.9985
G1 X-423.2417 Y100.9513
G1 X-423.7818 Y100.8296
G2 X-424.0911 Y100.7632 I-2.3073 J9.9903
G2 X-426.5844 Y100.3309 I-6.776 J31.6796
G1 X-426.7463 Y100.3102
G2 X-427.4883 Y100.2284 I-2.5225 J19.4871
G2 X-428.3392 Y100.1638 I-1.8489 J18.6985
G2 X-430.6154 Y100.1721 I-1.0723 J18.0316
G2 X-431.9094 Y100.3198 I0.8963 J13.5927
G2 X-433.3649 Y100.6414 I1.9805 J12.42
G2 X-434.9679 Y101.2312 I2.9727 J10.551
G2 X-436.6678 Y102.2064 I4.3806 J9.6053
G2 X-438.3707 Y103.6773 I6.599 J9.3617
G1 X-438.5633 Y103.9887
G3 X-438.7579 Y104.2988 I-12.4809 J-7.6139
G1 X-438.8888 Y104.5048
G1 X-439.0652 Y104.7783
G1 X-439.1669 Y104.934
G3 X-440.0152 Y106.1562 I-20.6483 J-13.4256
G3 X-440.6365 Y106.9297 I-9.3044 J-6.837
G3 X-441.0331 Y107.3358 I-4.3821 J-3.8832
G3 X-441.2684 Y107.5273 I-1.8708 J-2.0584
G3 X-441.554 Y107.6851 I-0.7384 J-0.9991
G3 X-441.7219 Y107.7212 I-0.2047 J-0.5425
G3 X-441.9054 Y107.6844 I-0.0237 J-0.3576
G3 X-442.0672 Y107.5406 I0.2036 J-0.3919
G3 X-442.1813 Y107.3196 I0.7124 J-0.5076
G3 X-442.2573 Y107.0572 I1.6877 J-0.6313
G3 X-442.3422 Y106.4349 I4.5914 J-0.9434
G3 X-442.368 Y105.8232 I8.9698 J-0.6848
G3 X-442.3652 Y105.1445 I16.2054 J-0.2712
G3 X-442.3259 Y104.0319 I40.2352 J0.863
G1 X-442.2995 Y103.4884
G1 X-442.2331 Y102.1537
G1 X-442.2081 Y101.5557
G1 X-442.1909 Y101.0148
G1 X-442.1815 Y100.5049
G2 X-442.1904 Y99.5212 I-22.967 J-0.2847
G2 X-442.2142 Y99.026 I-29.0925 J1.1471
G2 X-442.3332 Y97.9921 I-9.5422 J0.5752
G2 X-442.3859 Y97.7325 I-5.0374 J0.8869
G2 X-442.4534 Y97.4712 I-3.4979 J0.7639
G2 X-442.5407 Y97.2096 I-2.5264 J0.698
G2 X-442.8141 Y96.6967 I-1.9331 J0.7011
G2 X-443.0242 Y96.4781 I-1.0072 J0.7574
G2 X-439.4412 Y97.1332 I58.6596 J-310.6814
G2 X-439.3255 Y97.1538 I0.5099 J-2.5328
G2 X-439.206 Y97.175 I0.519 J-2.5775
G2 X-435.3811 Y97.8341 I61.0992 J-343.1376
G2 X-434.8706 Y97.9193 I5.518 J-31.5001
G2 X-432.1466 Y98.3632 I78.8651 J-475.4058
G2 X-432.0607 Y98.3769 I0.4327 J-2.4348
G2 X-431.9741 Y98.3907 I0.4347 J-2.4478
G2 X-431.8869 Y98.4046 I0.4366 J-2.4609
G2 X-431.799 Y98.4185 I0.4385 J-2.474
G2 X-431.7103 Y98.4326 I0.4405 J-2.4874
G2 X-431.621 Y98.4468 I0.4425 J-2.5008
G2 X-431.531 Y98.461 I0.4445 J-2.5143
G1 X-430.1923 Y98.6705
G0 Z5.0
G0 X-429.9047 Y101.9062
G1 Z0.0
G3 X-429.7664 Y101.8948 I1.0173 J11.4461
G3 X-429.7126 Y101.8905 I0.0666 J0.5019
G3 X-428.7315 Y101.8491 I1.0999 J14.4196
G1 X-428.4783 Y101.8488
G3 X-427.3251 Y101.8947 I-0.1804 J19.0033
G3 X-426.713 Y101.9483 I-1.9192 J25.475
G3 X-425.3269 Y102.1359 I-2.3288 J22.4136
G3 X-421.7424 Y102.9932 I-4.6576 J27.3984
G3 X-419.7623 Y103.6792 I-8.6926 J28.29
G3 X-417.5777 Y104.6285 I-9.7728 J25.4783
G3 X-411.9069 Y108.7895 I-18.1742 J30.7134
G3 X-407.154 Y113.9743 I-24.5095 J27.2387
G3 X-404.5631 Y117.8868 I-30.5943 J23.0742
G3 X-401.8674 Y123.5272 I-35.0395 J20.2102
G3 X-399.6417 Y131.5457 I-40.0851 J15.4446
G3 X-399.3108 Y133.7426 I-43.59 J7.6895
G1 X-399.2442 Y134.3028
G3 X-399.4813 Y146.2737 I-45.5758 J5.0853
G3 X-399.4954 Y146.3666 I-2.0352 J-0.2621
G2 X-399.8869 Y146.1827 I-1.5306 J2.7485
G2 X-400.2986 Y146.0504 I-1.482 J3.9075
G2 X-401.1549 Y145.9417 I-0.8251 J3.0706
G2 X-401.7259 Y146.0297 I0.0178 J2.0107
G2 X-402.0298 Y146.1653 I0.4036 J1.3132
G2 X-402.3262 Y146.4103 I0.665 J1.1062
G2 X-402.5617 Y146.79 I1.0218 J0.8965
G2 X-403.1465 Y146.4984 I-2.5065 J4.294
G2 X-403.3504 Y146.4212 I-1.6827 J4.1372
G2 X-403.6306 Y146.3432 I-0.7774 J2.2519
G2 X-404.0172 Y146.305 I-0.3604 J1.6692
G2 X-404.5267 Y146.4143 I0.0355 J1.4075
G2 X-404.6545 Y146.4712 I0.4019 J1.0748
G2 X-404.7869 Y146.5397 I0.825 J1.7566
G1 X-404.8541 Y146.5772
G1 X-404.9227 Y146.6169
G1 X-405.2327 Y146.8003
G1 X-405.3997 Y146.8933
G3 X-406.3411 Y147.2335 I-1.5682 J-2.8668
G3 X-406.9067 Y147.2984 I-0.747 J-4.0127
G3 X-407.5499 Y147.2833 I-0.2093 J-4.7746
G3 X-408.2712 Y147.1853 I0.7381 J-8.1351
G3 X-409.0772 Y147.0026 I2.0817 J-11.0567
G2 X-409.7598 Y147.3563 I1.803 J4.3141
G2 X-410.3366 Y147.8646 I1.2229 J1.9691
G2 X-410.6085 Y148.3021 I2.012 J1.5538
G2 X-410.6383 Y148.3617 I0.4587 J0.2666
G1 X-410.7708 Y148.6346
G1 X-410.8443 Y148.7784
G1 X-410.8842 Y148.8515
G3 X-411.4217 Y149.5524 I-2.6101 J-1.445
G3 X-411.805 Y149.8815 I-2.6731 J-2.7254
G3 X-412.2791 Y150.2063 I-3.8141 J-5.0587
G1 X-412.3047 Y150.5552
G2 X-412.3248 Y150.9044 I10.9551 J0.8052
G2 X-412.3382 Y151.6038 I10.4192 J0.5496
G1 X-412.3317 Y151.8037
G2 X-412.2745 Y152.3341 I4.1114 J-0.175
G2 X-412.0573 Y153.0138 I2.7355 J-0.4997
G1 X-411.9735 Y153.1853
G1 X-411.9281 Y153.2727
G2 X-411.9046 Y153.317 I0.4599 J-0.2153
G1 X-411.6887 Y153.7192
G1 X-411.5771 Y153.9352
G1 X-411.5213 Y154.0475
G1 X-411.4067 Y154.2888
G1 X-411.3499 Y154.4144
G3 X-411.1238 Y153.921 I3.6467 J1.3728
G3 X-410.8205 Y153.471 I2.696 J1.4894
G3 X-409.9544 Y152.8229 I1.7492 J1.4349
G3 X-409.2569 Y152.6239 I1.2138 J2.932
G3 X-409.0654 Y152.5952 I0.5798 J3.2194
G3 X-408.9663 Y152.5834 I0.2288 J1.5029
G3 X-408.8637 Y152.5731 I0.183 J1.3076
G3 X-408.6452 Y152.5567 I0.5103 J5.3178
G3 X-408.4124 Y152.5456 I3.1011 J62.7844
G3 X-407.8838 Y152.5352 I0.8128 J27.8922
G1 X-407.2854 Y152.5286
G2 X-406.9679 Y152.5196 I-0.1398 J-10.4715
G2 X-406.8046 Y152.512 I-0.0502 J-2.8372
G2 X-406.4422 Y152.9969 I1.7863 J-0.9569
G2 X-405.9699 Y153.3758 I2.0964 J-2.1295
G2 X-405.6232 Y153.5819 I2.1235 J-3.1776
G2 X-405.6006 Y153.594 I0.102 J-0.163
G2 X-405.5776 Y153.6062 I0.103 J-0.1662
G2 X-405.5542 Y153.6185 I0.104 J-0.1696
G2 X-405.5303 Y153.6309 I0.105 J-0.173
G2 X-405.506 Y153.6434 I0.106 J-0.1766
G2 X-404.9799 Y153.8866 I3.2582 J-6.3577
G1 X-404.8372 Y153.946
G2 X-404.8008 Y153.9608 I0.1735 J-0.3739
G2 X-404.7639 Y153.9757 I0.182 J-0.3973
G2 X-404.7263 Y153.9908 I0.1923 J-0.4251
G1 X-404.3821 Y154.1245
G1 X-403.9881 Y154.2727
G1 X-403.5396 Y154.4438
G3 X-403.0343 Y154.6546 I-3.2352 J8.4646
G3 X-402.4795 Y154.9425 I-1.9208 J4.3815
G3 X-402.2049 Y155.1326 I-1.1997 J2.0255
G3 X-401.9456 Y155.3799 I-1.1651 J1.4812
G3 X-401.7401 Y155.7098 I-0.9953 J0.849
G3 X-401.6521 Y156.1304 I-1.0496 J0.439
G3 X-401.7189 Y156.605 I-1.5601 J0.0227
G3 X-401.9165 Y157.0929 I-2.6702 J-0.7976
G3 X-402.2082 Y157.5799 I-3.9593 J-2.041
G3 X-402.3786 Y157.8189 I-4.231 J-2.8344
G3 X-402.3896 Y157.8337 I-0.0793 J-0.0477
G3 X-402.4803 Y157.9524 I-2.9865 J-2.1882
G1 X-402.5743 Y158.0709
G3 X-402.9851 Y158.5492 I-9.1396 J-7.4335
G3 X-403.5969 Y159.9698 I-11.781 J-4.2324
G1 X-403.6442 Y160.0615
G3 X-403.91 Y160.5434 I-8.6349 J-4.4474
G3 X-405.1861 Y162.3333 I-10.4484 J-6.0991
G3 X-406.1972 Y163.3952 I-10.6261 J-9.1063
G3 X-407.6853 Y164.6594 I-12.8312 J-13.596
G3 X-407.7839 Y164.7347 I-1.5501 J-1.9266
G3 X-408.7002 Y165.4003 I-17.7817 J-23.5153
G3 X-408.8184 Y165.4823 I-1.4338 J-1.9395
G3 X-408.8781 Y165.5235 I-1.0072 J-1.397
G3 X-408.9383 Y165.5648 I-1.0124 J-1.4102
G3 X-408.9991 Y165.6064 I-1.0185 J-1.4248
G3 X-409.0604 Y165.6481 I-1.0255 J-1.4407
G3 X-409.1223 Y165.6901 I-1.0335 J-1.4579
G3 X-409.1847 Y165.7322 I-1.0425 J-1.4767
G3 X-409.2477 Y165.7746 I-1.0525 J-1.4969
G3 X-409.3113 Y165.8172 I-1.0636 J-1.5189
G3 X-409.3755 Y165.86 I-1.076 J-1.5426
G3 X-409.4402 Y165.9031 I-1.0897 J-1.5684
G3 X-409.5055 Y165.9463 I-1.1047 J-1.5962
G3 X-409.5714 Y165.9898 I-1.1213 J-1.6264
G3 X-409.6378 Y166.0336 I-1.1396 J-1.6591
G1 X-410.2066 Y166.4028
G3 X-410.3516 Y166.4958 I-2.0936 J-3.106
G3 X-411.678 Y167.3374 I-239.5075 J-375.9952
G2 X-412.343 Y167.4176 I0.3104 J5.3726
G2 X-412.9973 Y167.561 I1.5612 J8.6883
G1 X-413.0839 Y167.5829
G1 X-413.2815 Y167.6345
G1 X-413.5069 Y167.6946
G3 X-413.7645 Y167.763 I-2.1723 J-7.6664
G3 X-414.457 Y167.9224 I-2.4305 J-8.9754
G3 X-414.8595 Y167.9772 I-0.6977 J-3.6157
G1 X-414.9643 Y167.984
G3 X-415.4453 Y167.9579 I-0.1284 J-2.0787
G3 X-415.9703 Y167.7664 I0.2612 J-1.5312
G3 X-416.454 Y167.3212 I0.8927 J-1.4554
G3 X-416.6467 Y167.0222 I2.2955 J-1.6908
G3 X-417.4156 Y167.3065 I-1.0275 J-1.5965
G3 X-418.2342 Y167.2606 I-0.2852 J-2.2309
G3 X-418.7532 Y167.0891 I0.7354 J-3.0967
G3 X-419.3919 Y166.7496 I1.6269 J-3.8317
G3 X-420.151 Y166.1736 I3.2107 J-5.0192
G3 X-419.6238 Y165.3998 I6.6195 J3.9433
G3 X-418.9896 Y164.711 I4.3063 J3.3288
G3 X-418.5017 Y164.3205 I3.3013 J3.6243
G3 X-417.7749 Y163.9117 I2.4246 J3.4605
G3 X-416.7101 Y163.59 I1.8992 J4.3622
G3 X-416.0786 Y163.5119 I1.0368 J5.7948
G3 X-415.353 Y163.4959 I0.5173 J6.985
G3 X-415.3072 Y163.497 I0.0116 J0.4683
G3 X-414.4766 Y163.5499 I-0.4439 J13.5104
G3 X-413.5378 Y163.6596 I-2.449 J25.0367
G1 X-413.04 Y163.7266
G2 X-412.9137 Y163.7437 I0.4113 J-2.5644
G1 X-412.3769 Y163.8137
G1 X-412.1 Y163.8466
G2 X-411.5105 Y163.9042 I2.2891 J-20.3956
G2 X-410.8824 Y163.9382 I1.068 J-13.9041
G1 X-410.8032 Y163.9399
G1 X-410.7234 Y163.941
G2 X-410.0452 Y163.9194 I0.1097 J-7.2275
G2 X-409.3293 Y163.8235 I-0.4666 J-6.2012
G2 X-408.5857 Y163.6198 I-0.8983 J-4.7377
G2 X-407.0528 Y162.7212 I-1.6325 J-4.5418
G2 X-406.3794 Y162.0388 I-4.0543 J-4.6742
G3 X-406.4514 Y161.5045 I2.1137 J-0.5567
G3 X-406.4072 Y160.9672 I3.1881 J-0.0087
G3 X-406.3324 Y160.6158 I3.3978 J0.5394
G1 X-406.3079 Y160.5231
G3 X-406.1537 Y160.0374 I6.2758 J1.7252
G3 X-405.9093 Y159.4058 I14.7564 J5.3468
G1 X-405.7616 Y159.0489
G2 X-405.595 Y158.641 I-16.8507 J-7.121
G2 X-405.4204 Y158.1696 I-7.87 J-3.1818
G1 X-405.4104 Y158.1395
G2 X-405.2653 Y157.5792 I-3.543 J-1.2162
G2 X-405.2348 Y157.2709 I-2.1665 J-0.37
G2 X-405.2666 Y156.9389 I-1.4478 J-0.0288
G2 X-405.4084 Y156.6028 I-1.0139 J0.2297
G2 X-405.6906 Y156.3105 I-0.9625 J0.6468
G2 X-406.0868 Y156.095 I-1.0471 J1.4529
G2 X-406.5554 Y155.9498 I-1.1425 J2.8604
G2 X-406.8046 Y155.899 I-0.974 J4.1347
G3 X-406.8435 Y156.3771 I-2.9106 J0.0037
G3 X-406.9751 Y156.8384 I-2.0764 J-0.3429
G3 X-407.5554 Y157.5967 I-1.7068 J-0.7051
G3 X-408.1111 Y157.9152 I-1.4638 J-1.9095
G3 X-408.4562 Y158.0356 I-1.3892 J-3.4273
G3 X-409.3996 Y158.1976 I-1.2625 J-4.524
G3 X-410.6404 Y158.188 I-0.56 J-7.8369
G1 X-410.7995 Y158.1741
G3 X-412.4196 Y157.9076 I1.2132 J-12.4291
G3 X-412.8418 Y157.8032 I2.6136 J-11.4846
G3 X-413.8978 Y158.7125 I-2.3448 J-1.6555
G3 X-414.3289 Y158.8959 I-1.5319 J-3.0021
G3 X-414.9283 Y159.0656 I-1.6106 J-4.5449
G3 X-415.7402 Y159.2185 I-2.9125 J-13.2324
G1 X-416.2039 Y159.2992
G2 X-416.7281 Y159.4104 I1.606 J8.8625
G2 X-417.3116 Y159.5916 I1.0415 J4.3823
G2 X-417.6102 Y159.723 I1.0851 J2.8706
G2 X-418.2339 Y160.1364 I1.3192 J2.6677
G3 X-418.0592 Y160.8744 I-4.3444 J1.4181
G3 X-418.0378 Y161.1267 I-2.2483 J0.3173
G3 X-418.0661 Y161.4637 I-1.3482 J0.0565
G3 X-418.2896 Y161.8629 I-0.7126 J-0.1369
G3 X-418.5222 Y162.0019 I-0.5106 J-0.5904
G3 X-418.8254 Y162.0781 I-0.4632 J-1.2008
G3 X-419.177 Y162.102 I-0.3344 J-2.3255
G1 X-419.3629 Y162.0999
G1 X-419.5588 Y162.0915
G1 X-419.7651 Y162.0784
G3 X-419.7911 Y162.0765 I-0.0002 J-0.1826
G3 X-420.0096 Y162.0605 I0.4279 J-7.3351
G2 X-420.4885 Y162.0307 I-1.4613 J19.6123
G1 X-420.5491 Y162.0284
G2 X-421.0731 Y162.0354 I-0.1966 J4.8879
G2 X-421.634 Y162.1418 I0.1333 J2.2332
G2 X-421.9077 Y162.2681 I0.4393 J1.3121
G2 X-422.3686 Y162.7848 I0.6114 J1.0093
G3 X-422.4284 Y162.9716 I-0.8401 J-0.1656
G3 X-422.5174 Y163.1464 I-1.4167 J-0.6112
G3 X-422.7221 Y163.4793 I-8.5843 J-5.0493
G1 X-422.8594 Y163.7005
G2 X-423.025 Y164.0051 I3.1589 J1.915
G2 X-423.1728 Y164.4443 I1.5737 J0.7739
G1 X-423.1815 Y164.5036
G2 X-423.0417 Y165.1405 I0.947 J0.1258
G2 X-422.792 Y165.4331 I1.1724 J-0.7474
G1 X-422.8629 Y165.3612
G2 X-422.8872 Y165.3378 I-0.188 J0.1698
G1 X-422.9199 Y165.3069
G2 X-423.0559 Y165.1897 I-1.6957 J1.8296
G2 X-423.3559 Y164.9924 I-1.2587 J1.5878
G2 X-424.0572 Y164.8492 I-0.5865 J1.0829
G2 X-424.5223 Y164.9794 I0.1535 J1.4435
G2 X-424.7655 Y165.1099 I0.9691 J2.0992
G2 X-425.023 Y165.2883 I1.7243 J2.7639
G2 X-425.2951 Y165.5152 I3.0075 J3.8829
G2 X-425.5841 Y165.7906 I3.9122 J4.3942
G2 X-425.6018 Y165.8084 I0.1198 J0.1369
G2 X-425.9136 Y166.1348 I9.2125 J9.1118
G1 X-426.2545 Y166.5081
G1 X-426.4342 Y166.7057
G1 X-426.6256 Y166.913
G1 X-426.6746 Y166.9652
G1 X-426.8845 Y167.1826
G3 X-427.3839 Y167.6422 I-5.0303 J-4.9647
G3 X-427.6729 Y167.8567 I-1.9615 J-2.3411
G1 X-427.7497 Y167.906
G3 X-428.096 Y168.083 I-1.2174 J-1.9551
G3 X-428.5012 Y168.186 I-0.559 J-1.3502
G2 X-428.7977 Y168.437 I1.074 J1.5697
G2 X-429.0189 Y168.7562 I0.8241 J0.8073
G2 X-429.0897 Y169.007 I0.7487 J0.3467
G2 X-429.0438 Y169.3543 I0.7213 J0.0816
G2 X-428.7603 Y169.7295 I0.8449 J-0.3439
G2 X-428.534 Y169.8754 I0.8025 J-0.9956
G2 X-427.8733 Y170.0496 I0.7589 J-1.5387
G2 X-427.0496 Y169.951 I0.1401 J-2.3193
G3 X-423.9669 Y169.7972 I1.8891 J6.8938
G3 X-422.9571 Y170.0272 I-1.5096 J8.9603
G3 X-421.6537 Y170.4744 I-4.2854 J14.6131
G3 X-420.924 Y170.7673 I-22.8841 J58.0577
G2 X-420.0938 Y171.1058 I29.0487 J-70.0674
G2 X-419.1367 Y171.4643 I6.8683 J-16.8803
G2 X-418.0164 Y171.788 I3.6606 J-10.5665
G2 X-416.6964 Y171.9777 I1.7425 J-7.4373
G2 X-415.1676 Y171.8956 I0.3822 J-7.1541
G2 X-415.5341 Y172.04 I1.9158 J5.3971
G2 X-415.8911 Y172.2061 I2.4506 J5.734
G2 X-416.1245 Y172.3267 I1.979 J4.1148
G2 X-417.0277 Y172.8612 I7.2577 J13.296
G1 X-417.2802 Y173.0229
G1 X-417.5677 Y173.2092
G1 X-417.721 Y173.3086
G3 X-418.5476 Y173.8234 I-10.6396 J-16.1639
G1 X-418.7733 Y173.9519
G3 X-419.3024 Y174.2214 I-3.4618 J-6.1439
G1 X-421.3218 Y173.6808
G1 X-421.6103 Y173.6034
G1 X-423.9173 Y172.9816
G1 X-425.4542 Y172.5637
G1 X-426.3322 Y172.3234
G1 X-427.3351 Y172.0471
G1 X-428.4806 Y171.7291
G1 X-429.7888 Y171.3623
G1 X-430.1263 Y171.267
G1 X-430.4746 Y171.1683
G1 X-430.834 Y171.0661
G1 X-431.2048 Y170.9602
G3 X-432.8988 Y170.4716 I169.0232 J-589.0972
G1 X-433.8012 Y170.2075
G1 X-434.7629 Y169.9228
G1 X-435.7878 Y169.6157
G1 X-436.8796 Y169.2838
G1 X-438.0427 Y168.9246
G2 X-436.7115 Y168.8121 I0.0062 J-7.8596
G2 X-435.4121 Y168.5017 I-1.6212 J-9.6604
G2 X-434.569 Y168.2146 I-3.8929 J-12.8136
G2 X-433.4676 Y167.7741 I-8.6349 J-23.1873
G1 X-432.8439 Y167.5099
G1 X-432.5112 Y167.3693
G1 X-432.1555 Y167.2216
G1 X-431.7746 Y167.0684
G3 X-431.3656 Y166.9123 I7.7902 J19.7967
G3 X-430.4164 Y166.597 I4.805 J12.877
G2 X-426.5054 Y164.3857 I-11.5976 J-25.0762
G2 X-422.9748 Y161.6068 I-17.7081 J-26.1312
G2 X-420.8447 Y159.4999 I-23.4286 J-25.8166
G2 X-418.2885 Y156.4336 I-27.5872 J-25.5963
G2 X-415.3926 Y151.9746 I-32.3459 J-24.1768
G1 X-415.2288 Y151.6791
G2 X-412.3423 Y145.095 I-35.1244 J-19.3236
G2 X-411.7815 Y143.2596 I-35.4109 J-11.8232
G2 X-410.8795 Y138.9684 I-32.7253 J-9.1188
G2 X-410.6432 Y136.6394 I-29.8178 J-4.2013
G2 X-410.5973 Y135.4311 I-25.213 J-1.5626
G2 X-410.6095 Y134.1822 I-25.8563 J-0.3737
G2 X-411.2203 Y128.4446 I-42.6857 J1.6427
G2 X-412.6301 Y122.8494 I-38.5961 J6.7499
G2 X-414.0434 Y119.2689 I-33.3768 J11.106
G2 X-416.5555 Y114.7921 I-28.6313 J13.1223
G2 X-416.6465 Y114.6582 I-3.5456 J2.3131
G2 X-418.4405 Y112.3026 I-23.4521 J15.9998
G2 X-419.4958 Y111.1263 I-22.0157 J18.6907
G2 X-426.1882 Y106.0049 I-19.3887 J18.4026
G3 X-425.8515 Y105.7061 I1.8322 J1.7254
G3 X-425.4621 Y105.4801 I1.1751 J1.5766
G3 X-424.5756 Y105.3499 I0.6875 J1.5978
G3 X-423.9919 Y105.4898 I-0.2555 J2.3544
G3 X-423.2812 Y105.837 I-1.4254 J3.8177
G3 X-422.4387 Y106.4309 I-4.2875 J6.9774
G3 X-421.9914 Y106.803 I-6.8572 J8.6965
G3 X-420.888 Y107.8233 I-19.1081 J21.7729
G1 X-420.282 Y108.4157
G1 X-419.5997 Y109.0864
G2 X-418.8199 Y109.8356 I29.5184 J-29.9414
G1 X-418.6162 Y110.0255
G2 X-418.1781 Y110.4229 I14.7189 J-15.7886
G1 X-418.0655 Y110.5222
G1 X-417.8316 Y110.7245
G1 X-417.5875 Y110.9294
G1 X-417.5254 Y110.9804
G2 X-417.3988 Y111.0831 I3.7987 J-4.5566
G1 X-417.1348 Y111.2907
G2 X-415.8704 Y112.1475 I7.1421 J-9.1783
G1 X-415.7014 Y112.2427
G1 X-415.5274 Y112.3356
G2 X-415.1612 Y112.5131 I3.0414 J-5.8062
G2 X-414.7727 Y112.6739 I2.1753 J-4.7063
G2 X-413.9078 Y112.923 I1.8863 J-4.9242
G1 X-413.7961 Y112.9436
G2 X-411.678 Y112.7881 I0.756 J-4.2033
G2 X-413.2236 Y110.6192 I-12.8075 J7.4921
G2 X-415.0948 Y108.724 I-14.2404 J12.1879
G2 X-415.6737 Y108.2295 I-12.5414 J14.0982
G2 X-415.8258 Y108.1051 I-3.8903 J4.5988
G2 X-417.5047 Y106.854 I-16.5693 J20.4843
G1 X-417.7281 Y106.7021
G2 X-420.1816 Y105.1991 I-19.0917 J28.4132
G2 X-421.63 Y104.4232 I-21.3097 J38.0394
G1 X-423.1303 Y103.9802
G2 X-424.6387 Y103.566 I-11.6398 J39.4326
G1 X-424.8412 Y103.5158
G2 X-425.9285 Y103.2799 I-5.1021 J20.893
G2 X-427.3989 Y103.0795 I-2.7054 J14.3538
G2 X-427.4929 Y103.0723 I-0.1734 J1.6492
G2 X-428.3548 Y103.0421 I-0.8036 J10.6169
G2 X-430.6433 Y103.3053 I0.0388 J10.4183
G2 X-431.9102 Y103.6773 I2.693 J11.5148
G3 X-431.8562 Y103.8403 I-0.8463 J0.3706
G3 X-431.8418 Y104.0115 I-0.6403 J0.1399
G3 X-431.9812 Y104.3228 I-0.4961 J-0.0353
G3 X-432.1615 Y104.4647 I-0.5949 J-0.5704
G3 X-432.4332 Y104.5892 I-0.7782 J-1.3392
G3 X-432.8027 Y104.6901 I-0.8491 J-2.3831
G3 X-433.2842 Y104.7649 I-0.9335 J-4.4194
G3 X-433.4123 Y104.7781 I-0.2497 J-1.7968
G3 X-434.0697 Y104.8173 I-0.9824 J-10.9586
G3 X-434.9197 Y104.8246 I-0.5824 J-18.3253
G1 X-435.4 Y104.8226
G1 X-435.461 Y104.8232
G1 X-435.5864 Y104.827
G2 X-435.715 Y104.8411 I0.0284 J0.8519
G3 X-434.5643 Y103.6061 I4.9669 J3.4747
G3 X-433.1292 Y102.7175 I4.2427 J5.2481
G3 X-432.0764 Y102.318 I3.4281 J7.4473
G3 X-431.455 Y102.1516 I2.7833 J9.1534
G3 X-429.9047 Y101.9062 I2.5677 J11.2007
G0 Z5.0
G0 X-430.8697 Y107.105
G1 Z0.0
G3 X-427.5241 Y108.1092 I-2.9554 J15.9214
G3 X-424.7218 Y109.603 I-7.0108 J16.5267
G3 X-423.2466 Y110.6609 I-11.1497 J17.1061
G3 X-421.6773 Y112.014 I-13.9916 J17.8142
G3 X-420.8896 Y112.7881 I-16.9771 J18.0634
G3 X-418.2761 Y116.1514 I-26.4093 J23.2184
G3 X-416.1066 Y119.817 I-26.91 J18.4015
G3 X-413.3673 Y127.8656 I-26.9917 J13.6768
G3 X-412.8318 Y133.52 I-30.474 J5.7388
G3 X-412.9774 Y136.7648 I-32.8135 J0.1536
G1 X-413.018 Y137.1754
G3 X-413.6071 Y140.8973 I-36.4123 J-3.8555
G1 X-413.6568 Y141.1295
G3 X-414.803 Y145.3093 I-39.5518 J-8.5996
G3 X-415.1676 Y146.3666 I-35.7286 J-11.7276
G3 X-416.3572 Y149.33 I-50.6841 J-18.626
G3 X-417.7331 Y152.2117 I-41.5064 J-18.0485
G3 X-418.7718 Y154.0704 I-34.1139 J-17.843
G3 X-420.3338 Y156.4416 I-27.5694 J-16.4614
G3 X-421.3295 Y157.724 I-22.7584 J-16.6416
G3 X-422.5701 Y159.1052 I-16.9492 J-13.9768
G3 X-424.1337 Y160.5432 I-13.933 J-13.5808
G3 X-426.1211 Y161.9472 I-10.3214 J-12.5016
G3 X-428.6439 Y163.1449 I-7.429 J-12.3924
G3 X-431.7758 Y163.865 I-4.5873 J-12.7808
G3 X-433.4974 Y163.9486 I-1.5445 J-14.0436
G3 X-437.75 Y162.5904 I4.208 J-20.5131
G3 X-441.6285 Y160.3798 I8.8715 J-20.0719
G3 X-443.9423 Y158.5045 I14.1634 J-19.8411
G3 X-445.1576 Y157.3128 I17.9547 J-19.5256
G3 X-448.007 Y153.7926 I20.5745 J-19.5669
G3 X-449.3822 Y151.6011 I25.6477 J-17.6224
G3 X-450.7326 Y148.9756 I28.6375 J-16.3886
G3 X-450.8099 Y148.8064 I4.4586 J-2.1398
G3 X-450.8869 Y148.6354 I4.7011 J-2.2206
G3 X-453.3043 Y141.068 I33.0524 J-14.7285
G3 X-453.4087 Y141.0671 I-0.0366 J-1.6789
G3 X-453.4435 Y141.0664 I-0.0122 J-0.2606
G1 X-453.5828 Y141.0623
G1 X-453.8612 Y141.0522
G2 X-454.4183 Y141.0609 I-0.2109 J4.3331
G1 X-454.4922 Y141.0689
G1 X-454.5304 Y141.0741
G2 X-454.9262 Y141.1827 I0.183 J1.4423
G2 X-455.3602 Y141.5279 I0.4293 J0.9852
G2 X-455.522 Y141.8066 I1.195 J0.8799
G2 X-454.8732 Y147.2811 I31.623 J-0.972
G2 X-453.267 Y152.5549 I30.4549 J-6.3942
G2 X-451.7177 Y155.8899 I33.1845 J-13.3883
G2 X-450.6925 Y157.7241 I37.0604 J-19.5118
G1 X-450.4138 Y158.1893
G1 X-450.1206 Y158.666
G2 X-448.7175 Y160.8031 I48.3935 J-30.245
G1 X-448.3404 Y161.3444
G2 X-446.5565 Y163.7712 I65.3236 J-46.1507
G1 X-446.0824 Y164.387
G2 X-445.0571 Y165.6881 I73.0074 J-56.4781
G1 X-444.9266 Y165.851
G3 X-451.9813 Y159.8704 I12.2196 J-21.5652
G3 X-453.7845 Y157.3502 I20.6207 J-16.6589
G3 X-455.7152 Y153.7009 I23.565 J-14.803
G3 X-456.5758 Y151.5038 I26.1056 J-11.4919
G3 X-457.3479 Y148.9218 I29.5465 J-10.2425
G3 X-457.9631 Y145.907 I32.4733 J-8.1964
G3 X-458.3315 Y142.4149 I34.905 J-5.4484
G3 X-458.3367 Y138.4093 I36.5089 J-2.0493
G3 X-456.3351 Y128.0095 I38.6971 J2.0551
G3 X-453.9427 Y122.4561 I35.6865 J12.0817
G3 X-450.1421 Y116.7081 I31.1895 J16.4921
G3 X-447.6666 Y113.9892 I25.7002 J20.9136
G3 X-444.7052 Y111.4184 I22.1565 J22.5321
G3 X-436.8789 Y107.0661 I18.7276 J24.4632
G3 X-434.8054 Y106.8502 I3.077 J19.4851
G1 X-434.5077 Y106.838
G3 X-432.1272 Y106.9223 I0.5844 J17.1559
G3 X-430.8697 Y107.105 I-1.6979 J16.1041
G0 Z5.0
G0 X-418.3035 Y177.3298
G1 Z0.0
G2 X-417.5967 Y177.5077 I2.0068 J-6.4792
G2 X-416.8767 Y177.6223 I1.7061 J-8.4026
G2 X-415.4236 Y177.7199 I1.7319 J-14.9202
G1 X-415.2293 Y177.7236
G1 X-415.0221 Y177.7258
G1 X-414.8011 Y177.7265
G1 X-414.2963 Y177.7223
G1 X-413.7197 Y177.7106
G1 X-413.4122 Y177.7026
G1 X-412.7098 Y177.6827
G1 X-411.9074 Y177.6636
G3 X-411.4795 Y177.6578 I0.4253 J15.7811
G1 X-411.0231 Y177.6571
G3 X-409.9804 Y177.6863 I-0.1448 J23.8178
G1 X-409.9148 Y177.69
G3 X-408.7188 Y177.8096 I-0.7386 J13.4237
G3 X-408.0875 Y177.9247 I-1.4638 J9.8165
G1 X-408.0085 Y177.9423
G1 X-407.929 Y177.9609
G3 X-406.5172 Y178.4588 I-1.4874 J6.4678
G3 X-405.8246 Y178.8683 I-2.4888 J4.9998
G3 X-404.5232 Y180.2149 I-2.8562 J4.0624
G3 X-404.0389 Y181.1072 I-4.9615 J3.2706
G3 X-405.3703 Y181.1985 I-1.045 J-5.4828
G3 X-406.6886 Y180.9913 I0.3555 J-6.5586
G3 X-407.0559 Y180.8873 I3.0346 J-11.4137
G3 X-407.4697 Y180.7498 I2.9063 J-9.4444
G1 X-407.688 Y180.6698
G3 X-408.1811 Y180.4733 I4.8754 J-12.9488
G3 X-408.7372 Y180.2329 I19.9015 J-46.8114
G1 X-408.88 Y180.1693
G1 X-409.0272 Y180.1034
G1 X-409.6993 Y179.8039
G1 X-410.0598 Y179.6498
G1 X-410.2471 Y179.5733
G2 X-411.117 Y179.2641 I-3.8239 J9.382
G2 X-411.5932 Y179.1386 I-2.3878 J8.0917
G2 X-412.7141 Y179.0072 I-1.148 J4.9448
G2 X-414.0038 Y179.1974 I-0.0081 J4.412
G3 X-413.2589 Y179.6547 I-3.0446 J5.7945
G3 X-412.5787 Y180.2035 I-4.0777 J5.7499
G3 X-412.1581 Y180.6068 I-7.1651 J7.8928
G1 X-412.0496 Y180.7181
G1 X-411.9353 Y180.8382
G3 X-411.6788 Y181.1167 I-9.0365 J8.5804
G1 X-411.3913 Y181.4397
G1 X-411.0657 Y181.8113
G2 X-410.6911 Y182.2331 I19.9368 J-17.3286
G2 X-410.6429 Y182.2862 I1.1875 J-1.03
G2 X-410.5938 Y182.3399 I1.1168 J-0.9721
G2 X-410.5437 Y182.3943 I1.0524 J-0.9197
G2 X-410.3272 Y182.6235 I6.7005 J-6.1093
G2 X-409.8107 Y183.1258 I7.8256 J-7.5308
G2 X-409.6714 Y183.249 I2.4023 J-2.5756
G2 X-409.3648 Y183.5009 I3.9545 J-4.5012
G2 X-408.6118 Y184.0092 I3.965 J-5.0615
G2 X-408.5112 Y184.0659 I1.6955 J-2.8882
G2 X-407.5432 Y184.496 I2.9181 J-5.264
G2 X-407.0679 Y184.3887 I-0.1507 J-1.7729
G2 X-406.6241 Y184.1875 I-1.2112 J-3.2619
G1 X-406.5019 Y184.1209
G2 X-406.3637 Y184.0421 I-4.3692 J-7.8215
G2 X-406.2905 Y183.9993 I-1.0412 J-1.865
G1 X-406.1239 Y183.9007
G3 X-405.6762 Y183.6461 I5.517 J9.1845
G3 X-405.5534 Y183.5846 I0.7545 J1.3512
G3 X-405.2632 Y183.4649 I0.9895 J1.9873
G3 X-404.9105 Y183.3898 I0.4645 J1.3166
G3 X-404.4939 Y183.4463 I0.0798 J0.9748
G3 X-404.0776 Y183.7213 I-0.4334 J1.1091
G3 X-403.7237 Y184.1808 I-1.6555 J1.6413
G2 X-403.9462 Y184.4586 I1.1529 J1.1513
G2 X-404.1237 Y184.7672 I3.3015 J2.104
G2 X-404.1694 Y184.8581 I1.3401 J0.731
G1 X-404.22 Y184.9627
G1 X-404.3516 Y185.2429
G3 X-404.5367 Y185.6113 I-6.4818 J-3.0266
G3 X-404.8536 Y186.061 I-1.8921 J-0.9966
G3 X-405.5145 Y186.4098 I-0.8179 J-0.7492
G3 X-405.956 Y186.4058 I-0.2061 J-1.5948
G3 X-410.6005 Y185.3005 I0.3057 J-11.5959
G3 X-412.0042 Y184.53 I5.2912 J-11.3026
G3 X-413.715 Y183.2568 I7.6765 J-12.1012
G3 X-415.6988 Y181.2303 I11.5488 J-13.2893
G3 X-416.6873 Y179.9482 I16.4096 J-13.6746
G1 X-416.8058 Y179.7801
G3 X-417.2933 Y179.0521 I20.6816 J-14.3779
G3 X-418.3035 Y177.3298 I21.64 J-13.8501
G0 Z5.0
G0 X-402.6383 Y178.6081
G1 Z0.0
G3 X-402.6055 Y178.4071 I1.2571 J0.1026
G3 X-402.3269 Y177.9251 I1.0468 J0.2834
G3 X-402.0926 Y177.7289 I1.1148 J1.0935
G3 X-401.8077 Y177.5625 I1.2387 J1.7943
G3 X-401.4832 Y177.4234 I1.2618 J2.4941
G3 X-401.4414 Y177.4081 I0.1659 J0.3889
G3 X-401.0826 Y177.295 I1.3843 J3.7648
G1 X-397.5086 Y178.1686
G1 X-393.933 Y179.0362
G1 X-392.9111 Y179.2829
G1 X-391.7431 Y179.5641
G2 X-382.3914 Y181.7827 I391.389 J-1628.9176
G1 X-379.7169 Y182.4052
G2 X-379.5483 Y182.4443 I1.2576 J-5.0467
G2 X-379.3784 Y182.4836 I1.275 J-5.1221
G2 X-372.1261 Y184.1381 I317.283 J-1374.0208
G2 X-371.6652 Y184.2416 I10.4197 J-45.3381
G1 X-370.7137 Y184.4545
G2 X-360.5509 Y186.6666 I207.8336 J-930.393
G1 X-359.2377 Y186.9434
G2 X-353.2287 Y188.1799 I144.6466 J-687.6884
G1 X-351.6763 Y188.4909
G1 X-351.285 Y188.5686
G1 X-349.6689 Y188.8874
G2 X-342.2706 Y190.2898 I112.3275 J-572.3627
G1 X-340.3585 Y190.6357
G2 X-331.5997 Y192.1204 I84.3685 J-471.154
G3 X-331.4064 Y192.1805 I0.0071 J0.3179
G3 X-331.2875 Y192.3442 I-0.2366 J0.2968
G3 X-331.2496 Y192.4732 I-0.6204 J0.2526
G3 X-331.2291 Y192.6474 I-0.9408 J0.1987
G3 X-331.2275 Y192.7465 I-0.8905 J0.0645
G3 X-331.2456 Y193.0024 I-2.8435 J-0.073
G1 X-331.2665 Y193.1456
G3 X-331.3465 Y193.5128 I-4.4045 J-0.7667
G3 X-331.8751 Y194.8256 I-5.6258 J-1.5023
G3 X-332.0851 Y195.1695 I-4.0553 J-2.2408
G3 X-332.1443 Y195.2547 I-4.3411 J-2.9542
G3 X-332.4483 Y195.6174 I-2.41 J-1.7111
G2 X-333.7515 Y195.6615 I7.1247 J229.6084
G2 X-333.9377 Y195.668 I0.1594 J7.2166
G1 X-335.4269 Y195.7214
G1 X-336.4199 Y195.7574
G3 X-340.3917 Y195.8935 I-33.109 J-908.4803
G3 X-340.5178 Y195.8973 I-0.1813 J-3.8681
G3 X-340.6459 Y195.9012 I-0.1812 J-3.8759
G3 X-340.7761 Y195.9051 I-0.1811 J-3.8836
G3 X-340.9083 Y195.909 I-0.181 J-3.8911
G3 X-341.0427 Y195.9129 I-0.1807 J-3.8983
G1 X-342.2708 Y195.946
G3 X-345.5464 Y196.0051 I-5.5182 J-215.3507
G3 X-345.6496 Y196.0061 I-0.0794 J-2.8215
G3 X-345.7536 Y196.007 I-0.0782 J-2.8211
G3 X-345.8585 Y196.008 I-0.077 J-2.8208
G1 X-346.7529 Y196.0132
G3 X-351.523 Y195.9506 I-0.5228 J-141.8247
G3 X-354.2467 Y195.832 I3.5064 J-111.9484
G3 X-354.3322 Y195.8272 I0.063 J-1.8699
G3 X-354.4179 Y195.8223 I0.0643 J-1.868
G3 X-357.5501 Y195.5907 I5.3854 J-94.1487
G1 X-357.9473 Y195.5538
G1 X-358.3505 Y195.5145
G3 X-359.1825 Y195.4275 I12.9915 J-128.2271
G1 X-359.6047 Y195.3802
G1 X-360.0335 Y195.33
G3 X-363.9406 Y194.766 I9.2943 J-78.1951
G3 X-368.3657 Y193.8762 I12.2783 J-72.5148
G3 X-373.3467 Y192.5238 I16.0981 J-69.1402
G3 X-373.424 Y192.4998 I0.2932 J-1.0771
G1 X-374.0501 Y192.3011
G3 X-379.6866 Y190.218 I21.5992 J-67.1095
G2 X-379.8175 Y190.0773 I-0.499 J0.3328
G2 X-379.9804 Y189.9751 I-0.65 J0.8555
G2 X-380.338 Y189.8435 I-0.879 J1.8371
G1 X-380.5819 Y189.7757
G1 X-380.7203 Y189.7348
G1 X-380.7933 Y189.7106
G3 X-380.9555 Y189.6437 I0.3919 J-1.1799
G3 X-381.1236 Y189.5326 I0.2936 J-0.6269
G3 X-381.2519 Y189.3338 I0.2951 J-0.3313
G3 X-381.2627 Y189.0485 I0.611 J-0.166
G3 X-381.1657 Y188.7316 I1.4906 J0.2829
G1 X-380.8335 Y188.6943
G1 X-380.7226 Y188.6832
G3 X-380.2786 Y188.6446 I1.6342 J16.2646
G1 X-380.1515 Y188.6354
G3 X-379.8126 Y188.6148 I1.3373 J19.1623
G3 X-378.4549 Y188.5871 I1.1558 J23.3561
G3 X-375.7465 Y188.7708 I-0.299 J24.4601
G1 X-375.3873 Y188.8165
G3 X-373.4824 Y189.1286 I-4.2964 J32.192
G3 X-370.9712 Y189.6843 I-9.0477 J46.8344
G3 X-370.8126 Y189.7235 I-1.1193 J4.8671
G3 X-369.3676 Y190.0961 I-24.6669 J98.6518
G3 X-369.1845 Y190.1449 I-1.8885 J7.4591
G3 X-368.9985 Y190.1947 I-2.1093 J8.2507
G3 X-368.8097 Y190.2455 I-2.4266 J9.3979
G3 X-368.6179 Y190.2973 I-2.9388 J11.2622
G3 X-368.4232 Y190.35 I-3.984 J15.0858
G1 X-368.0213 Y190.4594
G2 X-366.1854 Y190.9583 I98.8352 J-360.062
G2 X-364.0815 Y191.5001 I23.6149 J-87.3527
G1 X-363.8133 Y191.5647
G2 X-361.3472 Y192.0874 I10.9274 J-45.4817
G2 X-358.4912 Y192.4702 I5.3758 J-29.2567
G2 X-358.401 Y192.4775 I0.1983 J-1.9041
G2 X-357.6554 Y192.5246 I1.9408 J-24.7948
G2 X-356.0601 Y192.5438 I1.0819 J-23.5849
G3 X-355.9399 Y192.4268 I3.246 J3.2144
G2 X-355.9224 Y192.4102 I-0.0986 J-0.1215
G2 X-355.9026 Y192.3913 I-0.1457 J-0.1728
G2 X-355.7513 Y192.2325 I-1.2517 J-1.344
G1 X-355.7132 Y192.1825
G2 X-355.6366 Y192.0332 I-0.4319 J-0.3155
G2 X-355.6367 Y191.8052 I-0.3634 J-0.1138
G2 X-356.6139 Y191.1119 I-3.7067 J4.189
G2 X-357.7126 Y190.634 I-3.0545 J5.5209
G2 X-358.4842 Y190.4262 I-2.2587 J6.8495
G2 X-359.5347 Y190.2602 I-2.1403 J10.1415
G2 X-360.9461 Y190.1804 I-1.5657 J15.1607
G2 X-360.9907 Y190.1798 I-0.0291 J0.4843
G2 X-361.0356 Y190.1792 I-0.0283 J0.489
G2 X-361.2209 Y190.178 I-0.1179 J3.7278
G2 X-361.412 Y190.1782 I-0.0908 J4.6463
G2 X-361.6092 Y190.1798 I-0.0365 J7.4776
G1 X-361.8127 Y190.1829
G1 X-362.2461 Y190.1933
G1 X-362.4697 Y190.2003
G1 X-362.9459 Y190.218
G2 X-365.5035 Y188.5916 I-9.1758 J11.6054
G2 X-368.325 Y187.4846 I-7.6647 J15.3861
G2 X-368.4175 Y187.4573 I-0.7778 J2.4705
G2 X-369.2678 Y187.229 I-5.4782 J18.7
G2 X-369.3765 Y187.2025 I-0.5129 J1.8693
G2 X-369.8414 Y187.0957 I-4.7643 J19.6762
G2 X-369.9598 Y187.0701 I-0.4452 J1.7735
G2 X-370.0803 Y187.0447 I-0.4344 J1.7632
G2 X-372.6686 Y186.635 I-5.8263 J28.4221
G1 X-373.0047 Y186.5977
G1 X-373.3519 Y186.5624
G1 X-373.7105 Y186.5289
G1 X-374.0808 Y186.4975
G1 X-374.4632 Y186.468
G1 X-374.8581 Y186.4405
G1 X-375.2658 Y186.415
G2 X-377.1281 Y186.3258 I-5.2803 J90.8202
G1 X-378.121 Y186.2901
G1 X-379.1792 Y186.255
G3 X-381.5925 Y186.1599 I3.9094 J-129.7979
G3 X-382.8771 Y186.0841 I2.5832 J-54.7598
G3 X-383.5391 Y186.034 I2.7176 J-40.2806
G1 X-383.875 Y186.0051
G3 X-385.3041 Y185.8501 I3.3432 J-37.4918
G1 X-385.6659 Y185.8014
G1 X-386.0327 Y185.7476
G1 X-386.4046 Y185.6881
G3 X-387.9805 Y185.3733 I3.7816 J-23.0333
G3 X-388.7842 Y185.1671 I4.6177 J-19.6672
G3 X-390.4671 Y184.6107 I4.7875 J-17.3037
G3 X-390.885 Y184.442 I4.242 J-11.1095
G3 X-392.6127 Y183.5854 I5.8385 J-13.9463
G3 X-393.033 Y183.3322 I6.3298 J-10.9826
G2 X-393.9727 Y182.9088 I-2.5321 J4.3657
G2 X-394.9758 Y182.6722 I-1.8302 J5.5147
G2 X-395.6594 Y182.6021 I-1.2209 J8.532
G1 X-395.8425 Y182.5924
G1 X-396.0378 Y182.5854
G2 X-397.0773 Y182.5865 I-0.497 J22.8666
G1 X-397.6704 Y182.5963
G1 X-397.9865 Y182.598
G1 X-398.3235 Y182.5943
G3 X-398.6825 Y182.5811 I0.1518 J-9.0004
G3 X-399.4987 Y182.4993 I0.4475 J-8.5785
G3 X-400.4127 Y182.2844 I0.8824 J-5.8033
G3 X-401.3979 Y181.8458 I1.5775 J-4.8694
G2 X-401.5653 Y181.3531 I-3.64 J0.9624
G2 X-401.7838 Y180.8808 I-7.0766 J2.9876
G1 X-401.9422 Y180.5722
G1 X-402.1557 Y180.1623
G1 X-402.2738 Y179.9262
G3 X-402.3342 Y179.799 I2.2582 J-1.1501
G1 X-402.3958 Y179.662
G1 X-402.4573 Y179.514
G3 X-402.5167 Y179.3537 I2.2823 J-0.937
G1 X-402.5443 Y179.2698
G3 X-402.6318 Y178.8747 I2.0943 J-0.6714
G3 X-402.6383 Y178.6081 I1.2505 J-0.1641
G0 Z5.0
G0 X-401.8212 Y184.1808
G1 Z0.0
G3 X-400.2294 Y184.8991 I-5.3619 J14.0045
G3 X-400.1793 Y184.9251 I-0.231 J0.5056
G3 X-398.6176 Y185.8256 I-10.1051 J19.3301
G3 X-397.6113 Y186.4826 I-21.0541 J33.3451
G3 X-396.3004 Y187.4029 I-29.6643 J43.653
G3 X-395.5617 Y187.9428 I-114.9202 J157.9929
G1 X-393.6052 Y189.3977
G2 X-393.3521 Y189.5846 I9.5025 J-12.6056
G2 X-392.1873 Y190.4272 I55.2961 J-75.2136
G1 X-391.8836 Y190.6403
G2 X-390.4717 Y191.5791 I20.5746 J-29.413
G2 X-388.7901 Y192.5438 I11.7294 J-18.4973
G2 X-388.6769 Y192.0002 I-4.434 J-1.207
G2 X-388.6401 Y191.4461 I-3.2112 J-0.4913
G2 X-388.8898 Y190.3667 I-2.5297 J0.0167
G2 X-389.3081 Y189.7516 I-2.4654 J1.2265
G2 X-389.6103 Y189.4519 I-2.452 J2.1703
G2 X-389.9893 Y189.1497 I-3.1743 J3.5922
G2 X-390.4478 Y188.8446 I-4.4538 J6.1958
G1 X-390.6989 Y188.6943
G2 X-391.2774 Y188.3721 I-8.013 J13.707
G1 X-391.587 Y188.2061
G1 X-391.9153 Y188.03
G1 X-392.2615 Y187.8401
G3 X-392.3489 Y187.791 I1.1722 J-2.1875
G1 X-392.5276 Y187.6885
G1 X-392.7101 Y187.5803
G3 X-393.5034 Y187.045 I4.2208 J-7.1099
G3 X-394.2943 Y186.3036 I3.065 J-4.0626
G3 X-394.9373 Y185.242 I2.885 J-2.4728
G2 X-394.521 Y185.4316 I9.2565 J-19.7725
G1 X-394.1032 Y185.6177
G1 X-394.0473 Y185.6423
G2 X-393.1499 Y186.0259 I15.3183 J-34.5984
G2 X-392.5471 Y186.2709 I15.944 J-38.3561
G1 X-392.3857 Y186.3347
G1 X-392.2133 Y186.402
G2 X-389.4125 Y187.3616 I13.1842 J-33.9149
G2 X-389.3224 Y187.3882 I0.704 J-2.2151
G2 X-389.2307 Y187.4151 I0.5832 J-1.822
G2 X-387.2597 Y187.9311 I10.1081 J-34.5856
G2 X-384.5986 Y188.4746 I11.6791 J-50.3929
G2 X-383.0681 Y188.7316 I13.9748 J-78.5528
G3 X-383.084 Y188.8437 I-2.8042 J-0.3406
G3 X-383.1002 Y188.9558 I-3.6014 J-0.4639
G3 X-383.1337 Y189.1799 I-21.0971 J-3.0364
G1 X-383.2053 Y189.6275
G3 X-383.3718 Y190.5183 I-18.8365 J-3.0591
G3 X-383.5045 Y191.1079 I-18.5533 J-3.8662
G1 X-383.5433 Y191.2643
G1 X-383.5865 Y191.4307
G3 X-383.8505 Y192.3088 I-12.7113 J-3.3433
G1 X-383.9315 Y192.5395
G3 X-384.4515 Y193.7361 I-9.5422 J-3.4356
G3 X-385.4086 Y195.1922 I-7.2001 J-3.6901
G2 X-387.1401 Y194.1568 I-26.2986 J42.0172
G2 X-388.9083 Y193.1855 I-35.0181 J61.6517
G1 X-389.4185 Y192.9172
G2 X-390.7867 Y192.2168 I-37.1239 J70.8294
G2 X-391.153 Y192.0329 I-10.8208 J21.0971
G2 X-393.112 Y191.0633 I-244.7667 J492.0907
G3 X-395.7218 Y189.7671 I114.3914 J-233.5888
G3 X-396.0571 Y189.5968 I7.9343 J-16.0363
G3 X-397.5815 Y188.8025 I51.2969 J-100.3021
G3 X-397.7739 Y188.6994 I3.4646 J-6.6954
G3 X-399.5164 Y187.7266 I32.6201 J-60.4821
G3 X-399.6251 Y187.6633 I1.6756 J-2.9995
G3 X-401.5811 Y186.4543 I24.1418 J-41.2457
G3 X-401.6414 Y186.4147 I0.9095 J-1.4497
G3 X-402.1365 Y186.0832 I11.4449 J-17.6289
G3 X-402.0462 Y184.8128 I3.0078 J-0.4246
G3 X-401.9093 Y184.4081 I5.6002 J1.6689
G1 X-401.8212 Y184.1808
G0 Z5.0
G0 X-247.3866 Y186.4058
G1 Z0.0
G3 X-246.201 Y185.772 I4.2151 J6.459
G3 X-244.9362 Y185.3164 I4.3736 J10.158
G3 X-244.8953 Y185.3042 I0.1416 J0.4004
G3 X-244.0156 Y185.0702 I4.4445 J14.9375
G1 X-243.7792 Y185.015
G1 X-243.5265 Y184.959
G3 X-243.4622 Y184.9452 I0.167 J0.6213
G3 X-243.3968 Y184.9314 I0.1688 J0.6349
G3 X-243.3303 Y184.9175 I0.1706 J0.6492
G3 X-243.2628 Y184.9035 I0.1726 J0.6643
G3 X-242.6446 Y184.7828 I5.9606 J28.8859
G3 X-242.566 Y184.7682 I0.2011 J0.8669
G1 X-242.2302 Y184.7077
G1 X-241.8719 Y184.6455
G3 X-241.7808 Y184.63 I0.2775 J1.3541
G1 X-240.9484 Y184.4915
G1 X-239.9979 Y184.3327
G1 X-239.4919 Y184.2437
G2 X-238.3407 Y184.0161 I-5.0956 J-28.794
G2 X-238.1952 Y183.9838 I-0.6433 J-3.24
G2 X-237.5772 Y183.8344 I-3.7301 J-16.7821
G2 X-236.1906 Y183.3987 I-3.256 J-12.7856
G2 X-235.4769 Y183.0926 I-3.0648 J-8.1319
G2 X-234.7498 Y182.691 I-3.4311 J-7.0705
G1 X-234.5733 Y182.5751
G2 X-233.8661 Y182.0082 I-2.996 J-4.4621
G2 X-232.6656 Y180.2671 I-3.4828 J-3.6859
G2 X-232.3227 Y179.1683 I-5.5842 J-2.3452
G2 X-232.2197 Y178.5789 I-6.7548 J-1.4847
G2 X-232.1378 Y177.295 I-9.4549 J-1.2475
G2 X-227.7995 Y178.3058 I30.8683 J-122.6707
G1 X-227.177 Y178.4377
G1 X-226.4648 Y178.5849
