( Made using CamBam - http://www.cambam.co.uk )
( car1 1/21/2014 10:03:19 PM )
( T0 : 0.0 )
G21 G90 G64 G40
G0 Z5.0
( T0 : 0.0 )
T0 M6
( 51-80 )
G17
M3 S1000
G0 X90.503 Y233.7468
G1 F1.0 Z0.0
G3 X95.043 Y232.615 I23.3489 J83.9878
G3 X99.6326 Y231.7054 I23.703 J107.5707
G3 X102.7097 Y231.1944 I25.6063 J144.6823
G3 X102.8068 Y231.1793 I0.4691 J2.6972
G3 X102.9047 Y231.1642 I0.4679 J2.6974
G3 X103.0033 Y231.149 I0.4668 J2.6977
G3 X103.8453 Y231.0213 I17.819 J114.6615
G1 X104.7439 Y230.8891
G1 X105.7031 Y230.7523
G3 X107.8972 Y230.4528 I56.7881 J407.8653
G1 X108.4638 Y230.378
G1 X109.6727 Y230.2208
G1 X112.4367 Y229.8697
G1 X115.5954 Y229.4701
G2 X119.2027 Y228.9952 I-67.3601 J-525.5564
G1 X120.1328 Y228.8667
G2 X122.1153 Y228.5816 I-41.4343 J-295.1314
G1 X123.1374 Y228.4276
G1 X123.6564 Y228.3474
G2 X124.2087 Y228.3518 I0.3167 J-5.095
G1 X124.3926 Y228.3433
G1 X124.6376 Y228.327
G2 X124.703 Y228.3219 I-0.0233 J-0.7146
G2 X125.7436 Y228.2085 I-1.6346 J-19.8234
G1 X125.882 Y228.1901
G2 X128.0857 Y227.8411 I-8.5551 J-61.1633
G1 X128.7133 Y227.7297
G1 X129.4299 Y227.5987
G1 X130.2479 Y227.4457
G1 X132.4273 Y227.0293
G1 X133.6724 Y226.7914
G1 X135.0963 Y226.5244
G1 X135.8564 Y226.3858
G3 X136.6678 Y226.2422 I78.4134 J440.8129
G1 X137.5344 Y226.0954
G1 X137.9822 Y226.0228
G1 X138.0385 Y226.0139
G1 X138.095 Y226.005
G1 X138.3245 Y225.9692
G3 X140.4294 Y225.6885 I7.1339 J45.4656
G3 X140.6977 Y225.6614 I0.829 J6.8592
G3 X141.8464 Y225.5835 I1.8494 J18.767
G3 X142.4412 Y225.5812 I0.3295 J8.4484
G3 X142.5159 Y225.5839 I-0.0078 J1.2851
G3 X143.1311 Y225.6463 I-0.1669 J4.707
G3 X143.2838 Y225.6794 I-0.4149 J2.2832
G3 X143.5848 Y225.7898 I-0.3132 J1.3204
G3 X143.7207 Y225.8827 I-0.2833 J0.5598
G3 X143.8542 Y226.2414 I-0.2533 J0.2985
G3 X143.7865 Y226.4599 I-0.7347 J-0.1081
G3 X143.6544 Y226.6823 I-1.2771 J-0.6083
G3 X143.2283 Y227.1641 I-2.8424 J-2.0838
G1 X143.107 Y227.2785
G3 X142.9804 Y227.3921 I-3.2901 J-3.5383
G3 X142.4368 Y227.8369 I-8.3671 J-9.6714
G1 X142.2944 Y227.9454
G3 X141.5981 Y228.4458 I-10.3211 J-13.6261
G1 X141.2213 Y228.7014
G3 X139.9609 Y229.5074 I-24.9106 J-37.5646
G3 X138.6363 Y230.3017 I-39.7719 J-64.8299
G1 X138.2731 Y230.5129
G1 X137.864 Y230.748
G1 X137.6486 Y230.8707
G1 X137.428 Y230.9957
G3 X133.2867 Y233.5476 I-25.1659 J-36.2042
G3 X133.1486 Y233.6224 I-1.6936 J-2.9623
G3 X128.6072 Y235.7646 I-22.0702 J-40.9038
G3 X128.4594 Y235.8246 I-1.8187 J-4.2643
G3 X128.3091 Y235.8851 I-1.844 J-4.3653
G3 X128.1562 Y235.946 I-1.8704 J-4.4718
G3 X128.0006 Y236.0074 I-1.8982 J-4.5844
G3 X117.6918 Y238.786 I-17.6659 J-45.0289
G3 X110.5863 Y239.3246 I-7.0192 J-45.4604
G3 X106.5158 Y239.1217 I0.0722 J-42.3794
G3 X101.9121 Y238.4013 I3.9173 J-40.0995
G1 X101.6253 Y238.3377
G1 X101.3369 Y238.2714
G3 X98.897 Y237.6135 I8.2599 J-35.4853
G1 X98.5929 Y237.5188
G3 X93.2015 Y235.3045 I10.4014 J-32.9962
G3 X90.503 Y233.7468 I14.4089 J-28.0762
G0 Z5.0
G0 X87.7166 Y221.7833
G1 Z0.0
G3 X86.4766 Y222.0243 I-3.8899 J-16.7011
G1 X86.2755 Y222.0559
G1 X85.8464 Y222.1188
G3 X85.6247 Y222.1493 I-1.3485 J-8.9877
G3 X85.1522 Y222.2111 I-4.9206 J-35.7812
G3 X85.0321 Y222.2263 I-0.3156 J-2.0068
G3 X84.9102 Y222.2416 I-0.3626 J-2.3894
G1 X83.7995 Y222.3822
G2 X83.209 Y222.464 I6.7966 J51.227
G1 X82.9051 Y222.5101
G1 X82.592 Y222.5612
G1 X82.5133 Y222.5747
G2 X81.0905 Y222.8856 I2.4887 J14.8019
G1 X80.9125 Y222.936
G1 X80.7326 Y222.9903
G1 X80.551 Y223.0488
G3 X63.3185 Y224.5153 I-113.1536 J-1227.6622
G3 X62.7623 Y224.5585 I-4.1343 J-49.5597
G3 X62.1881 Y224.6029 I-4.156 J-50.0324
G3 X61.5953 Y224.6484 I-4.1763 J-50.5
G3 X60.9834 Y224.6951 I-4.1951 J-50.962
G3 X60.3518 Y224.7429 I-4.2124 J-51.418
G3 X59.6997 Y224.792 I-4.228 J-51.8674
G3 X59.3685 Y224.8167 I-2.9171 J-36.7881
G3 X59.032 Y224.8418 I-2.9206 J-36.9419
G3 X58.6901 Y224.8672 I-2.9237 J-37.0943
G3 X51.3961 Y225.3838 I-72.9206 J-977.8125
G3 X50.9329 Y225.415 I-2.9081 J-39.7132
G3 X50.4623 Y225.4465 I-2.9028 J-39.8296
G3 X20.3195 Y227.0264 I-69.0418 J-1028.8992
G3 X19.8445 Y227.0441 I-1.3442 J-29.7513
G3 X19.3657 Y227.0616 I-1.331 J-29.7435
G3 X18.8831 Y227.0791 I-1.3177 J-29.7351
G3 X18.3967 Y227.0964 I-1.3042 J-29.726
G3 X17.9065 Y227.1137 I-1.2906 J-29.7162
G3 X17.4124 Y227.1308 I-1.2768 J-29.7058
G3 X17.1643 Y227.1393 I-0.8433 J-20.9861
G3 X16.9153 Y227.1478 I-0.8382 J-20.9821
G3 X16.6654 Y227.1562 I-0.833 J-20.9781
G3 X16.4144 Y227.1646 I-0.8278 J-20.9739
G3 X16.1624 Y227.173 I-0.8226 J-20.9694
G3 X15.9095 Y227.1813 I-0.8174 J-20.9651
G3 X-5.6799 Y227.6363 I-29.7456 J-899.0215
G3 X-6.0187 Y227.6393 I-0.3486 J-20.3407
G3 X-6.3587 Y227.6421 I-0.3412 J-20.3286
G3 X-6.7002 Y227.6449 I-0.3338 J-20.3163
G3 X-7.0429 Y227.6475 I-0.3264 J-20.304
G3 X-7.387 Y227.65 I-0.3189 J-20.2916
G3 X-36.7471 Y227.3408 I-6.0244 J-822.1574
G1 X-38.6107 Y227.2851
G3 X-46.5601 Y226.9971 I23.976 J-771.6277
G1 X-48.5785 Y226.9108
G1 X-50.6286 Y226.8177
G1 X-52.7111 Y226.7173
G1 X-54.8264 Y226.6093
G1 X-56.9749 Y226.4935
G3 X-76.6008 Y225.1404 I40.3529 J-728.2617
G3 X-76.9078 Y225.1149 I0.8772 J-12.4293
G3 X-77.2153 Y225.0892 I0.8818 J-12.4215
G3 X-77.5235 Y225.0634 I0.8863 J-12.4138
G3 X-77.8322 Y225.0373 I0.8908 J-12.4058
G3 X-78.1416 Y225.0111 I0.8954 J-12.398
G3 X-78.4515 Y224.9847 I0.9 J-12.3903
G3 X-78.7621 Y224.9581 I0.9045 J-12.3825
G3 X-79.0732 Y224.9313 I0.9091 J-12.3745
G3 X-84.2095 Y224.4686 I55.7714 J-647.8423
G1 X-85.5031 Y224.346
G1 X-86.8066 Y224.2199
G1 X-87.7517 Y224.0684
G2 X-87.8868 Y224.0473 I-0.7976 J4.6553
G1 X-88.9682 Y223.8826
G2 X-89.1125 Y223.8612 I-0.8012 J4.9104
G2 X-89.2665 Y223.8386 I-0.8271 J5.086
G2 X-91.7319 Y223.4962 I-20.6696 J139.8007
G2 X-91.8912 Y223.4754 I-0.8045 J5.5278
G2 X-96.9953 Y222.8794 I-24.7676 J189.9563
G2 X-97.1575 Y222.8625 I-0.8353 J7.249
G2 X-97.3224 Y222.8455 I-0.8469 J7.4001
G2 X-97.4899 Y222.8283 I-0.8592 J7.5592
G2 X-97.6601 Y222.811 I-0.8721 J7.7271
G2 X-97.833 Y222.7936 I-0.8857 J7.9049
G2 X-98.0086 Y222.776 I-0.9002 J8.0934
G2 X-98.1871 Y222.7582 I-0.9155 J8.2939
G2 X-101.9961 Y222.4083 I-23.8549 J238.7762
G2 X-102.4879 Y222.3668 I-3.3355 J36.5839
G2 X-102.9957 Y222.3247 I-6.984 J81.1947
G1 X-104.0791 Y222.2374
G1 X-105.2349 Y222.1478
G1 X-106.4681 Y222.0557
G1 X-107.1047 Y222.0094
G1 X-107.7619 Y221.9625
G1 X-109.1639 Y221.8649
G1 X-109.8877 Y221.8157
G2 X-113.1966 Y221.5979 I-65.5097 J970.2076
G1 X-113.6169 Y221.5708
G1 X-114.0438 Y221.5434
G1 X-117.9466 Y221.2926
G3 X-122.4058 Y220.9928 I40.1764 J-630.881
G1 X-123.5563 Y220.9106
G1 X-124.7437 Y220.8228
G1 X-125.3467 Y220.7769
G3 X-130.8555 Y220.3067 I24.4455 J-318.8994
G1 X-131.2022 Y220.2734
G1 X-131.5516 Y220.2393
G1 X-131.9037 Y220.2044
G1 X-132.2584 Y220.1687
G1 X-132.616 Y220.1321
G1 X-132.9763 Y220.0946
G1 X-133.3393 Y220.0562
G1 X-133.7052 Y220.0169
G1 X-134.4482 Y219.9348
G1 X-135.2027 Y219.8485
G3 X-136.7593 Y219.6602 I22.4165 J-191.8764
G1 X-137.5493 Y219.5591
G2 X-138.3937 Y219.3452 I-4.9187 J17.6434
G1 X-138.6771 Y219.282
G2 X-139.8174 Y219.0621 I-6.2496 J29.3452
G2 X-139.8914 Y219.0495 I-0.1672 J0.7561
G1 X-140.2294 Y218.9939
G1 X-140.6162 Y218.9341
G1 X-141.0589 Y218.87
G1 X-141.5655 Y218.8015
G1 X-142.1451 Y218.7277
G2 X-142.4545 Y218.6899 I-1.861 J13.9379
G1 X-144.1044 Y218.4953
G1 X-145.0467 Y218.3804
G1 X-145.5487 Y218.3152
G3 X-146.6938 Y218.1492 I7.5762 J-56.291
G3 X-147.3025 Y218.0476 I3.1015 J-20.4651
G3 X-148.6853 Y217.7681 I4.158 J-24.1246
G3 X-150.2406 Y217.3383 I4.0067 J-17.5277
G3 X-151.0511 Y217.0461 I3.8205 J-11.8679
G3 X-151.8936 Y216.6755 I4.8414 J-12.1507
G3 X-153.6876 Y215.5569 I4.2347 J-8.7892
G3 X-155.3673 Y213.7812 I5.2876 J-6.6842
G3 X-156.0467 Y212.6535 I7.621 J-5.3604
G3 X-156.1943 Y212.3526 I5.3146 J-2.792
G1 X-155.3945 Y212.482
G1 X-155.1277 Y212.5245
G1 X-154.0602 Y212.6911
G2 X-151.9233 Y213.0107 I34.436 J-222.9822
G1 X-150.4973 Y213.2149
G1 X-149.6821 Y213.3288
G1 X-148.7502 Y213.4566
G1 X-148.253 Y213.5238
G1 X-147.1163 Y213.6752
G2 X-147.0446 Y213.6846 I0.1412 J-0.7957
G2 X-146.9724 Y213.6941 I0.1421 J-0.8009
G2 X-137.7223 Y214.8249 I71.4224 J-545.835
G2 X-137.4284 Y214.8585 I1.4256 J-11.1645
G1 X-136.1741 Y215.0006
G1 X-135.8555 Y215.0364
G1 X-134.4961 Y215.1876
G1 X-133.0458 Y215.3463
G1 X-131.4986 Y215.5131
G1 X-131.1056 Y215.555
G1 X-129.4285 Y215.7322
G1 X-127.6394 Y215.9181
G2 X-127.185 Y215.9649 I6.2847 J-58.858
G1 X-125.2459 Y216.1623
G1 X-123.1773 Y216.3694
G2 X-122.9166 Y216.3952 I1.0166 J-8.9242
G2 X-118.1498 Y216.859 I104.5149 J-1049.4729
G1 X-117.5444 Y216.9168
G1 X-114.961 Y217.1606
G1 X-114.3048 Y217.2219
G1 X-111.5049 Y217.4805
G1 X-108.518 Y217.7517
G1 X-105.3316 Y218.0361
G1 X-101.9323 Y218.3345
G1 X-98.306 Y218.6477
G1 X-97.3849 Y218.7265
G1 X-93.4549 Y219.0598
G1 X-91.4263 Y219.2302
G1 X-82.1528 Y220.0034
G1 X-79.7599 Y220.2056
G1 X-78.5446 Y220.3105
G1 X-77.9323 Y220.3642
G1 X-76.6884 Y220.4768
G1 X-76.0619 Y220.5366
G1 X-75.4308 Y220.6011
G3 X-74.7963 Y220.6791 I-2.195 J20.4601
G3 X-74.6391 Y220.7111 I-0.2233 J1.4995
G3 X-74.6223 Y220.7229 I-0.0044 J0.0242
G1 X-69.6017 Y220.803
G1 X-64.5809 Y220.8759
G1 X-61.2337 Y220.92
G1 X-56.7706 Y220.9723
G2 X-56.4872 Y220.9754 I0.2729 J-12.1565
G2 X-56.1993 Y220.9785 I0.275 J-12.2697
G2 X-55.9068 Y220.9816 I0.277 J-12.3842
G2 X-55.6097 Y220.9847 I0.279 J-12.5002
G2 X-55.3079 Y220.9878 I0.281 J-12.6177
G2 X-55.0012 Y220.9909 I0.283 J-12.7365
G1 X-52.1981 Y221.0176
G1 X-48.9945 Y221.0437
G1 X-47.2858 Y221.0556
G1 X-45.4632 Y221.0667
G1 X-43.5191 Y221.0767
G1 X-41.4455 Y221.0852
G1 X-39.2335 Y221.0915
G1 X-36.8742 Y221.0952
G2 X-34.3574 Y221.0955 I1.3873 J-1093.8459
G2 X-34.0404 Y221.0953 I0.1478 J-14.3898
G2 X-33.7208 Y221.095 I0.1461 J-14.4697
G2 X-33.3987 Y221.0946 I0.1443 J-14.5502
G2 X-33.074 Y221.0942 I0.1425 J-14.6314
G2 X-32.7468 Y221.0937 I0.1407 J-14.7131
G2 X-32.417 Y221.0931 I0.1388 J-14.7956
G2 X-32.0846 Y221.0924 I0.1368 J-14.8786
G2 X-31.7496 Y221.0917 I0.1347 J-14.9623
G2 X-31.412 Y221.0909 I0.1326 J-15.0467
G2 X-31.0717 Y221.09 I0.1304 J-15.1317
G2 X-30.7287 Y221.089 I0.1281 J-15.2175
G2 X-30.3831 Y221.088 I0.1258 J-15.3039
G2 X-30.0347 Y221.0868 I0.1234 J-15.3906
G2 X-29.6835 Y221.0856 I0.1209 J-15.4784
G2 X-29.3296 Y221.0842 I0.1183 J-15.5669
G2 X-29.152 Y221.0835 I0.0453 J-11.0443
G2 X-28.9737 Y221.0828 I0.0442 J-11.0759
G2 X-28.7946 Y221.0821 I0.0431 J-11.1076
G2 X-28.6149 Y221.0813 I0.042 J-11.1394
G2 X-28.4344 Y221.0805 I0.0408 J-11.1713
G2 X-28.2533 Y221.0797 I0.0397 J-11.2034
G2 X-28.0714 Y221.0788 I0.0385 J-11.2357
G1 X-26.5697 Y221.071
G2 X-10.5524 Y220.8835 I-7.3605 J-1313.3543
G1 X-8.4858 Y220.8444
G1 X-6.3527 Y220.8002
G1 X-4.1509 Y220.7503
G1 X-1.8782 Y220.6943
G1 X0.4677 Y220.6314
G1 X2.8892 Y220.5611
G1 X5.3886 Y220.4825
G1 X7.9684 Y220.3949
G1 X10.6312 Y220.2974
G1 X13.3796 Y220.1891
G2 X13.7245 Y220.1749 I-0.5862 J-18.4827
G2 X14.0707 Y220.1606 I-0.5946 J-18.5366
G2 X19.9789 Y219.8957 I-37.411 J-900.3206
G2 X33.4757 Y219.1396 I-40.7665 J-848.5649
G2 X33.6869 Y219.126 I-0.8541 J-14.922
G2 X40.8937 Y218.6281 I-46.7617 J-729.2291
G2 X41.1193 Y218.6114 I-1.0234 J-15.375
G2 X41.3453 Y218.5946 I-1.0286 J-15.3864
G2 X41.5718 Y218.5777 I-1.0339 J-15.3977
G2 X41.7987 Y218.5607 I-1.0391 J-15.4088
G2 X42.026 Y218.5437 I-1.0444 J-15.4199
G1 X43.8733 Y218.4023
G2 X60.7453 Y216.8891 I-55.3592 J-712.096
G2 X61.0091 Y216.8622 I-1.4846 J-15.8245
G2 X61.2735 Y216.835 I-1.4906 J-15.8232
G2 X61.5383 Y216.8077 I-1.4966 J-15.8217
G2 X80.8781 Y214.5131 I-64.6919 J-627.9013
G2 X81.1803 Y214.4724 I-1.9102 J-15.2979
G2 X103.2218 Y211.0553 I-75.62 J-560.5691
G1 X104.6055 Y210.8102
G1 X105.9994 Y210.5596
G1 X107.4035 Y210.3032
G1 X108.8181 Y210.041
G1 X110.243 Y209.7727
G2 X122.3722 Y207.319 I-94.0696 J-496.2217
G1 X123.8958 Y206.9887
G1 X125.4305 Y206.6509
G2 X138.4818 Y203.5644 I-103.243 J-465.7006
G1 X138.5152 Y203.5977
G1 X138.5486 Y203.631
G1 X138.6156 Y203.6974
G2 X138.7509 Y203.8288 I3.7241 J-3.6997
G1 X138.7901 Y203.8659
G1 X138.8353 Y203.9079
G1 X138.8873 Y203.9553
G2 X139.3304 Y204.303 I2.6023 J-2.86
G3 X142.4588 Y203.3877 I16.7897 J51.5799
G3 X143.512 Y203.1205 I22.5581 J86.7208
G3 X144.9219 Y202.7871 I15.9652 J64.3731
G1 X145.7299 Y202.6064
G3 X147.8896 Y202.15 I38.1275 J175.0902
G3 X148.027 Y202.1219 I0.9402 J4.2543
G3 X148.1665 Y202.0935 I0.9708 J4.412
G3 X148.3083 Y202.0648 I1.0048 J4.5869
G1 X149.6049 Y201.8046
G3 X149.7696 Y201.7718 I1.8188 J8.7075
G3 X149.9369 Y201.7386 I2.0954 J10.0995
G1 X151.4665 Y201.4342
G2 X155.5359 Y200.5798 I-32.4971 J-164.8908
G2 X157.8465 Y200.0255 I-18.6271 J-82.7405
G1 X158.1388 Y199.9499
G2 X159.3813 Y199.6122 I-15.835 J-60.7
G1 X159.6957 Y199.522
G1 X160.0145 Y199.4285
G2 X161.3679 Y199.0062 I-16.2215 J-54.362
G2 X161.3816 Y200.1669 I4.2135 J0.5307
G2 X161.7069 Y201.2812 I4.6034 J-0.7393
G2 X161.8448 Y201.5835 I6.5522 J-2.8073
G2 X162.2695 Y202.3579 I8.8527 J-4.3509
G1 X162.328 Y202.4557
G1 X162.3889 Y202.5563
G1 X162.4519 Y202.66
G1 X162.5865 Y202.8806
G1 X162.7288 Y203.1165
G3 X162.8011 Y203.2388 I-1.9229 J1.2196
G3 X163.1119 Y203.8072 I-9.2463 J5.4241
G3 X163.3974 Y204.4894 I-4.8905 J2.4475
G3 X163.5701 Y205.32 I-3.4533 J1.1513
G3 X163.5068 Y206.298 I-3.4094 J0.2702
G3 X163.3663 Y206.806 I-4.068 J-0.8513
G3 X163.2703 Y207.0613 I-4.8643 J-1.6829
G3 X161.9905 Y207.7395 I-12.0928 J-21.2729
G1 X161.8044 Y207.8301
G1 X161.5907 Y207.9316
G1 X161.3454 Y208.0453
G3 X159.3454 Y208.8658 I-11.3403 J-24.7924
G3 X159.2144 Y208.9137 I-1.6009 J-4.1757
G3 X159.0789 Y208.9626 I-1.5096 J-3.9739
G3 X158.9388 Y209.0124 I-1.4357 J-3.8158
G3 X158.2959 Y209.2322 I-14.9422 J-42.6524
G3 X158.1292 Y209.287 I-1.2065 J-3.3922
G3 X156.3384 Y209.8246 I-12.6881 J-39.0121
G3 X156.2239 Y209.8562 I-0.7343 J-2.4392
G3 X155.1744 Y210.1326 I-10.9075 J-39.2787
G1 X154.6127 Y210.272
G3 X154.4699 Y210.3066 I-0.7651 J-2.8453
G3 X151.4119 Y210.9895 I-26.0637 J-109.5299
G1 X150.5942 Y211.1609
G1 X148.7259 Y211.5513
G2 X146.5962 Y212.0178 I22.5935 J108.2287
G1 X146.3264 Y212.0802
G2 X143.8735 Y212.7007 I13.7967 J59.6987
G1 X143.5641 Y212.7875
G1 X143.2505 Y212.8779
G1 X142.9326 Y212.9721
G1 X142.6105 Y213.0704
G2 X141.2457 Y213.5219 I10.1244 J32.894
G2 X136.503 Y214.1718 I17.1359 J142.6777
G1 X135.8273 Y214.2765
G2 X135.0554 Y214.3992 I8.8502 J58.1908
G2 X134.9573 Y214.415 I0.3077 J2.2219
G2 X128.6993 Y215.5006 I51.5176 J315.5558
G2 X128.6008 Y215.5185 I0.4613 J2.8107
G2 X128.5016 Y215.5366 I0.4658 J2.8355
G2 X128.4016 Y215.5549 I0.4705 J2.8608
G2 X128.3009 Y215.5733 I0.4752 J2.8866
G2 X128.1993 Y215.5918 I0.4801 J2.913
G2 X128.0969 Y215.6106 I0.485 J2.9398
G2 X127.9938 Y215.6295 I0.49 J2.9672
G2 X127.8898 Y215.6485 I0.4951 J2.9951
G2 X127.785 Y215.6677 I0.5003 J3.0237
G2 X127.6794 Y215.6871 I0.5056 J3.0528
G2 X127.5729 Y215.7067 I0.511 J3.0826
G2 X127.4656 Y215.7264 I0.5165 J3.113
G2 X127.3575 Y215.7462 I0.5222 J3.1441
G2 X127.2485 Y215.7663 I0.5279 J3.1758
G1 X122.6011 Y216.6232
G1 X121.3613 Y216.8488
G3 X121.205 Y216.8771 I-1.2749 J-6.608
G3 X121.0475 Y216.9055 I-1.3098 J-6.8103
G3 X120.8888 Y216.9341 I-1.3477 J-7.0296
G3 X120.7288 Y216.9628 I-1.3888 J-7.2689
G3 X120.5675 Y216.9917 I-1.4338 J-7.5311
G1 X119.1911 Y217.2359
G3 X118.8413 Y217.297 I-3.4219 J-18.5385
G3 X118.4859 Y217.3588 I-4.291 J-23.6457
G3 X117.752 Y217.4849 I-19.2678 J-109.9232
G1 X116.9942 Y217.613
G1 X116.2115 Y217.7428
G1 X115.403 Y217.874
G3 X113.6766 Y218.1432 I-35.4823 J-221.9023
G1 X113.2377 Y218.209
G3 X111.3633 Y218.4767 I-21.7932 J-145.9039
G1 X110.8867 Y218.5411
G1 X110.4024 Y218.6048
G3 X105.9631 Y219.1022 I-15.7608 J-120.6101
G1 X105.3982 Y219.153
G3 X100.2192 Y219.4616 I-8.0214 J-91.0096
G3 X94.2851 Y219.4015 I-2.242 J-71.6489
G3 X93.5325 Y219.3571 I1.8728 J-38.1171
G3 X91.9803 Y219.2366 I4.3854 J-66.5505
G3 X90.9786 Y220.3042 I-4.5749 J-3.2884
G3 X89.7437 Y221.0907 I-3.9331 J-4.8125
G1 X89.5668 Y221.1742
G3 X89.1551 Y221.3479 I-3.0165 J-6.5775
G3 X88.0228 Y221.709 I-3.5891 J-9.2985
G3 X87.7166 Y221.7833 I-4.1961 J-16.6268
G0 Z5.0
G0 X86.3015 Y211.7159
G1 Z0.0
G3 X75.048 Y213.2083 I-101.2255 J-720.1474
G3 X74.7041 Y213.2511 I-2.0885 J-15.3613
G3 X74.3588 Y213.294 I-2.0899 J-15.4253
G3 X74.0122 Y213.3369 I-2.0913 J-15.49
G3 X73.6641 Y213.3797 I-2.0927 J-15.5553
G3 X73.3147 Y213.4226 I-2.0941 J-15.6212
G3 X72.9638 Y213.4655 I-2.0954 J-15.6876
G3 X72.6116 Y213.5084 I-2.0968 J-15.7547
G3 X72.258 Y213.5512 I-2.0982 J-15.8225
G3 X71.903 Y213.5941 I-2.0995 J-15.8909
G3 X58.9077 Y215.0479 I-93.187 J-774.1858
G3 X58.704 Y215.0689 I-1.474 J-13.289
G3 X58.4999 Y215.0899 I-1.4744 J-13.325
G3 X58.2955 Y215.1109 I-1.4748 J-13.3612
G3 X43.328 Y216.5018 I-81.2227 J-792.7927
G3 X26.1949 Y217.7523 I-68.156 J-815.84
G3 X25.9264 Y217.7691 I-1.5988 J-23.4316
G3 X6.2816 Y218.7676 I-53.3648 J-856.1126
G3 X5.665 Y218.7918 I-4.6173 J-109.9959
G3 X4.4219 Y218.8392 I-8.269 J-200.605
G3 X3.169 Y218.8852 I-25.2062 J-669.5797
G1 X0.6233 Y218.9732
G1 X-1.9631 Y219.0551
G1 X-4.5908 Y219.1308
G1 X-7.2603 Y219.1999
G3 X-18.6519 Y219.4069 I-22.2511 J-910.9412
G1 X-20.0873 Y219.423
G1 X-21.5339 Y219.437
G1 X-22.9919 Y219.4488
G3 X-49.6499 Y219.2722 I-6.9599 J-960.9802
G1 X-50.4862 Y219.2547
G1 X-51.3256 Y219.2366
G2 X-53.3673 Y219.1613 I-5.4361 J119.774
G1 X-54.048 Y219.1427
G1 X-54.9558 Y219.1213
G1 X-55.4746 Y219.1105
G1 X-56.8579 Y219.0853
G1 X-57.2269 Y219.0791
G1 X-57.6204 Y219.0727
G1 X-59.7191 Y219.0384
G1 X-60.2788 Y219.0286
G1 X-61.558 Y219.0036
G3 X-61.8881 Y218.9965 I0.5861 J-34.6313
G1 X-62.5923 Y218.98
G3 X-66.3468 Y218.8525 I4.2417 J-180.3525
G1 X-67.3473 Y218.8036
G1 X-67.8635 Y218.7753
G1 X-68.1258 Y218.7601
G1 X-68.3921 Y218.744
G1 X-68.9419 Y218.7087
G1 X-69.5091 Y218.6692
G3 X-72.099 Y218.4435 I6.8869 J-93.9858
G3 X-75.0475 Y218.0727 I6.5339 J-63.8777
G3 X-86.1574 Y217.6728 I13.1268 J-519.1605
G3 X-86.3337 Y217.6646 I0.1715 J-5.5845
G3 X-86.5128 Y217.6562 I0.1746 J-5.6412
G3 X-86.6947 Y217.6476 I0.1777 J-5.6984
G3 X-86.8796 Y217.6388 I0.181 J-5.7568
G3 X-98.6996 Y216.949 I26.7618 J-560.1778
G1 X-100.2745 Y216.8384
G1 X-101.954 Y216.7156
G1 X-103.7452 Y216.5793
G3 X-113.2898 Y215.76 I46.1626 J-593.7835
G3 X-113.5903 Y215.7317 I1.0201 J-12.4362
G3 X-113.8931 Y215.703 I1.0423 J-12.6168
G3 X-114.1982 Y215.6739 I1.0654 J-12.8039
G3 X-114.5058 Y215.6445 I1.0894 J-12.9981
G3 X-153.7165 Y210.607 I59.6643 J-619.5353
G3 X-179.6462 Y205.8786 I98.9744 J-616.2201
G3 X-194.3644 Y202.6784 I121.0793 J-592.31
G3 X-196.2274 Y202.2454 I80.941 J-352.4415
G1 X-198.1186 Y201.7991
G1 X-200.0383 Y201.3394
G2 X-195.1813 Y202.1254 I25.602 J-142.7964
G2 X-194.8567 Y202.1723 I2.1173 J-13.5008
G2 X-189.6522 Y202.8479 I28.8492 J-201.8627
G1 X-188.9572 Y202.9288
G1 X-188.2155 Y203.013
G1 X-187.4242 Y203.1009
G1 X-186.5799 Y203.1923
G1 X-186.144 Y203.2387
G1 X-185.694 Y203.2861
G1 X-185.2294 Y203.3344
G1 X-184.7498 Y203.3838
G1 X-184.2547 Y203.4341
G1 X-183.7436 Y203.4856
G1 X-182.653 Y203.5939
G1 X-180.1597 Y203.8352
G1 X-178.8298 Y203.962
G1 X-175.7901 Y204.252
G1 X-174.1692 Y204.4097
G1 X-173.3327 Y204.4925
G1 X-171.5489 Y204.674
G3 X-169.647 Y204.8767 I-35.9044 J345.9235
G1 X-168.666 Y204.9858
G1 X-167.6537 Y205.1024
G1 X-166.6092 Y205.2272
G1 X-166.3461 Y205.2595
G1 X-166.081 Y205.2923
G1 X-165.8138 Y205.3257
G1 X-164.7113 Y205.4677
G3 X-159.6839 Y206.2127 I-19.3664 J148.0156
G2 X-159.1625 Y205.9909 I-0.7237 J-2.4243
G2 X-158.7103 Y205.6497 I-0.969 J-1.7547
G2 X-158.4866 Y205.3431 I-0.8763 J-0.8743
G2 X-158.3908 Y204.8397 I-0.7649 J-0.4063
G2 X-158.4752 Y204.551 I-0.9259 J0.1139
G2 X-158.6643 Y204.261 I-1.1776 J0.5612
G2 X-158.9453 Y203.9877 I-1.6307 J1.396
G1 X-164.9444 Y201.7566
G1 X-170.9417 Y199.5204
G1 X-172.655 Y198.8809
G1 X-186.3615 Y193.7654
G1 X-190.2788 Y192.3068
G1 X-190.7763 Y192.1218
G1 X-191.2817 Y191.9338
G1 X-195.9035 Y190.218
G2 X-194.7149 Y190.2159 I0.5314 J-35.5057
G2 X-194.6356 Y190.2145 I0.0109 J-1.6092
G2 X-193.3685 Y190.1721 I-0.9146 J-46.2905
G1 X-193.0068 Y190.1536
G1 X-192.5935 Y190.1293
G2 X-189.2954 Y189.8353 I-4.3427 J-67.3515
G2 X-187.1039 Y189.5702 I-16.7809 J-147.9622
G1 X-185.8534 Y189.4056
G1 X-184.425 Y189.213
G1 X-184.0564 Y189.1632
G1 X-183.6759 Y189.1121
G1 X-182.8639 Y189.0045
G1 X-182.4447 Y188.95
G3 X-180.5268 Y188.7155 I16.0261 J123.1307
G1 X-180.283 Y188.688
G3 X-179.7793 Y188.6333 I3.4586 J29.4689
G1 X-179.2592 Y188.5799
G1 X-178.7219 Y188.5285
G1 X-178.1669 Y188.48
G1 X-177.8848 Y188.4571
G3 X-177.302 Y188.4143 I2.1582 J25.3722
G1 X-176.7 Y188.3766
G3 X-173.9427 Y188.3062 I2.4212 J40.7729
G1 X-173.7689 Y188.3082
G3 X-173.2528 Y188.1358 I1.1439 J2.566
G3 X-172.7165 Y188.0437 I1.0691 J4.6175
G3 X-171.6323 Y187.9958 I0.9518 J9.2519
G3 X-171.3223 Y187.9997 I0.0465 J8.8015
G1 X-170.9684 Y188.008
G2 X-170.0265 Y188.0307 I1.8398 J-56.7126
G1 X-169.7754 Y188.0325
G1 X-169.6458 Y188.0321
G1 X-169.512 Y188.0305
G1 X-169.2268 Y188.0227
G2 X-168.9229 Y188.0062 I-0.2718 J-7.8228
G1 X-168.7664 Y187.9938
G2 X-168.4333 Y187.9569 I-0.4377 J-5.4728
G2 X-168.0805 Y187.8991 I-0.556 J-4.4998
G2 X-167.2923 Y187.6744 I-0.807 J-4.3256
G2 X-166.4668 Y187.2142 I-1.2469 J-3.207
G2 X-165.7211 Y186.4058 I-1.9944 J-2.5877
G2 X-165.7262 Y185.7298 I-5.8827 J-0.2938
G2 X-165.8213 Y185.0606 I-3.9804 J0.2243
G2 X-165.954 Y184.6293 I-2.9576 J0.6737
G2 X-166.2417 Y184.0995 I-2.2348 J0.8706
G2 X-166.8286 Y183.5446 I-1.7912 J1.3068
G2 X-167.238 Y183.3252 I-1.412 J2.1432
G1 X-167.3488 Y183.2793
G2 X-167.8701 Y183.1156 I-1.3918 J3.5203
G2 X-168.4792 Y182.9995 I-1.3676 J5.5204
G2 X-168.8059 Y182.9589 I-1.0738 J7.3107
G2 X-169.5461 Y182.9018 I-1.3265 J12.3565
G1 X-169.6401 Y182.8969
G1 X-170.038 Y182.88
G1 X-170.9301 Y182.8524
G1 X-171.4011 Y182.8362
G3 X-172.4526 Y182.774 I0.7102 J-20.9128
G3 X-172.5855 Y182.7621 I0.3678 J-4.8559
G3 X-173.7689 Y182.5936 I0.9917 J-11.2034
G1 X-175.9144 Y182.3824
G1 X-178.0604 Y182.1771
G1 X-179.4914 Y182.0428
G1 X-180.3092 Y181.9669
G2 X-180.7454 Y181.9266 I-3.2271 J32.5569
G1 X-183.0717 Y181.7137
G1 X-186.1738 Y181.4332
G1 X-190.3101 Y181.06
G1 X-192.6734 Y180.8445
G1 X-193.9338 Y180.7283
G3 X-194.0926 Y180.7136 I0.5373 J-6.6605
G1 X-196.9956 Y180.4407
G3 X-197.7446 Y180.369 I6.7455 J-74.3754
G1 X-199.3423 Y180.2138
G3 X-202.993 Y179.8459 I48.8018 J-502.5912
G3 X-212.7149 Y178.7397 I45.0089 J-438.8422
G1 X-213.9672 Y178.5798
G1 X-214.2828 Y178.5387
G1 X-214.6008 Y178.497
G1 X-214.9212 Y178.4547
G1 X-215.2441 Y178.4117
G1 X-216.5767 Y178.2307
G1 X-217.9514 Y178.0375
G1 X-218.2977 Y177.9877
G1 X-219.7267 Y177.7776
G1 X-220.4522 Y177.6679
G3 X-223.5435 Y177.1754 I44.7305 J-290.7266
G3 X-226.8332 Y176.6023 I34.7082 J-208.9483
G3 X-234.3121 Y175.0702 I30.2729 J-166.7966
G1 X-234.7807 Y174.9618
G2 X-235.0157 Y175.4462 I1.5897 J1.0704
G2 X-235.105 Y175.9771 I1.8764 J0.5886
G2 X-235.0939 Y176.336 I2.8644 J0.091
G2 X-235.0235 Y176.8078 I4.1816 J-0.3821
G1 X-234.9678 Y177.0738
G3 X-234.8132 Y177.776 I-40.2788 J9.2418
G1 X-234.7781 Y177.9641
G3 X-234.7212 Y178.3965 I-5.0088 J0.8794
G1 X-234.7132 Y178.5088
G1 X-234.7085 Y178.6248
G3 X-234.7381 Y179.1544 I-3.3406 J0.0787
G3 X-234.8882 Y179.7442 I-2.775 J-0.3922
G3 X-235.2041 Y180.3686 I-3.0342 J-1.1428
G1 X-236.2166 Y180.6944
G3 X-236.2842 Y180.716 I-0.4915 J-1.4209
G3 X-236.3563 Y180.739 I-0.512 J-1.478
G1 X-236.7406 Y180.8616
G1 X-238.2785 Y181.3505
G2 X-238.7178 Y181.4904 I12.6183 J40.3765
G1 X-239.8886 Y181.866
G1 X-240.5568 Y182.0831
G2 X-240.7291 Y182.1395 I1.9005 J6.097
G2 X-240.907 Y182.1979 I2.2086 J7.023
G2 X-241.0905 Y182.2584 I2.6963 J8.4846
G2 X-241.2798 Y182.3211 I3.6572 J11.3608
G1 X-242.1442 Y182.6112
G1 X-242.6044 Y182.7684
G1 X-243.0944 Y182.9385
G1 X-243.6161 Y183.1226
G1 X-243.8849 Y183.2189
G1 X-244.1621 Y183.3192
G2 X-247.0924 Y184.4598 I22.5899 J62.3697
G1 X-247.2764 Y184.5373
G1 X-247.4631 Y184.6167
G1 X-247.6525 Y184.6981
G1 X-247.8445 Y184.7815
G1 X-248.0392 Y184.8671
G2 X-248.8657 Y185.242 I20.2432 J45.7321
G3 X-253.498 Y183.5234 I78.3238 J-218.2272
G1 X-254.1569 Y183.2702
G3 X-259.3996 Y181.173 I79.8497 J-207.2181
G3 X-269.7149 Y176.5779 I81.2617 J-196.2942
G3 X-270.0382 Y176.4228 I11.3406 J-24.0525
G3 X-271.4142 Y175.7545 I69.8647 J-145.5949
G3 X-278.6586 Y172.0023 I80.0954 J-163.5112
G3 X-288.0264 Y166.4721 I77.2972 J-141.6375
G1 X-288.3152 Y166.2875
G3 X-293.5167 Y162.7922 I77.019 J-120.2329
G1 X-294.1659 Y162.3317
G1 X-294.8226 Y161.8601
G1 X-295.4868 Y161.3768
G1 X-296.1585 Y160.8817
G3 X-298.9878 Y158.7199 I71.5317 J-96.5528
G3 X-301.936 Y156.3242 I69.3758 J-88.386
G2 X-302.0586 Y156.6922 I1.2232 J0.6119
G2 X-302.0855 Y157.0792 I1.6697 J0.3105
G2 X-301.9419 Y157.8354 I2.7834 J-0.1368
G2 X-301.7531 Y158.3112 I4.0083 J-1.3154
G2 X-301.6937 Y158.434 I1.9775 J-0.8794
G2 X-301.3287 Y159.057 I4.6506 J-2.3066
G2 X-301.0874 Y159.3904 I4.0752 J-2.6953
G2 X-296.7959 Y162.931 I58.6494 J-66.7167
G2 X-292.3 Y166.208 I60.4169 J-78.1693
G2 X-292.1543 Y166.3079 I3.6572 J-5.1729
G2 X-292.0062 Y166.4092 I3.6537 J-5.1842
G2 X-290.6442 Y167.3238 I72.4866 J-106.4708
G1 X-289.9123 Y167.8033
G2 X-285.9505 Y170.2682 I65.6036 J-101.0291
G2 X-285.8242 Y170.3434 I2.6957 J-4.3814
G2 X-285.6969 Y170.4191 I2.7022 J-4.4025
G2 X-285.5684 Y170.4952 I2.7089 J-4.4242
G2 X-280.0169 Y173.6149 I73.3979 J-124.1128
G2 X-279.8399 Y173.7094 I3.2083 J-5.7958
G2 X-276.5858 Y175.4004 I80.4964 J-150.9348
G2 X-274.8369 Y176.2759 I77.4116 J-152.4503
G2 X-274.616 Y176.385 I4.44 J-8.7129
G2 X-270.5562 Y178.3364 I104.4577 J-212.112
G2 X-270.0381 Y178.5789 I19.5374 J-41.0764
G2 X-265.2813 Y180.7482 I143.2124 J-307.7377
G1 X-264.6749 Y181.0184
G2 X-262.0832 Y182.1604 I259.7728 J-585.974
G1 X-260.7432 Y182.7441
G1 X-259.3586 Y183.3431
G1 X-259.0095 Y183.4936
G1 X-257.5676 Y184.1132
G2 X-254.4896 Y185.4287 I327.6455 J-762.3572
G1 X-251.2061 Y186.8291
G3 X-251.0516 Y186.8682 I-0.3961 J1.8949
G3 X-250.9064 Y186.9337 I-0.1815 J0.5959
G3 X-250.8299 Y187.0087 I-0.141 J0.2203
G3 X-250.8079 Y187.1548 I-0.1754 J0.101
G3 X-250.8759 Y187.3376 I-0.6941 J-0.1542
G1 X-250.9248 Y187.435
G2 X-251.0292 Y187.6799 I1.2571 J0.6805
G2 X-251.0295 Y188.0037 I0.4802 J0.1624
G2 X-250.9352 Y188.1646 I0.4931 J-0.1809
G2 X-250.7809 Y188.3082 I0.7441 J-0.6444
G2 X-252.6738 Y187.5883 I-45.2845 J116.2242
G2 X-252.8003 Y187.5413 I-1.7426 J4.4942
G2 X-252.9354 Y187.4912 I-1.7985 J4.645
G2 X-253.0795 Y187.438 I-1.8564 J4.8019
G1 X-253.8489 Y187.1564
G1 X-254.877 Y186.7871
G2 X-256.2513 Y186.3047 I-40.7187 J113.8234
G2 X-261.7807 Y184.4706 I-77.2408 J223.6129
G2 X-261.957 Y184.4144 I-2.4152 J7.2663
G2 X-262.136 Y184.3574 I-2.4627 J7.4253
G2 X-262.3179 Y184.2996 I-2.5131 J7.5935
G2 X-262.5028 Y184.241 I-2.5665 J7.7718
G2 X-262.6906 Y184.1815 I-2.6234 J7.9614
G2 X-262.8814 Y184.1212 I-2.684 J8.1634
G2 X-263.0753 Y184.0601 I-2.7488 J8.3794
G2 X-263.2723 Y183.9981 I-2.8186 J8.6114
G2 X-263.4725 Y183.9352 I-2.8936 J8.8609
G1 X-265.3036 Y183.3648
G1 X-267.3988 Y182.7205
G1 X-272.9892 Y181.0153
G1 X-274.479 Y180.5573
G1 X-275.2476 Y180.3196
G1 X-276.0405 Y180.0729
G3 X-279.6582 Y178.9232 I116.9493 J-374.2836
G1 X-280.1166 Y178.774
G3 X-289.3917 Y174.3617 I324.6634 J-694.4352
G1 X-290.7113 Y173.72
G1 X-292.2175 Y172.9827
G3 X-293.0199 Y172.5877 I42.0043 J-86.3466
G3 X-293.2236 Y172.4872 I3.0675 J-6.4731
G3 X-293.4305 Y172.385 I3.0986 J-6.5337
G3 X-293.6407 Y172.2811 I3.1301 J-6.5948
G3 X-293.8541 Y172.1755 I3.1622 J-6.6568
G3 X-298.3959 Y169.8994 I212.3412 J-429.3817
G3 X-300.9809 Y168.5784 I280.0571 J-551.2435
G1 X-302.3563 Y167.8675
G1 X-303.8207 Y167.1041
G3 X-311.5806 Y162.9375 I190.2045 J-363.5463
G3 X-311.7016 Y162.8708 I2.9182 J-5.4366
G3 X-311.8231 Y162.8037 I2.9265 J-5.4475
G3 X-311.945 Y162.7364 I2.9348 J-5.4585
G3 X-312.0674 Y162.6688 I2.943 J-5.4694
G3 X-312.1902 Y162.6008 I2.9514 J-5.4803
G3 X-312.3135 Y162.5326 I2.9597 J-5.4912
G3 X-316.8037 Y160.0047 I176.6763 J-319.0721
G3 X-328.5863 Y152.9346 I161.1132 J-281.8565
G3 X-331.6747 Y150.9618 I152.3848 J-241.9597
G1 X-332.455 Y150.4546
G3 X-339.5103 Y145.6962 I145.0539 J-222.6822
G1 X-340.3953 Y145.0761
G1 X-341.2917 Y144.4423
G3 X-349.3577 Y138.4664 I140.9633 J-198.6998
G3 X-350.3641 Y137.6839 I421.8661 J-543.5501
G3 X-359.3617 Y130.2714 I140.9963 J-180.3157
G3 X-369.146 Y121.2215 I138.4781 J-159.5299
G3 X-370.3465 Y120.0281 I123.0079 J-124.9363
G3 X-380.8504 Y108.6533 I140.3638 J-140.1548
G3 X-380.7294 Y108.5626 I0.473 J0.5052
G3 X-380.596 Y108.4916 I0.9714 J1.6647
G3 X-380.3166 Y108.3781 I1.1749 J2.4913
G3 X-379.7412 Y108.206 I2.3115 J6.6802
G3 X-378.5703 Y107.9625 I3.5906 J14.3322
G1 X-378.233 Y107.9086
G1 X-378.0527 Y107.8821
G3 X-377.0894 Y107.7678 I2.7135 J18.7392
G1 X-376.8318 Y107.7448
G3 X-375.4551 Y107.6865 I1.3505 J15.601
G3 X-374.6683 Y107.7218 I-0.0464 J9.8313
G3 X-374.4662 Y107.7442 I-0.2258 J2.9593
G1 X-374.3638 Y107.7585
G1 X-374.3123 Y107.7666
G3 X-373.8783 Y107.8676 I-0.4333 J2.8453
G3 X-373.6641 Y107.955 I-0.4671 J1.451
G3 X-373.3346 Y108.1415 I-2.9622 J5.6156
G1 X-373.2281 Y108.2094
G3 X-372.8186 Y108.5045 I-2.7504 J4.247
G3 X-372.0718 Y109.1821 I-4.7464 J5.9819
G3 X-371.6178 Y109.6778 I-8.1506 J7.9211
G3 X-371.5899 Y109.7101 I-0.2308 J0.227
G3 X-371.5617 Y109.7431 I-0.2345 J0.2292
G3 X-370.9836 Y110.4636 I-11.6768 J9.9624
G3 X-370.2626 Y111.4594 I-24.5277 J18.5156
G1 X-370.0763 Y111.729
G1 X-369.9807 Y111.8686
G1 X-368.9707 Y113.3581
G1 X-368.6979 Y113.7527
G2 X-368.0568 Y114.6407 I26.174 J-18.2209
G1 X-367.8856 Y114.8656
G2 X-367.7975 Y114.979 I1.8735 J-1.3648
G2 X-366.9484 Y115.9792 I12.7943 J-10.0012
G2 X-365.8439 Y116.9973 I6.7136 J-6.1752
G2 X-365.1782 Y117.4489 I4.0611 J-5.27
G2 X-349.3898 Y120.4375 I109.1265 J-533.2862
G1 X-349.1385 Y120.4811
G1 X-348.8831 Y120.5252
G1 X-348.6237 Y120.5698
G1 X-348.3601 Y120.615
G1 X-348.0923 Y120.6608
G1 X-347.8203 Y120.7072
G1 X-347.5439 Y120.7541
G1 X-347.263 Y120.8016
G1 X-346.9777 Y120.8497
G1 X-346.6879 Y120.8983
G1 X-346.3933 Y120.9476
G1 X-346.0941 Y120.9974
G1 X-345.7901 Y121.0479
G1 X-344.4928 Y121.2607
G1 X-343.1083 Y121.4837
G1 X-341.6308 Y121.7167
G1 X-340.0539 Y121.9598
G1 X-338.3709 Y122.2126
G2 X-329.3778 Y123.4434 I60.0802 J-405.5072
G1 X-328.2154 Y123.5872
G2 X-325.7342 Y123.8819 I54.3315 J-446.7953
G1 X-325.1037 Y123.9541
G1 X-324.4631 Y124.0264
G1 X-323.8122 Y124.0987
G1 X-323.1508 Y124.1709
G2 X-309.0128 Y125.4142 I37.3397 J-343.5896
G2 X-308.5667 Y125.4438 I2.3937 J-32.697
G2 X-308.1171 Y125.473 I2.0213 J-27.6247
G2 X-288.9048 Y126.1344 I20.5703 J-318.1477
G2 X-287.6217 Y126.3083 I5.4316 J-35.2697
G1 X-287.1928 Y126.3565
G1 X-286.6203 Y126.4148
G2 X-286.4675 Y126.4293 I0.4551 J-3.9704
G2 X-284.0196 Y126.6167 I7.5193 J-82.1721
G2 X-282.3854 Y126.7054 I6.9435 J-112.7627
G2 X-280.205 Y126.7915 I6.8739 J-146.5376
G1 X-279.6234 Y126.8092
G2 X-279.4757 Y126.8134 I0.1759 J-3.589
G2 X-279.3256 Y126.8175 I0.1768 J-3.6881
G2 X-279.1731 Y126.8216 I0.1778 J-3.7976
G2 X-279.0183 Y126.8256 I0.1789 J-3.9197
G2 X-278.8609 Y126.8296 I0.1802 J-4.0556
G2 X-278.7011 Y126.8334 I0.1816 J-4.2033
G2 X-278.5387 Y126.8372 I0.1833 J-4.3749
G2 X-278.3737 Y126.8409 I0.1852 J-4.5667
G2 X-278.2061 Y126.8446 I0.1875 J-4.7915
G2 X-278.0358 Y126.8481 I0.1901 J-5.0489
G1 X-277.3094 Y126.8616
G1 X-276.5346 Y126.8733
G2 X-272.4024 Y126.8935 I3.3756 J-267.8214
G1 X-271.3006 Y126.8882
G1 X-271.0207 Y126.8861
G1 X-269.8268 Y126.8746
G1 X-269.2106 Y126.8669
G1 X-268.5745 Y126.8576
G1 X-267.2178 Y126.8337
G1 X-265.7707 Y126.8021
G1 X-264.2274 Y126.7616
G1 X-262.5815 Y126.7109
G2 X-260.8262 Y126.6481 I-12.1954 J-365.736
G1 X-259.9203 Y126.6123
G1 X-258.9853 Y126.5728
G1 X-258.0203 Y126.5293
G2 X-257.0244 Y126.4816 I-8.2514 J-182.6566
G1 X-255.9965 Y126.4292
G1 X-254.9356 Y126.3718
G1 X-254.3968 Y126.3413
G1 X-253.2846 Y126.2754
G1 X-252.1369 Y126.2031
G1 X-251.554 Y126.1647
G1 X-250.3509 Y126.0816
G2 X-247.7857 Y125.8865 I-19.8725 J-278.2168
G1 X-246.4625 Y125.7754
G1 X-246.1292 Y125.7463
G1 X-245.4522 Y125.6854
G1 X-244.7647 Y125.6214
G1 X-244.6785 Y125.6132
G1 X-243.979 Y125.5453
G2 X-240.9973 Y125.2251 I-18.3563 J-184.9822
G1 X-240.241 Y125.1349
G1 X-239.4732 Y125.0389
G1 X-239.0865 Y124.9887
G1 X-238.3013 Y124.883
G1 X-237.5045 Y124.7698
G1 X-236.6959 Y124.6481
G1 X-231.0741 Y123.9772
G1 X-230.271 Y123.8807
G1 X-228.1297 Y123.6221
G1 X-225.2751 Y123.274
G1 X-223.6441 Y123.073
G1 X-221.7803 Y122.8411
G1 X-219.6507 Y122.5731
G1 X-217.2175 Y122.2622
G1 X-216.5896 Y122.1811
G1 X-215.9415 Y122.097
G1 X-215.2726 Y122.0098
G1 X-214.5822 Y121.9193
G1 X-213.1096 Y121.7245
G1 X-211.5392 Y121.5141
G1 X-209.8645 Y121.2865
G1 X-208.0787 Y121.0399
G1 X-206.1744 Y120.7722
G1 X-205.1918 Y120.632
G2 X-194.7252 Y119.0418 I-83.0462 J-581.8247
G1 X-193.3769 Y118.8224
G1 X-191.9857 Y118.5921
G1 X-190.5504 Y118.3502
G1 X-189.0695 Y118.0959
G2 X-182.3106 Y116.8702 I-71.6043 J-414.0713
G1 X-180.5697 Y116.5358
G1 X-179.686 Y116.363
G2 X-171.6264 Y114.6833 I-67.1896 J-342.5592
G1 X-170.6058 Y114.4564
G1 X-169.5698 Y114.2226
G1 X-168.5181 Y113.9817
G2 X-164.04 Y112.9133 I-75.3213 J-325.6275
G1 X-162.9053 Y112.6312
G1 X-161.7537 Y112.3401
G1 X-160.585 Y112.0395
G1 X-159.3991 Y111.7291
G1 X-158.1957 Y111.4085
G1 X-156.9747 Y111.0773
G1 X-155.7359 Y110.7351
G1 X-154.479 Y110.3813
G2 X-149.1363 Y108.8012 I-67.843 J-239.2178
G2 X-148.8023 Y108.6982 I-8.0222 J-26.5984
G2 X-148.467 Y108.5942 I-7.6165 J-25.1597
G2 X-148.1306 Y108.4894 I-7.2701 J-23.9245
G2 X-147.793 Y108.3837 I-6.9694 J-22.8467
G2 X-147.4543 Y108.2771 I-6.706 J-21.8971
G2 X-147.1144 Y108.1695 I-6.4726 J-21.0509
G2 X-141.3376 Y106.2559 I-73.0839 J-230.2998
G2 X-141.1576 Y106.1936 I-3.2256 J-9.6073
G2 X-140.9772 Y106.131 I-3.2046 J-9.5217
G2 X-140.7965 Y106.0681 I-3.184 J-9.4377
G2 X-140.6156 Y106.0049 I-3.1642 J-9.3559
G3 X-133.4218 Y99.8881 I24.1011 J21.0558
G3 X-130.6683 Y98.3425 I18.5448 J29.8115
G1 X-130.489 Y98.2527
G3 X-126.5639 Y96.5608 I18.1346 J36.6718
G3 X-125.4907 Y96.1764 I20.1125 J54.4586
G3 X-123.0085 Y95.3899 I17.9304 J52.2838
G3 X-120.135 Y94.6263 I18.4287 J63.5542
G3 X-120.0444 Y94.6043 I0.6941 J2.6665
G3 X-119.9533 Y94.5823 I0.6925 J2.6734
G3 X-119.8619 Y94.5604 I0.691 J2.6807
G3 X-119.77 Y94.5385 I0.6896 J2.6883
G3 X-116.4025 Y93.8058 I22.2015 J93.9267
G3 X-116.2965 Y93.7846 I0.7114 J3.2868
G3 X-116.19 Y93.7634 I0.7148 J3.3177
G3 X-116.0831 Y93.7423 I0.7183 J3.3497
G1 X-115.2 Y93.571
G3 X-111.1611 Y92.845 I45.2739 J240.2521
G1 X-110.1179 Y92.6659
G2 X-109.6984 Y93.2001 I58.2956 J-45.3424
G1 X-109.2748 Y93.731
G1 X-108.9901 Y94.0831
G2 X-107.8343 Y95.4776 I65.1608 J-52.8309
G1 X-107.4993 Y95.872
G2 X-107.114 Y96.3207 I23.9241 J-20.1582
G2 X-106.0741 Y97.5063 I67.1382 J-57.8326
G2 X-101.7598 Y102.1073 I94.474 J-84.2654
G2 X-101.6901 Y102.1781 I2.3048 J-2.1979
G2 X-101.6199 Y102.2494 I2.3385 J-2.2336
G2 X-101.549 Y102.3213 I2.3737 J-2.2708
G1 X-100.9423 Y102.9323
G1 X-100.2915 Y103.5804
G2 X-98.7904 Y105.048 I95.6102 J-96.2856
G1 X-97.9828 Y105.8234
G1 X-97.1163 Y106.6453
G2 X-92.4227 Y110.9487 I164.8559 J-175.0942
G2 X-91.1542 Y112.0775 I127.5191 J-142.0286
G1 X-90.4972 Y112.6576
G1 X-89.8177 Y113.2548
G1 X-89.6463 Y113.4051
G1 X-89.4734 Y113.5564
G1 X-87.9954 Y114.8441
G1 X-87.2307 Y115.5066
G1 X-85.5963 Y116.9162
G1 X-85.4936 Y117.0045
G1 X-83.7404 Y118.51
G2 X-84.1595 Y122.1437 I35.2926 J5.9119
G2 X-84.2251 Y125.801 I39.545 J2.5383
G2 X-83.4033 Y133.0616 I43.8289 J-1.2841
G2 X-82.2081 Y137.786 I45.0262 J-8.8772
G2 X-79.8559 Y143.8381 I44.1964 J-13.6946
G2 X-78.129 Y147.124 I39.9544 J-18.9007
G2 X-75.8141 Y150.6793 I35.57 J-20.6288
G2 X-72.7198 Y154.4144 I31.0961 J-22.6116
G3 X-68.4682 Y155.9859 I-79.0354 J220.3655
G1 X-67.057 Y156.5257
G3 X-66.2514 Y156.8363 I-41.3466 J108.4224
G1 X-64.105 Y157.6691
G1 X-61.2431 Y158.7796
G2 X-61.0612 Y158.8498 I2.9483 J-7.3696
G2 X-60.8764 Y158.921 I2.9901 J-7.4819
G2 X-60.6887 Y158.9933 I3.0324 J-7.5962
G2 X-60.4979 Y159.0666 I3.0751 J-7.7124
G2 X-60.3041 Y159.1411 I3.118 J-7.8303
G2 X-60.1072 Y159.2166 I3.1612 J-7.9499
G2 X-59.9071 Y159.2932 I3.2044 J-8.0707
G2 X-59.7038 Y159.3709 I3.2476 J-8.1926
G2 X-59.4972 Y159.4497 I3.2906 J-8.3153
G2 X-59.2873 Y159.5296 I3.3332 J-8.4385
G2 X-59.074 Y159.6107 I3.3753 J-8.5617
G2 X-58.8572 Y159.6929 I3.4167 J-8.6845
G2 X-58.637 Y159.7762 I3.457 J-8.8064
G2 X-58.4132 Y159.8606 I3.4961 J-8.9267
G2 X-58.1857 Y159.9462 I3.5337 J-9.0447
G2 X-57.9546 Y160.033 I3.5695 J-9.1598
G2 X-57.7197 Y160.1209 I3.6031 J-9.2712
G2 X-57.4809 Y160.2099 I3.6341 J-9.3779
G2 X-57.2383 Y160.3001 I3.6624 J-9.4792
G2 X-55.0153 Y161.1107 I55.0541 J-147.5235
G2 X-54.7323 Y161.2116 I3.7172 J-9.9785
G2 X-54.5896 Y161.2623 I2.5848 J-7.0545
G2 X-54.4457 Y161.3132 I2.5757 J-7.0477
G2 X-54.3007 Y161.3644 I2.5655 J-7.0384
G2 X-54.1544 Y161.4159 I2.5543 J-7.0264
G2 X-52.9044 Y161.8488 I47.6234 J-135.4765
G2 X-50.0313 Y162.7918 I43.8437 J-128.7441
G2 X-49.8495 Y162.8487 I1.9671 J-5.9606
G2 X-49.6661 Y162.9058 I1.9382 J-5.902
G2 X-49.4813 Y162.963 I1.9092 J-5.8428
G2 X-49.2948 Y163.0203 I1.8801 J-5.7836
G1 X-48.5239 Y163.2533
G2 X-44.9752 Y164.2354 I25.3838 J-84.8175
G2 X-44.8632 Y164.2638 I0.8723 J-3.2036
G3 X-42.7681 Y166.252 I-11.7951 J14.5273
G1 X-42.7056 Y166.3213
G1 X-42.6414 Y166.3931
G3 X-41.9762 Y167.1752 I-15.0539 J13.4772
G1 X-41.8045 Y167.3885
G3 X-41.6238 Y167.6179 I-6.7883 J5.532
G3 X-41.2196 Y168.1491 I-22.4732 J17.5208
G3 X-40.1901 Y169.6 I-37.873 J27.964
G3 X-39.6225 Y170.443 I-44.1119 J30.3129
G1 X-39.3227 Y170.8944
G1 X-38.6378 Y171.9258
G2 X-38.2693 Y172.4735 I44.4632 J-29.5209
G1 X-37.871 Y173.054
G2 X-36.9299 Y174.3584 I37.1791 J-25.8308
G1 X-36.8065 Y174.5212
G2 X-36.5486 Y174.8548 I18.5728 J-14.0923
G2 X-35.308 Y176.3304 I21.9198 J-17.1706
G2 X-34.97 Y176.6957 I16.2589 J-14.6988
G1 X-34.7954 Y176.8787
G2 X-33.1059 Y178.4588 I15.612 J-14.9998
G2 X-32.4989 Y178.9394 I1.8178 J-1.6721
G2 X-31.7618 Y179.1764 I0.977 J-1.7741
G2 X-31.2436 Y179.1761 I0.2577 J-2.2152
G2 X-30.5758 Y179.0107 I-0.3285 J-2.7574
G2 X-29.7721 Y178.5895 I-1.4189 J-3.6844
G2 X-29.3608 Y178.2788 I-2.9096 J-4.2805
G2 X-28.4506 Y177.295 I-3.4481 J-4.103
G3 X-26.3504 Y178.5971 I-33.8849 J56.9982
G1 X-25.6589 Y179.0448
G1 X-24.7406 Y179.6473
G1 X-23.5186 Y180.4541
G1 X-22.8192 Y180.9135
G2 X-22.6384 Y181.0316 I6.014 J-9.009
G2 X-20.6958 Y182.2694 I46.7104 J-71.1628
G1 X-20.4426 Y182.4251
G1 X-20.1804 Y182.5845
G2 X-18.9706 Y183.2943 I24.4929 J-40.3618
G1 X-18.655 Y183.4716
G1 X-18.3277 Y183.6519
G1 X-17.988 Y183.8346
G1 X-17.6354 Y184.0196
G1 X-17.2692 Y184.2064
G2 X-15.5644 Y184.9993 I13.2258 J-26.2083
G2 X-13.5513 Y185.7569 I9.7068 J-22.7385
G2 X-12.4503 Y186.0832 I6.0506 J-18.3955
G1 X-12.2376 Y185.9847
G1 X-12.0275 Y185.881
G2 X-11.6155 Y185.6576 I-4.4232 J-8.6482
G2 X-10.8299 Y185.1466 I-4.3899 J-7.6092
G2 X-9.4507 Y183.8814 I-5.039 J-6.8771
G2 X-8.6971 Y182.8852 I-6.9182 J-6.016
G2 X-7.905 Y181.4224 I-8.85 J-5.7386
G2 X8.9015 Y183.8979 I112.1516 J-703.1185
G1 X10.024 Y184.048
G1 X11.2217 Y184.2058
G1 X12.4997 Y184.3716
G1 X13.8631 Y184.5453
G1 X14.2095 Y184.589
G2 X21.6043 Y185.4697 I71.3418 J-567.5183
G1 X22.0742 Y185.5223
G1 X22.5516 Y185.5753
G2 X32.7475 Y186.5989 I53.9702 J-486.289
G1 X33.069 Y186.6277
G1 X33.3931 Y186.6565
G1 X33.7197 Y186.6852
G1 X34.0489 Y186.714
G1 X34.3807 Y186.7428
G1 X34.7152 Y186.7716
G1 X35.0523 Y186.8003
G1 X35.3921 Y186.829
G1 X35.7346 Y186.8577
G1 X36.0798 Y186.8864
G1 X36.4277 Y186.915
G1 X37.8645 Y187.0303
G1 X39.348 Y187.1444
G2 X40.7193 Y185.8397 I-10.7517 J-12.674
G1 X40.805 Y185.747
G2 X41.2504 Y185.242 I-17.5269 J-15.9058
G2 X46.3222 Y185.9708 I49.2016 J-324.3678
G1 X47.0477 Y186.0684
G1 X47.877 Y186.1781
G2 X54.5205 Y186.9852 I46.377 J-353.9858
G1 X55.4074 Y187.0838
G2 X69.6222 Y188.4063 I48.2228 J-441.284
G1 X70.5406 Y188.4766
G1 X71.4887 Y188.5475
G2 X71.7277 Y188.5651 I0.6501 J-7.1975
G2 X71.9685 Y188.5827 I0.6524 J-7.2615
G2 X72.2113 Y188.6004 I0.6548 J-7.3268
G2 X72.4559 Y188.6181 I0.6572 J-7.3933
G2 X72.5788 Y188.6269 I0.44 J-5.2609
G2 X72.7021 Y188.6357 I0.4408 J-5.2851
G2 X72.8258 Y188.6446 I0.4416 J-5.3096
G2 X72.9501 Y188.6534 I0.4423 J-5.3342
G2 X73.0749 Y188.6623 I0.4431 J-5.3592
G2 X73.2001 Y188.6712 I0.4439 J-5.3844
G2 X73.3259 Y188.68 I0.4447 J-5.4099
G2 X73.4521 Y188.6889 I0.4455 J-5.4356
G2 X73.5789 Y188.6978 I0.4463 J-5.4617
G2 X78.2146 Y189.0029 I43.3935 J-623.8531
G2 X78.3601 Y189.0119 I0.4806 J-6.6026
G1 X79.5615 Y189.0847
G1 X80.8018 Y189.1575
G1 X82.0822 Y189.2301
G1 X83.404 Y189.3024
G2 X97.5102 Y189.9296 I42.6928 J-801.2022
G1 X99.331 Y189.9941
G2 X107.6555 Y190.2528 I45.3392 J-1325.3494
G1 X109.804 Y190.3113
G1 X110.3454 Y190.3256
G1 X110.891 Y190.3398
G2 X111.9996 Y190.3682 I4.6463 J-159.6213
G2 X116.7296 Y190.4827 I74.9144 J-2996.2261
G1 X119.1709 Y190.5384
G1 X121.691 Y190.594
G1 X133.2107 Y190.8393
G1 X133.6374 Y190.8454
G1 X134.0641 Y190.849
G1 X134.9175 Y190.8538
G1 X136.6244 Y190.8586
G2 X140.0383 Y190.8571 I1.4485 J-575.7831
G1 X142.3141 Y190.8497
G1 X142.6078 Y190.8484
G1 X143.9502 Y190.8415
G2 X143.9924 Y190.8412 I0.0186 J-0.4232
G1 X145.5326 Y190.8312
G1 X146.3541 Y190.825
G1 X147.2303 Y190.8177
G1 X149.2331 Y190.7984
G1 X150.3012 Y190.7865
G1 X152.7425 Y190.755
G1 X154.0445 Y190.7355
G1 X155.4334 Y190.7126
G2 X155.5206 Y190.7111 I0.0079 J-2.055
G1 X156.2402 Y190.6982
G1 X156.983 Y190.6842
G2 X157.1702 Y190.6806 I-0.1956 J-14.8843
G1 X158.7671 Y190.6476
G2 X167.2828 Y190.397 I-10.3692 J-497.1107
G1 X168.3811 Y190.3524
G1 X169.5148 Y190.3023
G1 X170.0905 Y190.275
G1 X170.3807 Y190.2608
G1 X171.5784 Y190.1983
G1 X172.1867 Y190.164
G2 X173.442 Y190.0865 I-5.3031 J-96.1514
G2 X173.5995 Y190.0761 I-0.1541 J-3.5243
G2 X173.7576 Y190.0655 I-0.9093 J-14.6993
G1 X174.0763 Y190.0435
G1 X174.2363 Y190.0322
G1 X174.886 Y189.984
G1 X175.5458 Y189.9311
G1 X175.8781 Y189.9027
G3 X174.9797 Y190.5383 I-3.4992 J-3.9932
G3 X173.9639 Y190.9616 I-2.3435 J-4.194
G3 X173.246 Y191.1166 I-1.5213 J-5.3048
G1 X173.0518 Y191.1431
G3 X172.844 Y191.1654 I-0.6511 J-5.0697
G3 X172.7911 Y191.1703 I-0.0739 J-0.5194
G3 X172.3075 Y191.2002 I-0.9904 J-12.0754
G3 X171.7549 Y191.2118 I-0.6235 J-16.5771
G1 X171.6122 Y191.2123
G1 X171.4651 Y191.2122
G1 X170.7946 Y191.2092
G1 X170.4376 Y191.21
G2 X169.6242 Y191.2323 I0.0124 J15.2831
G2 X169.1917 Y191.2615 I0.8973 J16.5388
G1 X168.9692 Y191.2823
G2 X168.4965 Y191.3413 I0.8932 J9.0822
G1 X168.2537 Y191.38
G2 X166.7685 Y191.9612 I8.0652 J22.799
G2 X165.3381 Y192.6664 I5.8765 J13.7209
G2 X164.4383 Y193.2342 I5.6269 J9.9149
G2 X163.3497 Y194.1459 I4.8097 J6.848
G2 X162.8109 Y194.7551 I4.7186 J4.7171
G2 X161.7931 Y196.6786 I4.7993 J3.7704
G3 X141.9051 Y201.5629 I-151.6341 J-574.497
G1 X140.5736 Y201.8645
G1 X139.1525 Y202.1831
G1 X137.6359 Y202.5193
G3 X113.2659 Y207.3964 I-139.1949 J-632.2028
G3 X96.9258 Y210.1425 I-120.4048 J-666.4652
G3 X86.3015 Y211.7159 I-111.8498 J-718.574
G0 Z5.0
G0 X38.7569 Y184.6979
G1 Z0.0
G3 X38.6094 Y184.9194 I-1.6379 J-0.9308
G1 X35.6868 Y184.7003
G1 X34.7126 Y184.6259
G3 X30.8168 Y184.3193 I81.8684 J-1065.1118
G3 X28.2205 Y184.1043 I41.0406 J-511.2688
G1 X26.7373 Y183.9766
G1 X25.0427 Y183.8259
G1 X23.1066 Y183.6467
G1 X22.607 Y183.5991
G1 X22.0914 Y183.5495
G1 X21.5592 Y183.4975
G1 X21.01 Y183.4432
G3 X15.1565 Y182.8139 I34.5638 J-349.0575
G3 X14.7852 Y182.7706 I2.1013 J-19.6216
G3 X14.408 Y182.7261 I1.9112 J-17.8347
G3 X6.3774 Y181.6599 I32.5265 J-275.7443
G3 X1.8048 Y180.9366 I33.9596 J-229.5111
G1 X0.6272 Y180.735
G1 X-0.5872 Y180.5201
G3 X-3.1739 Y180.0381 I30.3812 J-170.2369
G3 X-3.336 Y180.0068 I0.5985 J-3.5311
G3 X-3.4987 Y179.9752 I0.5994 J-3.522
G3 X-3.6621 Y179.9434 I0.6002 J-3.5128
G3 X-5.3008 Y179.8593 I-0.5069 J-6.1341
G3 X-6.8574 Y179.3401 I1.1741 J-6.113
G3 X-7.8076 Y178.7963 I3.5504 J-7.3055
G3 X-8.967 Y177.9172 I6.8276 J-10.2093
G3 X-9.0375 Y177.8574 I0.7067 J-0.9033
G1 X-9.3344 Y177.5987
G3 X-9.4091 Y177.5322 I0.9223 J-1.1106
G3 X-9.4847 Y177.4643 I0.994 J-1.1831
G3 X-9.5612 Y177.3951 I1.085 J-1.2764
G1 X-9.8847 Y177.0977
G1 X-10.0504 Y176.943
G1 X-10.8022 Y176.2359
G1 X-11.2059 Y175.8629
G1 X-11.4165 Y175.6732
G2 X-12.4106 Y174.8505 I-10.2535 J11.3769
G2 X-12.5423 Y174.7529 I-2.4704 J3.1979
G2 X-12.6776 Y174.6559 I-2.4617 J3.2923
G2 X-12.8167 Y174.5598 I-2.1708 J2.9924
G2 X-12.9598 Y174.4648 I-1.7854 J2.5335
G2 X-13.5918 Y174.0944 I-4.0856 J6.2471
G2 X-13.9324 Y173.9294 I-3.5313 J6.8556
G2 X-14.2944 Y173.7812 I-2.3281 J5.169
G2 X-14.6786 Y173.6544 I-2.3227 J6.3914
G2 X-15.5294 Y173.4828 I-1.3993 J4.7425
G2 X-15.5279 Y173.4674 I-0.0082 J-0.0086
G1 X-15.5378 Y173.4556
G1 X-15.5607 Y173.4386
G2 X-15.6078 Y173.4119 I-0.2364 J0.3623
G2 X-15.7031 Y173.3663 I-0.4604 J0.8397
G1 X-15.8945 Y173.282
G1 X-16.0219 Y173.226
G1 X-16.1906 Y173.1493
G1 X-16.2862 Y173.1037
G3 X-16.5364 Y172.9732 I1.5002 J-3.1828
G3 X-16.852 Y172.7679 I1.4272 J-2.5382
G1 X-16.89 Y172.7375
G3 X-17.0495 Y172.5816 I0.7363 J-0.9124
G3 X-17.172 Y172.3535 I0.454 J-0.3908
G3 X-17.1193 Y172.0385 I0.404 J-0.0943
G3 X-17.0085 Y171.8956 I0.6248 J0.3699
G3 X-15.0072 Y172.3433 I-16.6578 J79.1505
G3 X-14.9428 Y172.3585 I-0.2002 J0.9937
G1 X-14.2565 Y172.523
G1 X-13.8648 Y172.619
G3 X-10.7432 Y173.4325 I-29.5585 J119.8324
G3 X-10.6443 Y173.4594 I-0.3255 J1.3882
G3 X-10.5439 Y173.4869 I-0.3298 J1.4037
G1 X-9.6271 Y173.7404
G1 X-9.1386 Y173.8775
G1 X-8.0233 Y174.1947
G1 X-6.7504 Y174.5632
G1 X-5.2973 Y174.9898
G1 X-3.6379 Y175.4817
G1 X-1.7421 Y176.0456
G1 X0.4256 Y176.6865
G1 X1.5829 Y177.0245
G2 X1.7288 Y177.0668 I1.0078 J-3.201
G2 X2.3313 Y177.2409 I24.7656 J-84.6049
G1 X3.6178 Y177.6078
G2 X6.5666 Y178.4175 I46.7077 J-164.3173
G2 X6.7528 Y178.4669 I2.8487 J-10.3657
G2 X7.1313 Y178.5665 I5.0409 J-18.3773
G2 X7.516 Y178.6668 I9.6126 J-36.0953
G1 X8.3111 Y178.8706
G1 X9.1331 Y179.0761
G2 X12.9089 Y179.9421 I26.4054 J-106.4591
G1 X13.3905 Y180.0422
G1 X13.8803 Y180.1414
G2 X14.8933 Y180.3377 I11.3467 J-55.8463
G2 X19.555 Y181.0696 I14.1054 J-74.6347
G1 X20.1502 Y181.1405
G2 X22.6974 Y181.3793 I6.5812 J-56.4894
G1 X23.3459 Y181.4224
G2 X23.756 Y181.0657 I-2.3657 J-3.1337
G1 X23.885 Y180.9383
G3 X24.0562 Y180.7678 I5.208 J5.0584
G3 X24.1553 Y180.6717 I1.4673 J1.4144
G3 X24.209 Y180.6212 I0.7416 J0.735
G3 X24.5097 Y180.3686 I2.6818 J2.8866
G2 X23.4708 Y179.8869 I-8.4807 J16.9313
G2 X23.4005 Y179.8569 I-0.4628 J0.9875
G1 X23.0242 Y179.7014
G2 X22.518 Y179.505 I-8.8548 J22.0674
G2 X21.8363 Y179.2613 I-6.9457 J18.3507
G2 X19.0556 Y178.4605 I-10.3473 J30.7013
G1 X18.6803 Y178.3708
G1 X18.279 Y178.2788
G1 X17.8504 Y178.1844
G1 X17.3922 Y178.0876
G1 X16.9028 Y177.9882
G1 X16.38 Y177.8862
G2 X15.183 Y177.6655 I-19.1693 J100.5768
G1 X14.8738 Y177.6107
G1 X14.2137 Y177.4959
G1 X13.8729 Y177.4375
G1 X12.3152 Y177.1737
G3 X12.1173 Y177.1401 I0.7413 J-4.9647
G3 X10.3112 Y176.8247 I45.1028 J-263.5874
G1 X9.8458 Y176.7393
G1 X9.366 Y176.6487
G1 X9.1224 Y176.6015
G3 X6.9056 Y176.1268 I11.509 J-59.1627
G3 X4.4048 Y175.448 I8.5711 J-36.5225
G3 X3.095 Y175.0048 I7.4411 J-24.1479
G1 X2.9315 Y174.9442
G3 X1.5548 Y174.3793 I7.9326 J-21.2913
G1 X1.2113 Y174.2214
G1 X0.5834 Y174.0863
G1 X-0.0433 Y173.945
G1 X-0.4602 Y173.8476
G1 X-1.0153 Y173.7138
G1 X-1.7538 Y173.529
G1 X-2.1751 Y173.4204
G3 X-5.5271 Y172.486 I27.5577 J-105.3389
G3 X-5.6331 Y172.4548 I0.8977 J-3.2432
G3 X-5.7407 Y172.423 I0.9205 J-3.3149
G3 X-5.8501 Y172.3906 I0.9446 J-3.3907
G3 X-5.9611 Y172.3577 I0.9701 J-3.4712
G3 X-6.0739 Y172.3241 I0.9973 J-3.5569
G3 X-6.1885 Y172.2899 I1.0263 J-3.6483
G3 X-6.3049 Y172.2551 I1.0573 J-3.7461
G3 X-6.423 Y172.2196 I1.0905 J-3.8511
G1 X-7.5023 Y171.8923
G1 X-8.7339 Y171.5125
G1 X-10.1401 Y171.0742
G2 X-11.7468 Y170.5725 I-157.2339 J500.7503
G1 X-12.6042 Y170.3065
G2 X-13.5195 Y170.0253 I-42.3 J136.0721
G1 X-13.7522 Y169.9545
G2 X-14.2327 Y169.809 I-8.2236 J26.2967
G1 X-15.2592 Y169.503
G1 X-15.5202 Y169.4264
G1 X-15.7855 Y169.3491
G1 X-16.0553 Y169.2711
G1 X-16.3294 Y169.1925
G2 X-18.8451 Y168.5073 I-24.9752 J86.7382
G1 X-19.4974 Y168.3422
G2 X-22.4989 Y167.6668 I-16.3349 J65.5851
G1 X-22.6892 Y167.6292
G2 X-24.3176 Y167.3374 I-8.8681 J44.7976
G2 X-24.6052 Y167.5861 I1.398 J1.9074
G2 X-24.8356 Y167.8885 I1.0123 J1.0099
G2 X-24.9534 Y168.6357 I0.9046 J0.5255
G2 X-24.7681 Y169.112 I1.6097 J-0.352
G2 X-24.3785 Y169.6525 I2.9195 J-1.6941
G2 X-24.1245 Y169.9281 I5.442 J-4.759
G2 X-23.4353 Y170.582 I11.9126 J-11.8677
G3 X-23.2506 Y170.7514 I-5.4268 J6.0987
G3 X-22.8513 Y171.1439 I-4.609 J5.0884
G1 X-22.7568 Y171.2523
G3 X-22.5906 Y171.5088 I-0.8429 J0.7282
G3 X-22.5581 Y171.6669 I-0.3323 J0.1508
G3 X-22.6432 Y171.8349 I-0.2421 J-0.0171
G3 X-22.7304 Y171.8956 I-0.3475 J-0.4065
G3 X-23.9219 Y172.1461 I-1.1717 J-2.6143
G3 X-25.1162 Y171.9094 I0.0431 J-3.3497
G3 X-25.8414 Y171.5436 I1.5565 J-3.9875
G3 X-26.6876 Y170.8792 I2.7771 J-4.4081
G3 X-27.5753 Y169.7706 I3.8497 J-3.9923
G3 X-27.9336 Y169.0439 I4.1534 J-2.4995
G3 X-28.0649 Y168.6319 I3.7212 J-1.4131
G3 X-28.1438 Y168.1767 I2.743 J-0.71
G3 X-28.1349 Y167.6806 I2.1903 J-0.2086
G3 X-27.9792 Y167.1641 I1.6233 J0.2075
G3 X-27.6092 Y166.6926 I1.3364 J0.6677
G3 X-27.0207 Y166.3593 I1.2202 J1.4687
G3 X-26.6762 Y166.2602 I0.8356 J2.2561
G1 X-26.6321 Y166.2508
G1 X-26.5875 Y166.242
G3 X-25.7967 Y166.1736 I0.7597 J4.1777
G1 X-23.6939 Y166.6601
G3 X-23.3936 Y166.7301 I-3.9679 J17.6957
G1 X-20.9923 Y167.2946
G1 X-19.3924 Y167.675
G1 X-17.2602 Y168.1867
G1 X-14.4191 Y168.8759
G1 X-13.6617 Y169.0609
G1 X-11.931 Y169.4854
G1 X-9.9537 Y169.973
G1 X-9.4434 Y170.0992
G1 X-8.9168 Y170.2296
G1 X-6.5099 Y170.8274
G1 X-5.8888 Y170.982
G1 X0.7347 Y172.6357
G1 X2.501 Y173.0766
G2 X6.5391 Y174.0811 I355.7485 J-1421.4361
G1 X8.6934 Y174.6138
G1 X10.9922 Y175.1788
G1 X13.4453 Y175.7768
G1 X16.0636 Y176.4081
G1 X17.4158 Y176.731
G1 X18.1028 Y176.8941
G1 X19.5216 Y177.2289
G1 X20.9868 Y177.5715
G1 X21.7314 Y177.7443
G1 X22.488 Y177.9189
G2 X29.4163 Y179.4674 I112.4877 J-487.0396
G1 X31.2079 Y179.8508
G1 X32.1185 Y180.0427
G1 X33.044 Y180.2355
G1 X33.9846 Y180.4291
G2 X38.0036 Y181.2281 I82.9011 J-406.4777
G1 X38.2562 Y181.2767
G1 X38.5097 Y181.3253
G1 X38.7643 Y181.3739
G1 X39.0199 Y181.4224
G2 X39.0052 Y181.8648 I5.2144 J0.3952
G2 X39.0184 Y182.3072 I10.4756 J-0.0915
G1 X39.0334 Y182.6019
G1 X39.051 Y182.9948
G1 X39.0557 Y183.2195
G3 X39.0269 Y183.8182 I-5.2886 J0.0455
G3 X38.967 Y184.1563 I-3.5745 J-0.4592
G3 X38.8416 Y184.5296 I-2.1776 J-0.5235
G3 X38.7569 Y184.6979 I-1.7227 J-0.7625
G0 Z5.0
G0 X-10.1944 Y181.2249
G1 Z0.0
G3 X-10.2183 Y181.4388 I-2.6728 J-0.1896
G3 X-10.5706 Y182.3543 I-2.3546 J-0.3806
G3 X-10.9026 Y182.7715 I-2.3758 J-1.55
G3 X-11.3358 Y183.1489 I-2.506 J-2.439
G3 X-11.8567 Y183.4777 I-2.514 J-3.4065
G3 X-12.4503 Y183.7556 I-2.7375 J-5.0745
G3 X-13.2819 Y183.4709 I5.288 J-16.8046
G1 X-13.5562 Y183.3675
G3 X-14.6377 Y182.9159 I6.9971 J-18.276
G1 X-14.9422 Y182.7766
G3 X-17.3142 Y181.5349 I13.4904 J-28.6573
G3 X-17.4639 Y181.4486 I2.4889 J-4.4906
G3 X-17.618 Y181.359 I2.6181 J-4.6788
G3 X-19.2443 Y180.3737 I32.9391 J-56.2028
G1 X-20.1644 Y179.7963
G1 X-21.2144 Y179.1346
G1 X-21.7759 Y178.7843
G1 X-22.3773 Y178.415
G2 X-23.7682 Y177.5983 I-24.7527 J40.56
G1 X-23.9469 Y177.4983
G2 X-24.3176 Y177.295 I-7.1551 J12.6093
G2 X-24.4564 Y177.1463 I-1.0876 J0.8766
G1 X-24.5061 Y177.1
G2 X-24.7149 Y176.927 I-2.6951 J3.0408
G1 X-24.8604 Y176.8198
G2 X-25.4643 Y176.4254 I-7.3786 J10.6395
G1 X-25.8726 Y176.1719
G3 X-26.104 Y176.0245 I9.266 J-14.8019
G3 X-26.7002 Y175.6006 I3.9496 J-6.1851
G3 X-27.0111 Y175.3203 I2.0131 J-2.5458
G3 X-27.159 Y175.1525 I1.4503 J-1.4272
G3 X-27.4054 Y174.6976 I1.0334 J-0.8539
G3 X-27.3792 Y174.0762 I0.9379 J-0.2718
G3 X-27.2208 Y173.7678 I1.33 J0.4882
G3 X-26.9868 Y173.4726 I2.1328 J1.4503
G3 X-26.6956 Y173.1923 I3.1472 J2.9792
G3 X-26.5353 Y173.0594 I17.3086 J20.6988
G3 X-24.5867 Y173.5473 I-9.7299 J42.991
G1 X-23.9417 Y173.727
G3 X-23.5739 Y173.8326 I-9.2721 J32.9964
G3 X-22.5955 Y174.1224 I-47.6717 J162.7328
G3 X-21.2951 Y174.5217 I-54.3055 J179.1555
G1 X-19.5637 Y175.0623
G1 X-18.5732 Y175.3674
G1 X-18.0439 Y175.527
G1 X-17.4784 Y175.6937
G1 X-17.407 Y175.7144
G1 X-17.1122 Y175.7991
G1 X-16.4819 Y175.9747
G1 X-16.1558 Y176.0623
G1 X-15.8184 Y176.1502
G1 X-15.6467 Y176.1938
G1 X-15.2918 Y176.2812
G2 X-14.5314 Y176.4549 I5.97 J-24.3803
G1 X-14.4352 Y176.4754
G1 X-14.0375 Y176.5564
G3 X-13.3676 Y176.8389 I-1.7849 J5.1677
G1 X-13.275 Y176.8861
G3 X-12.5651 Y177.3174 I-3.0376 J5.8008
G3 X-11.3315 Y178.4244 I-3.8954 J5.5818
G3 X-10.6896 Y179.3261 I-4.1675 J3.6461
G3 X-10.4167 Y179.8984 I-3.9044 J2.2131
G3 X-10.2234 Y180.5995 I-3.1038 J1.2327
G3 X-10.1944 Y181.2249 I-2.6439 J0.4358
G0 Z5.0
G0 X-29.6398 Y174.871
G1 Z0.0
G3 X-29.8415 Y175.3563 I-3.2064 J-1.0477
G3 X-30.3822 Y176.1414 I-3.2889 J-1.6863
G3 X-31.2034 Y176.8716 I-3.7401 J-3.3796
G3 X-34.435 Y174.0231 I21.2817 J-27.4009
G3 X-35.4271 Y172.9837 I23.4674 J-23.3928
G3 X-36.671 Y171.5268 I21.616 J-19.7163
G3 X-38.1642 Y169.4541 I19.5723 J-15.6738
G1 X-38.2516 Y169.3174
G3 X-38.6138 Y168.7271 I15.6625 J-10.0155
G1 X-38.7934 Y168.4182
G3 X-39.1591 Y167.749 I18.8576 J-10.7395
G1 X-39.338 Y167.3983
G1 X-39.4262 Y167.2189
G3 X-40.1419 Y165.5352 I16.5665 J-8.0367
G3 X-40.7303 Y163.5252 I14.7002 J-5.3941
G3 X-38.9005 Y163.7763 I-0.5157 J10.5515
G3 X-37.1342 Y164.3164 I-2.7271 J12.0766
G3 X-36.0053 Y164.8085 I-5.5255 J14.2166
G3 X-34.5641 Y165.5922 I-8.4336 J17.2264
G3 X-32.7459 Y166.8012 I-12.8927 J21.3603
G1 X-32.5184 Y166.9674
G1 X-32.4033 Y167.0525
G3 X-31.3673 Y167.8486 I-29.0267 J38.8499
G1 X-31.3027 Y167.8997
G1 X-31.2377 Y167.9513
G1 X-31.1724 Y168.0034
G1 X-30.9032 Y168.2194
G1 X-30.3328 Y168.6836
G1 X-30.0396 Y168.9246
G2 X-29.9788 Y169.8718 I8.0213 J-0.0398
G2 X-29.8342 Y170.81 I14.6595 J-1.7789
G1 X-29.7851 Y171.0768
G1 X-29.6521 Y171.7874
G1 X-29.6182 Y171.9772
G3 X-29.5476 Y172.4121 I-9.9212 J1.834
G1 X-29.5155 Y172.6448
G3 X-29.4633 Y173.1795 I-9.9346 J1.2393
G1 X-29.4593 Y173.2476
G3 X-29.4586 Y173.8721 I-5.9985 J0.3191
G3 X-29.5593 Y174.5812 I-3.9357 J-0.1969
G3 X-29.6398 Y174.871 I-3.287 J-0.758
G0 Z5.0
G0 X-35.2785 Y158.8932
G1 Z0.0
G3 X-36.9254 Y159.3904 I-6.2154 J-17.612
G2 X-35.7401 Y158.3448 I-12.5001 J-15.3638
G2 X-34.6246 Y157.225 I-22.4335 J-23.4634
G2 X-34.3146 Y156.8966 I-14.6274 J-14.1205
G1 X-34.235 Y156.8115
G1 X-33.3898 Y155.9001
G1 X-32.9044 Y155.3818
G3 X-32.3401 Y154.7985 I19.0708 J17.8841
G3 X-32.2674 Y154.7255 I1.708 J1.6265
G3 X-31.5887 Y154.0719 I17.8143 J17.8199
G1 X-31.4088 Y153.9082
G3 X-30.557 Y153.1932 I11.2418 J12.5269
G3 X-29.5191 Y152.457 I8.0469 J10.2453
G2 X-29.5526 Y152.2144 I-1.2046 J0.0425
G2 X-29.6165 Y151.9779 I-3.9243 J0.9342
G2 X-29.7723 Y151.5145 I-10.5909 J3.3016
G1 X-29.8188 Y151.3828
G3 X-29.9383 Y151.0303 I12.3407 J-4.3779
G1 X-29.9666 Y150.9353
G3 X-29.9733 Y150.9109 I0.3182 J-0.1008
G1 X-29.9983 Y150.8063
G3 X-30.0121 Y150.692 I0.6702 J-0.1391
G2 X-31.8211 Y150.3243 I-2.9106 J9.6864
G2 X-33.666 Y150.2621 I-1.3293 J12.0365
G1 X-33.9121 Y150.2737
G2 X-35.2188 Y150.3985 I1.0427 J17.8245
G2 X-35.3014 Y150.4095 I0.1913 J1.7479
G2 X-36.0545 Y150.5241 I2.5895 J19.5544
G1 X-36.4546 Y150.5938
G1 X-36.8802 Y150.6734
G1 X-37.333 Y150.763
G1 X-37.8151 Y150.8622
G1 X-38.9145 Y151.0949
G1 X-39.5009 Y151.2173
G3 X-39.6499 Y151.2477 I-1.1156 J-5.0877
G3 X-39.8014 Y151.2782 I-1.2499 J-5.8128
G3 X-40.1143 Y151.3398 I-2.2156 J-10.4309
G3 X-40.4376 Y151.401 I-3.2131 J-16.0921
G3 X-41.1288 Y151.5212 I-4.9461 J-26.3785
G3 X-42.7184 Y151.7217 I-3.387 J-20.4561
G3 X-44.5498 Y151.766 I-1.2626 J-14.3019
G2 X-45.2267 Y151.9729 I0.4973 J2.8375
G2 X-45.8038 Y152.3827 I0.7172 J1.6214
G2 X-46.0628 Y152.7817 I1.0592 J0.971
G2 X-46.185 Y153.4066 I1.4328 J0.6046
G2 X-45.9978 Y154.2293 I2.0824 J-0.041
G2 X-45.3397 Y155.1054 I2.2607 J-1.013
G2 X-44.8125 Y155.4334 I1.3746 J-1.6218
G2 X-44.1246 Y155.5782 I0.6931 J-1.5864
G3 X-44.7914 Y155.8884 I-1.2706 J-1.8595
G3 X-45.5192 Y155.9941 I-0.7955 J-2.9206
G3 X-46.0091 Y155.9799 I-0.1169 J-4.4447
G1 X-46.1392 Y155.968
G3 X-46.8251 Y155.8664 I1.0626 J-9.5322
G3 X-47.2131 Y155.7907 I2.8116 J-15.4446
G1 X-47.4193 Y155.7484
G1 X-47.8896 Y155.6542
G2 X-48.4292 Y155.5676 I-1.8802 J9.9833
G2 X-49.0524 Y155.54 I-0.4679 J3.5119
G2 X-49.3835 Y155.5865 I0.0936 J1.8683
G2 X-49.7212 Y155.7137 I0.3297 J1.3864
G2 X-50.0316 Y155.9587 I0.5703 J1.0417
G2 X-50.2718 Y156.3242 I1.1031 J0.9867
G2 X-49.2985 Y157.0321 I3.5413 J-3.8458
G2 X-48.1906 Y157.5025 I2.6772 J-4.766
G2 X-47.4091 Y157.6866 I1.8914 J-6.2772
G2 X-47.3069 Y157.7037 I0.2997 J-1.4726
G2 X-46.2097 Y157.8109 I1.4764 J-9.4475
G2 X-45.5808 Y157.8244 I0.6854 J-17.2401
G2 X-45.5009 I0.0393 J-1.2017
G2 X-45.4197 Y157.824 I0.0346 J-1.2727
G2 X-45.3373 Y157.8233 I0.0295 J-1.361
G1 X-44.9862 Y157.8171
G1 X-44.6123 Y157.8062
G1 X-43.7603 Y157.7756
G1 X-43.3065 Y157.7623
G3 X-42.2724 Y157.7645 I0.4762 J19.1774
G3 X-41.0983 Y157.8765 I-0.2454 J8.7885
G3 X-40.4832 Y158.0123 I-0.8841 J5.4654
G3 X-39.8471 Y158.2344 I-1.4941 J5.3004
G3 X-38.5429 Y159.0869 I-1.7502 J4.1012
G3 X-37.9793 Y159.713 I-3.3885 J3.6174
G3 X-38.9835 Y160.6292 I-4.2421 J-3.6412
G3 X-40.179 Y161.276 I-3.3608 J-4.7839
G3 X-41.0413 Y161.5571 I-2.7406 J-6.9444
G3 X-42.2278 Y161.7755 I-2.2192 J-8.7222
G3 X-43.8266 Y161.8644 I-1.5718 J-13.8509
G3 X-44.7392 Y161.8465 I0.0231 J-24.4283
G1 X-44.9743 Y161.8364
G1 X-45.2168 Y161.8241
G1 X-45.4668 Y161.8097
G1 X-45.9987 Y161.7746
G3 X-46.5648 Y161.7333 I4.527 J-65.8134
G3 X-46.7086 Y161.7225 I0.2309 J-4.0405
G2 X-48.017 Y161.6324 I-4.5053 J55.8982
G1 X-48.3547 Y161.6154
G1 X-48.5127 Y161.5344
G1 X-48.6736 Y161.4591
G2 X-49.0005 Y161.3199 I-7.4524 J17.0494
G1 X-49.2209 Y161.233
G2 X-49.3474 Y161.1849 I-0.9712 J2.3632
G1 X-49.6862 Y161.0609
G1 X-49.8807 Y160.9923
G2 X-51.4473 Y160.4796 I-16.1082 J46.5616
G2 X-51.5488 Y160.4478 I-15.401 J49.137
G1 X-52.0132 Y160.3042
G2 X-52.261 Y160.2283 I-2.5617 J7.9233
G1 X-52.8279 Y160.0562
G1 X-53.4762 Y159.8608
G1 X-55.2046 Y159.3399
G1 X-55.665 Y159.1994
G1 X-56.1556 Y159.0479
G3 X-57.2742 Y158.6931 I24.1448 J-78.0614
G3 X-58.5446 Y158.2635 I14.9366 J-46.2637
G3 X-59.9735 Y157.7077 I7.0264 J-20.1809
G3 X-60.707 Y157.3436 I2.9717 J-6.9067
G1 X-60.7956 Y157.2904
G3 X-61.138 Y157.0324 I1.001 J-1.6846
G3 X-61.2695 Y156.8535 I0.4128 J-0.4411
G3 X-61.2382 Y156.5935 I0.2154 J-0.106
G3 X-61.1175 Y156.4863 I0.41 J0.3401
G3 X-60.9549 Y156.3994 I0.5097 J0.758
G3 X-60.8651 Y156.3628 I0.6772 J1.5335
G1 X-60.8183 Y156.3457
G3 X-60.3438 Y156.2183 I1.1851 J3.4659
G3 X-59.2174 Y156.0562 I2.1207 J10.7399
G1 X-58.898 Y156.027
G3 X-56.9148 Y155.9244 I2.8418 J35.6829
G3 X-56.789 Y155.9209 I0.1217 J2.1614
G1 X-56.2001 Y155.9083
G1 X-55.4777 Y155.8996
G1 X-54.9023 Y155.897
G1 X-54.0767 Y155.899
G2 X-48.1873 Y153.0069 I-12.9833 J-33.881
G2 X-42.8935 Y149.1307 I-20.3197 J-33.3045
G2 X-39.7436 Y146.0927 I-27.4235 J-31.5856
G2 X-36.0447 Y141.5862 I-33.0648 J-30.9109
G2 X-32.0282 Y134.9442 I-39.6887 J-28.5352
G2 X-28.3644 Y125.292 I-44.8583 J-22.5489
G2 X-27.7352 Y122.6079 I-47.2905 J-12.5012
G2 X-27.2403 Y119.7099 I-44.1897 J-9.0377
G2 X-27.06 Y118.203 I-48.1573 J-6.5276
G2 X-26.8583 Y114.9721 I-40.4142 J-4.1451
G1 X-26.8543 Y114.769
G2 X-26.9587 Y111.3017 I-36.3183 J-0.6422
G3 X-27.0772 Y111.0472 I11.098 J-5.3251
G3 X-27.1946 Y110.7923 I35.8317 J-16.6518
G3 X-27.228 Y110.7193 I1.0848 J-0.54
G3 X-27.266 Y110.6358 I1.1651 J-0.5812
G1 X-27.5664 Y109.9668
G1 X-27.7636 Y109.5194
G1 X-27.8754 Y109.2634
G1 X-28.1709 Y108.5795
G1 X-28.3386 Y108.1881
G1 X-28.5295 Y107.7406
G1 X-28.7474 Y107.229
G1 X-29.3309 Y105.8659
G2 X-30.1302 Y104.0577 I-105.9238 J45.742
G2 X-30.3504 Y103.5787 I-24.7464 J11.0847
G2 X-31.6024 Y101.0606 I-43.4553 J20.0359
G1 X-31.7757 Y100.7417
G1 X-31.958 Y100.4144
G1 X-32.1499 Y100.0785
G1 X-32.3521 Y99.7343
G2 X-33.3354 Y98.1956 I-22.8587 J13.5248
G2 X-33.9029 Y97.4034 I-19.9262 J13.6754
G2 X-35.3254 Y95.6859 I-17.3634 J12.9337
G2 X-37.1745 Y93.9238 I-14.2809 J13.1345
G2 X-39.5665 Y92.2333 I-11.7034 J14.0221
G2 X-40.2957 Y91.7377 I-12.6104 J17.7727
G2 X-40.5428 Y91.5784 I-6.0237 J9.067
G1 X-40.8749 Y91.3705
G2 X-42.2339 Y90.5898 I-12.8497 J20.7937
G1 X-42.4185 Y90.4918
G2 X-45.4638 Y89.1157 I-13.1217 J24.9816
G2 X-45.563 Y89.0779 I-0.5924 J1.4059
G2 X-52.1376 Y87.4373 I-10.1717 J26.7676
G2 X-54.0704 Y87.2673 I-3.3614 J27.155
G2 X-56.2883 Y87.2539 I-1.2637 J25.536
G1 X-56.5698 Y87.2667
G2 X-59.1313 Y87.5458 I1.1053 J22.0381
G2 X-61.9953 Y88.2474 I3.224 J19.3576
G2 X-65.0954 Y89.5923 I5.4832 J16.8849
G3 X-62.6983 Y87.3648 I14.2782 J12.9619
G3 X-59.9736 Y85.5525 I13.1216 J16.7728
G3 X-59.7889 Y85.4498 I3.3296 J5.7773
G3 X-59.5972 Y85.3457 I2.8313 J4.9832
G3 X-57.4984 Y84.3451 I11.4982 J21.416
G3 X-54.5822 Y83.3023 I10.9906 J26.1378
G3 X-52.8745 Y82.8396 I9.6107 J32.0855
G3 X-50.8993 Y82.4151 I9.3994 J38.9241
G3 X-49.8384 Y82.2298 I8.0193 J42.7899
G3 X-48.7027 Y82.061 I6.7582 J41.5669
G3 X-46.0981 Y81.7758 I7.1866 J53.5987
G1 X-45.4242 Y81.7227
G1 X-44.7283 Y81.6758
G3 X-44.0098 Y81.6356 I2.3034 J34.6889
G3 X-40.7284 Y81.5446 I3.7419 J75.7243
G1 X-39.8817 Y81.5426
G3 X-35.1969 Y82.8413 I-3.7367 J22.5795
G3 X-30.8909 Y85.0978 I-8.7215 J21.8792
G3 X-28.3052 Y87.0559 I-14.6282 J22.0037
G3 X-25.2473 Y90.1055 I-19.3941 J22.5048
G3 X-23.6974 Y92.0251 I-26.8418 J23.2583
G3 X-22.9273 Y93.0914 I-27.8018 J20.889
G3 X-21.3097 Y95.6197 I-31.6981 J22.0622
G3 X-21.2142 Y95.7828 I-4.3822 J2.6762
G3 X-19.5959 Y98.8294 I-38.3819 J22.3405
G3 X-18.8276 Y100.4992 I-41.6025 J20.152
G3 X-17.3079 Y104.402 I-48.1451 J20.9951
G3 X-15.9546 Y108.9759 I-52.5719 J18.0417
G2 X-17.0678 Y108.9474 I-0.6027 J1.7917
G2 X-17.4196 Y109.0802 I0.6629 J2.2891
G2 X-17.8513 Y109.3317 I1.2473 J2.6368
G2 X-18.3717 Y109.7389 I3.2289 J4.6628
G2 X-18.4361 Y109.7947 I0.6937 J0.8662
G1 X-18.5721 Y109.9146
G1 X-18.7159 Y110.0432
G1 X-18.79 Y110.1095
G1 X-18.9482 Y110.25
G1 X-19.0304 Y110.3215
G3 X-19.2079 Y110.4706 I-3.7261 J-4.2563
G3 X-19.6343 Y110.78 I-2.7079 J-3.2831
G3 X-20.1845 Y111.0259 I-1.0796 J-1.6774
G3 X-20.8909 Y111.0223 I-0.3465 J-1.3219
G3 X-21.2514 Y110.8783 I0.4453 J-1.6376
G3 X-21.5833 Y111.6246 I-4.7523 J-1.6664
G3 X-22.0153 Y112.3178 I-6.2456 J-3.4107
G1 X-22.0776 Y112.4072
G1 X-22.1447 Y112.5021
G1 X-22.2998 Y112.7175
G1 X-22.3829 Y112.8321
G2 X-22.8134 Y113.4515 I11.6853 J8.5818
G2 X-22.8393 Y113.4918 I0.3738 J0.2686
G2 X-22.8653 Y113.5329 I0.3596 J0.2566
G2 X-23.3347 Y114.459 I4.2937 J2.7583
G2 X-23.6171 Y115.8212 I4.2877 J1.5991
G1 X-23.6246 Y116.0013
G2 X-23.5919 Y116.8257 I6.402 J0.1584
G2 X-24.1492 Y116.8881 I0.3322 J5.4913
G2 X-24.6896 Y117.038 I0.4202 J2.5638
G2 X-25.0167 Y117.2221 I0.5008 J1.2722
G2 X-25.331 Y117.6184 I0.6003 J0.7988
G2 X-25.4142 Y117.9005 I1.0788 J0.4715
G2 X-25.4393 Y118.2362 I1.8847 J0.31
G2 X-25.4137 Y118.6166 I3.0218 J-0.0124
G2 X-25.3871 Y118.8167 I5.05 J-0.5693
G1 X-25.3714 Y118.9194
G1 X-25.2931 Y119.3784
G3 X-25.2881 Y119.4073 I-0.2135 J0.0518
G3 X-25.2831 Y119.4364 I-0.2193 J0.0528
G1 X-25.2629 Y119.5558
G3 X-25.188 Y120.0885 I-11.0865 J1.8307
G3 X-25.1605 Y120.6827 I-4.4432 J0.5035
G3 X-25.2483 Y121.3381 I-3.0009 J-0.0688
G3 X-25.5493 Y122.0198 I-2.2629 J-0.5916
G2 X-26.6662 Y122.9132 I0.7385 J2.0682
G2 X-26.8923 Y123.3413 I2.5351 J1.6124
G2 X-27.0939 Y123.9512 I3.5988 J1.528
G2 X-27.1702 Y124.3093 I4.6084 J1.1689
G2 X-27.2808 Y125.2677 I8.2095 J1.4333
G1 X-27.2882 Y125.3919
G2 X-27.3114 Y126.6975 I21.198 J1.0296
G1 X-27.3086 Y127.0446
G1 X-27.3035 Y127.8321
G3 X-27.3235 Y128.7255 I-18.7708 J0.0281
G3 X-27.3602 Y129.1995 I-8.8796 J-0.4503
G3 X-27.4355 Y129.7002 I-5.3603 J-0.5495
G3 X-27.5828 Y130.2205 I-3.4278 J-0.6894
G3 X-27.8702 Y130.7283 I-1.6754 J-0.6132
G3 X-28.3974 Y131.1105 I-0.9916 J-0.8132
G3 X-28.559 Y131.9109 I-2.1296 J-0.0135
G3 X-28.9642 Y132.6198 I-3.07 J-1.2844
G3 X-29.3063 Y133.0423 I-4.6639 J-3.4268
G1 X-29.3529 Y133.0948
G1 X-29.4014 Y133.1485
G1 X-29.5059 Y133.2619
G1 X-29.7483 Y133.5167
G1 X-30.0253 Y133.8063
G1 X-30.1696 Y133.9637
G2 X-30.47 Y134.3468 I2.3701 J2.1678
G2 X-30.5892 Y134.579 I1.003 J0.662
G2 X-30.6288 Y134.8614 I0.5643 J0.2231
G2 X-30.4875 Y135.1613 I0.5531 J-0.0775
G2 X-30.3567 Y135.2857 I0.6241 J-0.5252
G2 X-30.0118 Y135.4992 I1.1815 J-1.5234
G2 X-29.6144 Y135.6686 I1.559 J-3.1049
G3 X-29.4536 Y135.5092 I0.8402 J0.6868
G3 X-29.2472 Y135.4159 I0.2685 J0.3188
G3 X-29.095 Y135.4433 I0.0274 J0.2833
G3 X-28.9333 Y135.5724 I-0.2621 J0.4941
G3 X-28.8602 Y135.6638 I-0.5167 J0.4883
G1 X-28.8248 Y135.7147
G3 X-28.6679 Y135.9801 I-2.8724 J1.8771
G1 X-28.4912 Y136.3116
G2 X-28.2462 Y136.7082 I2.8971 J-1.5158
G2 X-28.1681 Y136.8036 I0.8338 J-0.6023
G2 X-27.9519 Y136.9793 I0.5943 J-0.5107
G2 X-27.6233 Y137.02 I0.2176 J-0.4093
G2 X-27.45 Y136.9515 I-0.1444 J-0.6188
G2 X-27.2821 Y136.8374 I-0.6649 J-1.159
G2 X-26.9587 Y136.5099 I-1.5584 J-1.8621
G2 X-26.6607 Y135.8678 I-4.756 J-2.5974
G1 X-26.5755 Y135.6478
G3 X-26.5473 Y135.5914 I0.2671 J0.0986
G3 X-26.5386 Y135.5894 I0.0052 J0.0029
G3 X-26.5327 Y135.6082 I-0.0361 J0.0218
G1 X-26.5291 Y135.6601
G3 X-26.5284 Y135.7305 I-0.5407 J0.0404
G1 X-26.529 Y135.8092
G1 X-26.5298 Y135.8654
G1 X-26.5315 Y135.9907
G1 X-26.5338 Y136.1825
G1 X-26.5353 Y136.4426
G1 Y136.5099
G2 X-24.9639 Y137.0491 I2.8606 J-5.7772
G2 X-23.3081 Y137.1868 I1.3843 J-6.6209
G2 X-22.2085 Y137.0391 I-0.2233 J-5.8296
G2 X-20.8262 Y136.5099 I-1.1608 J-5.1018
G2 X-20.6301 Y136.7318 I1.4227 J-1.0591
G2 X-20.3913 Y136.907 I0.8077 J-0.8506
G2 X-19.8095 Y136.998 I0.4163 J-0.756
G2 X-19.4359 Y136.8632 I-0.2685 J-1.3291
G2 X-19.0103 Y136.5663 I-1.125 J-2.0665
G2 X-18.5421 Y136.093 I-2.7796 J-3.2175
G2 X-18.0279 Y135.4229 I-5.6961 J-4.9032
G2 X-17.7668 Y135.0291 I-12.765 J-8.7491
G2 X-17.491 Y134.5775 I-13.25 J-8.4014
G1 X-17.351 Y134.3352
G1 X-17.2063 Y134.0771
G1 X-17.0538 Y133.8035
G3 X-17.0106 Y133.7369 I0.2932 J0.1431
G3 X-17.0048 Y133.7371 I0.0029 J0.0008
G3 X-17.0085 Y133.7589 I-0.0628 J0.0006
G3 X-18.3564 Y137.9286 I-81.1374 J-23.9252
G3 X-19.9516 Y142.0102 I-62.2661 J-21.9836
G3 X-21.1798 Y144.6615 I-49.0919 J-21.1307
G3 X-21.2628 Y144.8275 I-5.4523 J-2.6218
G3 X-21.3477 Y144.9958 I-6.4932 J-3.1712
G3 X-21.7174 Y145.71 I-75.4914 J-38.6275
G3 X-22.6097 Y147.3175 I-38.7547 J-20.4609
G3 X-23.716 Y149.1046 I-33.4319 J-19.4594
G3 X-24.0174 Y149.5556 I-15.7435 J-10.1958
G3 X-25.4858 Y151.5553 I-26.3712 J-17.8253
G3 X-27.3593 Y153.687 I-21.983 J-17.4316
G3 X-29.7784 Y155.8571 I-17.0981 J-16.6267
G3 X-32.9155 Y157.8712 I-12.4849 J-15.9962
G3 X-35.2785 Y158.8932 I-8.5783 J-16.5899
G0 Z5.0
G0 X-44.4159 Y148.5048
G1 Z0.0
G1 X-44.4431 Y148.5288
G3 X-44.7788 Y148.8197 I-15.5787 J-17.6405
G1 X-45.0476 Y149.0487
G1 X-45.5729 Y149.4889
G3 X-45.9745 Y149.8205 I-40.9075 J-49.1422
G3 X-46.0271 Y149.8636 I-0.4415 J-0.4845
G3 X-47.4423 Y151.0113 I-5.3446 J-5.1441
G3 X-49.1007 Y151.7665 I-3.7273 J-5.9869
G3 X-50.2871 Y152.0352 I-2.3052 J-7.4226
G3 X-50.9781 Y152.1113 I-1.4867 J-10.3215
G3 X-52.8243 Y152.0858 I-0.7666 J-11.3248
G3 X-53.8692 Y151.9526 I1.2377 J-13.8766
G3 X-55.0467 Y151.7225 I3.3748 J-20.3994
G3 X-55.6677 Y151.5729 I4.5989 J-20.441
G3 X-57.0663 Y151.1792 I7.3878 J-28.9309
G1 X-57.1538 Y151.1525
G3 X-57.8962 Y150.9174 I11.1164 J-36.4076
G3 X-62.6775 Y149.6302 I3.2775 J-21.6968
G3 X-67.0515 Y147.3094 I8.3171 J-20.9576
G3 X-69.6525 Y145.2719 I13.8783 J-20.3951
G3 X-72.6765 Y142.0768 I18.2615 J-20.3125
G3 X-74.1724 Y140.0569 I22.8287 J-18.4696
G3 X-75.6773 Y137.6144 I27.5655 J-18.6699
G1 X-75.8532 Y137.2954
G3 X-76.565 Y135.9148 I30.2555 J-16.4745
G3 X-77.2568 Y134.4109 I31.2057 J-15.2655
G3 X-78.5814 Y130.8775 I35.2267 J-15.221
G3 X-78.867 Y129.9467 I48.9865 J-15.5373
G2 X-79.3724 Y130.112 I1.3248 J4.9032
G2 X-79.8519 Y130.3419 I1.096 J2.9018
G2 X-80.142 Y130.5465 I0.9524 J1.6583
G2 X-80.454 Y130.9047 I0.9143 J1.1113
G2 X-80.6391 Y131.5181 I1.1167 J0.6715
G2 X-80.6202 Y131.8879 I1.819 J0.0924
G2 X-80.526 Y132.2988 I2.5907 J-0.3776
G2 X-80.3635 Y132.7464 I4.6518 J-1.436
G2 X-80.142 Y133.2333 I8.1153 J-3.3972
G1 X-80.0813 Y133.3566
G1 X-79.8038 Y133.9023
G3 X-79.6584 Y134.1894 I-12.2279 J6.3708
G1 X-79.5855 Y134.3374
G1 X-79.5127 Y134.4898
G3 X-79.4408 Y134.6472 I-3.5202 J1.7047
G3 X-79.3017 Y134.9831 I-6.121 J2.7315
G3 X-79.1822 Y135.3461 I-3.735 J1.4305
G1 X-78.7304 Y136.3885
G1 X-78.581 Y136.7366
G1 X-77.9847 Y138.1294
G2 X-76.7681 Y140.9044 I137.3392 J-58.5598
G2 X-75.9111 Y142.7338 I60.4393 J-27.1969
G2 X-75.8549 Y142.8491 I3.8418 J-1.8019
G2 X-75.7975 Y142.9661 I4.5893 J-2.1773
G2 X-74.5031 Y145.4265 I42.0783 J-20.5664
G2 X-73.6896 Y146.7917 I34.3145 J-19.5228
G2 X-72.6769 Y148.3002 I23.4444 J-14.6448
G2 X-72.3993 Y148.6783 I17.7612 J-12.7496
G2 X-71.0326 Y150.3334 I17.9908 J-13.4641
G2 X-69.2519 Y152.0288 I12.661 J-11.5156
G2 X-66.9069 Y153.6012 I9.1051 J-11.044
G2 X-63.8665 Y154.7612 I6.156 J-11.5701
G2 X-62.1457 Y155.0673 I3.2306 J-13.1705
G2 X-60.2749 Y155.1637 I1.7321 J-15.4202
G2 X-59.7986 Y155.153 I-0.0132 J-11.2246
G3 X-60.9684 Y155.5664 I-2.7019 J-5.7845
G3 X-61.3724 Y155.657 I-1.7799 J-6.9875
G3 X-63.0163 Y155.8253 I-1.7841 J-9.3155
G3 X-63.4888 Y155.8242 I-0.2185 J-8.2268
G3 X-64.0281 Y155.8 I0.318 J-13.0846
G3 X-68.2038 Y154.8671 I1.0173 J-14.3656
G3 X-71.5133 Y152.4332 I12.1054 J-19.9272
G3 X-74.3755 Y149.4863 I17.5058 J-19.8663
G3 X-76.0285 Y147.3015 I22.2932 J-18.584
G3 X-77.9215 Y144.1811 I27.317 J-18.7068
G3 X-78.1407 Y143.7641 I16.4535 J-8.9135
G3 X-80.1344 Y139.1625 I33.5938 J-17.2874
G3 X-81.003 Y136.4328 I39.38 J-14.0339
G1 X-81.0997 Y136.0821
G1 X-81.1949 Y135.725
G3 X-81.566 Y134.1936 I44.1981 J-11.5211
G3 X-81.7356 Y133.3985 I28.211 J-6.4348
G3 X-82.3241 Y129.7344 I44.3147 J-8.996
G3 X-82.4215 Y119.8925 I45.2945 J-5.3698
G3 X-81.5075 Y114.3449 I42.9559 J4.2276
G3 X-79.5572 Y108.2313 I38.6275 J8.9551
G3 X-78.1044 Y105.1295 I34.1854 J14.1205
G3 X-76.2294 Y101.9915 I30.3393 J15.999
G3 X-73.8585 Y98.8898 I27.02 J18.1967
G3 X-67.0776 Y93.0463 I23.1313 J19.9859
G3 X-62.8308 Y90.7982 I16.6585 J26.333
G3 X-61.7011 Y90.3309 I12.611 J28.8887
G3 X-57.7721 Y89.3134 I6.4894 J16.9644
G3 X-53.7158 Y89.1796 I2.6537 J18.8924
G3 X-51.0329 Y89.5451 I-1.5572 J21.4585
G3 X-49.5261 Y89.8966 I-5.1238 J25.3692
G3 X-48.7325 Y90.1222 I-7.4581 J27.7421
G3 X-46.9486 Y90.7281 I-8.5355 J28.0607
G3 X-46.7251 Y90.8135 I-2.2833 J6.3151
G3 X-44.7166 Y91.6721 I-10.9355 J28.3575
G3 X-42.4982 Y92.8073 I-15.4279 J32.8834
G1 X-42.2222 Y92.962
G3 X-39.7614 Y94.469 I-20.196 J35.7408
G3 X-39.1431 Y94.8835 I-18.3069 J27.9734
G3 X-36.272 Y97.9206 I-29.98 J31.2171
G3 X-33.7339 Y101.2409 I-27.9074 J23.9632
G1 X-33.5839 Y101.4651
G3 X-32.1058 Y103.934 I-25.6316 J17.0233
G3 X-31.3733 Y105.407 I-24.2653 J12.9839
G1 X-31.2868 Y105.5972
G3 X-30.5696 Y107.3684 I-22.9421 J10.321
G1 X-30.4886 Y107.5972
G3 X-29.8618 Y109.7273 I-20.9553 J7.3228
G3 X-29.7881 Y110.0723 I-4.4621 J1.1338
G1 X-29.7688 Y110.1883
G3 X-29.7323 Y110.6571 I-2.8253 J0.4555
G3 X-29.7424 Y110.7914 I-1.4644 J-0.042
G3 X-29.7813 Y110.9411 I-0.6124 J-0.0793
G3 X-29.8315 Y111.0093 I-0.1574 J-0.0633
G3 X-29.9392 Y111.0148 I-0.0581 J-0.0796
G3 X-30.0498 Y110.9197 I0.1773 J-0.3178
G3 X-30.147 Y110.7776 I0.9087 J-0.7262
G1 X-30.1877 Y110.7037
G3 X-30.2245 Y110.6299 I0.66 J-0.3746
G3 X-30.3525 Y110.319 I2.6537 J-1.2751
G3 X-30.4355 Y110.07 I5.5408 J-1.9843
G2 X-31.3134 Y107.5977 I-34.7114 J10.933
G2 X-32.3965 Y105.2081 I-25.8496 J10.2763
G2 X-33.2561 Y103.6842 I-21.1413 J10.9216
G2 X-34.5978 Y101.7748 I-16.2483 J9.9911
G2 X-35.7696 Y100.1715 I-19.0714 J12.7097
G2 X-36.1894 Y99.6596 I-13.7849 J10.8749
G2 X-38.0091 Y97.7368 I-17.6609 J14.8915
G2 X-42.2494 Y94.5804 I-15.7188 J16.6902
G2 X-45.4271 Y93.0468 I-11.8964 J20.5915
G2 X-49.9428 Y91.7455 I-9.1496 J23.2634
G2 X-52.6043 Y91.3777 I-5.0843 J26.9793
G1 X-52.9444 Y91.35
G1 X-53.2904 Y91.3262
G1 X-53.6419 Y91.3065
G1 X-53.9993 Y91.291
G1 X-54.3624 Y91.2799
G2 X-57.6769 Y91.3921 I-0.6914 J28.6046
G2 X-57.7806 Y91.4017 I0.0882 J1.5171
G2 X-58.6348 Y91.4947 I2.8417 J30.0643
G2 X-61.7444 Y92.6048 I5.5233 J20.3813
G2 X-64.6615 Y94.1512 I9.9971 J22.3833
G2 X-66.4895 Y95.3781 I14.5414 J23.6407
G2 X-68.7806 Y97.2099 I19.3103 J26.5019
G2 X-68.9207 Y97.3328 I2.5469 J3.0417
G2 X-69.0622 Y97.4584 I2.7212 J3.209
G2 X-69.2054 Y97.5868 I2.932 J3.4129
G2 X-72.0968 Y100.4857 I26.4252 J29.2491
G2 X-75.5011 Y104.7383 I35.0039 J31.5103
G1 X-75.6004 Y104.8783
G1 X-75.8007 Y105.1637
G2 X-77.3918 Y108.3915 I16.3105 J10.0461
G2 X-78.3851 Y111.8503 I20.1527 J7.659
G2 X-78.7414 Y114.2236 I24.026 J4.8209
G2 X-78.8465 Y115.5909 I28.3268 J2.8652
G1 X-78.8628 Y115.9445
G1 X-78.8752 Y116.3096
G1 X-78.8833 Y116.6865
G2 X-78.8624 Y118.4086 I33.819 J0.4523
G1 X-78.8424 Y118.8526
G1 X-78.8158 Y119.3106
G1 X-78.7821 Y119.7828
G1 X-78.7409 Y120.2697
G2 X-78.4747 Y122.4846 I38.0566 J-3.451
G2 X-78.4538 Y122.6236 I4.2267 J-0.5624
G2 X-78.4324 Y122.7636 I4.5245 J-0.6218
G2 X-77.9628 Y125.3065 I46.0266 J-7.1847
G1 X-77.8932 Y125.6274
G1 X-77.8204 Y125.9528
G1 X-77.7441 Y126.2829
G1 X-77.6645 Y126.6176
G2 X-76.8402 Y129.6465 I54.2303 J-13.1314
G2 X-75.7075 Y133.0419 I61.3442 J-18.5792
G2 X-74.1989 Y136.8324 I67.6815 J-24.7404
G2 X-69.6526 Y142.7184 I20.3225 J-10.9981
G2 X-63.469 Y146.8509 I15.8564 J-17.0341
G2 X-58.7612 Y148.4407 I10.0401 J-21.9656
G2 X-52.1742 Y149.015 I5.3932 J-23.7957
G2 X-51.7902 Y149.1566 I0.63 J-1.117
G2 X-51.3836 Y149.2034 I0.4492 J-2.1108
G2 X-50.5725 Y149.1492 I0.0968 J-4.6423
G2 X-50.3433 Y149.1122 I-0.7482 J-5.3651
G2 X-49.7399 Y148.985 I-1.569 J-8.9398
G2 X-48.9496 Y148.771 I-4.0649 J-16.5775
G1 X-48.8484 Y148.7407
G1 X-48.6333 Y148.6743
G2 X-48.4048 Y148.6013 I-4.7037 J-15.1146
G2 X-47.8859 Y148.4272 I-16.9556 J-51.3965
G1 X-47.6106 Y148.3309
G1 X-47.318 Y148.2259
G1 X-47.0069 Y148.112
G1 X-46.6762 Y147.9886
G1 X-46.5922 Y147.957
G1 X-45.8279 Y147.6651
G1 X-45.4209 Y147.5084
G3 X-44.4899 Y147.1568 I18.2434 J46.8874
G1 X-44.2484 Y147.0698
G3 X-43.9979 Y146.9834 I2.4073 J6.5729
G1 X-43.7375 Y146.8999
G3 X-43.6042 Y146.8608 I1.0998 J3.5072
G3 X-43.3253 Y146.7931 I0.9168 J3.1662
G3 X-43.1808 Y146.7714 I0.2552 J1.2124
G3 X-43.0313 Y146.7732 I0.0686 J0.5259
G3 X-42.9589 Y146.801 I-0.023 J0.1686
G3 X-42.9211 Y146.8868 I-0.0556 J0.0757
G3 X-42.9316 Y146.9418 I-0.2071 J-0.0109
G3 X-42.9935 Y147.0696 I-0.5457 J-0.1855
G3 X-43.0368 Y147.1351 I-1.2689 J-0.7923
G3 X-43.274 Y147.4229 I-2.5523 J-1.8618
G3 X-43.8134 Y147.9608 I-7.2087 J-6.6903
G1 X-43.9519 Y148.0891
G3 X-43.987 Y148.1213 I-0.4456 J-0.451
G3 X-44.1417 Y148.2616 I-3.7985 J-4.036
G1 X-44.3355 Y148.4341
G1 X-44.4159 Y148.5048
G0 Z5.0
G0 X-38.8278 Y141.8066
G1 Z0.0
G2 X-39.5502 Y141.0433 I-4.3898 J3.4305
G2 X-40.4003 Y140.4255 I-4.0242 J4.6432
G2 X-41.0162 Y140.0914 I-3.696 J6.0794
G2 X-41.3797 Y139.9236 I-5.212 J10.8171
G2 X-41.4745 Y139.8826 I-0.95 J2.0673
G2 X-42.5004 Y139.488 I-6.8334 J16.2315
G2 X-42.5662 Y139.4646 I-0.4984 J1.3005
G2 X-42.6331 Y139.441 I-0.5106 J1.3403
G2 X-42.7011 Y139.4171 I-0.525 J1.3859
G2 X-42.7701 Y139.393 I-0.5421 J1.4379
G2 X-42.8403 Y139.3685 I-0.562 J1.4975
G2 X-42.9116 Y139.3437 I-0.5853 J1.5654
G1 X-43.5613 Y139.1155
G3 X-43.7283 Y139.055 I1.4772 J-4.3397
G3 X-44.4833 Y138.7597 I5.4205 J-14.9684
G3 X-44.5779 Y138.7191 I0.7226 J-1.8164
G3 X-45.4213 Y138.3036 I3.7652 J-8.7054
G3 X-46.3142 Y137.7034 I3.165 J-5.6729
G3 X-47.1909 Y136.8324 I3.6105 J-4.5109
G3 X-49.2089 Y139.0435 I-11.164 J-8.1632
G3 X-51.6287 Y140.8058 I-10.6615 J-12.0961
G3 X-51.7105 Y140.8544 I-0.6668 J-1.0309
G3 X-53.5137 Y141.7827 I-9.0803 J-15.4231
G3 X-56.0514 Y142.707 I-7.819 J-17.5196
G1 X-56.3874 Y142.8007
G3 X-60.0411 Y143.4376 I-5.3863 J-20.1029
G3 X-64.968 Y143.2412 I-1.6752 J-19.8729
G3 X-66.2592 Y142.9778 I3.3711 J-19.8223
G3 X-66.7309 Y142.6631 I2.4919 J-4.2457
G1 X-66.8815 Y142.5488
G1 X-67.079 Y142.3921
G3 X-67.8418 Y141.734 I11.1174 J-13.6558
G1 X-68.0537 Y141.5392
G3 X-69.67 Y139.9028 I18.2996 J-19.6915
G3 X-69.8737 Y139.6735 I6.061 J-5.5884
G1 X-69.8991 Y139.6443
G1 X-69.9247 Y139.6149
G3 X-70.3776 Y139.0651 I8.4187 J-7.3974
G1 X-70.4887 Y138.9186
G1 X-70.5162 Y138.8812
G3 X-70.6267 Y138.725 I2.6381 J-1.9836
G3 X-70.838 Y138.375 I2.5728 J-1.7927
G3 X-70.9155 Y138.1773 I0.7902 J-0.4238
G3 X-70.9257 Y138.0679 I0.2894 J-0.082
G3 X-70.8466 Y137.9656 I0.1147 J0.0069
G3 X-70.7667 Y137.9536 I0.0737 J0.2183
G3 X-70.6737 Y137.9627 I-0.0034 J0.5114
G3 X-70.5724 Y137.9867 I-0.1423 J0.8284
G3 X-70.3289 Y138.0752 I-0.6584 J2.1911
G3 X-69.8008 Y138.3372 I-2.1917 J5.0811
G1 X-69.6536 Y138.4196
G2 X-69.4311 Y138.215 I-1.9614 J-2.356
G1 X-69.3627 Y138.1409
G2 X-69.1272 Y137.8141 I-1.6456 J-1.4344
G2 X-68.8933 Y137.0465 I-1.572 J-0.8983
G2 X-68.9149 Y136.5099 I-2.3639 J-0.1734
G3 X-69.0988 Y136.2397 I1.2407 J-1.042
G1 X-69.1188 Y136.1974
G3 X-69.1535 Y136.0772 I0.4059 J-0.1822
G3 X-69.1011 Y135.9136 I0.1882 J-0.0299
G3 X-69.0144 Y135.8551 I0.2215 J0.2344
G3 X-68.7589 Y135.787 I0.3761 J0.8973
G3 X-68.4379 Y135.7507 I0.6149 J3.9998
G1 X-68.355 Y135.7427
G2 X-67.9829 Y135.692 I-0.3861 J-4.2319
G2 X-67.8878 Y135.6706 I-0.1624 J-0.9422
G1 X-67.7901 Y135.6419
G2 X-67.588 Y135.5439 I-0.2731 J-0.8207
G2 X-67.4231 Y135.3461 I-0.2479 J-0.3743
G2 X-67.246 Y135.8488 I4.6969 J-1.3717
G2 X-66.9953 Y136.319 I2.5312 J-1.0475
G2 X-66.7596 Y136.5865 I1.1895 J-0.8104
G2 X-66.3263 Y136.7954 I0.5869 J-0.6638
G2 X-66.0452 Y136.8015 I0.1626 J-1.0063
G2 X-65.7302 Y136.7319 I-0.1821 J-1.5716
G2 X-65.3898 Y136.601 I-1.1706 J-3.5532
G1 X-65.2139 Y136.5218
G1 X-65.0288 Y136.4366
G1 X-64.8318 Y136.3501
G1 X-64.7292 Y136.3092
G3 X-64.5076 Y136.2374 I0.6596 J1.6574
G1 X-64.4501 Y136.2238
G3 X-64.2013 Y136.1996 I0.2172 J0.9435
G3 X-63.9392 Y136.2636 I-0.0191 J0.6476
G3 X-63.7041 Y136.4499 I-0.3434 J0.6749
G3 X-63.5249 Y136.7291 I-1.0134 J0.8472
G3 X-63.3935 Y137.0605 I-2.5355 J1.197
G3 X-63.3417 Y137.2365 I-9.4122 J2.8675
G1 X-63.2965 Y137.4196
G1 X-63.2569 Y137.6083
G1 X-63.2226 Y137.8008
G3 X-63.193 Y137.9944 I-4.238 J0.7475
G2 X-62.7977 Y138.126 I1.5497 J-3.9965
G2 X-62.386 Y138.19 I0.4654 J-1.6387
G2 X-62.1093 Y138.1519 I0.0266 J-0.8316
G2 X-61.8137 Y137.9109 I-0.1646 J-0.5036
G2 X-61.7278 Y137.7032 I-0.8065 J-0.4555
G2 X-61.6817 Y137.4524 I-1.6419 J-0.4316
G1 X-61.6706 Y137.318
G1 X-61.6651 Y137.1758
G1 X-61.664 Y137.0257
G1 X-61.6688 Y136.6921
G1 X-61.6705 Y136.5175
G3 X-61.6532 Y136.1385 I3.4875 J-0.0308
G3 X-61.6183 Y135.9439 I1.159 J0.1073
G3 X-61.5408 Y135.7511 I0.7835 J0.203
G3 X-61.3802 Y135.5922 I0.3646 J0.208
G3 X-61.1273 Y135.5323 I0.2469 J0.4783
G3 X-60.8362 Y135.571 I0.0006 J1.1096
G3 X-60.5373 Y135.6686 I-0.739 J2.7686
G2 X-59.903 Y136.1247 I3.823 J-4.6474
G2 X-59.807 Y136.1818 I0.7767 J-1.1962
G2 X-59.5418 Y136.3178 I1.7239 J-3.0371
G2 X-59.1626 Y136.4388 I0.6802 J-1.4763
G2 X-58.9338 Y136.4521 I0.1641 J-0.8503
G2 X-58.6759 Y136.385 I-0.0455 J-0.7042
G2 X-58.4274 Y136.194 I-0.3725 J-0.7418
G2 X-58.2241 Y135.8927 I-1.0761 J-0.9453
G2 X-58.0607 Y135.5181 I-2.5586 J-1.3388
G1 X-58.0251 Y135.4194
G1 X-57.955 Y135.2103
G2 X-57.9379 Y135.1571 I-1.1133 J-0.3853
G1 X-57.8681 Y134.9322
G1 X-57.7953 Y134.6951
G1 X-57.7165 Y134.4469
G3 X-57.6959 Y134.3843 I1.3083 J0.3977
G3 X-57.4937 Y133.8509 I6.3993 J2.1208
G3 X-57.1957 Y133.3129 I2.8809 J1.244
G3 X-56.9891 Y133.0664 I1.745 J1.253
G3 X-56.3769 Y132.6885 I1.0714 J1.0507
G3 X-55.9954 Y132.6146 I0.5024 J1.573
G3 X-55.5794 Y132.621 I0.1763 J2.0745
G3 X-55.1434 Y132.6977 I-0.2882 J2.9173
G2 X-55.0522 Y133.31 I7.6185 J-0.8212
G2 X-54.8923 Y133.908 I3.6438 J-0.6541
G2 X-54.6959 Y134.2726 I1.2362 J-0.4305
G2 X-54.511 Y134.4272 I0.4622 J-0.365
G2 X-54.2234 Y134.4697 I0.2107 J-0.4318
G2 X-54.0672 Y134.431 I-0.1499 J-0.9406
G2 X-53.735 Y134.2668 I-0.6484 J-1.73
G2 X-53.3996 Y134.042 I-2.4419 J-4.0049
G1 X-53.3581 Y134.0124
G1 X-52.9931 Y133.7524
G3 X-52.5745 Y133.4887 I2.8249 J4.0208
G3 X-52.0913 Y133.2897 I1.017 J1.7828
G3 X-51.8239 Y133.2517 I0.2994 J1.1486
G3 X-51.2487 Y133.4139 I0.0265 J1.0072
G3 X-50.9981 Y133.6174 I-0.851 J1.3047
G3 X-50.7778 Y133.8793 I-1.5008 J1.4855
G3 X-50.5852 Y134.1822 I-2.7499 J1.9612
G2 X-50.1816 Y134.0047 I-0.3684 J-1.3851
G2 X-49.9124 Y133.6554 I-0.3296 J-0.5323
G2 X-49.8957 Y133.3552 I-0.7158 J-0.1904
G2 X-49.9285 Y133.1868 I-1.7782 J0.2583
G2 X-50.0727 Y132.7683 I-3.2856 J0.8986
G3 X-50.1632 Y132.5381 I12.3178 J-4.9737
G1 X-50.2075 Y132.4155
G1 X-50.2281 Y132.3518
G3 X-50.2855 Y132.0592 I1.0819 J-0.364
G3 X-50.2709 Y131.9005 I0.4978 J-0.0344
G3 X-50.1942 Y131.7441 I0.392 J0.0953
G3 X-50.045 Y131.6184 I0.4194 J0.3466
G3 X-49.8466 Y131.5338 I0.4819 J0.8553
G2 X-49.0672 Y131.7835 I0.8186 J-1.2142
G2 X-48.2891 Y131.5297 I0.0283 J-1.2328
G2 X-47.9295 Y131.1105 I-0.8643 J-1.1054
G3 X-47.979 Y130.4884 I4.361 J-0.6605
G1 X-47.9766 Y130.3992
G3 X-47.9426 Y130.1634 I1.0077 J0.0248
G3 X-47.8862 Y130.038 I0.3693 J0.0908
G3 X-47.7373 Y129.9587 I0.1476 J0.0977
G3 X-47.6389 Y129.9773 I-0.0103 J0.3231
G3 X-47.5387 Y130.0248 I-0.281 J0.7212
G3 X-47.335 Y130.176 I-0.8006 J1.2923
G1 X-47.2408 Y130.2627
G1 X-47.1511 Y130.3525
G3 X-46.7675 Y130.7952 I-4.1801 J4.0099
G3 X-46.4105 Y129.9696 I2.6128 J0.6398
G3 X-45.7966 Y129.3123 I2.3131 J1.5448
G3 X-45.2982 Y128.9783 I2.5635 J3.2867
G3 X-44.5876 Y128.6212 I3.7472 J6.5722
G1 X-44.3939 Y128.5357
G3 X-44.3445 Y128.5143 I0.2392 J0.4844
G3 X-44.2943 Y128.4927 I0.2506 J0.5127
G3 X-44.2434 Y128.4709 I0.2641 J0.5459
G1 X-44.0262 Y128.3785
G2 X-43.5332 Y128.1661 I-7.3225 J-17.6757
G1 X-43.407 Y128.1093
G2 X-43.1406 Y127.9835 I-3.8973 J-8.5927
G2 X-42.5541 Y127.6587 I-2.5205 J-5.2442
G2 X-41.949 Y127.19 I-2.0153 J-3.2263
G2 X-41.4126 Y126.4906 I-1.9548 J-2.0546
G2 X-41.0797 Y125.5229 I-2.8382 J-1.5175
G2 X-41.0584 Y125.394 I-5.5301 J-0.9805
G2 X-41.0152 Y125.1481 I-8.8191 J-1.6754
G1 X-41.0028 Y125.0658
G2 X-40.9672 Y124.7347 I-5.5522 J-0.7649
G2 X-40.9615 Y124.5127 I-1.9084 J-0.16
G2 X-40.9962 Y124.2182 I-1.3603 J0.0112
G2 X-41.0579 Y124.059 I-0.6047 J0.1427
G2 X-41.1987 Y123.9158 I-0.3225 J0.1763
G2 X-41.438 Y123.8645 I-0.2156 J0.4222
G2 X-41.5709 Y123.8777 I0.0172 J0.8531
G2 X-41.862 Y123.9546 I0.2713 J1.6166
G2 X-42.1655 Y124.0709 I1.1922 J3.5646
G1 X-42.4965 Y124.2144
G1 X-42.8551 Y124.3715
G3 X-43.0395 Y124.4484 I-1.5886 J-3.5502
G3 X-43.2287 Y124.5222 I-1.3383 J-3.1494
G1 X-43.325 Y124.5573
G3 X-43.7362 Y124.6817 I-1.2904 J-3.5244
G3 X-44.1925 Y124.7525 I-0.6258 J-2.5273
G3 X-44.6995 Y124.7028 I-0.1043 J-1.5493
G3 X-45.2095 Y124.424 I0.339 J-1.2261
G3 X-45.4226 Y124.1931 I0.9993 J-1.136
G3 X-45.6037 Y123.9094 I1.8214 J-1.362
G1 X-45.7088 Y124.0928
G3 X-45.8201 Y124.2726 I-14.6992 J-8.9725
G3 X-46.0674 Y124.6156 I-2.8924 J-1.8248
G3 X-46.2588 Y124.8228 I-1.5518 J-1.242
G3 X-46.5687 Y125.0382 I-0.7757 J-0.7854
G3 X-47.0887 Y125.0299 I-0.2515 J-0.5367
G3 X-47.3446 Y124.8517 I0.5247 J-1.026
G3 X-47.5843 Y124.5939 I1.5856 J-1.7147
G1 X-47.6404 Y124.5232
G1 X-47.7538 Y124.3713
G1 X-47.8685 Y124.2082
G1 X-48.1173 Y123.8419
G2 X-48.398 Y123.452 I-6.2552 J4.2066
G2 X-48.7463 Y123.0746 I-2.058 J1.5497
G2 X-48.9662 Y122.9218 I-0.7394 J0.8298
G2 X-49.5829 Y122.8858 I-0.3451 J0.6106
G2 X-49.8853 Y123.0682 I0.4594 J1.1035
G2 X-50.1599 Y123.3339 I1.4798 J1.8042
G2 X-50.4109 Y123.6512 I2.7713 J2.45
G2 X-50.5283 Y123.8218 I2.2218 J1.6539
G1 X-50.5852 Y123.9094
G3 X-50.6871 Y124.2702 I-2.8729 J-0.617
G3 X-50.742 Y124.3827 I-0.6562 J-0.2504
G3 X-50.7906 Y124.4362 I-0.1585 J-0.0949
G3 X-50.8829 I-0.0462 J-0.0635
G3 X-50.9678 Y124.3505 I0.1973 J-0.2802
G3 X-51.0407 Y124.2382 I0.9641 J-0.7053
G1 X-51.1039 Y124.1259
G1 X-51.1735 Y123.996
G2 X-51.3086 Y123.7496 I-9.6777 J5.1432
G1 X-51.3438 Y123.6892
G1 X-51.3802 Y123.629
G2 X-51.4601 Y123.5055 I-2.7196 J1.6729
G1 X-51.5039 Y123.4432
G2 X-51.5515 Y123.3801 I-0.5782 J0.3861
G2 X-51.8274 Y123.1039 I-1.127 J0.8498
G2 X-52.3133 Y122.9429 I-0.4706 J0.6064
G2 X-52.6083 Y123.0057 I0.0383 J0.9042
G2 X-52.9128 Y123.1708 I0.5409 J1.3611
G2 X-53.3781 Y122.9017 I-0.4794 J0.2922
G2 X-53.5629 Y122.9128 I-0.0433 J0.8249
G2 X-53.7998 Y122.9701 I0.3348 J1.9017
G2 X-53.9303 Y123.0155 I0.5102 J1.679
G2 X-54.2612 Y123.1567 I1.3307 J3.576
G1 X-54.4448 Y123.2444
G1 X-54.9203 Y123.4773
G3 X-55.5578 Y123.748 I-2.7753 J-5.649
G3 X-55.6424 Y123.7766 I-0.3245 J-0.8229
G3 X-56.0368 Y123.8756 I-0.8143 J-2.409
G3 X-56.502 Y123.8975 I-0.318 J-1.7978
G3 X-57.0211 Y123.746 I0.1173 J-1.3666
G3 X-57.5123 Y123.3421 I0.7973 J-1.4705
G3 X-57.7159 Y123.0654 I1.8674 J-1.5869
G3 X-57.8962 Y122.7456 I2.9312 J-1.8636
G3 X-58.333 Y123.0076 I-0.8176 J-0.8681
G3 X-58.8411 Y123.0418 I-0.3271 J-1.0674
G3 X-58.9848 Y123.0142 I0.4175 J-2.5583
G3 X-59.3528 Y122.8958 I0.6696 J-2.713
G1 X-59.8221 Y122.7035
G2 X-60.0939 Y122.6099 I-1.0404 J2.5784
G2 X-60.4178 Y122.5627 I-0.3263 J1.1044
G2 X-60.7835 Y122.6803 I0.0056 J0.645
G2 X-60.9399 Y122.825 I0.5162 J0.7144
G2 X-61.0721 Y123.0152 I0.8856 J0.7571
G2 X-61.1827 Y123.2382 I1.7746 J1.0187
G2 X-61.2759 Y123.4861 I2.6471 J1.1367
G1 X-61.1641 Y123.8468
G3 X-61.0607 Y124.21 I-8.4885 J2.6105
G3 X-60.8916 Y124.946 I-8.1547 J2.2612
G3 X-60.8301 Y125.4461 I-3.8861 J0.7318
G3 X-60.8411 Y125.7347 I-1.3496 J0.093
G3 X-60.8864 Y125.8838 I-0.5145 J-0.0749
G3 X-61.0515 Y125.9739 I-0.1382 J-0.0568
G3 X-61.1649 Y125.9276 I0.0647 J-0.3205
G3 X-61.2771 Y125.8413 I0.4775 J-0.7369
G3 X-61.5067 Y125.5814 I1.3255 J-1.4019
G3 X-61.8695 Y125.0044 I3.6685 J-2.7092
G3 X-62.3913 Y123.8594 I8.9077 J-4.7514
G3 X-62.7696 Y122.7456 I14.4574 J-5.5313
G3 X-63.5309 Y122.9349 I-1.0281 J-2.5098
G3 X-64.3103 Y122.8448 I-0.1816 J-1.8454
G3 X-64.7807 Y122.6095 I0.6279 J-1.8432
G3 X-65.3083 Y122.1521 I1.72 J-2.5169
G3 X-65.3693 Y122.0856 I1.0487 J-1.0224
G3 X-65.6306 Y121.7703 I4.6263 J-4.1004
G3 X-65.9039 Y121.3953 I8.0442 J-6.1497
G1 X-66.0427 Y121.1918
G1 X-66.35 Y120.7279
G1 X-66.5137 Y120.4825
G1 X-66.6915 Y120.2252
G2 X-66.8885 Y119.9585 I-5.4905 J3.8484
G2 X-66.9403 Y119.8923 I-1.6815 J1.2628
G2 X-67.1714 Y119.6204 I-4.3895 J3.497
G2 X-67.4421 Y119.355 I-2.2735 J2.0478
G2 X-67.7672 Y119.1148 I-1.5251 J1.7243
G2 X-68.1617 Y118.9334 I-0.9811 J1.6141
G3 X-68.962 Y119.7555 I-15.8356 J-14.6169
G3 X-69.8226 Y120.5144 I-7.8283 J-8.0098
G3 X-70.4488 Y120.9547 I-3.8714 J-4.8402
G3 X-70.8351 Y121.1613 I-1.7254 J-2.762
G3 X-71.3126 Y121.3201 I-0.9002 J-1.9099
G3 X-71.5829 Y121.3437 I-0.2462 J-1.259
G3 X-72.1827 Y121.0807 I0.0039 J-0.8245
G3 X-72.3891 Y120.7651 I0.8738 J-0.797
G3 X-72.5176 Y120.3679 I1.7593 J-0.7882
G3 X-72.5783 Y119.9198 I3.0314 J-0.6392
G3 X-72.5244 Y118.9209 I4.3211 J-0.2676
G3 X-72.4034 Y118.425 I3.2425 J0.5282
G3 X-72.2964 Y118.1875 I1.1141 J0.3588
G2 X-72.3722 Y117.8124 I-3.1638 J0.4443
G2 X-72.5139 Y117.4569 I-1.471 J0.3804
G2 X-72.6704 Y117.2538 I-0.7308 J0.4009
G2 X-72.9771 Y117.093 I-0.4373 J0.4611
G2 X-73.178 Y117.0759 I-0.1645 J0.7446
G2 X-73.4063 Y117.1044 I0.0592 J1.4028
G2 X-73.6569 Y117.1734 I0.6101 J2.7068
G1 X-73.7202 Y117.1951
G1 X-73.8527 Y117.2447
G2 X-73.9911 Y117.301 I1.0333 J2.7378
G1 X-74.2962 Y117.4335
G1 X-74.4563 Y117.5034
G1 X-74.625 Y117.5742
G3 X-74.8039 Y117.6427 I-3.0409 J-7.6691
G1 X-74.8267 Y117.6508
G1 X-74.8496 Y117.6587
G1 X-74.9439 Y117.6892
G3 X-75.3755 Y117.7641 I-0.4707 J-1.4313
G3 X-75.562 Y117.6934 I1.2407 J-3.5555
G3 X-75.7435 Y117.6112 I1.7404 J-4.08
G3 X-76.0855 Y117.4068 I0.9796 J-2.0274
G3 X-76.6245 Y116.8226 I1.0861 J-1.543
G3 X-76.8304 Y116.331 I1.7606 J-1.0263
G3 X-76.9284 Y115.6302 I2.7714 J-0.7448
G3 X-76.864 Y114.7027 I5.4212 J-0.0897
G1 X-76.8248 Y114.4587
G1 X-76.8022 Y114.3335
G1 X-76.7498 Y114.0688
G3 X-76.689 Y113.7891 I6.3978 J1.2452
G1 X-76.6561 Y113.6455
G1 X-76.5839 Y113.3417
G1 X-76.4177 Y112.6581
G1 X-76.397 Y112.5713
G2 X-76.2273 Y111.7856 I-16.0395 J-3.8741
G1 X-76.2092 Y111.6852
G2 X-76.146 Y111.2576 I-6.1259 J-1.1234
G2 X-76.1131 Y110.7997 I-4.322 J-0.5405
G2 X-76.116 Y110.5631 I-2.7618 J-0.0853
G3 X-76.1055 Y110.4962 I0.5214 J0.0472
G3 X-76.0941 Y110.4294 I0.9151 J0.1225
G3 X-76.068 Y110.2965 I1.7701 J0.2788
G1 X-76.0479 Y110.2084
G3 X-75.9406 Y109.8636 I2.224 J0.5032
G3 X-75.8995 Y109.7687 I1.6268 J0.6469
G3 X-75.7554 Y109.5335 I1.0553 J0.4848
G3 X-75.6397 Y109.4246 I0.4308 J0.3418
G3 X-75.4636 Y109.3616 I0.1945 J0.2663
G3 X-75.2441 Y109.4446 I0.0038 J0.3215
G3 X-75.154 Y109.5412 I-0.3063 J0.3761
G3 X-75.0157 Y109.8157 I-0.8276 J0.5889
G3 X-74.9438 Y110.1323 I-1.4679 J0.5002
G3 X-74.9243 Y110.4809 I-2.3112 J0.3041
G3 X-75.0084 Y111.1464 I-3.3486 J-0.0853
G3 X-75.0475 Y111.3017 I-2.4492 J-0.5334
G2 X-74.59 Y111.5198 I0.6785 J-0.834
G2 X-74.0837 Y111.4981 I0.2057 J-1.1195
G2 X-73.767 Y111.3801 I-0.4398 J-1.6639
G2 X-73.3835 Y111.1536 I-1.3783 J-2.7721
G2 X-72.9278 Y110.7902 I-2.7586 J-3.9263
G2 X-72.3858 Y110.258 I-5.5591 J-6.2037
G1 X-72.2486 Y110.1102
G1 X-72.1051 Y109.9513
G2 X-72.069 Y109.9106 I-0.4248 J-0.4139
G2 X-71.3338 Y109.0482 I-34.1044 J-29.8192
G1 X-71.1402 Y108.8177
G3 X-70.693 Y108.3022 I19.0518 J16.0754
G1 X-70.6345 Y108.2382
G1 X-70.5122 Y108.1083
G3 X-70.2385 Y107.8448 I3.1027 J2.9494
G3 X-70.0859 Y107.7216 I1.2152 J1.3487
G3 X-69.9139 Y107.6137 I0.9202 J1.2756
G3 X-69.7095 Y107.5517 I0.2604 J0.4908
G3 X-69.4796 Y107.6471 I0.0199 J0.2769
G3 X-69.399 Y107.7667 I-0.3555 J0.3265
G3 X-69.3401 Y107.9147 I-0.8045 J0.4055
G2 X-69.2036 Y108.0119 I0.7129 J-0.8569
G1 X-69.1552 Y108.0401
G2 X-68.948 Y108.1236 I0.4385 J-0.7884
G2 X-68.5041 Y108.1045 I0.1902 J-0.7448
G2 X-68.2371 Y107.9722 I-0.4074 J-1.1579
G2 X-67.9316 Y107.728 I-1.0949 J-1.6829
G2 X-67.7747 Y107.572 I-1.9743 J-2.144
G2 X-67.3972 Y107.1446 I-5.5146 J-5.2502
G3 X-66.9204 Y106.5867 I16.3166 J13.4631
G3 X-66.631 Y106.2908 I3.8592 J3.4843
G3 X-66.2592 Y106.0049 I1.4907 J1.554
G2 X-66.1712 Y106.5386 I5.9109 J-0.701
G2 X-66.0079 Y107.0542 I2.5745 J-0.5316
G2 X-65.8121 Y107.359 I1.0099 J-0.4335
G2 X-65.3453 Y107.5374 I0.4057 J-0.3615
G2 X-65.0541 Y107.4568 I-0.1028 J-0.9376
G2 X-64.7553 Y107.291 I-0.728 J-1.6638
G1 X-64.7193 Y107.2669
G2 X-64.6467 Y107.2161 I-2.7512 J-4.008
G2 X-64.3386 Y106.9741 I-4.1638 J-5.6184
G2 X-64.3197 Y106.9581 I-0.1064 J-0.1453
G2 X-64.1628 Y106.8224 I-2.4975 J-3.0449
G2 X-64.1235 Y106.7876 I-0.3951 J-0.486
G2 X-64.0838 Y106.7522 I-6.0273 J-6.8023
G2 X-63.7425 Y106.4439 I-128.6764 J-142.8193
G3 X-63.3737 Y106.1278 I6.975 J7.7637
G3 X-63.3497 Y106.109 I0.2103 J0.2432
G3 X-63.1451 Y105.9641 I1.228 J1.5172
G3 X-62.9094 Y105.8538 I0.4985 J0.7581
G3 X-62.7741 Y105.8419 I0.0964 J0.3223
G3 X-62.6378 Y105.9086 I-0.032 J0.2382
G3 X-62.5426 Y106.0619 I-0.3167 J0.3029
G3 X-62.4892 Y106.2615 I-1.1258 J0.4081
G3 X-62.4544 Y106.7509 I-2.9022 J0.4525
G2 X-61.6976 Y107.1569 I1.8909 J-2.6162
G2 X-60.861 Y107.3505 I1.1737 J-3.1661
G2 X-60.2885 Y107.3717 I0.4294 J-3.8599
G2 X-59.5306 Y107.2952 I-0.1503 J-5.2795
G2 X-58.5473 Y107.0636 I-1.4422 J-8.3265
G2 X-58.29 Y106.9847 I-2.8883 J-9.8761
G1 X-58.0178 Y106.8951
G1 X-57.7295 Y106.7951
G1 X-57.0759 Y106.5603
G3 X-56.726 Y106.4415 I2.8127 J7.7143
G3 X-56.5434 Y106.387 I2.0271 J6.4561
G3 X-56.497 Y106.3745 I0.2095 J0.6863
G1 X-56.4023 Y106.3514
G3 X-56.2036 Y106.318 I0.3096 J1.2337
G3 X-55.9938 Y106.3275 I0.0764 J0.6356
G2 X-55.5672 Y106.9552 I6.5256 J-3.9764
G2 X-55.1044 Y107.5568 I20.2827 J-15.1206
G3 X-55.0742 Y107.5954 I-0.402 J0.3452
G3 X-55.0431 Y107.6353 I-0.4242 J0.3632
G3 X-55.011 Y107.6765 I-0.4493 J0.3834
G3 X-54.9779 Y107.719 I-0.4783 J0.4062
G3 X-54.6311 Y108.1769 I-22.054 J17.0641
G3 X-54.5415 Y108.3012 I-5.9768 J4.4004
G1 X-54.448 Y108.4352
G3 X-54.2439 Y108.7481 I-5.4188 J3.7585
G3 X-53.7984 Y109.6406 I-4.2924 J2.6999
G3 X-53.5637 Y110.9588 I-3.3586 J1.278
G3 X-53.6515 Y111.7269 I-3.7508 J-0.0395
G2 X-52.5144 Y112.3607 I3.4502 J-4.853
G2 X-51.2707 Y112.7451 I2.6877 J-6.4914
G2 X-50.4147 Y112.8883 I2.1993 J-10.514
G1 X-50.3035 Y112.9021
G1 X-50.1887 Y112.9155
G1 X-50.0701 Y112.9284
G1 X-49.9477 Y112.941
G1 X-49.8212 Y112.9533
G1 X-49.2432 Y113.0033
G1 X-48.5836 Y113.0596
G1 X-48.2325 Y113.0951
G3 X-47.4354 Y113.2098 I-1.0914 J10.4183
G3 X-46.5429 Y113.4348 I-1.2317 J6.7687
G3 X-46.4879 Y113.4534 I-0.1762 J0.6121
G3 X-46.0271 Y113.6366 I-1.8528 J5.3297
G3 X-46.0117 Y114.2185 I-4.0354 J0.3976
G3 X-46.0199 Y114.4125 I-4.0855 J-0.0758
G1 X-46.0338 Y114.6709
G2 X-46.0374 Y114.7399 I0.8099 J0.0775
G1 X-46.0449 Y114.8974
G1 X-46.048 Y114.9815
G1 X-46.0517 Y115.1737
G2 X-46.0219 Y115.6856 I3.9078 J0.0288
G2 X-45.9621 Y115.9733 I2.1526 J-0.2972
G2 X-45.8364 Y116.2867 I1.4346 J-0.3935
G2 X-45.6037 Y116.6003 I1.1386 J-0.6019
G3 X-45.0907 Y116.6051 I0.2184 J4.0107
G3 X-44.5844 Y116.687 I-0.1905 J2.7861
G3 X-43.6868 Y117.1778 I-0.4652 J1.9168
G3 X-43.2783 Y117.7328 I-1.5325 J1.5558
G3 X-43.1171 Y118.0926 I-3.0732 J1.5926
G3 X-42.9806 Y118.5193 I-4.4744 J1.6671
G1 X-42.9515 Y118.6311
G3 X-42.8417 Y119.1422 I-8.7955 J2.1571
G1 X-42.7932 Y119.4151
G1 X-42.7452 Y119.705
G1 X-42.6948 Y120.0122
G2 X-42.6377 Y120.3365 I9.5188 J-1.5105
G2 X-42.4654 Y121.0565 I6.2794 J-1.1216
G2 X-42.4361 Y121.1458 I1.9983 J-0.6072
G1 X-42.4039 Y121.2354
G2 X-42.2324 Y121.6021 I2.0651 J-0.7428
G2 X-41.9667 Y121.9451 I1.4104 J-0.8181
G2 X-41.5704 Y122.2052 I0.9016 J-0.9412
G2 X-41.0584 Y122.3222 I0.6183 J-1.5271
G3 X-40.8607 Y122.0523 I1.0452 J0.5581
G3 X-40.6164 Y121.8238 I2.1579 J2.0611
G3 X-40.4463 Y121.6799 I5.2885 J6.0829
G2 X-40.2243 Y121.4834 I-2.2845 J-2.804
G2 X-39.9677 Y121.1825 I-1.104 J-1.2014
G2 X-39.8687 Y120.9772 I-0.7205 J-0.474
G2 X-39.8281 Y120.7159 I-0.7539 J-0.2509
G2 X-39.8817 Y120.4125 I-1.0036 J0.0207
G1 X-40.3463 Y119.0774
G1 X-40.5045 Y118.6337
G2 X-40.7211 Y118.044 I-38.1627 J13.6808
G1 X-40.8485 Y117.7084
G2 X-41.2052 Y116.82 I-31.4554 J12.1132
G2 X-41.7313 Y115.6568 I-21.1656 J8.873
G1 X-41.8838 Y115.3525
G1 X-41.9235 Y115.2756
G2 X-42.8793 Y113.6964 I-11.6739 J5.9865
G2 X-43.5395 Y112.8709 I-7.4049 J5.2454
G2 X-44.4203 Y112.0387 I-5.4356 J4.8705
G2 X-45.6037 Y111.3017 I-3.6884 J4.6039
G2 X-45.7119 Y111.1883 I-2.4714 J2.2521
G1 X-45.8218 Y111.0766
G1 X-46.0455 Y110.8569
G2 X-46.5028 Y110.4281 I-15.3933 J15.9527
G1 X-46.8106 Y110.1453
G1 X-47.219 Y109.7662
G1 X-47.3269 Y109.6639
G3 X-47.5704 Y109.4271 I5.6692 J-6.0711
G3 X-48.1867 Y108.7632 I6.9653 J-7.084
G3 X-48.5033 Y108.3528 I4.7133 J-3.964
G3 X-48.6559 Y108.1221 I3.278 J-2.3343
G3 X-48.9457 Y107.558 I3.2818 J-2.0426
G3 X-49.1347 Y106.8522 I2.6573 J-1.0898
G3 X-49.108 Y106.0049 I2.6051 J-0.3418
G3 X-50.6376 Y104.819 I7.9217 J-11.7972
G3 X-51.9944 Y103.4389 I10.3944 J-11.576
G3 X-52.3544 Y103.0188 I18.1385 J-15.9069
G1 X-52.446 Y102.9093
G3 X-52.6402 Y102.6748 I10.0954 J-8.5572
G1 X-52.6894 Y102.615
G1 X-52.8986 Y102.3599
G2 X-53.3787 Y101.7789 I-49.7895 J40.661
G1 X-53.6394 Y101.473
G2 X-53.6726 Y101.4347 I-0.3937 J0.3082
G2 X-53.7062 Y101.3962 I-0.3838 J0.3008
G2 X-54.3385 Y100.7106 I-12.263 J10.6753
G2 X-56.2494 Y99.1158 I-8.692 J8.4728
G2 X-57.471 Y98.3805 I-7.8459 J11.652
G3 X-57.866 Y98.2942 I0.0045 J-0.9671
G3 X-58.206 Y98.0753 I0.6432 J-1.3728
G3 X-58.4025 Y97.8915 I1.586 J-1.8924
G1 X-58.4521 Y97.8395
G1 X-58.5038 Y97.7832
G1 X-58.6185 Y97.6522
G1 X-58.7454 Y97.4999
G1 X-58.8881 Y97.3248
G1 X-59.0516 Y97.1264
G2 X-59.2448 Y96.9063 I-3.3821 J2.773
G2 X-59.4821 Y96.6715 I-2.241 J2.0275
G2 X-59.7879 Y96.4433 I-1.2888 J1.4076
G2 X-60.1953 Y96.2773 I-0.715 J1.1726
G2 X-60.7102 Y96.2721 I-0.2706 J1.2745
G2 X-61.2759 Y96.4781 I0.3919 J1.9559
G3 X-62.1309 Y96.9986 I-28.5265 J-45.8959
G3 X-62.9987 Y97.4973 I-16.9778 J-28.5402
G1 X-63.116 Y97.561
G3 X-63.7539 Y97.8772 I-4.3773 J-8.027
G3 X-63.7955 Y97.8951 I-0.3916 J-0.8571
G3 X-63.9756 Y97.9645 I-1.3817 J-3.3148
G3 X-64.1761 Y98.0146 I-0.3308 J-0.8972
G3 X-64.2847 Y98.0027 I-0.0338 J-0.1927
G3 X-64.3206 Y97.9478 I0.0308 J-0.0593
G3 X-64.3066 Y97.861 I0.1984 J-0.0125
G3 X-64.2609 Y97.7625 I0.6171 J0.2262
G3 X-64.201 Y97.6645 I0.8374 J0.4447
G1 X-64.1677 Y97.6156
G3 X-63.9884 Y97.3813 I2.6971 J1.8771
G3 X-63.8313 Y97.1951 I11.2196 J9.3125
G1 X-63.6397 Y96.98
G3 X-62.9623 Y96.2665 I18.3475 J16.7423
G3 X-61.7634 Y95.0616 I127.7311 J125.8904
G1 X-61.2895 Y94.5835
G1 X-61.0493 Y94.3364
G1 X-60.927 Y94.2084
G2 X-60.8653 Y94.1431 I-0.983 J-0.9898
G3 X-59.47 Y93.5158 I3.8222 J6.6367
G3 X-57.985 Y93.148 I2.9746 J8.8274
G3 X-56.9723 Y93.0254 I1.8189 J10.7808
G1 X-56.701 Y93.0068
G3 X-55.2527 Y92.9921 I0.8772 J15.056
G3 X-53.3322 Y93.1428 I-0.8726 J23.4345
G3 X-52.8227 Y93.2069 I-2.5003 J21.9293
G1 X-52.2808 Y93.2835
G3 X-51.0481 Y93.4829 I-9.4533 J62.3492
G1 X-50.3928 Y93.5985
G1 X-48.8994 Y93.8686
G2 X-47.1909 Y94.1431 I7.2427 J-39.6352
G3 X-44.0742 Y95.8685 I-12.0215 J25.3931
G3 X-41.1939 Y97.9648 I-16.1075 J25.1576
G3 X-36.2765 Y103.1019 I-19.0854 J23.1918
G3 X-35.7178 Y103.8708 I-28.0472 J20.966
G3 X-33.1917 Y108.2591 I-22.7147 J15.9968
G3 X-32.1346 Y110.9568 I-23.1842 J10.6403
G3 X-31.7012 Y112.4413 I-24.645 J8.0011
G1 X-31.6065 Y112.8225
G1 X-31.5168 Y113.2114
G3 X-30.5487 Y116.3879 I-17.6881 J7.127
G3 X-30.1481 Y119.6845 I-18.9354 J3.9735
G3 X-30.1897 Y121.8993 I-21.1768 J0.7095
G3 X-30.5906 Y124.8231 I-23.5395 J-1.738
G3 X-30.9749 Y126.4649 I-24.7285 J-4.9215
G3 X-31.5323 Y128.3078 I-28.2278 J-7.5323
G3 X-32.302 Y130.3662 I-31.2944 J-10.5286
G3 X-32.5209 Y130.8894 I-24.1874 J-9.8156
G3 X-33.6112 Y133.2353 I-39.2101 J-16.797
G1 X-33.7593 Y133.5284
G3 X-35.1954 Y136.1567 I-47.9601 J-24.4987
G1 X-35.2905 Y136.3197
G1 X-35.3868 Y136.4836
G3 X-37.2195 Y139.4239 I-64.5973 J-38.2215
G3 X-37.7123 Y140.1691 I-41.3097 J-26.7814
G1 X-37.7746 Y140.2623
G1 X-37.8373 Y140.3558
G1 X-37.9003 Y140.4496
G1 X-38.1573 Y140.8298
G1 X-38.6922 Y141.6106
G3 X-38.8278 Y141.8066 I-6.1621 J-4.1195
G0 Z5.0
G0 X-25.6721 Y127.5787
G1 Z0.0
G3 X-25.5005 Y126.6221 I5.5194 J0.4962
G3 X-25.1527 Y125.7144 I4.8075 J1.322
G3 X-24.8416 Y125.1457 I8.27 J4.1539
G1 X-24.7538 Y124.9969
G1 X-24.5537 Y124.6568
G2 X-24.45 Y124.4737 I-5.7512 J-3.3799
G1 X-24.3437 Y124.2762
G2 X-23.8924 Y123.1708 I-5.4276 J-2.8604
G2 X-23.5582 Y123.1296 I0.0738 J-0.777
G2 X-23.295 Y122.9197 I-0.2004 J-0.5214
G2 X-23.1935 Y122.7177 I-0.814 J-0.5355
G2 X-23.1199 Y122.431 I-1.4461 J-0.5244
G2 X-23.0679 Y122.052 I-6.6819 J-1.1099
G3 X-23.0377 Y121.8391 I3.3194 J0.3619
G3 X-22.97 Y121.6063 I0.8407 J0.1181
G3 X-22.8851 Y121.5052 I0.2194 J0.0982
G3 X-22.727 Y121.484 I0.1053 J0.1843
G3 X-22.6422 Y121.5105 I-0.0819 J0.4112
G3 X-22.4649 Y121.6075 I-0.4808 J1.0893
G1 X-22.3799 Y121.6669
G1 X-22.3382 Y121.6983
G3 X-21.99 Y121.9997 I-3.342 J4.2134
G3 X-21.8932 Y121.6303 I2.9155 J0.5667
G3 X-21.7388 Y121.281 I1.9212 J0.6404
G3 X-21.224 Y120.7201 I1.4263 J0.7924
G3 X-20.7667 Y120.493 I1.142 J1.7252
G3 X-20.1122 Y120.3278 I1.2857 J3.7147
G3 X-19.935 Y120.2986 I0.5797 J2.9651
G1 X-19.5322 Y120.2416
G1 X-19.3182 Y120.2123
