( Made using CamBam - http://www.cambam.co.uk )
( car1 1/21/2014 10:37:41 PM )
( T0 : 0.0 )
G21 G90 G64 G40
G0 Z5.0
( T0 : 0.0 )
T0 M6
( 121-140 )
G17
M3 S1000
G0 X-373.6018 Y95.0246
G1 F1.0 Z0.0
G2 X-373.5297 Y95.1824 I0.5565 J-0.1588
G2 X-373.3628 Y95.3769 I0.7783 J-0.4993
G2 X-373.0498 Y95.5975 I1.2359 J-1.4205
G2 X-372.7055 Y95.7651 I1.6015 J-2.8533
G2 X-372.1533 Y95.9585 I1.7766 J-4.1871
G2 X-371.2941 Y96.1335 I1.6387 J-5.8514
G2 X-370.42 Y96.2031 I1.1083 J-8.3847
G1 X-368.7907 Y96.2453
G2 X-367.8792 Y96.2396 I0.3881 J-10.8489
G2 X-367.8574 Y96.2385 I0.0052 J-0.1157
G2 X-367.8358 Y96.2374 I0.0049 J-0.1148
G2 X-367.1546 Y96.1705 I-0.2836 J-6.3855
G2 X-367.026 Y96.1493 I-0.2173 J-1.725
G2 X-366.9057 Y96.1264 I-0.3621 J-2.228
G2 X-366.4608 Y96.0074 I-0.6155 J-3.1915
G2 X-366.1395 Y95.8711 I-0.87 J-2.4974
G2 X-365.9159 Y95.7316 I-0.6615 J-1.3093
G2 X-365.6415 Y95.4472 I-0.6775 J-0.9281
G2 X-365.4917 Y95.0815 I-0.8384 J-0.5571
G1 X-367.121 Y95.0338
G3 X-367.3986 Y95.3812 I-0.6552 J-0.239
G3 X-367.6957 Y95.5207 I-0.6215 J-0.938
G3 X-368.1777 Y95.611 I-0.6423 J-2.0956
G3 X-368.6679 Y95.6221 I-0.3374 J-4.0568
G1 X-368.7087 Y95.6211
G3 X-369.339 Y95.5738 I0.1005 J-5.5617
G3 X-369.6508 Y95.5191 I0.4864 J-3.6846
G3 X-369.9545 Y95.4297 I0.5363 J-2.383
G3 X-370.1085 Y95.3549 I0.4354 J-1.0927
G3 X-370.3024 Y95.1847 I0.2925 J-0.5288
G3 X-370.3797 Y94.9385 I0.335 J-0.2404
G3 X-370.3115 Y94.7802 I0.2924 J0.0321
G3 X-370.1151 Y94.6183 I0.5529 J0.4705
G3 X-369.8867 Y94.506 I0.7648 J1.2669
G1 X-366.3824 Y93.1039
G1 X-366.2267 Y93.0393
G2 X-365.9609 Y92.9088 I-1.1001 J-2.5773
G2 X-365.9121 Y92.8811 I-0.2995 J-0.5828
G2 X-365.5777 Y92.6268 I-0.729 J-1.3059
G2 X-365.4525 Y92.4539 I-0.5052 J-0.4975
G2 X-365.3963 Y92.248 I-0.4623 J-0.2368
G1 Y91.9254
G2 X-365.4908 Y91.5937 I-0.5726 J-0.0163
G2 X-365.658 Y91.4012 I-0.7914 J0.5184
G2 X-365.9701 Y91.1828 I-1.2172 J1.408
G2 X-366.3127 Y91.0163 I-1.8543 J3.3798
G2 X-367.4358 Y90.6902 I-2.0129 J4.8348
G2 X-368.0158 Y90.6117 I-1.3147 J7.5342
G1 X-368.1617 Y90.5994
G2 X-368.3808 Y90.586 I-0.4141 J4.9656
G1 X-368.4904 Y90.5815
G1 X-368.6001 Y90.5783
G1 X-370.2294 Y90.5307
G2 X-371.4637 Y90.5543 I-0.3826 J12.253
G1 X-371.6178 Y90.5674
G2 X-372.1541 Y90.6407 I0.6496 J6.7562
G2 X-372.678 Y90.7762 I0.5798 J3.3208
G2 X-372.9803 Y90.9108 I0.8053 J2.2152
G2 X-373.1891 Y91.0495 I0.5653 J1.0782
G2 X-373.4322 Y91.3361 I0.5701 J0.7299
G2 X-373.5266 Y91.7 I0.7256 J0.3824
G1 X-371.8991 Y91.7476
G1 Y91.6395
G3 X-371.8351 Y91.4772 I0.2412 J0.0014
G3 X-371.7359 Y91.3961 I0.3526 J0.3298
G3 X-371.5623 Y91.3156 I0.4962 J0.8426
G1 X-371.4712 Y91.2864
G3 X-371.425 Y91.2736 I0.0976 J0.2636
G3 X-371.4018 Y91.2676 I0.0318 J0.0755
G3 X-371.3786 Y91.2619 I0.0302 J0.0729
G3 X-370.2551 Y91.1593 I0.9977 J4.7211
G1 X-370.176 Y91.1623
G3 X-369.5851 Y91.2107 I-0.1927 J5.9825
G3 X-369.2926 Y91.2635 I-0.3797 J2.9411
G3 X-369.0106 Y91.3572 I-0.3626 J1.5619
G3 X-368.7514 Y91.5447 I-0.3188 J0.7137
G3 X-368.6404 Y91.8448 I-0.3398 J0.2963
G3 X-368.7091 Y92.0024 I-0.2982 J-0.0362
G3 X-368.9055 Y92.1635 I-0.5566 J-0.4782
G1 X-368.9609 Y92.1948
G3 X-369.0032 Y92.2166 I-0.6977 J-1.3007
G1 X-369.0678 Y92.2472
G3 X-369.1005 Y92.2616 I-0.1471 J-0.2895
G3 X-369.1334 Y92.2755 I-0.1059 J-0.2052
G1 X-372.6377 Y93.6721
G1 X-372.7928 Y93.7365
G2 X-373.0575 Y93.8671 I1.5246 J3.4225
G2 X-373.4181 Y94.1301 I0.7698 J1.4342
G2 X-373.5537 Y94.3128 I0.5444 J0.5459
G2 X-373.6091 Y94.5335 I0.4158 J0.2216
G1 X-373.6237 Y94.8487
G2 X-373.6018 Y95.0246 I0.5785 J0.0171
G0 Z5.0
G0 X-357.0462 Y96.7658
G1 Z0.0
G1 Y97.3945
G1 X-347.2865 Y97.3816
G1 Y96.7511
G1 X-350.5306 Y96.7585
G1 X-350.5452 Y91.7146
G1 X-353.8021
G1 X-353.7893 Y96.7585
G1 X-357.0462 Y96.7658
G0 Z5.0
G0 X-340.4392 Y96.4145
G1 Z0.0
G1 X-340.4154 Y97.5392
G1 X-337.0889 Y97.4769
G1 X-337.1842 Y92.9738
G3 X-337.1357 Y92.8027 I0.2716 J-0.0155
G3 X-337.0473 Y92.7058 I0.4194 J0.2941
G3 X-336.884 Y92.5973 I0.6806 J0.8472
G3 X-336.7058 Y92.5156 I0.6188 J1.114
G3 X-336.4249 Y92.417 I0.7892 J1.7999
G3 X-336.3709 Y92.4027 I0.1623 J0.5027
G3 X-335.9594 Y92.3291 I0.7581 J3.0516
G3 X-335.542 Y92.303 I0.4514 J3.8654
G3 X-334.9448 Y92.3328 I0.088 J4.2241
G3 X-334.3635 Y92.4734 I-0.2944 J2.4895
G3 X-334.0529 Y92.6257 I-0.4025 J1.2139
G3 X-333.9234 Y92.7469 I-0.2949 J0.4448
G3 X-333.8577 Y92.9114 I-0.2568 J0.198
G1 X-333.7624 Y97.4146
G1 X-330.4487 Y97.3541
G1 X-330.5458 Y92.851
G2 X-330.6664 Y92.5168 I-0.5951 J0.0259
G2 X-330.85 Y92.3287 I-0.7855 J0.5833
G2 X-331.1833 Y92.1211 I-1.0926 J1.3822
G1 X-331.2718 Y92.0787
G2 X-331.5447 Y91.9676 I-1.7863 J3.9935
G2 X-332.1138 Y91.7949 I-1.5283 J4.0135
G2 X-332.9944 Y91.6575 I-1.4246 J6.2395
G2 X-333.8852 Y91.6322 I-0.6664 J7.7501
G1 X-337.2117 Y91.6871
G2 X-338.401 Y91.7931 I0.1282 J8.1694
G2 X-339.5522 Y92.1105 I0.8876 J5.4642
G2 X-339.592 Y92.1273 I0.1238 J0.3491
G2 X-339.8937 Y92.2731 I1.0917 J2.6453
G1 X-340.0034 Y92.3371
G2 X-340.3463 Y92.6208 I0.7408 J1.2444
G2 X-340.4658 Y92.8127 I0.5784 J0.4934
G2 X-340.5107 Y93.0342 I0.5253 J0.2218
G1 X-340.4392 Y96.4145
G0 Z5.0
G0 X-316.8023 Y95.4798
G1 Z0.0
G1 X-316.9117 Y92.7135
G1 X-315.242 Y92.6585
G3 X-314.6461 Y92.6808 I0.1363 J4.3281
G3 X-314.0635 Y92.8088 I-0.277 J2.6511
G3 X-313.7513 Y92.9594 I-0.477 J1.3881
G3 X-313.6192 Y93.0793 I-0.3117 J0.4763
G3 X-313.5577 Y93.2468 I-0.2129 J0.1732
G1 X-313.4349 Y96.4634
G3 X-313.4877 Y96.6331 I-0.3144 J-0.0047
G3 X-313.6799 Y96.8106 I-0.5035 J-0.3523
G3 X-313.9133 Y96.9289 I-0.8434 J-1.3745
G3 X-314.4846 Y97.0959 I-1.0058 J-2.3811
G3 X-315.0771 Y97.1544 I-0.6693 J-3.7507
G1 X-316.7339 Y97.2093
G1 X-316.8023 Y95.4798
G0 Z5.0
G0 X-316.7272 Y97.8506
G1 Z0.0
G1 X-313.3799 Y97.7445
G2 X-312.2024 Y97.6255 I-0.224 J-8.0978
G2 X-311.0669 Y97.2918 I-0.9135 J-5.208
G2 X-311.0273 Y97.2743 I-0.1343 J-0.3578
G2 X-310.7277 Y97.1243 I-1.2535 J-2.8786
G2 X-310.5133 Y96.9877 I-1.0091 J-1.819
G2 X-310.3649 Y96.8653 I-0.8423 J-1.1729
G2 X-310.1868 Y96.6371 I-0.5826 J-0.6382
G2 X-310.1212 Y96.3553 I-0.4864 J-0.2618
G1 X-310.2458 Y93.1369
G2 X-310.3682 Y92.8023 I-0.5979 J0.029
G2 X-310.5543 Y92.6159 I-0.7397 J0.5524
G2 X-310.8918 Y92.4136 I-1.043 J1.3573
G2 X-311.2575 Y92.2681 I-1.39 J2.9624
G2 X-312.4136 Y92.0068 I-1.7425 J5.0209
G2 X-313.005 Y91.9615 I-0.8647 J7.4054
G1 X-313.1532 Y91.9574
G1 X-313.3756 Y91.9561
G1 X-313.598 Y91.9602
G1 X-320.2382 Y92.1728
G1 X-320.0329 Y97.9553
G1 X-316.7272 Y97.8506
G0 Z5.0
G0 X-300.255 Y97.0103
G1 Z0.0
G1 X-300.2113 Y97.8673
G1 X-291.7511 Y97.5044
G1 X-291.7933 Y96.8465
G1 X-296.8573 Y97.0664
G1 X-296.9673 Y95.1016
G1 X-293.5729 Y94.9513
G1 X-293.6004 Y94.3007
G1 X-296.9948 Y94.4455
G1 X-297.0901 Y92.4807
G1 X-292.0261 Y92.2608
G1 X-292.0536 Y91.6047
G1 X-300.5119 Y91.9749
G1 X-300.255 Y97.0103
G0 Z5.0
G0 X-276.9014 Y95.5289
G1 Z0.0
G1 X-276.955 Y94.6838
G1 X-275.2579 Y94.5958
G3 X-275.1817 Y94.593 I0.0697 J0.8662
G3 X-274.6112 Y94.6118 I0.153 J4.0254
G3 X-274.0519 Y94.7259 I-0.2675 J2.7387
G3 X-273.726 Y94.8728 I-0.3926 J1.3058
G3 X-273.5881 Y94.9941 I-0.2987 J0.4787
G3 X-273.5185 Y95.1639 I-0.2419 J0.1982
G1 X-273.4911 Y95.8201
G3 X-273.5342 Y95.9951 I-0.2948 J0.0201
G3 X-273.6183 Y96.0984 I-0.3677 J-0.2136
G3 X-273.7788 Y96.2162 I-0.6358 J-0.6978
G3 X-273.9566 Y96.3058 I-0.7307 J-1.2284
G3 X-274.5331 Y96.4877 I-1.1843 J-2.7491
G3 X-275.1332 Y96.5605 I-0.749 J-3.6621
G1 X-276.8304 Y96.6485
G1 X-276.9014 Y95.5289
G0 Z5.0
G0 X-276.9805 Y94.0342
G1 Z0.0
G1 X-276.9953 Y94.0349
G1 X-277.1181 Y92.0702
G1 X-275.421 Y91.9804
G3 X-274.8129 Y91.9897 I0.2476 J3.6862
G3 X-274.2168 Y92.1105 I-0.2462 J2.7456
G3 X-274.0496 Y92.1724 I-0.6138 J1.9171
G3 X-273.8169 Y92.3086 I-0.3522 J0.8685
G3 X-273.7259 Y92.412 I-0.2485 J0.3102
G3 X-273.6835 Y92.5431 I-0.2465 J0.1522
G1 X-273.6413 Y93.1992
G3 X-273.7036 Y93.453 I-0.4117 J0.0335
G3 X-273.8548 Y93.6095 I-0.4834 J-0.3156
G3 X-274.0176 Y93.7037 I-0.6643 J-0.9608
G3 X-274.1698 Y93.7647 I-0.7908 J-1.7515
G3 X-274.4461 Y93.8407 I-0.6887 J-1.9627
G3 X-274.8701 Y93.9094 I-1.0391 J-5.0723
G1 X-275.0839 Y93.9305
G3 X-275.2982 Y93.9451 I-0.5239 J-6.0812
G1 X-276.9805 Y94.0342
G0 Z5.0
G0 X-277.1208 Y91.4142
G1 Z0.0
G1 X-280.54 Y91.5973
G1 X-280.1716 Y97.4898
G1 X-273.4086 Y97.1287
G1 X-273.2051 Y97.1168
G1 X-273.1161 Y97.1106
G1 X-272.9494 Y97.0962
G2 X-272.6596 Y97.0538 I-0.1789 J-2.2321
G2 X-272.2463 Y96.9083 I-0.3865 J-1.7579
G1 X-271.8489 Y96.7237
G2 X-271.5288 Y96.5623 I-1.7093 J-3.79
G2 X-271.301 Y96.4139 I-1.1704 J-2.0445
G1 X-271.2205 Y96.3499
G2 X-270.9835 Y96.0795 I-0.7121 J-0.8634
G2 X-270.8903 Y95.7321 I-0.5409 J-0.3312
G1 X-270.9178 Y95.3967
G2 X-271.0163 Y95.0719 I-0.7373 J0.0464
G2 X-271.1746 Y94.8753 I-0.7841 J0.4691
G2 X-271.4854 Y94.6626 I-0.8764 J0.9472
G2 X-271.8342 Y94.5206 I-1.1691 J2.3731
G3 X-272.2557 Y94.3614 I1.9737 J-5.8594
G2 X-272.9116 Y94.2018 I-0.8285 J1.9774
G2 X-273.2487 Y94.1813 I-0.4129 J4.0229
G2 X-273.4175 Y94.1781 I-0.1354 J2.6558
G1 X-273.5864 Y94.1779
G2 X-273.1409 Y94.1454 I-0.397 J-8.5064
G1 X-272.974 Y94.1268
G1 X-272.8284 Y94.1054
G2 X-272.702 Y94.0809 I-0.1857 J-1.2957
G2 X-272.2803 Y93.9261 I-0.3134 J-1.5052
G1 X-272.1818 Y93.872
G1 X-271.8892 Y93.705
G2 X-271.6069 Y93.5349 I-1.5939 J-2.9631
G2 X-271.506 Y93.4614 I-0.7513 J-1.1379
G2 X-271.3416 Y93.3164 I-1.0018 J-1.3012
G2 X-271.1493 Y93.049 I-0.6671 J-0.6827
G2 X-271.0828 Y92.7263 I-0.6007 J-0.2921
G1 X-271.1103 Y92.3909
G2 X-271.2467 Y92.0441 I-0.5766 J0.0266
G2 X-271.4484 Y91.8568 I-0.818 J0.6787
G2 X-271.8069 Y91.6551 I-1.2174 J1.7445
G2 X-272.1916 Y91.5094 I-1.3731 J3.0428
G3 X-272.2394 Y91.4929 I0.2213 J-0.7213
G3 X-272.2856 Y91.4767 I0.166 J-0.5475
G1 X-272.6412 Y91.3451
G2 X-272.9136 Y91.2615 I-0.7196 J1.8608
G2 X-273.3381 Y91.2222 I-0.4055 J2.0652
G1 X-273.4447 Y91.2227
G1 X-273.6044 Y91.2272
G1 X-273.7641 Y91.2344
G1 X-277.1208 Y91.4142
G0 Z5.0
G0 X-255.4087 Y93.6721
G1 Z0.0
G1 X-251.9594 Y93.4448
G1 X-251.8623 Y94.7864
G3 X-251.9041 Y94.9645 I-0.3076 J0.0218
G3 X-252.0927 Y95.1562 I-0.5182 J-0.3212
G3 X-252.3278 Y95.2867 I-0.8254 J-1.2098
G3 X-252.9181 Y95.4815 I-1.1502 J-2.4946
G3 X-253.5338 Y95.5672 I-0.9194 J-4.351
G3 X-254.1551 Y95.5611 I-0.2699 J-4.2022
G3 X-254.7654 Y95.4444 I0.228 J-2.8455
G3 X-254.937 Y95.3858 I0.4727 J-1.6638
G3 X-255.1754 Y95.2505 I0.3085 J-0.8218
G3 X-255.2688 Y95.1462 I0.2792 J-0.3437
G3 X-255.3134 Y95.0137 I0.2524 J-0.1589
G1 X-255.4087 Y93.6721
G0 Z5.0
G0 X-255.4523 Y93.006
G1 Z0.0
G1 X-255.4637 Y93.0068
G1 X-255.669 Y90.3382
G1 X-259.1036 Y90.5581
G1 X-258.7481 Y95.2318
G2 X-258.6095 Y95.5764 I0.6241 J-0.0507
G2 X-258.4097 Y95.7647 I0.7957 J-0.6443
G2 X-258.0517 Y95.9654 I1.2028 J-1.7259
G2 X-257.6667 Y96.1078 I1.4436 J-3.3111
G2 X-256.4523 Y96.3379 I1.6519 J-5.3992
G2 X-255.2163 Y96.3479 I0.6902 J-8.9051
G1 X-251.7542 Y96.1225
G2 X-250.5308 Y95.9556 I-0.5297 J-8.4513
G2 X-250.4553 Y95.9387 I-0.1585 J-0.881
G2 X-249.3587 Y95.5672 I-1.1899 J-5.3166
G2 X-249.0421 Y95.4014 I-1.5649 J-3.3751
G2 X-248.8163 Y95.2513 I-0.9879 J-1.7311
G2 X-248.5278 Y94.9611 I-0.7461 J-1.0301
G2 X-248.4362 Y94.7746 I-0.6052 J-0.4129
G2 X-248.413 Y94.5683 I-0.5285 J-0.164
G1 X-248.7704 Y89.8928
G1 X-252.205 Y90.1128
G1 X-252.0144 Y92.7813
G1 X-255.4523 Y93.006
G0 Z5.0
G0 X-236.9183 Y91.3014
G1 Z0.0
G1 X-236.6135 Y94.6159
G1 X-233.1092 Y94.3429
G1 X-233.3291 Y91.8448
G1 X-227.4294 Y93.8975
G1 X-224.3209 Y93.6501
G1 X-231.6319 Y91.1465
G1 X-224.8836 Y87.5322
G1 X-228.4007 Y87.8053
G1 X-233.4519 Y90.5985
G1 X-233.6718 Y88.2232
G1 X-237.1761 Y88.4981
G1 X-236.9183 Y91.3014
G0 Z5.0
G0 X-212.1736 Y88.5302
G1 Z0.0
G1 X-211.8231 Y91.6597
G1 X-203.0367 Y90.8716
G1 X-203.1174 Y90.1678
G1 X-208.3335 Y90.6186
G1 X-208.5663 Y88.5384
G1 X-204.9795 Y88.1957
G1 X-205.062 Y87.5047
G1 X-208.6487 Y87.8529
G1 X-208.8815 Y85.7727
G1 X-203.68 Y85.2247
G1 X-203.7479 Y84.5136
G1 X-212.5214 Y85.4245
G1 X-212.1736 Y88.5302
G0 Z5.0
G0 X-185.8983 Y84.8637
G1 Z0.0
G1 X-184.0765 Y84.6236
G3 X-183.4173 Y84.5871 I0.582 J4.5453
G3 X-182.7624 Y84.6712 I-0.0631 J3.0828
G3 X-182.5763 Y84.7257 I-0.5132 J2.0997
G3 X-182.312 Y84.8538 I-0.3079 J0.9717
G3 X-182.2038 Y84.9577 I-0.2785 J0.3985
G3 X-182.1466 Y85.0964 I-0.2356 J0.1782
G1 X-182.0513 Y85.8002
G3 X-182.0845 Y85.9938 I-0.3219 J0.0444
G3 X-182.1675 Y86.1131 I-0.4939 J-0.2553
G3 X-182.3317 Y86.255 I-0.7123 J-0.6583
G1 X-182.4226 Y86.3144
G3 X-182.5168 Y86.3684 I-0.559 J-0.8669
G3 X-182.8127 Y86.5073 I-1.0549 J-1.8626
G3 X-183.2813 Y86.6499 I-1.2301 J-3.2007
G3 X-183.7631 Y86.7386 I-1.2853 J-5.6286
G1 X-185.5831 Y86.9714
G1 X-185.8983 Y84.8637
G0 Z5.0
G0 X-185.9888 Y84.1558
G1 Z0.0
G1 X-186.0064 Y84.158
G1 X-186.4188 Y81.3447
G1 X-190.0459 Y81.8102
G1 X-189.1002 Y88.1407
G1 X-181.8314 Y87.2096
G2 X-180.5517 Y86.951 I-1.12 J-8.8351
G2 X-179.9324 Y86.7416 I-1.5494 J-5.6029
G2 X-179.3406 Y86.4637 I-2.1313 J-5.3082
G2 X-179.2992 Y86.4407 I-0.1663 J-0.348
G2 X-178.9882 Y86.2457 I-1.5035 J-2.7433
G2 X-178.7701 Y86.0723 I-1.0892 J-1.5935
G2 X-178.5043 Y85.7471 I-0.812 J-0.9351
G2 X-178.4242 Y85.3347 I-0.5693 J-0.3245
G1 X-178.4792 Y84.9516
G2 X-178.6173 Y84.6514 I-0.5785 J0.0843
G2 X-178.7969 Y84.485 I-0.7969 J0.68
G2 X-179.1123 Y84.2986 I-1.1677 J1.6162
G2 X-179.4506 Y84.158 I-1.6425 J3.474
G2 X-179.7982 Y84.0584 I-0.9055 J2.5023
G2 X-180.4244 Y83.9785 I-0.8615 J4.2592
G1 X-180.5425 Y83.9728
G1 X-180.7641 Y83.9679
G2 X-181.5395 Y83.9971 I0.0251 J10.9983
G2 X-181.7329 Y84.0129 I0.2443 J4.1661
G2 X-182.0225 Y84.0417 I0.6851 J8.3776
G2 X-182.3115 Y84.0756 I1.74 J16.0801
G2 X-182.1068 Y83.9931 I-4.7865 J-12.1778
G1 X-181.9148 Y83.9156
G2 X-180.4778 Y83.3291 I-100.5181 J-248.3584
G1 X-180.1193 Y83.1804
G1 X-179.583 Y82.9542
G1 X-179.4492 Y82.8966
G1 X-179.2495 Y82.8084
G2 X-179.1504 Y82.7627 I-0.5166 J-1.2523
G1 X-179.0528 Y82.7138
G2 X-178.928 Y82.5664 I-0.1597 J-0.2617
G2 X-178.8799 Y82.409 I-0.5856 J-0.265
G2 X-178.8526 Y82.1238 I-1.523 J-0.2897
G2 X-178.8732 Y81.6951 I-3.4887 J-0.0473
G2 X-178.8789 Y81.6416 I-0.5293 J0.0289
G2 X-178.9024 Y81.4553 I-5.0917 J0.5481
G1 X-178.93 Y81.2696
G1 X-179.8886 Y80.0654
G1 X-182.7771 Y80.8792
G1 X-182.4618 Y82.9869
G3 X-182.4978 Y83.1793 I-0.3152 J0.0407
G3 X-182.6875 Y83.3957 I-0.6167 J-0.3492
G3 X-182.9274 Y83.5551 I-1.0034 J-1.2503
G3 X-183.5404 Y83.7965 I-1.5043 J-2.92
G3 X-184.1865 Y83.9253 I-1.1039 J-3.8543
G1 X-185.9888 Y84.1558
G0 Z5.0
G0 X-187.0663 Y79.9889
G1 Z0.0
G2 X-185.8231 Y79.6637 I-56.5382 J-218.6516
G1 X-184.8975 Y79.4204
G3 X-184.7962 Y79.3939 I0.5808 J2.0115
G1 X-183.9982 Y79.1864
G3 X-182.5986 Y78.8337 I21.7454 J83.3231
G1 X-182.0721 Y78.7069
G3 X-181.1476 Y78.4967 I19.7782 J84.8434
G1 X-180.9736 Y78.4594
G3 X-179.6615 Y78.217 I4.8968 J22.8341
G1 X-179.4959 Y78.1936
G3 X-179.4777 Y78.1912 I0.0212 J0.0896
G3 X-178.9046 Y78.134 I1.1345 J8.4662
G3 X-178.6164 Y78.1267 I0.2224 J3.1002
G3 X-178.3289 Y78.1483 I0.0123 J1.7587
G2 X-178.3157 Y78.1804 I0.2535 J-0.0854
G2 X-177.8649 Y79.189 I17.1453 J-7.058
G1 X-177.6522 Y79.6239
G1 X-177.5501 Y79.8269
G1 X-177.1483 Y80.6106
G1 X-177.0602 Y80.7823
G3 X-177.0389 Y80.824 I-0.3795 J0.2203
G3 X-177.0178 Y80.8653 I-0.3824 J0.2212
G3 X-176.8519 Y81.1941 I-12.395 J6.4607
G1 X-176.6998 Y81.5043
G1 X-176.63 Y81.6505
G3 X-176.3729 Y82.2234 I-12.3923 J5.9059
G3 X-175.9951 Y83.2556 I-9.3183 J3.9956
G3 X-175.6735 Y84.8713 I-7.6924 J2.3713
G3 X-175.6732 Y86.5187 I-8.853 J0.8254
G3 X-174.6845 Y86.2238 I4.6614 J13.8241
G1 X-174.6258 Y86.2085
G1 X-174.5673 Y86.1935
G1 X-174.509 Y86.1787
G3 X-174.0429 Y86.067 I5.3777 J21.4082
G1 X-173.8161 Y86.0163
G1 X-173.5923 Y85.9681
G1 X-173.1505 Y85.878
G1 X-172.721 Y85.7951
G1 X-172.3038 Y85.7179
G1 X-170.6829 Y85.4283
G1 X-169.9707 Y85.2961
G2 X-168.6378 Y85.019 I-7.841 J-41.0605
G2 X-167.4782 Y84.7246 I-4.7857 J-21.2776
G2 X-166.4764 Y84.4086 I-4.4052 J-15.7125
G2 X-164.7879 Y83.674 I-3.9223 J-11.3227
G2 X-163.6209 Y82.9276 I-4.275 J-7.9707
G2 X-162.1586 Y81.4554 I-4.4205 J-5.8529
G2 X-161.8635 Y81.027 I-5.1402 J-3.8564
G2 X-161.4787 Y80.3481 I-5.8781 J-3.7803
G2 X-161.3124 Y79.9951 I-7.0092 J-3.5187
G1 X-161.2356 Y79.8158
G2 X-161.1987 Y79.7254 I-0.9681 J-0.4473
G2 X-161.163 Y79.6347 I-1.0096 J-0.4505
G3 X-160.7204 Y77.8628 I12.6423 J2.2163
G3 X-160.0951 Y76.2774 I14.0976 J4.6447
G3 X-159.3623 Y74.8621 I15.6991 J7.2311
G1 X-159.1738 Y74.5399
G3 X-158.381 Y73.3027 I20.2452 J12.1009
G3 X-158.185 Y73.0194 I17.5588 J11.9364
G1 X-158.0873 Y72.8808
G1 X-157.9896 Y72.7438
G1 X-157.8919 Y72.6084
G3 X-157.094 Y71.5506 I35.7049 J26.102
G1 X-156.998 Y71.4282
G3 X-156.2233 Y70.4685 I34.8961 J27.3774
G3 X-156.0385 Y70.2457 I11.9124 J9.6923
G1 X-155.9472 Y70.1364
G1 X-155.5829 Y69.704
G1 X-155.2272 Y69.2871
G1 X-154.5329 Y68.4831
G1 X-153.225 Y66.9787
G2 X-152.0911 Y65.6489 I-80.5213 J-69.8107
G2 X-151.1229 Y64.4621 I-46.105 J-38.6005
G2 X-151.0709 Y64.3963 I-0.8927 J-0.7595
G2 X-149.4965 Y62.2491 I-27.041 J-21.478
G1 X-149.3582 Y62.0406
G2 X-148.3637 Y60.3761 I-17.9804 J-11.873
G1 X-148.1947 Y60.0535
G1 X-148.0423 Y59.7482
G2 X-147.5271 Y58.5767 I-13.8471 J-6.7891
G2 X-146.9504 Y56.746 I-12.455 J-4.9299
G2 X-146.7643 Y55.8038 I-11.799 J-2.8193
G1 X-146.7462 Y55.6851
G1 X-146.7314 Y55.5811
G2 X-146.6528 Y54.8499 I-13.6127 J-1.8334
G2 X-146.3684 Y53.0387 I-6.7596 J-1.9893
G2 X-146.3655 Y52.64 I-7.275 J-0.2524
G2 X-146.5163 Y51.1054 I-9.8683 J0.1949
G2 X-146.6513 Y50.4457 I-9.9044 J1.6847
G2 X-146.9971 Y49.2326 I-14.0598 J3.3511
G2 X-147.8359 Y47.1933 I-16.3231 J5.5221
G2 X-148.2132 Y46.4575 I-15.9719 J7.7252
G2 X-151.594 Y41.7784 I-19.7991 J10.7445
G3 X-151.8097 Y41.5349 I3.3154 J-3.154
G3 X-151.9953 Y41.289 I2.9596 J-2.4272
G3 X-152.1547 Y41.0001 I1.2183 J-0.8606
G3 X-152.1935 Y40.8627 I0.6264 J-0.2512
G3 X-152.1856 Y40.7393 I0.263 J-0.0451
G3 X-152.122 Y40.66 I0.1416 J0.0484
G3 X-152.039 Y40.6301 I0.1139 J0.186
G3 X-151.8774 Y40.6318 I0.0755 J0.5088
G3 X-151.6062 Y40.704 I-0.2638 J1.5365
G3 X-151.222 Y40.8746 I-1.0837 J2.9577
G3 X-150.8554 Y41.0801 I-2.3793 J4.6751
G3 X-149.3084 Y42.1186 I-8.9252 J14.9663
G3 X-148.2268 Y43.0117 I-9.512 J12.6215
G3 X-147.4778 Y43.755 I-8.3074 J9.1211
G3 X-147.2155 Y44.0525 I-7.8033 J7.1437
G3 X-146.789 Y44.6005 I-6.3395 J5.3742
G3 X-146.2548 Y45.4949 I-5.1125 J3.6596
G3 X-146.0543 Y45.9768 I-4.2303 J2.043
G1 X-146.0131 Y46.1007
G1 X-145.9848 Y46.1945
G3 X-145.9141 Y46.4795 I-3.5708 J1.0358
G3 X-145.4643 Y48.54 I-22.1014 J5.905
G3 X-145.1843 Y52.471 I-19.917 J3.3938
G3 X-145.574 Y55.8806 I-20.211 J-0.5826
G1 X-145.6513 Y56.2469
G3 X-146.4799 Y59.0726 I-21.5035 J-4.7711
G3 X-147.4871 Y61.4385 I-23.6041 J-8.6515
G3 X-147.9978 Y62.4397 I-23.2563 J-11.2315
G1 X-148.0602 Y62.5557
G1 X-148.1225 Y62.6705
G1 X-148.1849 Y62.7842
G1 X-148.2473 Y62.8967
G3 X-149.296 Y64.6477 I-29.8162 J-16.669
G3 X-150.2938 Y66.128 I-32.1157 J-20.5708
G3 X-151.2182 Y67.3866 I-32.2312 J-22.7028
G3 X-152.0605 Y68.4624 I-35.5119 J-26.9382
G1 X-152.4376 Y68.926
G3 X-153.1576 Y69.7849 I-54.8585 J-45.251
G1 X-153.4773 Y70.1566
G1 X-153.6282 Y70.33
G3 X-156.0305 Y72.9599 I-64.4437 J-56.4551
G1 X-156.6465 Y73.603
G1 X-157.1116 Y74.0823
G1 X-157.8137 Y74.7969
G1 X-158.5201 Y75.5073
G3 X-159.0104 Y78.14 I-18.4667 J-2.0774
G3 X-159.6521 Y80.0546 I-14.5402 J-3.8084
G3 X-159.9643 Y80.7477 I-13.5252 J-5.6751
G3 X-160.6175 Y81.9072 I-10.1612 J-4.9604
G3 X-161.2055 Y82.7156 I-7.8744 J-5.1097
G3 X-162.2564 Y83.7846 I-6.0939 J-4.9399
G3 X-163.5034 Y84.6162 I-4.3586 J-5.1847
G1 X-163.8219 Y84.7174
G3 X-166.3661 Y85.5034 I-56.1181 J-177.1495
G3 X-168.8407 Y86.2308 I-49.9979 J-165.5193
G3 X-171.2465 Y86.9048 I-45.1497 J-156.5182
G1 X-172.4146 Y87.2209
G1 X-173.5662 Y87.5254
G3 X-175.8381 Y88.1067 I-50.5221 J-192.7321
G3 X-184.6926 Y90.1446 I-59.121 J-236.6236
G1 X-185.6652 Y90.3482
G1 X-186.6233 Y90.5451
G3 X-190.4023 Y91.2882 I-59.9531 J-294.9121
G3 X-197.5116 Y92.5523 I-61.7271 J-326.5245
G1 X-199.0702 Y92.8081
G3 X-199.8255 Y92.9296 I-11.1111 J-66.715
G3 X-200.1974 Y92.9887 I-5.2083 J-31.5347
G3 X-200.5665 Y93.0471 I-4.4368 J-26.8732
G3 X-200.9327 Y93.1046 I-3.9218 J-23.7808
G3 X-201.2961 Y93.1613 I-3.5457 J-21.5353
G3 X-201.6567 Y93.2172 I-3.2549 J-19.8077
G3 X-202.0146 Y93.2723 I-3.0209 J-18.4251
G3 X-202.3697 Y93.3266 I-2.827 J-17.2847
G3 X-202.7221 Y93.3802 I-2.6627 J-16.3225
G3 X-213.9323 Y94.9258 I-65.0594 J-430.4516
G1 X-214.985 Y95.0567
G1 X-216.0052 Y95.1815
G1 X-217.9823 Y95.4178
G1 X-219.8366 Y95.6332
G1 X-221.5756 Y95.8299
G1 X-222.3909 Y95.9205
G1 X-223.1809 Y96.0072
G3 X-223.9463 Y96.0904 I-39.9798 J-364.223
G3 X-229.8806 Y96.7088 I-87.5926 J-811.8373
G1 X-232.1071 Y96.9301
G3 X-234.0557 Y97.1198 I-34.2736 J-342.0106
G1 X-234.9083 Y97.2017
G1 X-238.106 Y97.504
G1 X-240.5047 Y97.7264
G1 X-244.1031 Y98.0551
G3 X-247.7019 Y98.3805 I-202.6826 J-2221.2763
G1 X-248.8833 Y98.5084
G1 X-250.0469 Y98.6289
G1 X-251.1927 Y98.7432
G1 X-252.3211 Y98.852
G1 X-253.4321 Y98.956
G1 X-253.5689 Y98.9685
G1 X-254.6607 Y99.0675
G1 X-254.9294 Y99.0914
G1 X-255.4648 Y99.1386
G1 X-256.5274 Y99.2306
G1 X-256.5928 Y99.2362
G1 X-256.6581 Y99.2418
G3 X-273.3809 Y100.4266 I-52.0494 J-616.0097
G1 X-274.9504 Y100.5147
G3 X-277.9922 Y100.6741 I-31.092 J-564.4293
G1 X-278.1704 Y100.6829
G1 X-278.348 Y100.6917
G1 X-279.7631 Y100.7598
G3 X-281.1341 Y100.8225 I-20.189 J-426.4167
G1 X-282.4623 Y100.8801
G1 X-283.7492 Y100.933
G1 X-284.0609 Y100.9453
G1 X-284.3703 Y100.9574
G1 X-285.5977 Y101.0037
G1 X-286.1924 Y101.0251
G1 X-287.3631 Y101.0652
G1 X-288.4973 Y101.1016
G3 X-289.5961 Y101.1344 I-8.2338 J-257.4642
G1 X-290.6607 Y101.1638
G3 X-298.9135 Y101.3063 I-11.4124 J-421.933
G3 X-302.0091 Y101.3156 I-3.0288 J-492.9748
G1 X-302.6863 Y101.314
G1 X-303.3424 Y101.3111
G1 X-304.6134 Y101.3017
G1 X-305.805 Y101.2881
G1 X-306.922 Y101.271
G1 X-307.4456 Y101.2614
G1 X-307.9529 Y101.2512
G3 X-311.8829 Y101.1375 I5.1331 J-245.4373
G1 X-312.6195 Y101.1088
G3 X-315.381 Y100.9773 I7.2531 J-181.3452
G3 X-319.5185 Y100.6977 I8.0629 J-150.0801
G1 X-320.0351 Y100.6546
G3 X-320.0917 Y100.6497 I0.025 J-0.6245
G3 X-323.6454 Y100.2903 I8.7994 J-104.7335
G2 X-324.9503 Y100.2021 I-9.4706 J130.4979
G2 X-326.2152 Y100.1278 I-7.5579 J117.9091
G2 X-331.1204 Y99.9233 I-10.9665 J204.0845
G1 X-331.6571 Y99.9074
G1 X-332.7139 Y99.8792
G1 X-333.2258 Y99.8668
G1 X-333.7298 Y99.8554
G1 X-334.722 Y99.835
G1 X-336.6445 Y99.8021
G1 X-338.4469 Y99.7774
G1 X-340.1368 Y99.7582
G1 X-341.721 Y99.742
G1 X-344.6916 Y99.7128
G3 X-344.8541 Y99.7111 I-0.023 J-5.627
G3 X-345.0153 Y99.7094 I-0.0249 J-5.3196
G1 X-347.5741 Y99.6793
G1 X-348.6936 Y99.6634
G1 X-349.7431 Y99.6465
G1 X-350.2351 Y99.6377
G1 X-350.7117 Y99.6287
G1 X-351.1734 Y99.6194
G1 X-351.6207 Y99.6099
G1 X-352.4872 Y99.5898
G1 X-353.2994 Y99.5689
G1 X-354.0609 Y99.5472
G1 X-354.7748 Y99.5249
G1 X-355.4439 Y99.5022
G1 X-356.0712 Y99.4792
G1 X-356.6592 Y99.4561
G3 X-358.8635 Y99.3538 I10.7631 J-255.7161
G3 X-360.5158 Y99.2588 I8.4839 J-162.0728
G3 X-362.9921 Y99.0814 I7.0076 J-115.1428
G1 X-363.3014 Y99.0558
G1 X-363.8424 Y99.0092
G1 X-364.0453 Y98.9911
G1 X-364.4002 Y98.9584
G1 X-364.6663 Y98.9332
G1 X-364.8659 Y98.9138
G1 X-365.1651 Y98.884
G1 X-365.4642 Y98.8534
G1 X-370.8856 Y98.7361
G1 X-372.3225 Y97.6474
G1 X-375.6911 Y92.8363
G1 X-375.9367 Y89.825
G1 X-363.3015 Y89.9478
G1 X-363.4114 Y97.169
G1 X-358.2924 Y97.2167
G3 X-358.6854 Y96.5828 I3.2151 J-2.4317
G3 X-358.8955 Y95.9677 I2.3034 J-1.1302
G3 X-358.8045 Y94.858 I2.041 J-0.3912
G3 X-358.6405 Y94.4766 I3.1353 J1.1218
G3 X-358.2731 Y93.8491 I6.2406 J3.2324
G1 X-358.199 Y93.7335
G1 X-358.0604 Y93.5162
G1 X-357.9422 Y93.3235
G2 X-357.7528 Y92.9753 I-3.4447 J-2.0989
G1 X-357.6912 Y92.8393
G2 X-357.5446 Y92.3388 I-1.9297 J-0.8367
G2 X-357.552 Y91.8173 I-1.5179 J-0.2393
G1 X-357.5263 Y90.5508
G1 X-346.6836 Y91.0292
G1 X-346.4508 Y96.0877
G1 X-346.4506 Y96.1417
G2 X-346.3758 Y96.9942 I4.832 J0.0055
G2 X-346.1477 Y97.7124 I2.728 J-0.471
G2 X-345.7659 Y98.2373 I1.6105 J-0.7702
G2 X-345.3028 Y98.5433 I1.1369 J-1.2171
G2 X-344.8458 Y98.6874 I0.8603 J-1.9314
G2 X-344.64 Y98.7212 I0.79 J-4.1759
G2 X-343.86 Y98.7389 I0.4863 J-4.2227
G2 X-343.2787 Y98.6798 I-0.6081 J-8.8687
G1 X-343.0618 Y98.6481
G1 X-342.8726 Y98.6174
G2 X-342.2123 Y98.4979 I-5.9641 J-34.8417
G3 X-341.8824 Y98.4371 I2.7136 J13.7831
G3 X-341.8618 Y98.4334 I0.0377 J0.1505
G1 X-341.7068 Y98.4062
G1 X-341.5517 Y98.3805
G3 X-341.7197 Y97.9256 I6.6852 J-2.7266
G3 X-341.9177 Y97.1019 I4.583 J-1.5374
G3 X-341.9643 Y96.4694 I5.1117 J-0.6943
G1 X-341.9651 Y96.3505
G1 X-341.9629 Y96.1277
G1 X-341.961 Y96.0302
G1 X-341.9532 Y95.6646
G2 X-341.9524 Y95.1162 I-18.0538 J-0.3004
G1 X-341.9606 Y94.8421
G2 X-341.967 Y94.7051 I-2.7641 J0.0622
G1 X-341.9709 Y94.6367
G1 X-341.9751 Y94.5683
G1 X-342.1126 Y90.9137
G1 X-328.2732 Y90.5508
G1 X-328.5059 Y98.3732
G3 X-328.0165 Y98.2917 I0.7853 J3.209
G1 X-327.8957 Y98.2811
G1 X-327.7749 Y98.2735
G3 X-327.2926 Y98.2677 I0.3222 J6.7278
G3 X-326.8131 Y98.2916 I-0.2837 J10.5132
G1 X-326.5728 Y98.3118
G3 X-325.6113 Y98.4281 I-1.7587 J18.574
G1 X-325.377 Y98.4618
G1 X-325.1487 Y98.4955
G2 X-324.7064 Y98.5614 I9.32 J-61.066
G1 X-324.2886 Y98.6211
G2 X-323.8829 Y98.6726 I1.6948 J-11.7257
G1 X-323.6812 Y98.6943
G1 X-323.631 Y98.6991
G1 X-323.4304 Y98.7159
G2 X-323.0348 Y98.733 I0.4068 J-4.8478
G1 X-322.9414 Y98.7328
G1 X-322.8495 Y98.7305
G2 X-322.7593 Y98.726 I-0.0465 J-1.8437
G2 X-322.4075 Y98.6788 I-0.1631 J-2.5511
G2 X-322.1013 Y98.5699 I-0.2567 J-1.2065
G2 X-321.8783 Y98.3863 I-0.3246 J-0.6215
G2 X-321.7656 Y98.1568 I-0.5065 J-0.391
G2 X-321.7363 Y97.9261 I-0.9453 J-0.2375
G2 X-321.7364 Y97.8991 I-0.0894 J-0.0131
G2 X-321.8017 Y97.4773 I-1.7562 J0.0559
G2 X-321.919 Y97.1246 I-2.757 J0.7211
G2 X-322.0472 Y96.8261 I-3.4853 J1.32
G2 X-322.1085 Y96.6979 I-4.7377 J2.1884
G2 X-322.6323 Y95.7706 I-9.6489 J4.8384
G2 X-323.222 Y94.8835 I-16.7034 J10.4644
G1 X-323.0992 Y91.152
G1 X-309.2598 Y90.7909
G1 X-308.6568 Y98.8534
G3 X-307.8163 Y98.8475 I0.4843 J9.2588
G3 X-307.1886 Y98.9221 I-0.1141 J3.6412
G1 X-306.9556 Y98.9763
G2 X-306.5394 Y98.9911 I0.2483 J-1.1221
G2 X-305.9301 Y98.8657 I-0.6842 J-4.8653
G1 X-305.6296 Y98.7857
G1 X-305.4798 Y98.7439
G1 X-305.3303 Y98.7012
G1 X-305.3257 Y98.5997
G1 X-305.3219 Y98.4998
G2 X-305.3162 Y98.303 I-5.3221 J-0.2526
G1 X-305.3114 Y97.9216
G2 X-305.3113 Y97.8768 I-0.4175 J-0.0231
G2 X-305.3114 Y97.8324 I-0.4207 J-0.022
G2 X-305.3143 Y97.4802 I-10.5882 J-0.0866
G1 X-305.3207 Y97.1501
G1 X-305.3373 Y96.5309
G1 X-305.3503 Y95.9888
G1 X-305.3537 Y95.7515
G1 X-305.355 Y95.5289
G1 X-305.3549 Y95.4245
G3 X-305.3485 Y95.0202 I14.9231 J0.0307
G3 X-305.3425 Y94.8434 I4.0626 J0.0501
G3 X-305.2137 Y93.5235 I10.7575 J0.3833
G3 X-304.9069 Y92.2333 I9.2002 J1.5063
G1 X-304.5642 Y91.0292
G1 X-289.1504
G1 X-288.9177 Y98.7361
G1 X-284.5794 Y98.6133
G3 X-284.6224 Y97.5412 I6.8129 J-0.8097
G3 X-284.5344 Y96.609 I8.3706 J0.3195
G3 X-284.1778 Y95.0124 I11.7696 J1.7911
G3 X-283.7863 Y93.8502 I15.3481 J4.523
G3 X-283.439 Y92.9985 I17.6247 J6.6888
G3 X-283.1527 Y92.3709 I15.7863 J6.8229
G3 X-282.9245 Y91.9066 I13.067 J6.1338
G3 X-282.1693 Y90.5508 I16.5256 J8.317
G1 X-278.9797 Y90.5011
G1 X-278.3815 Y90.4914
G1 X-276.1388 Y90.4539
G1 X-274.4567 Y90.4241
G1 X-271.9338 Y90.3752
G1 X-271.3031 Y90.3616
G1 X-270.3571 Y90.3392
G1 X-269.8841 Y90.3263
G1 X-269.4113 Y90.3107
G3 X-268.8381 Y90.5241 I-0.6211 J2.5449
G3 X-268.3951 Y90.8547 I-0.7356 J1.4478
G3 X-268.1285 Y91.2729 I-1.0082 J0.9369
G3 X-268.0185 Y91.7111 I-1.5148 J0.6132
G3 X-268.0062 Y92.1298 I-2.2693 J0.2761
G1 X-268.0125 Y92.2274
G1 X-268.0215 Y92.3234
G3 X-268.1625 Y93.0679 I-5.5498 J-0.6655
G3 X-268.2508 Y93.3885 I-6.433 J-1.6002
G1 X-268.3426 Y93.6871
G3 X-268.5291 Y94.2437 I-20.576 J-6.5819
G1 X-268.5714 Y94.3658
G1 X-268.654 Y94.6023
G2 X-268.9539 Y95.495 I22.3366 J8.0008
G2 X-269.0552 Y95.8381 I8.0796 J2.5714
G2 X-269.0958 Y95.9901 I2.3762 J0.7166
G2 X-269.2167 Y96.5687 I5.6939 J1.4913
G2 X-269.2571 Y97.0144 I3.3521 J0.5292
G2 X-269.2415 Y97.3517 I2.3938 J0.0578
G2 X-269.1066 Y97.8399 I1.6019 J-0.1797
G2 X-268.8101 Y98.2504 I1.2127 J-0.5636
G1 X-268.5464 Y98.1995
G3 X-268.2901 Y98.1536 I2.4034 J12.6899
G3 X-267.2905 Y98.0149 I2.4251 J13.8044
G3 X-266.4077 Y97.9608 I1.1096 J10.8741
G1 X-266.2142 Y97.9597
G3 X-265.4654 Y97.9968 I-0.0242 J8.0493
G3 X-264.8136 Y98.0778 I-1.423 J14.1172
G3 X-264.7424 Y98.0883 I-0.0809 J0.7985
G2 X-264.181 Y98.167 I2.6076 J-16.5478
G2 X-263.6866 Y98.2097 I0.7726 J-6.066
G2 X-262.82 Y98.1804 I0.2427 J-5.6583
G2 X-262.7393 Y98.1709 I-0.0699 J-0.9412
G2 X-262.1188 Y98.0656 I-0.8122 J-6.6642
G2 X-262.0035 Y98.0404 I-0.4025 J-2.1224
G1 X-261.7883 Y97.9895
G1 X-261.6009 Y97.9412
G1 X-261.4376 Y97.8964
G2 X-260.3096 Y97.5319 I-4.4996 J-15.8506
G1 X-260.3854 Y97.3026
G2 X-260.5424 Y96.8616 I-11.3655 J3.7986
G1 X-260.6978 Y96.4513
G1 X-260.848 Y96.0682
G1 X-261.4223 Y94.6356
G1 X-261.5286 Y94.3661
G1 X-261.7241 Y93.8593
G3 X-261.8895 Y93.4135 I15.6566 J-6.06
G1 X-261.9597 Y93.2175
G3 X-262.2074 Y92.4776 I17.4622 J-6.2584
G3 X-262.5125 Y91.3472 I11.948 J-3.8312
G3 X-262.6188 Y90.7709 I8.975 J-1.9529
G3 X-262.6776 Y90.1879 I5.583 J-0.8576
G1 X-262.4446 Y90.1283
G1 X-262.2142 Y90.0738
G3 X-261.3014 Y89.8864 I6.1891 J27.832
G1 X-260.8715 Y89.8088
G1 X-260.4543 Y89.7381
G3 X-258.8324 Y89.4964 I9.0847 J55.378
G3 X-258.1207 Y89.4034 I7.7108 J56.2871
G1 X-257.4526 Y89.3224
G3 X-256.8256 Y89.2516 I4.641 J38.2738
G1 X-256.5314 Y89.2201
G3 X-254.248 Y89.0121 I7.76 J72.556
G3 X-253.3893 Y88.9519 I4.0298 J51.3859
G3 X-253.3422 Y88.949 I0.052 J0.4482
G1 X-253.1556 Y88.9375
G1 X-252.794 Y88.9169
G1 X-252.6244 Y88.908
G1 X-252.2957 Y88.8922
G1 X-252.1415 Y88.8855
G1 X-251.5439 Y88.8642
G1 X-251.2822 Y88.8574
G1 X-251.0368 Y88.8525
G3 X-249.1959 Y88.8813 I0.5267 J25.1656
G1 X-248.9653 Y88.8968
G3 X-248.5624 Y88.9343 I-0.4926 J7.4771
G1 X-248.4116 Y88.9526
G3 X-247.8879 Y89.0446 I-0.7525 J5.8212
G3 X-247.6313 Y89.1164 I-0.4518 J2.1101
G1 X-247.5685 Y89.1387
G3 X-247.3866 Y89.222 I-0.402 J1.1177
G3 X-247.1481 Y90.1194 I-16.7497 J4.9322
G3 X-246.816 Y91.7102 I-25.4068 J6.1335
G3 X-246.4983 Y94.1279 I-25.1338 J4.5333
G3 X-246.4953 Y94.166 I-0.2781 J0.0408
G3 X-246.4476 Y95.3672 I-14.1131 J1.1618
G3 X-246.4683 Y95.9684 I-11.537 J-0.0954
G3 X-246.538 Y96.566 I-5.3533 J-0.3221
G1 X-245.9491 Y96.5279
G2 X-244.9164 Y96.4532 I-3.5546 J-56.2784
G1 X-244.7215 Y96.4366
G1 X-244.5383 Y96.4195
G2 X-244.5168 Y96.4173 I-0.0053 J-0.1608
G1 X-244.4318 Y96.4083
G2 X-244.2607 Y96.3865 I-0.1705 J-2.0185
G1 X-244.2141 Y96.3787
G1 X-244.1686 Y96.3689
G2 X-244.1336 Y96.3564 I-0.0229 J-0.1186
G2 X-244.1361 Y96.3344 I-0.0034 J-0.0108
G1 X-244.1783 Y96.312
G3 X-244.1735 Y96.29 I0.0045 J-0.0106
G3 X-244.0302 Y96.2591 I0.2038 J0.5985
G3 X-243.7577 Y96.2278 I1.6615 J13.2475
G1 X-243.5186 Y96.206
G3 X-241.8424 Y96.0877 I7.2323 J90.4849
G2 X-241.4453 Y96.105 I0.7515 J-12.6934
G2 X-241.0597 Y96.1051 I0.1949 J-8.4925
G2 X-240.6872 Y96.0857 I-0.0749 J-5.0406
G2 X-239.9768 Y95.9744 I-0.3186 J-4.3547
G2 X-239.3574 Y95.7434 I-0.5978 J-2.5494
G2 X-238.8818 Y95.381 I-0.8326 J-1.5858
G2 X-238.5861 Y94.9289 I-1.1933 J-1.1031
G2 X-238.4407 Y94.455 I-1.9933 J-0.8711
G2 X-238.3894 Y93.997 I-2.9322 J-0.5602
G2 X-238.4262 Y93.1365 I-5.6812 J-0.1878
G1 X-238.437 Y93.0427
G2 X-238.5482 Y92.3081 I-16.8654 J2.1766
G1 X-238.6063 Y91.9874
G1 X-238.663 Y91.6867
G1 X-238.7697 Y91.1221
G3 X-238.8568 Y90.6255 I16.2248 J-3.1027
G3 X-238.9225 Y90.188 I22.6347 J-3.6188
G1 X-238.9466 Y89.9955
G3 X-239.0011 Y89.2697 I7.6621 J-0.9404
G3 X-239.0019 Y89.2355 I0.2572 J-0.0232
G3 X-238.987 Y88.6964 I4.8586 J-0.1348
G3 X-238.8356 Y87.9014 I3.4788 J0.2502
G3 X-238.4756 Y87.1766 I2.4773 J0.7789
G2 X-238.0395 Y87.2626 I0.9807 J-3.8265
G2 X-237.1838 Y87.319 I0.8192 J-5.9134
G1 X-236.9833 Y87.317
G1 X-236.8846 Y87.3143
G2 X-236.4938 Y87.2943 I-0.2042 J-7.8134
G1 X-236.3993 Y87.2874
G2 X-236.0249 Y87.2532 I-1.3996 J-17.3849
G2 X-234.5835 Y87.0447 I-2.2032 J-20.3125
G1 X-234.27 Y86.9876
G1 X-233.9668 Y86.9296
G1 X-233.6734 Y86.8712
G2 X-231.4084 Y86.3764 I-21.7345 J-104.9337
G1 X-230.9835 Y86.2808
G1 X-230.1861 Y86.1041
G1 X-229.8365 Y86.0288
G3 X-229.6724 Y85.9942 I0.8682 J3.705
G1 X-229.3542 Y85.9284
G3 X-229.3168 Y85.9208 I0.0962 J0.3779
G3 X-229.2798 Y85.9133 I0.0947 J0.3728
G3 X-228.0999 Y85.6948 I6.3492 J30.9931
G3 X-227.208 Y85.5661 I3.1728 J18.8254
G1 X-226.8717 Y85.5292
G3 X-225.689 Y85.4739 I1.0626 J10.055
G3 X-225.0971 Y85.5103 I-0.135 J7.0147
G3 X-224.5134 Y85.6151 I-0.4516 J4.1942
G1 X-224.4752 Y85.7427
G1 X-224.4048 Y85.9953
G3 X-224.1555 Y86.9801 I-35.7085 J9.5619
G3 X-223.7514 Y88.7112 I-123.3345 J29.7043
G1 X-223.459 Y90.012
G1 X-223.0281 Y91.9649
G1 X-222.9209 Y92.4533
G1 X-222.7599 Y93.1858
G1 X-222.6787 Y93.5519
G1 X-222.5963 Y93.9177
G2 X-222.0348 Y93.9911 I0.4975 J-1.6192
G2 X-221.5164 Y93.9188 I-0.1291 J-2.8173
G2 X-221.2792 Y93.8582 I-1.2173 J-5.2657
G2 X-220.8255 Y93.7196 I-2.5401 J-9.1225
G1 X-220.4022 Y93.582
G1 X-220.0039 Y93.4571
G3 X-216.9269 Y92.9263 I3.5948 J11.6525
G3 X-215.3642 Y92.9333 I0.7127 J15.3276
G3 X-213.8081 Y93.0764 I-1.0395 J19.8306
G3 X-213.8758 Y92.8201 I5.2997 J-1.5381
G3 X-213.9736 Y92.3165 I6.7194 J-1.5661
G1 X-213.9833 Y92.2571
G3 X-214.1099 Y91.3118 I23.5897 J-3.6388
G1 X-214.1542 Y90.897
G1 X-214.1916 Y90.5076
G1 X-214.2081 Y90.3249
G1 X-214.2381 Y89.971
G1 X-214.2448 Y89.888
G3 X-214.4127 Y87.2711 I94.7007 J-7.3886
G3 X-214.521 Y84.6511 I146.1308 J-7.3534
G1 X-202.8443 Y82.4884
G3 X-201.9384 Y84.7334 I-34.8908 J15.3839
G1 X-201.7837 Y85.1608
G1 X-201.7129 Y85.3618
G1 X-201.6453 Y85.5569
G1 X-201.5175 Y85.9361
G1 X-201.4016 Y86.2929
G1 X-201.3486 Y86.4606
G3 X-200.9716 Y87.7707 I-29.7468 J9.2719
G3 X-200.7355 Y88.7664 I-22.6999 J5.9064
G3 X-200.7257 Y88.8134 I-0.4869 J0.1268
G3 X-200.4873 Y90.306 I-14.795 J3.1281
G3 X-200.4384 Y91.061 I-9.2901 J0.9813
G3 X-200.4617 Y91.8173 I-6.323 J0.1836
G1 X-200.3043 Y91.8012
G2 X-199.6851 Y91.7335 I-2.5928 J-26.5992
G1 X-199.3952 Y91.6991
G1 X-199.1145 Y91.6638
G1 X-198.8428 Y91.6275
G1 X-198.58 Y91.5901
G1 X-198.3257 Y91.5515
G2 X-197.3449 Y91.374 I-2.9284 J-18.9776
G2 X-196.9196 Y91.2783 I-1.7849 J-8.9269
G2 X-195.3618 Y90.7891 I-2.6981 J-11.3172
G1 X-195.2904 Y90.7613
G1 X-195.0108 Y90.6492
G1 X-194.75 Y90.5409
G1 X-194.6281 Y90.4894
G1 X-194.1564 Y90.2878
G1 X-193.9501 Y90.1996
G1 X-193.5626 Y90.0354
G1 X-193.2226 Y89.8941
G3 X-192.625 Y89.6534 I14.5275 J35.201
G3 X-190.812 Y88.9838 I18.447 J47.1578
G2 X-190.9486 Y88.4864 I-29.6028 J7.8619
G1 X-191.0174 Y88.2543
G2 X-191.1574 Y87.8063 I-15.955 J4.7387
G1 X-191.2943 Y87.3874
G1 X-191.4249 Y86.9948
G1 X-191.5469 Y86.6261
G3 X-191.7655 Y85.9305 I19.4884 J-6.5061
G1 X-191.8533 Y85.6233
G3 X-192.1052 Y84.4516 I9.2523 J-2.6026
G3 X-192.1263 Y82.6558 I6.4268 J-0.9733
G3 X-191.9483 Y81.7738 I6.54 J0.8605
G3 X-191.6606 Y80.9213 I7.7438 J2.1389
G2 X-191.4468 Y80.921 I0.1031 J-2.2959
G1 X-191.3421 Y80.9147
G1 X-191.2901 Y80.9105
G1 X-191.0838 Y80.8886
G2 X-190.9826 Y80.8754 I-0.3201 J-2.8502
G1 X-190.7822 Y80.8457
G1 X-190.5857 Y80.8128
G2 X-189.8161 Y80.6605 I-3.5515 J-19.9773
G1 X-189.457 Y80.5811
G1 X-189.2834 Y80.5413
G1 X-188.942 Y80.461
G1 X-188.6118 Y80.3812
G1 X-188.2923 Y80.3023
G2 X-187.0663 Y79.9889 I-55.3122 J-218.9649
G0 Z5.0
G0 X-316.5275 Y26.2912
G1 Z0.0
G3 X-316.6037 Y26.4559 I-2.0836 J-0.8642
G3 X-317.2457 Y27.1805 I-1.7303 J-0.8863
G3 X-317.6054 Y27.3825 I-1.4583 J-2.175
G3 X-318.3361 Y27.6175 I-1.4603 J-3.2884
G3 X-318.9976 Y27.7187 I-1.3216 J-6.4215
G3 X-319.5816 Y27.7592 I-1.0651 J-11.1246
G1 X-319.8376 Y27.7678
G3 X-320.7989 Y27.7737 I-0.7706 J-46.8311
G1 X-321.1603 Y27.773
G2 X-321.7934 Y27.781 I-0.0672 J19.7745
G1 X-322.0312 Y27.7904
G1 X-322.2393 Y27.8031
G2 X-322.9622 Y27.9011 I0.3503 J5.3012
G2 X-323.3144 Y28.001 I0.5028 J2.4425
G2 X-323.6454 Y28.1571 I0.6056 J1.7129
G2 X-324.4036 Y27.5903 I-3.7557 J4.2334
G2 X-326.0356 Y26.9674 I-2.3841 J3.797
G2 X-326.785 Y26.9025 I-0.7819 J4.6704
G2 X-327.4865 Y26.9398 I-0.0262 J6.1102
G1 X-327.6496 Y26.9602
G2 X-328.2868 Y27.0752 I1.2076 J8.5145
G2 X-329.4572 Y27.4 I2.9098 J12.7553
G1 X-329.7105 Y27.4837
G1 X-329.9551 Y27.5676
G2 X-330.4279 Y27.7353 I7.4656 J21.7883
G1 X-331.3141 Y28.0559
G3 X-332.0969 Y28.3256 I-8.9262 J-24.6421
G1 X-332.4433 Y28.4353
G3 X-333.7665 Y28.7644 I-3.4752 J-11.1506
G3 X-334.7867 Y28.8791 I-1.3321 J-7.2479
G3 X-336.3182 Y28.7327 I-0.2456 J-5.5114
G3 X-337.745 Y28.1571 I1.2945 J-5.2655
G1 X-337.799 Y28.3002
G3 X-338.3126 Y29.3978 I-7.6653 J-2.9174
G3 X-338.9444 Y30.3287 I-5.6944 J-3.1856
G3 X-340.534 Y31.6614 I-4.226 J-3.4259
G3 X-341.3449 Y32.0327 I-2.9295 J-5.3276
G1 X-341.4427 Y32.0681
G3 X-342.2354 Y32.2967 I-2.2801 J-6.4203
G1 X-342.4239 Y32.3375
G3 X-343.1732 Y32.4586 I-1.8762 J-9.2317
G1 X-343.3498 Y32.4787
G3 X-344.0475 Y32.5324 I-1.5072 J-15.0305
G1 X-344.3753 Y32.5454
G3 X-345.0107 Y32.5525 I-0.5272 J-18.6527
G1 X-345.3088 Y32.549
G1 X-345.5975 Y32.5422
G3 X-346.7157 Y32.4923 I1.8505 J-54.073
G1 X-347.2052 Y32.4632
G1 X-347.6643 Y32.4345
G1 X-348.5258 Y32.3823
G2 X-348.9033 Y32.3625 I-1.0613 J16.5796
G2 X-349.612 Y32.3345 I-1.8856 J38.7511
G2 X-350.8542 Y32.3328 I-0.6473 J18.8907
G2 X-351.7854 Y32.3929 I0.3763 J13.0668
G2 X-352.4796 Y32.4872 I0.9022 J9.2479
G2 X-353.5014 Y32.7327 I1.2676 J7.5253
G2 X-354.4729 Y33.1331 I1.782 J5.7011
G3 X-355.5588 Y33.8244 I-4.8533 J-6.4255
G3 X-356.6597 Y34.2813 I-2.9616 J-5.5814
G3 X-358.8393 Y34.4568 I-1.4853 J-4.8245
G3 X-359.7527 Y34.2519 I0.8512 J-5.9332
G3 X-360.5678 Y33.9411 I2.1188 J-6.7826
G3 X-361.2946 Y33.5713 I3.9047 J-8.5727
G1 X-361.3775 Y33.524
G1 X-361.4593 Y33.4764
G1 X-361.5401 Y33.4284
G3 X-362.7737 Y32.5921 I7.4208 J-12.2742
G3 X-363.7964 Y31.7826 I15.5952 J-20.7551
G1 X-364.2338 Y31.4153
G1 X-364.6405 Y31.0666
G1 X-364.8305 Y30.9023
G1 X-365.1981 Y30.583
G1 X-365.8885 Y29.9851
G2 X-365.9645 Y29.92 I-1.0552 J1.1529
G2 X-367.1777 Y28.9158 I-27.0038 J31.3919
G2 X-367.6468 Y28.555 I-15.0243 J19.0474
G2 X-368.4937 Y27.9586 I-10.9694 J14.6775
G2 X-369.8456 Y27.1915 I-6.1348 J9.2373
G2 X-369.8897 Y27.1709 I-0.2209 J0.4148
G2 X-370.5874 Y26.8849 I-3.6103 J7.8148
G1 X-370.766 Y26.8243
G2 X-371.3108 Y26.6726 I-2.2196 J6.913
G1 Y25.5087
G2 X-370.4781 Y25.6444 I15.8711 J-94.7901
G1 X-370.074 Y25.7057
G2 X-363.6664 Y26.2639 I7.7516 J-51.9244
G1 X-363.0635 Y26.2753
G2 X-358.3943 Y26.1221 I0.6272 J-52.1186
G2 X-354.9121 Y25.741 I-4.617 J-58.2897
G2 X-354.8308 Y25.7296 I-0.1952 J-1.6837
G2 X-354.7501 Y25.7181 I-0.1999 J-1.6983
G2 X-354.1105 Y25.6236 I-4.296 J-31.2704
G2 X-349.3455 Y24.7294 I-11.7167 J-75.5821
G1 X-349.0495 Y24.6643
G1 X-348.7722 Y24.6025
G1 X-348.5124 Y24.5438
G1 X-348.2689 Y24.4882
G1 X-347.3571 Y24.2751
G1 X-347.1864 Y24.2343
G1 X-347.0263 Y24.1959
G1 X-346.8762 Y24.1597
G1 X-346.3141 Y24.0225
G1 X-345.4719 Y23.8128
G1 X-345.0513 Y23.7063
G1 X-344.6308 Y23.599
G3 X-342.2755 Y22.8495 I2.8303 J4.8189
G3 X-341.3542 Y22.8365 I0.5504 J6.3379
G3 X-340.5549 Y22.9261 I-0.3621 J6.8395
G1 X-340.3819 Y22.9566
G3 X-339.0663 Y23.3045 I-1.871 J9.7371
G3 X-338.8254 Y23.3884 I-12.928 J37.5053
G3 X-337.0743 Y24.1549 I-5.3397 J14.5826
G3 X-336.8618 Y24.2642 I-2.524 J5.1677
G1 X-336.4928 Y24.4611
G1 X-336.2182 Y24.6129
G1 X-335.8098 Y24.8462
G3 X-335.4046 Y25.0854 I-25.6549 J43.9327
G3 X-334.8622 Y24.9418 I3.083 J10.5531
G3 X-333.8285 Y24.7371 I3.7795 J16.3729
G1 X-333.371 Y24.6631
G1 X-332.5101 Y24.5316
G1 X-332.132 Y24.4716
G1 X-331.7774 Y24.411
G1 X-331.6113 Y24.3806
G2 X-330.9702 Y24.2464 I-2.0203 J-11.2518
G2 X-330.4145 Y24.0997 I-2.9645 J-12.3496
G2 X-329.4707 Y23.7475 I-1.8803 J-6.48
G1 X-329.3003 Y23.6646
G2 X-328.1472 Y22.8424 I-2.0403 J-4.0812
G2 X-327.3146 Y21.6965 I-3.1754 J-3.1826
G3 X-325.8641 Y21.3569 I2.1819 J6.0519
G3 X-324.5724 Y21.356 I0.65 J5.8615
G3 X-323.47 Y21.5708 I-0.7584 J6.8292
G3 X-323.235 Y21.6403 I-1.3402 J4.9659
G3 X-322.7861 Y21.794 I-2.0464 J6.7073
G3 X-321.9662 Y22.1381 I-4.0228 J10.7342
G1 X-321.7903 Y22.2211
G1 X-321.6209 Y22.3036
G3 X-320.3323 Y22.9898 I-13.4431 J26.7948
G1 X-319.8538 Y23.257
G2 X-319.6441 Y23.3736 I6.1338 J-10.7844
G2 X-318.852 Y23.8003 I17.644 J-31.8029
G1 X-318.5508 Y23.953
G1 X-318.2848 Y24.0816
G2 X-317.3309 Y24.4804 I4.4812 J-9.3792
G2 X-316.3362 Y24.7628 I2.4451 J-6.7181
G3 X-316.3323 Y25.3854 I-4.3763 J0.3391
G3 X-316.4185 Y25.957 I-3.2699 J-0.2013
G3 X-316.5275 Y26.2912 I-2.1925 J-0.5301
G0 Z5.0
G0 X-408.31 Y34.4017
G1 Z0.0
G3 X-408.3076 Y34.4318 I-1.8852 J0.1666
G3 X-408.2959 Y34.9753 I-3.6946 J0.3518
G3 X-408.5106 Y35.898 I-2.6683 J-0.1345
G3 X-408.8835 Y36.4993 I-2.3826 J-1.0614
G3 X-409.2544 Y36.8771 I-2.4419 J-2.0267
G3 X-409.9012 Y37.3353 I-2.8388 J-3.3217
G3 X-410.6095 Y37.6913 I-3.5084 J-6.0972
G3 X-409.3556 Y40.3399 I-10.583 J6.6312
G3 X-409.0374 Y41.3897 I-14.3281 J4.9157
G1 X-408.9766 Y41.6218
G3 X-408.7637 Y42.5267 I-21.4915 J5.5331
G3 X-408.7422 Y42.6261 I-2.195 J0.5267
G3 X-408.7213 Y42.724 I-2.6512 J0.6168
G1 X-408.6413 Y43.11
G1 X-408.4972 Y43.835
G1 X-408.435 Y44.1524
G1 X-408.4056 Y44.3013
G1 X-408.2897 Y44.8773
G1 X-408.1829 Y45.3803
G2 X-407.7359 Y47.1236 I23.0488 J-4.9816
G2 X-407.7029 Y47.2312 I2.184 J-0.6104
G2 X-407.1198 Y48.8145 I14.7244 J-4.5232
G1 X-407.1234 Y48.9304
G2 X-407.1207 Y49.1589 I3.8535 J0.069
G2 X-407.0243 Y50.039 I7.0516 J-0.3274
G2 X-407.0079 Y50.1352 I1.9663 J-0.2851
G1 X-406.9734 Y50.3244
G1 X-406.8999 Y50.6904
G1 X-406.8255 Y51.034
G1 X-406.6809 Y51.6802
G3 X-406.6651 Y51.7516 I-0.996 J0.2576
G3 X-406.6497 Y51.8221 I-0.834 J0.2198
G3 X-406.5345 Y52.3783 I-22.8623 J5.0238
G3 X-406.4892 Y52.6248 I-6.529 J1.3258
G3 X-406.3751 Y53.5612 I-7.988 J1.4491
G3 X-406.3908 Y54.2789 I-4.395 J0.2629
G3 X-406.503 Y54.8099 I-2.7139 J-0.296
G3 X-406.8996 Y55.5185 I-1.9077 J-0.6025
G3 X-407.5432 Y56.0137 I-1.628 J-1.4503
G1 X-407.5973 Y55.8106
G1 X-407.6502 Y55.6104
G1 X-407.855 Y54.8217
G1 X-407.9497 Y54.4515
G1 X-408.3153 Y53.0166
G2 X-408.3961 Y52.7027 I-20.3616 J5.0749
G2 X-408.4355 Y52.5507 I-7.0122 J1.7355
G2 X-409.0917 Y50.1666 I-70.7801 J18.2014
G1 X-409.2261 Y49.7224
G1 X-409.3564 Y49.3073
G2 X-409.8904 Y47.7653 I-32.6249 J10.4335
G2 X-410.8635 Y45.5193 I-22.1358 J8.2568
G2 X-412.1014 Y43.4078 I-15.8828 J7.8926
G1 X-412.2473 Y42.3605
G1 X-412.3851 Y41.3454
G1 X-412.5157 Y40.3616
G1 X-412.7633 Y38.4545
G1 X-412.9921 Y36.666
G1 X-413.0457 Y36.2467
G2 X-413.4728 Y32.9456 I-534.4502 J67.4744
G1 X-413.6662 Y31.5019
G1 X-413.8535 Y30.149
G2 X-413.9436 Y29.5151 I-42.7519 J5.7572
G2 X-413.9657 Y29.3616 I-3.284 J0.3943
G1 X-414.145 Y28.1438
G1 X-414.2316 Y27.5733
G1 X-414.4047 Y26.4687
G1 X-414.574 Y25.4341
G2 X-415.2832 Y21.5674 I-122.5282 J20.4736
G2 X-415.9126 Y18.6862 I-80.9088 J16.1657
G2 X-415.9768 Y18.4173 I-9.3295 J2.0845
G2 X-416.2349 Y17.3772 I-52.4696 J12.4706
G2 X-416.7255 Y15.5672 I-58.4426 J14.8691
G1 X-416.8235 Y15.2294
G1 X-416.9172 Y14.9133
G2 X-417.2848 Y13.7329 I-71.1218 J21.504
G1 X-417.3568 Y13.5125
G2 X-417.9289 Y11.871 I-49.9741 J16.4984
G1 X-418.0047 Y11.6673
G2 X-418.5638 Y10.2526 I-37.1634 J13.8686
G2 X-418.6446 Y9.3953 I-2.4019 J-0.2061
G2 X-418.7643 Y9.0372 I-2.9115 J0.7745
G2 X-418.8336 Y8.8735 I-7.0334 J2.8789
G2 X-419.1568 Y8.2632 I-5.4322 J2.4862
G2 X-419.2366 Y8.1322 I-1.9843 J1.1186
G1 X-419.3159 Y8.0059
G1 X-419.4734 Y7.7626
G2 X-419.5111 Y7.7054 I-0.7584 J0.458
G1 X-419.8075 Y7.2547
G1 X-419.9356 Y7.0528
G3 X-419.9945 Y6.9568 I2.5622 J-1.638
G1 X-420.1051 Y6.7682
G1 X-420.2032 Y6.5873
G3 X-420.3655 Y6.236 I4.4237 J-2.2555
G3 X-420.473 Y5.9133 I2.5768 J-1.0381
G3 X-420.5402 Y5.3229 I1.887 J-0.5139
G3 X-420.2819 Y4.4782 I1.8373 J0.1001
G3 X-420.028 Y4.1156 I2.3591 J1.3817
G3 X-419.7258 Y3.792 I2.9788 J2.4792
G3 X-417.7343 Y6.2484 I-43.9494 J37.666
G1 X-417.5245 Y6.5241
G3 X-415.9402 Y8.7442 I-36.9171 J28.0197
G3 X-415.8987 Y8.8063 I-1.2531 J0.884
G3 X-414.6322 Y10.8205 I-33.3824 J22.3954
G1 X-414.3709 Y11.271
G3 X-412.5695 Y14.8812 I-30.3748 J17.4107
G3 X-411.5161 Y17.7202 I-27.6969 J11.892
G3 X-410.1861 Y26.6726 I-27.1844 J8.6136
G2 X-410.2705 Y27.3964 I4.0121 J0.8348
G2 X-410.2418 Y28.0793 I5.3348 J0.1181
G2 X-410.1396 Y28.7148 I6.1608 J-0.6649
G2 X-409.8116 Y29.8849 I10.0251 J-2.1791
G2 X-409.4346 Y30.902 I20.2131 J-6.9148
G1 X-409.0755 Y31.8017
G1 X-408.9181 Y32.2038
G3 X-408.6418 Y32.971 I-14.8317 J5.7754
G3 X-408.4407 Y33.6652 I-8.5376 J2.85
G3 X-408.3229 Y34.2923 I-5.0772 J1.2779
G3 X-408.31 Y34.4017 I-1.8723 J0.2761
G0 Z5.0
G0 X-424.2711 Y36.522
G1 Z0.0
G2 X-424.366 Y36.5561 I0.4702 J1.4548
G2 X-424.4601 Y36.5902 I0.4744 J1.4579
G2 X-424.5534 Y36.6242 I0.4786 J1.4608
G2 X-425.2921 Y36.8985 I20.3932 J56.0373
G1 X-425.6374 Y37.0298
G1 X-425.9714 Y37.1584
G1 X-426.6171 Y37.4106
G1 X-427.2216 Y37.6499
G2 X-427.2924 Y37.6781 I0.5484 J1.4812
G1 X-428.4155 Y38.1266
G1 X-429.3992 Y38.5173
G1 X-430.2622 Y38.8535
G1 X-430.6409 Y38.9981
G3 X-430.7297 Y39.0317 I-0.8486 J-2.1093
G3 X-430.8172 Y39.0647 I-0.8494 J-2.1219
G3 X-432.2017 Y39.5665 I-20.0242 J-53.0828
G3 X-432.3322 Y39.6116 I-1.4738 J-4.0544
G3 X-432.4588 Y39.6549 I-1.5594 J-4.3501
G3 X-432.7044 Y39.7378 I-2.5273 J-7.0866
G3 X-433.1663 Y39.889 I-6.6959 J-19.6637
G1 X-433.5719 Y40.0167
G1 X-433.928 Y40.1245
G3 X-436.4536 Y40.7576 I-8.2052 J-27.3788
G2 X-437.2722 Y41.1431 I15.5308 J34.039
G1 X-437.9865 Y41.4892
G1 X-438.3005 Y41.6393
G1 X-438.4483 Y41.7089
G1 X-438.5918 Y41.7756
G1 X-438.871 Y41.9027
G3 X-439.9365 Y42.3389 I-6.9599 J-15.481
G1 X-440.1408 Y42.411
G1 X-440.3337 Y42.4748
G3 X-440.6992 Y42.5835 I-3.5397 J-11.2361
G1 X-440.8606 Y42.6259
G1 X-441.0129 Y42.6625
G3 X-442.1758 Y42.8134 I-1.3077 J-5.5184
G3 X-442.3229 Y42.8137 I-0.0806 J-5.009
G3 X-443.3394 Y42.6673 I0.0508 J-3.9564
G2 X-444.5182 Y41.6213 I-28.9394 J31.4262
G1 X-445.5693 Y40.7211
G1 X-446.0282 Y40.323
G1 X-446.2422 Y40.1344
G3 X-447.0579 Y39.3881 I21.0005 J-23.7706
G3 X-447.1456 Y39.3043 I1.1902 J-1.3349
G3 X-447.2316 Y39.2215 I1.1268 J-1.2549
G3 X-448.5144 Y37.8478 I11.8887 J-12.3881
G3 X-448.5706 Y37.7794 I0.8399 J-0.7475
G3 X-449.3857 Y36.6507 I8.3015 J-6.8534
G3 X-450.2789 Y34.7641 I7.1684 J-4.5488
G3 X-450.6486 Y32.7098 I7.3243 J-2.3785
G3 X-448.3316 Y32.8265 I0.2477 J18.1319
G3 X-447.3265 Y32.9632 I-3.1225 J26.729
G1 X-447.0919 Y33.0016
G3 X-445.2567 Y33.3723 I-5.2075 J30.5086
G1 X-444.8577 Y33.4664
G1 X-444.4718 Y33.5609
G1 X-444.0986 Y33.655
G3 X-442.6558 Y34.0344 I-31.9446 J124.424
G1 X-442.34 Y34.1187
G2 X-441.1151 Y34.4404 I22.2108 J-82.0721
G2 X-440.038 Y34.7048 I14.9972 J-58.7702
G2 X-438.1342 Y35.0888 I6.5406 J-27.5173
G1 X-437.774 Y35.1451
G2 X-437.0962 Y35.2336 I2.2941 J-14.9172
G1 X-436.9475 Y35.2499
G1 X-436.8033 Y35.2644
G2 X-434.5598 Y35.3277 I1.5651 J-15.6918
G2 X-432.3335 Y35.0429 I-0.5999 J-13.5347
G2 X-432.0657 Y35.0214 I-0.1565 J-3.622
G2 X-431.5482 Y34.9546 I-1.0213 J-9.9574
G1 X-431.0628 Y34.8781
G1 X-430.9486 Y34.8593
G3 X-430.0479 Y34.7133 I17.9871 J108.1499
G1 X-429.6488 Y34.6549
G1 X-429.5547 Y34.6421
G1 X-429.3692 Y34.6181
G1 X-429.0084 Y34.5767
G3 X-427.6432 Y34.5127 I1.1962 J10.9205
G1 X-427.513 Y34.5169
G3 X-426.5103 Y34.6394 I-0.2033 J5.8287
G3 X-425.783 Y34.8738 I-0.7778 J3.6585
G3 X-425.282 Y35.156 I-1.2151 J2.7425
G3 X-424.6687 Y35.7592 I-1.5355 J2.1746
G3 X-424.2711 Y36.522 I-2.4664 J1.7709
G0 Z5.0
G0 X-431.9616 Y111.7729
G1 Z0.0
G3 X-430.3391 Y112.0197 I-1.7001 J16.6353
G3 X-428.7175 Y112.4137 I-3.8361 J19.3223
G3 X-428.514 Y112.4728 I-1.4887 J5.5036
G3 X-425.6853 Y114.4146 I-10.0918 J17.7329
G3 X-423.2184 Y116.7992 I-13.3037 J16.2308
G3 X-421.7953 Y118.5913 I-17.0984 J15.0388
G3 X-420.1784 Y121.1764 I-19.9982 J14.3064
G3 X-419.3953 Y122.7328 I-23.5231 J12.8115
G3 X-417.7819 Y127.0773 I-27.4902 J12.6807
G3 X-417.462 Y128.2716 I-30.4573 J8.7982
G3 X-416.494 Y134.7607 I-34.0741 J8.3996
G1 X-416.4885 Y134.8637
G3 X-416.4985 Y138.6241 I-33.9651 J1.7904
G3 X-416.5303 Y139.1007 I-28.0586 J-1.6334
G3 X-416.549 Y139.3407 I-6.0786 J-0.3551
G3 X-416.6467 Y140.3294 I-31.9072 J-2.6513
G2 X-416.9619 Y140.3314 I-0.1443 J2.1407
G2 X-417.2727 Y140.3832 I0.1135 J1.6374
G2 X-417.8222 Y140.6879 I0.3136 J1.2136
G2 X-418.0823 Y141.0205 I1.0943 J1.1241
G2 X-418.1939 Y141.2342 I1.7139 J1.0307
G2 X-418.4112 Y141.8276 I4.3196 J1.9177
G1 X-418.4596 Y141.9883
G1 X-418.5684 Y142.3511
G1 X-418.5977 Y142.4441
G3 X-418.749 Y142.8568 I-4.5447 J-1.4322
G3 X-418.9871 Y143.293 I-2.0994 J-0.8627
G2 X-420.4958 Y143.2724 I-0.8291 J5.4438
G2 X-421.9485 Y143.6798 I0.6497 J5.1103
G2 X-422.8324 Y144.1633 I2.5589 J5.7267
G2 X-423.8845 Y144.9918 I4.4835 J6.7768
G2 X-424.1431 Y145.238 I4.9678 J5.4743
G2 X-424.7035 Y145.8278 I8.544 J8.6804
G1 X-424.8424 Y145.9852
G2 X-425.4501 Y146.7218 I16.1901 J13.9763
G2 X-425.5249 Y146.8173 I1.5492 J1.2905
G2 X-425.6003 Y146.9146 I2.0144 J1.6404
G2 X-425.7546 Y147.1162 I72.979 J55.9944
G1 X-425.9119 Y147.3253
G2 X-426.2422 Y147.7735 I22.9239 J17.2402
G1 X-426.5893 Y148.2532
G1 X-426.9573 Y148.7642
G3 X-427.3522 Y149.3051 I-24.9217 J-17.7763
G1 X-427.5588 Y149.5814
G1 X-427.7754 Y149.8636
G3 X-428.5571 Y150.0935 I-1.8577 J-4.8734
G1 X-428.8223 Y150.1523
G2 X-428.9733 Y150.1891 I0.642 J2.9643
G2 X-429.143 Y150.2409 I0.6675 J2.4881
G2 X-429.5442 Y150.4989 I0.2895 J0.891
G2 X-429.7006 Y150.7296 I0.9179 J0.791
G2 X-429.8226 Y151.0254 I2.026 J1.0082
G2 X-429.9178 Y151.3757 I3.5182 J1.1445
G2 X-429.9571 Y151.5645 I6.6062 J1.4745
G1 X-429.9931 Y151.766
G3 X-430.6731 Y151.932 I-1.0022 J-2.6308
G3 X-431.37 Y151.8679 I-0.1841 J-1.8204
G3 X-431.8091 Y151.7066 I0.9358 J-3.2248
G3 X-432.0529 Y151.5985 I3.6816 J-8.6334
G1 X-432.3301 Y151.4745
G2 X-432.6488 Y151.3408 I-2.6113 J5.7774
G3 X-432.7331 Y151.584 I-14.6808 J-4.9556
G1 X-432.8239 Y151.8248
G1 X-432.8883 Y151.9838
G1 X-432.9266 Y152.0741
G3 X-433.2803 Y152.774 I-5.6373 J-2.4094
G3 X-433.5738 Y153.207 I-3.3432 J-1.9502
G3 X-434.0609 Y153.7082 I-2.4027 J-1.8477
G3 X-434.8982 Y154.1319 I-1.3998 J-1.7269
G3 X-435.4359 Y154.207 I-0.6138 J-2.4346
G3 X-436.0567 Y154.1656 I-0.0808 J-3.4626
G3 X-436.7467 Y154.0092 I0.7837 J-5.0591
G3 X-437.5044 Y153.7557 I2.703 J-9.3379
G1 X-437.5993 Y153.7203
G1 X-437.9996 Y153.566
G1 X-438.4218 Y153.3999
G1 X-438.8687 Y153.2273
G2 X-439.8811 Y152.8888 I-4.1806 J10.8203
G2 X-440.4289 Y152.7608 I-1.6626 J5.8775
G2 X-440.7144 Y152.7161 I-0.7049 J3.568
G2 X-441.3241 Y152.6844 I-0.4982 J3.7038
G2 X-442.6673 Y153.0395 I0.0552 J2.9265
G2 X-443.282 Y153.4768 I1.6454 J2.9639
G2 X-443.8329 Y154.0731 I2.8361 J3.173
G2 X-444.0781 Y154.4144 I3.6958 J2.9128
G1 X-444.2367 Y154.1742
G1 X-444.2909 Y154.095
G1 X-444.512 Y153.7812
G1 X-444.6623 Y153.5741
G1 X-445.2696 Y152.7503
G1 X-445.4412 Y152.5135
G1 X-445.5317 Y152.3865
G3 X-445.9957 Y151.696 I11.1048 J-7.9634
G1 X-446.1116 Y151.5069
G1 X-446.1696 Y151.4081
G3 X-446.2887 Y151.1947 I3.7252 J-2.2188
G3 X-446.5294 Y150.69 I4.5312 J-2.47
G3 X-446.6327 Y150.4097 I3.7804 J-1.5529
G3 X-446.7638 Y149.7355 I2.4761 J-0.8314
G3 X-446.614 Y148.9449 I1.6338 J-0.0999
G3 X-446.3725 Y148.573 I1.4956 J0.7069
G3 X-446.0197 Y148.2413 I1.7103 J1.4656
G3 X-445.5775 Y147.9591 I1.9585 J2.5816
G3 X-445.0667 Y147.7236 I2.1714 J4.0377
G3 X-444.5033 Y147.5286 I2.4263 J6.0995
G2 X-443.8464 Y147.7827 I1.9847 J-4.1545
G2 X-443.1497 Y147.8852 I0.6914 J-2.2808
G2 X-442.6833 Y147.8111 I-0.0207 J-1.6347
G2 X-442.1327 Y147.4973 I-0.5036 J-1.5237
G2 X-441.8774 Y147.2376 I-1.5406 J-1.7694
G2 X-441.818 Y147.1647 I-0.8823 J-0.7813
G2 X-441.5731 Y146.815 I-2.851 J-2.2566
G1 X-441.5152 Y146.7214
G2 X-441.3972 Y146.5199 I-5.0769 J-3.1094
G1 X-441.1425 Y146.0598
G1 X-441.0057 Y145.8177
G3 X-440.9326 Y145.6947 I1.6617 J0.9047
G3 X-440.7677 Y145.4414 I4.9338 J3.0325
G1 X-440.6752 Y145.3166
G3 X-440.5729 Y145.1938 I2.4597 J1.9459
G3 X-440.325 Y144.9621 I1.2439 J1.0827
G3 X-439.5762 Y144.713 I0.7271 J0.9356
G3 X-439.1422 Y144.7777 I-0.0387 J1.7478
G3 X-438.6977 Y144.9449 I-0.707 J2.5553
G3 X-438.252 Y145.1871 I-1.803 J3.8487
G3 X-437.8077 Y145.4847 I-3.6561 J5.9374
G3 X-437.7941 Y145.4946 I-0.0454 J0.077
G3 X-437.7805 Y145.5045 I-0.0457 J0.0772
G1 X-437.6717 Y145.5851
G3 X-437.6175 Y145.6262 I-0.3984 J0.5822
G3 X-437.1611 Y145.2887 I2.5488 J2.9695
G1 X-437.0002 Y145.1889
G3 X-436.3313 Y144.8354 I4.4009 J7.5188
G3 X-436.2399 Y144.7925 I0.7102 J1.3942
G3 X-435.7479 Y144.5756 I7.364 J16.0333
G3 X-435.6155 Y144.5203 I1.9308 J4.4363
G1 X-435.3121 Y144.3969
G1 X-435.1498 Y144.3322
G1 X-434.9764 Y144.2639
G3 X-434.9323 Y144.2465 I0.1935 J0.4282
G3 X-434.8875 Y144.229 I0.2004 J0.4454
G1 X-434.4785 Y144.0689
G2 X-433.3956 Y143.6259 I-11.4074 J-29.4277
G2 X-432.7893 Y143.3444 I-4.3353 J-10.1306
G1 X-432.6354 Y143.2663
G2 X-432.3119 Y143.0906 I-3.7433 J-7.2725
G1 X-432.2717 Y143.0674
G1 X-432.2313 Y143.0438
G2 X-432.0661 Y142.9437 I-4.5435 J-7.6819
G2 X-431.3548 Y142.4178 I-2.8087 J-4.5438
G2 X-430.6961 Y141.6385 I-2.2211 J-2.545
G2 X-430.3146 Y140.5049 I-2.4043 J-1.4403
G2 X-430.3052 Y139.8532 I-3.3683 J-0.3745
G2 X-430.4164 Y139.1583 I-4.7612 J0.406
G3 X-431.4811 Y139.2916 I-1.0265 J-3.8796
G3 X-432.55 Y139.1987 I0.0717 J-7.0226
G3 X-433.2529 Y139.0685 I1.97 J-12.5946
G1 X-433.6517 Y138.9824
G1 X-433.864 Y138.935
G1 X-434.0904 Y138.8842
G1 X-434.6076 Y138.7709
G1 X-434.8841 Y138.7144
G2 X-435.5191 Y138.604 I-2.3953 J11.8992
G2 X-436.2517 Y138.5281 I-1.1851 J7.8615
G2 X-437.0945 Y138.5419 I-0.3275 J5.7278
G2 X-438.0427 Y138.7404 I0.3938 J4.2461
G1 X-438.1367 Y138.6363
G1 X-438.2309 Y138.5324
G1 X-438.4208 Y138.3259
G1 X-438.549 Y138.1897
G1 X-438.6231 Y138.1127
G2 X-439.2489 Y137.5302 I-5.2457 J5.0087
G2 X-439.7142 Y137.2 I-2.6354 J3.2205
G2 X-440.4129 Y136.8931 I-1.4662 J2.3891
G2 X-441.437 Y136.8324 I-0.6551 J2.3846
G3 X-441.6098 Y137.2262 I-3.0263 J-1.0929
G3 X-441.8591 Y137.5766 I-1.3542 J-0.6998
G3 X-442.0935 Y137.7451 I-0.5922 J-0.5765
G3 X-442.4813 Y137.7981 I-0.2817 J-0.6157
G3 X-442.7011 Y137.7412 I0.14 J-0.9938
G3 X-442.9349 Y137.6321 I0.6141 J-1.6212
G3 X-443.1806 Y137.4773 I1.2968 J-2.3311
G3 X-443.4406 Y137.2821 I4.3217 J-6.0252
G3 X-443.5733 Y137.1739 I1.5628 J-2.0525
G1 X-443.6406 Y137.1175
G1 X-443.7091 Y137.0593
G1 X-443.8518 Y136.9363
G1 X-444.1645 Y136.6665
G1 X-444.2453 Y136.5985
G1 X-444.4166 Y136.4592
G2 X-444.8143 Y136.1794 I-2.331 J2.8913
G2 X-445.0424 Y136.0628 I-0.9623 J1.6014
G2 X-445.3043 Y135.9895 I-0.3998 J0.9237
G2 X-445.5999 Y136.0197 I-0.0869 J0.6125
G2 X-445.8784 Y136.2145 I0.2577 J0.6647
G2 X-446.0917 Y136.5351 I1.022 J0.9113
G2 X-446.249 Y136.9212 I2.365 J1.1888
G2 X-446.3692 Y137.3484 I5.4012 J1.7501
G1 X-446.4185 Y137.5711
G3 X-446.8444 Y137.0414 I33.8252 J-27.6349
G1 X-447.2704 Y136.5117
G1 X-447.5578 Y136.1612
G1 X-447.7244 Y135.963
G1 X-447.9179 Y135.739
G1 X-448.1442 Y135.4875
G2 X-450.2252 Y133.7589 I-7.2083 J6.5609
G2 X-449.9254 Y132.4342 I-82.691 J-19.4148
G1 X-449.9061 Y132.3457
G1 X-449.8856 Y132.2513
G1 X-449.5638 Y130.7398
G1 X-449.4719 Y130.3079
G1 X-449.3658 Y129.8145
G3 X-449.0711 Y128.5016 I66.4081 J14.2164
G3 X-449.0614 Y128.4603 I0.4413 J0.0815
G2 X-448.7219 Y128.5934 I1.0086 J-2.0719
G2 X-448.3616 Y128.6488 I0.359 J-1.1352
G2 X-448.1203 Y128.6084 I-0.0035 J-0.7615
G2 X-447.8433 Y128.4305 I-0.2391 J-0.6767
G2 X-447.6028 Y128.0638 I-0.9295 J-0.8718
G2 X-447.4206 Y127.5272 I-3.1225 J-1.3596
G2 X-447.2674 Y126.8332 I-12.8399 J-3.1982
G3 X-447.0795 Y125.9691 I16.3998 J3.1135
G1 X-447.0503 Y125.8595
G3 X-446.8908 Y125.3788 I4.1674 J1.1157
G3 X-446.6209 Y124.8763 I2.1838 J0.8497
G3 X-446.4185 Y124.6481 I1.2298 J0.8862
G2 X-445.8079 Y124.8679 I1.0521 J-1.9642
G2 X-445.1591 Y124.8779 I0.3524 J-1.7989
G2 X-444.7393 Y124.7687 I-0.4112 J-2.4416
G2 X-444.2116 Y124.54 I-1.6449 J-4.518
G1 X-444.074 Y124.4726
G1 X-444.0031 Y124.4378
G3 X-443.6767 Y124.2885 I2.6036 J5.2584
G3 X-443.2874 Y124.1651 I0.8725 J2.0764
G3 X-442.8169 Y124.1599 I0.2482 J1.1827
G3 X-442.3123 Y124.3881 I-0.2771 J1.2846
G3 X-442.0817 Y124.5798 I-1.2366 J1.723
G3 X-441.8616 Y124.813 I-2.745 J2.8114
G3 X-441.437 Y125.394 I-3.9971 J3.3665
G3 X-441.2202 Y125.2449 I1.4492 J1.8747
G3 X-440.98 Y125.1375 I0.5571 J0.9238
G3 X-440.4584 Y125.1877 I0.2034 J0.6224
G3 X-440.1759 Y125.4035 I-0.6079 J1.0885
G3 X-440.0364 Y125.5489 I-1.8162 J1.8825
G1 X-439.8865 Y125.7191
G1 X-439.7188 Y125.9104
G2 X-439.6276 Y126.0091 I1.7255 J-1.5025
G2 X-439.5279 Y126.1099 I1.1311 J-1.0187
G2 X-439.2863 Y126.3158 I1.7896 J-1.8561
G2 X-438.5165 Y126.6006 I0.8515 J-1.1187
G2 X-438.0427 Y126.5578 I0.0819 J-1.7392
G3 X-437.7959 Y126.3636 I1.4489 J1.5876
G3 X-437.5202 Y126.2132 I0.8672 J1.2613
G3 X-436.8956 Y126.1734 I0.3671 J0.8406
G3 X-436.5163 Y126.3625 I-0.3977 J1.2723
G1 X-436.425 Y126.4293
G3 X-435.99 Y126.8246 I-2.8939 J3.6212
G3 X-435.8808 Y126.9354 I-2.4647 J2.5403
G1 X-435.636 Y127.1845
G2 X-435.3538 Y127.455 I4.1237 J-4.0188
G2 X-435.1977 Y127.5902 I1.8976 J-2.0329
G2 X-434.8213 Y127.8604 I1.9652 J-2.3404
G2 X-434.3449 Y128.078 I1.092 J-1.7605
G2 X-433.7518 Y128.1628 I0.5623 J-1.8159
G2 X-433.0721 Y128.0442 I-0.055 J-2.3223
G2 X-433.0359 Y128.5782 I3.6522 J0.0205
G2 X-432.9115 Y129.0987 I2.8574 J-0.4081
G2 X-432.3341 Y129.9956 I2.107 J-0.722
G2 X-431.7558 Y130.4167 I1.999 J-2.1376
G2 X-431.3917 Y130.6012 I2.1579 J-3.807
G2 X-430.9628 Y130.7783 I3.1747 J-7.0825
G2 X-430.7312 Y130.8632 I1.8619 J-4.7215
G1 X-430.4838 Y130.9494
G1 X-430.356 Y130.993
G3 X-429.7791 Y131.1935 I-7.7042 J23.0875
G3 X-429.4766 Y131.3098 I-2.0233 J5.7183
G3 X-428.8182 Y131.6322 I-1.7054 J4.3162
G3 X-428.4982 Y131.8561 I-1.3475 J2.2657
G3 X-427.9358 Y132.5576 I-1.2844 J1.6061
G3 X-427.7754 Y133.0202 I-1.8893 J0.914
G3 X-427.1429 Y133.1005 I0.08 J1.9027
G3 X-426.5517 Y133.3393 I-1.0228 J3.382
G3 X-426.3904 Y133.4241 I-6.4383 J12.4528
G3 X-425.9724 Y133.669 I-4.8052 J8.6821
G1 X-425.7382 Y133.8158
G2 X-425.1139 Y134.2024 I9.7889 J-15.109
G1 X-424.9431 Y134.298
G1 X-424.8536 Y134.3449
G1 X-424.8309 Y134.3564
G1 X-424.8079 Y134.3678
G2 X-424.3717 Y134.5407 I1.1287 J-2.2104
G1 X-424.3139 Y134.5558
G2 X-424.0604 Y134.5934 I0.3149 J-1.2511
G2 X-423.4749 Y134.4292 I0.0548 J-0.9307
G2 X-423.2234 Y134.1996 I-0.7564 J-1.0807
G2 X-423.0103 Y133.8949 I-1.5171 J-1.2882
G1 X-422.964 Y133.8123
G2 X-422.792 Y133.4436 I-4.0471 J-2.1122
G3 X-423.939 Y132.5308 I4.8413 J-7.2607
G3 X-424.9279 Y131.4486 I7.0559 J-7.4397
G3 X-425.5078 Y130.662 I12.2495 J-9.6385
G3 X-426.2197 Y129.5724 I26.6072 J-18.1618
G1 X-426.3094 Y129.4304
G2 X-426.7207 Y128.783 I-79.0654 J49.7861
G1 X-426.8285 Y128.6171
G2 X-427.3395 Y127.8717 I-14.8955 J9.6628
G2 X-427.9809 Y127.0624 I-9.1959 J6.6299
G2 X-428.024 Y127.0135 I-0.4687 J0.3695
G2 X-428.8744 Y126.1793 I-6.0561 J5.3233
G2 X-429.9931 Y125.394 I-4.8463 J5.7139
G3 X-430.5882 Y124.7838 I5.2676 J-5.7332
G3 X-431.1276 Y124.1238 I9.7554 J-8.5232
G1 X-431.2751 Y123.9299
G1 X-431.4413 Y123.7066
G3 X-431.5291 Y123.5869 I2.0937 J-1.6286
G3 X-431.6224 Y123.459 I3.4749 J-2.6292
G1 X-431.8343 Y123.1658
G1 X-432.0762 Y122.8305
G1 X-432.3547 Y122.449
G2 X-433.1317 Y121.4582 I-14.679 J10.7103
G2 X-433.6154 Y120.9249 I-7.3424 J6.1737
G1 X-433.7467 Y120.7933
G2 X-434.0371 Y120.5231 I-6.7515 J6.9638
G2 X-434.7616 Y119.9742 I-4.0793 J4.6321
G1 X-434.8598 Y119.9133
G2 X-435.8271 Y119.4719 I-2.3206 J3.8051
G2 X-437.0417 Y119.2739 I-1.2956 J4.1234
G2 X-437.3612 Y119.2775 I-0.1195 J3.6417
G2 X-438.0427 Y119.3513 I0.2465 J5.4562
G2 X-437.8793 Y118.8231 I-2.545 J-1.0765
G2 X-437.8689 Y118.2705 I-1.4532 J-0.3038
G2 X-437.9992 Y117.9223 I-1.0414 J0.1913
G2 X-438.3311 Y117.5513 I-1.1643 J0.7076
G2 X-438.5648 Y117.3891 I-1.3818 J1.7419
G2 X-438.6958 Y117.3134 I-1.1811 J1.8933
G2 X-439.0019 Y117.1608 I-2.2292 J4.0889
G2 X-439.1674 Y117.087 I-2.758 J5.9609
G1 X-439.344 Y117.0118
G1 X-439.7412 Y116.8462
G3 X-440.18 Y116.6492 I4.8 J-11.2754
G3 X-440.2904 Y116.5938 I0.6619 J-1.459
G3 X-440.7623 Y116.3054 I1.6287 J-3.1946
G3 X-441.2032 Y115.8619 I1.1166 J-1.5511
G3 X-441.4677 Y115.1875 I1.2876 J-0.894
G3 X-441.4872 Y114.7946 I1.9589 J-0.2944
G3 X-441.437 Y114.3753 I2.6686 J0.1069
G3 X-440.3288 Y113.5997 I8.1804 J10.5087
G1 X-440.1643 Y113.4982
G3 X-438.7963 Y112.7787 I6.582 J10.855
G3 X-435.8443 Y111.8797 I5.0216 J11.193
G3 X-433.793 Y111.6902 I2.2658 J13.3259
G3 X-433.2433 Y111.6915 I0.2335 J17.1273
G3 X-431.9616 Y111.7729 I-0.4184 J16.7167
G0 Z5.0
M5
M30
