( Made using CamBam - http://www.cambam.co.uk )
( car1 1/21/2014 10:38:25 PM )
( T0 : 0.0 )
G21 G90 G64 G40
G0 Z5.0
( T0 : 0.0 )
T0 M6
( 141-155 )
G17
M3 S1000
G0 X-101.8718 Y47.2519
G1 F1.0 Z0.0
G2 X-101.7271 Y48.0717 I4.1757 J-0.3142
G2 X-101.3752 Y48.9494 I4.4576 J-1.2776
G2 X-101.1718 Y49.3083 I4.6266 J-2.385
G2 X-100.735 Y49.9459 I6.5071 J-3.9898
G2 X-100.3157 Y50.4772 I10.9021 J-8.1734
G1 X-100.1265 Y50.7057
G3 X-99.4178 Y51.5636 I-35.92 J30.3948
G3 X-98.9181 Y52.2349 I-9.0657 J7.269
G3 X-98.3006 Y53.328 I-5.5302 J3.8454
G3 X-97.9354 Y54.5291 I-4.7354 J2.096
G3 X-97.8769 Y54.647 I-2.5031 J1.3142
G1 X-97.8482 Y54.7057
G3 X-96.9932 Y56.6024 I-36.7676 J17.7133
G1 X-96.2796 Y58.2912
G2 X-95.6325 Y59.7712 I67.5682 J-28.6599
G2 X-95.5586 Y59.9329 I15.7203 J-7.0822
G2 X-94.9486 Y61.1938 I28.9874 J-13.2457
G2 X-94.6607 Y61.7384 I14.7297 J-7.4401
G2 X-94.5204 Y61.9915 I10.6616 J-5.7464
G2 X-93.9403 Y62.952 I15.6227 J-8.7791
G2 X-93.3756 Y63.7592 I11.2532 J-7.2719
G2 X-92.8293 Y64.4287 I8.9817 J-6.7705
G1 X-92.7026 Y64.5694
G2 X-91.6272 Y65.5664 I6.4422 J-5.8707
G2 X-90.7086 Y66.1745 I4.6125 J-5.9692
G2 X-89.1786 Y66.7922 I3.2574 J-5.8648
G2 X-87.5453 Y67.0269 I1.8499 J-7.0731
G2 X-81.7624 Y66.7591 I-0.5971 J-75.4603
G1 X-81.4472 Y66.7323
G1 X-81.1345 Y66.7044
G2 X-76.186 Y66.1204 I-8.7691 J-95.5601
G2 X-71.8843 Y65.4195 I-17.7592 J-122.5445
G1 X-71.4155 Y65.3337
G2 X-67.7335 Y64.6047 I-26.6706 J-144.353
G2 X-61.3295 Y63.1474 I-45.315 J-213.9334
G2 X-56.5501 Y61.9561 I-105.3951 J-433.022
G1 X-54.7608 Y61.4976
G2 X-54.6629 Y61.4724 I-0.6307 J-2.6536
G2 X-54.5658 Y61.4474 I-0.625 J-2.6286
G2 X-54.4695 Y61.4226 I-0.6193 J-2.6041
G2 X-54.3739 Y61.398 I-0.6137 J-2.5801
G2 X-54.2791 Y61.3735 I-0.6082 J-2.5565
G1 X-53.5266 Y61.1794
G1 X-52.8213 Y60.9973
G1 X-52.16 Y60.8264
G1 X-49.6801 Y60.1873
G1 X-48.7497 Y59.9492
G1 X-47.1206 Y59.536
G3 X-42.2222 Y58.3413 I72.2548 J285.6293
G3 X-41.5461 Y57.9271 I7.781 J11.9397
G1 X-40.9399 Y57.5757
G2 X-40.4111 Y57.2551 I-8.4922 J-14.6052
G2 X-39.9581 Y56.9516 I-4.9105 J-7.8177
G2 X-39.5773 Y56.6594 I-3.5063 J-4.9652
G1 X-39.4967 Y56.5913
G2 X-38.9289 Y56.0041 I-2.7732 J-3.2498
G2 X-38.6004 Y55.4839 I-2.3077 J-1.8213
G2 X-38.3486 Y54.599 I-2.3072 J-1.1345
G2 X-38.4026 Y53.6806 I-3.1114 J-0.2779
G2 X-39.8667 Y49.2124 I-27.9192 J6.6741
G2 X-41.4324 Y46.0433 I-26.2767 J11.0111
G2 X-42.8716 Y43.8118 I-22.4383 J12.8918
G2 X-44.1081 Y42.248 I-19.017 J13.7662
G2 X-45.1283 Y41.1537 I-15.5569 J13.4787
G2 X-46.8126 Y39.6714 I-12.5572 J12.5716
G2 X-48.6828 Y38.4317 I-9.4608 J12.2418
G1 X-49.5054 Y38.5866
G1 X-50.3158 Y38.7358
G1 X-51.114 Y38.8797
G3 X-51.2123 Y38.8972 I-0.5115 J-2.5872
G3 X-51.3104 Y38.9146 I-0.511 J-2.5917
G3 X-51.4084 Y38.932 I-0.5105 J-2.5962
G3 X-51.5061 Y38.9492 I-0.51 J-2.6006
G3 X-54.6304 Y39.4787 I-47.054 J-268.168
G3 X-60.5045 Y40.3692 I-46.0517 J-283.9731
G3 X-60.6654 Y40.3919 I-0.7258 J-4.5585
G3 X-60.8257 Y40.4144 I-0.7266 J-4.5825
G3 X-60.9853 Y40.4368 I-0.7275 J-4.6069
G3 X-61.1444 Y40.4591 I-0.7284 J-4.6318
G3 X-61.3028 Y40.4811 I-0.7294 J-4.6571
G3 X-61.4606 Y40.503 I-0.7305 J-4.6827
G3 X-61.6178 Y40.5248 I-0.7316 J-4.7088
G3 X-61.7744 Y40.5464 I-0.7328 J-4.7353
G3 X-61.9304 Y40.5678 I-0.7341 J-4.7624
G3 X-62.0858 Y40.5891 I-0.7354 J-4.7899
G1 X-63.3242 Y40.7564
G1 X-64.5245 Y40.9148
G1 X-65.6877 Y41.065
G3 X-65.8285 Y41.083 I-0.8019 J-5.718
G3 X-65.9689 Y41.1009 I-0.8062 J-5.7675
G3 X-66.1087 Y41.1187 I-0.8107 J-5.8184
G3 X-66.248 Y41.1364 I-0.8154 J-5.8707
G3 X-66.3867 Y41.1539 I-0.8203 J-5.9245
G3 X-67.4921 Y41.2925 I-32.1793 J-252.2453
G1 X-69.6348 Y41.555
G1 X-71.6442 Y41.7953
G3 X-72.1153 Y41.851 I-3.8097 J-30.2106
G1 X-75.8254 Y42.2838
G1 X-76.6371 Y42.3778
G1 X-79.7823 Y42.7422
G1 X-80.4703 Y42.8224
G1 X-83.1357 Y43.1364
G1 X-85.4673 Y43.4177
G1 X-87.5066 Y43.6705
G1 X-89.2902 Y43.8982
G1 X-90.8501 Y44.1031
G1 X-91.1912 Y44.1487
G1 X-91.5216 Y44.1932
G1 X-91.8417 Y44.2366
G1 X-92.1518 Y44.2788
G1 X-92.4521 Y44.32
G1 X-92.743 Y44.3602
G1 X-93.0248 Y44.3993
G1 X-93.2977 Y44.4374
G2 X-101.7402 Y45.7409 I39.1924 J281.82
G2 X-101.8832 Y46.9926 I5.0423 J1.21
G2 X-101.8718 Y47.2519 I4.1872 J-0.0549
G0 Z5.0
G0 X-103.6372 Y47.2758
G1 Z0.0
G3 X-103.6269 Y46.8402 I5.8557 J-0.0795
G3 X-103.5008 Y45.9736 I5.1753 J0.3104
G3 X-103.3006 Y45.3454 I4.193 J0.9902
G3 X-102.8047 Y44.4904 I3.2126 J1.2921
G3 X-102.0683 Y43.8311 I2.2852 J1.8117
G3 X-95.452 Y42.86 I27.7682 J166.1672
G1 X-94.7263 Y42.7686
G1 X-94.0116 Y42.6811
G1 X-93.3078 Y42.5973
G1 X-92.9613 Y42.5569
G3 X-87.4541 Y41.9746 I33.4811 J290.3613
G1 X-86.8511 Y41.9165
G1 X-85.6637 Y41.8042
G1 X-83.3625 Y41.5933
G3 X-79.0465 Y41.207 I216.8351 J2398.2713
G1 X-77.1583 Y41.0353
G1 X-76.2732 Y40.9532
G1 X-74.5588 Y40.7896
G1 X-72.9522 Y40.6297
G1 X-71.4466 Y40.4724
G1 X-70.0359 Y40.3174
G1 X-69.3749 Y40.2419
G1 X-68.095 Y40.0901
G1 X-67.795 Y40.0533
G2 X-63.0807 Y39.41 I-22.1155 J-179.66
G1 X-62.1989 Y39.2743
G2 X-58.8998 Y38.7169 I-19.7577 J-126.9839
G1 X-58.7455 Y38.6888
G1 X-58.5936 Y38.6609
G2 X-56.2063 Y38.1985 I-22.6186 J-123.1635
G2 X-54.4221 Y37.8211 I-32.1765 J-156.5081
G2 X-54.0882 Y37.7473 I-2.7593 J-13.2785
G1 X-53.9318 Y37.7124
G2 X-49.108 Y36.522 I-24.8833 J-111.2028
G3 X-46.4611 Y37.6194 I-3.4346 J12.0241
G3 X-44.4031 Y39.025 I-6.6756 J11.9837
G3 X-42.8252 Y40.5193 I-10.4235 J12.5869
G3 X-41.6114 Y41.9786 I-13.5791 J12.5286
G3 X-39.8263 Y44.7737 I-18.2846 J13.6451
G3 X-38.7361 Y47.0084 I-25.8377 J13.9885
G3 X-37.4398 Y50.5036 I-31.7666 J13.7698
G3 X-36.9277 Y52.2965 I-38.3894 J11.9354
G3 X-36.5002 Y54.1113 I-39.1985 J10.1909
G3 X-36.4918 Y55.105 I-3.9788 J0.5308
G3 X-37.1577 Y56.6705 I-3.0316 J-0.3652
G3 X-37.5883 Y57.1307 I-3.3434 J-2.6971
G3 X-37.7947 Y57.3129 I-2.7998 J-2.9621
G1 X-37.8941 Y57.395
G1 X-37.992 Y57.4727
G3 X-38.1849 Y57.6187 I-3.6208 J-4.5843
G1 X-38.2768 Y57.6855
G3 X-39.0055 Y58.1777 I-13.6024 J-19.3514
G3 X-39.1439 Y58.2678 I-3.041 J-4.5199
G2 X-39.2088 Y58.3101 I0.7556 J1.2311
G1 X-39.4596 Y58.4746
G2 X-39.5143 Y58.5109 I0.3625 J0.6052
G2 X-40.338 Y59.1077 I5.6678 J8.6884
G2 X-40.718 Y59.4469 I3.1414 J3.9025
G2 X-41.0584 Y59.8259 I2.4931 J2.5811
G1 X-41.311 Y59.9005
G1 X-41.5618 Y59.9739
G1 X-41.8109 Y60.0459
G3 X-45.7889 Y61.1027 I-29.0324 J-101.2658
G3 X-47.54 Y61.5217 I-28.3894 J-114.7694
G1 X-48.3626 Y61.7108
G1 X-49.1604 Y61.8901
G1 X-49.934 Y62.0603
G1 X-50.3089 Y62.1417
G1 X-50.6782 Y62.2212
G1 X-51.0418 Y62.2988
G1 X-52.4744 Y62.5994
G1 X-53.1465 Y62.7379
G1 X-54.4493 Y63.0029
G1 X-56.8937 Y63.4921
G3 X-57.0275 Y63.5188 I-0.9327 J-4.3352
G3 X-57.1602 Y63.5452 I-0.9091 J-4.2202
G2 X-59.266 Y63.9652 I139.137 J703.0374
G1 X-60.1871 Y64.1505
G1 X-61.9132 Y64.5027
G1 X-62.6678 Y64.6595
G2 X-62.7563 Y64.678 I0.3796 J2.0332
G2 X-62.844 Y64.6964 I0.3768 J2.0148
G2 X-62.9311 Y64.7147 I0.374 J1.9967
G2 X-63.0174 Y64.7329 I0.3714 J1.979
G2 X-63.1031 Y64.751 I0.3687 J1.9616
G2 X-63.1881 Y64.7689 I0.3662 J1.9446
G2 X-63.2725 Y64.7868 I0.3637 J1.9279
G2 X-63.3562 Y64.8045 I0.3613 J1.9114
G2 X-63.4392 Y64.8221 I0.3589 J1.8953
G2 X-66.07 Y65.3988 I37.2119 J176.0543
G1 X-67.0543 Y65.6255
G1 X-67.9142 Y65.8294
G1 X-68.2901 Y65.9205
G1 X-68.6421 Y66.0069
G1 X-68.9719 Y66.0888
G1 X-69.5897 Y66.245
G2 X-73.8836 Y67.4503 I22.2132 J87.3862
G2 X-74.2451 Y67.4179 I-1.1484 J10.7848
G2 X-75.6494 Y67.377 I-1.1763 J16.2291
G1 X-75.9565 Y67.3836
G2 X-77.1442 Y67.4525 I0.6146 J20.8494
G1 X-77.2738 Y67.4638
G2 X-79.3063 Y67.7186 I2.7803 J30.4167
G1 X-79.6855 Y67.7798
G2 X-80.0404 Y67.8402 I2.1509 J13.7038
G2 X-80.2067 Y67.8695 I0.5135 J3.4012
G1 X-80.8498 Y67.9881
G1 X-81.4113 Y68.0978
G2 X-83.3708 Y68.5109 I23.9822 J118.6012
G1 X-84.3489 Y68.7252
G1 X-84.8381 Y68.8317
G1 X-85.0828 Y68.8845
G1 X-85.3276 Y68.9367
G3 X-86.163 Y69.1017 I-2.9566 J-12.7757
G3 X-87.799 Y69.2454 I-1.7301 J-10.3116
G3 X-89.3158 Y69.1187 I-0.0861 J-8.1107
G3 X-91.9186 Y68.0872 I1.2316 J-6.9074
G3 X-92.8714 Y67.3549 I4.2153 J-6.4707
G3 X-93.659 Y66.5583 I6.6603 J-7.372
G1 X-93.7021 Y66.509
G1 X-93.7448 Y66.4597
G1 X-93.7869 Y66.4103
G1 X-93.8287 Y66.3608
G1 X-93.8699 Y66.3114
G1 X-93.9107 Y66.2618
G3 X-94.5245 Y65.4451 I10.5491 J-8.5662
G1 X-94.5922 Y65.3464
G3 X-95.1014 Y64.5458 I12.4863 J-8.5047
G3 X-95.9466 Y62.982 I19.0862 J-11.3255
G1 X-96.1165 Y62.6323
G3 X-96.7382 Y61.2601 I38.3428 J-18.2007
G1 X-96.9964 Y60.6537
G3 X-97.2334 Y60.0828 I33.8587 J-14.3917
G1 X-97.6698 Y59.009
G2 X-98.4346 Y57.1294 I-159.0494 J63.6146
G1 X-98.5817 Y56.7782
G1 X-98.7215 Y56.4497
G1 X-98.8546 Y56.1424
G2 X-98.9814 Y55.8553 I-11.2499 J4.7949
G1 X-99.0415 Y55.7211
G2 X-99.5269 Y54.6893 I-24.5453 J10.9171
G1 X-99.6224 Y54.4979
G1 X-99.806 Y54.1413
G1 X-99.9718 Y53.8321
G2 X-100.1214 Y53.5638 I-6.8501 J3.644
G2 X-100.138 Y53.5346 I-0.3176 J0.1616
G2 X-100.2041 Y53.4199 I-1.7895 J0.9539
G2 X-100.2667 Y53.3129 I-2.1373 J1.1796
G2 X-100.3262 Y53.213 I-3.2884 J1.8894
G1 X-100.4396 Y53.0268
G2 X-100.6445 Y52.705 I-7.3729 J4.4687
G2 X-100.9686 Y52.2335 I-11.6688 J7.6721
G2 X-101.315 Y51.7781 I-7.1103 J5.0498
G3 X-102.2161 Y51.0712 I1.7156 J-3.1146
G3 X-102.8111 Y50.2698 I3.3214 J-3.0872
G3 X-103.1955 Y49.4838 I4.6525 J-2.7629
G3 X-103.5824 Y47.9998 I5.7944 J-2.3027
G3 X-103.6372 Y47.2758 I5.8008 J-0.8034
G0 Z5.0
G0 X-107.6635 Y49.6985
G1 Z0.0
G3 X-106.0129 Y52.5012 I-147.512 J88.7599
G1 X-105.8266 Y52.8241
G1 X-105.6435 Y53.1422
G1 X-104.9258 Y54.3964
G1 X-103.5848 Y56.7511
G1 X-102.9962 Y57.7805
G1 X-102.4414 Y58.7439
G2 X-100.3136 Y62.3295 I147.6881 J-85.219
G2 X-100.2113 Y62.4961 I7.4213 J-4.4419
G2 X-100.1103 Y62.6599 I7.2743 J-4.3699
G2 X-100.0107 Y62.8211 I7.1438 J-4.3076
G2 X-99.9123 Y62.9795 I7.0277 J-4.2537
G2 X-98.3237 Y65.4499 I73.2105 J-45.3321
G2 X-95.7687 Y69.0389 I56.206 J-37.3084
G2 X-94.3964 Y70.7626 I41.738 J-31.823
G2 X-92.952 Y72.4263 I39.4996 J-32.8322
G1 X-92.4841 Y72.4516
G1 X-92.0198 Y72.4738
G2 X-84.6431 Y72.4689 I3.6332 J-82.8613
G2 X-84.5424 Y72.4644 I-0.0852 J-3.0404
G2 X-84.4419 Y72.4598 I-0.0892 J-3.0521
G2 X-81.2364 Y72.2558 I-4.1569 J-90.5886
G1 X-80.4866 Y72.1925
G1 X-79.7489 Y72.1247
G1 X-79.0233 Y72.0528
G2 X-78.8447 Y72.0343 I-0.4721 J-5.4325
G2 X-77.4238 Y71.8764 I-9.4295 J-91.3332
G2 X-77.2518 Y71.856 I-0.6028 J-5.8197
G2 X-77.0806 Y71.8355 I-0.6175 J-5.8625
G2 X-74.3564 Y71.4731 I-15.5217 J-127.1219
G2 X-74.1971 Y71.45 I-0.8761 J-6.5851
G2 X-74.0384 Y71.4267 I-0.8907 J-6.623
G2 X-68.9964 Y70.5851 I-19.6519 J-133.2672
G2 X-68.7216 Y70.534 I-1.7846 J-10.3553
G2 X-68.449 Y70.4828 I-1.8019 J-10.3419
G2 X-68.1786 Y70.4315 I-1.8174 J-10.3208
G2 X-67.9105 Y70.3802 I-1.8309 J-10.2925
G2 X-67.6445 Y70.3288 I-1.8426 J-10.2569
G2 X-67.3807 Y70.2775 I-1.8525 J-10.2146
G2 X-67.119 Y70.2261 I-1.8607 J-10.1662
G2 X-66.8594 Y70.1747 I-1.867 J-10.1113
G2 X-66.602 Y70.1233 I-1.8718 J-10.0508
G2 X-66.3466 Y70.072 I-1.8749 J-9.9849
G2 X-66.0933 Y70.0206 I-1.8764 J-9.914
G2 X-65.8421 Y69.9694 I-1.8765 J-9.8387
G2 X-65.5928 Y69.9182 I-1.8752 J-9.7593
G2 X-65.3457 Y69.867 I-1.8726 J-9.6762
G2 X-65.1004 Y69.816 I-1.8689 J-9.5899
G2 X-61.2169 Y68.9668 I-50.3318 J-239.4832
G2 X-61.0049 Y68.9185 I-1.6742 J-7.8306
G2 X-60.7947 Y68.8703 I-1.66 J-7.7355
G2 X-60.5861 Y68.8224 I-1.6458 J-7.6417
G2 X-57.2795 Y68.0419 I-65.6272 J-285.4152
G2 X-51.5081 Y66.6141 I-163.2926 J-672.4378
G2 X-51.373 Y66.5801 I-1.0178 J-4.3324
G2 X-51.2388 Y66.5464 I-1.0097 J-4.2966
G2 X-51.1058 Y66.5129 I-1.0018 J-4.2614
G2 X-50.9738 Y66.4796 I-0.9939 J-4.2267
G2 X-50.8428 Y66.4467 I-0.9861 J-4.1926
G2 X-50.7128 Y66.4139 I-0.9785 J-4.159
G2 X-50.5839 Y66.3814 I-0.9709 J-4.1259
G2 X-50.4559 Y66.3492 I-0.9634 J-4.0933
G2 X-50.329 Y66.3172 I-0.956 J-4.0613
G2 X-50.2031 Y66.2855 I-0.9487 J-4.0297
G2 X-50.0781 Y66.254 I-0.9415 J-3.9985
G3 X-46.1112 Y65.2564 I573.1561 J2270.8664
G3 X-43.133 Y64.5198 I99.6922 J396.6997
G1 X-42.5741 Y64.3837
G1 X-42.0499 Y64.2569
G3 X-38.1122 Y63.3328 I78.5828 J326.0291
G1 X-37.1257 Y63.1111
G3 X-37.0331 Y63.0906 I0.6314 J2.6231
G3 X-36.9434 Y63.0707 I0.6191 J2.5797
G3 X-36.8565 Y63.0514 I0.6071 J2.5372
G3 X-36.7723 Y63.0328 I0.5954 J2.4954
G3 X-36.6092 Y62.9969 I0.8487 J3.4643
G3 X-36.4563 Y62.9633 I0.8156 J3.3503
G3 X-35.3087 Y62.7153 I36.77 J167.3556
G3 X-34.7344 Y62.5939 I11.4375 J52.676
G3 X-34.1597 Y62.4743 I9.2942 J43.2155
G2 X-32.0647 Y61.4268 I-2.1646 J-6.9484
G2 X-31.1599 Y60.6797 I-5.0335 J-7.0169
G1 X-31.0539 Y60.5781
G2 X-30.3549 Y59.8259 I-7.379 J-7.5582
G2 X-30.4293 Y58.1408 I-26.4105 J0.3228
G2 X-30.8479 Y55.0072 I-27.2975 J2.052
G2 X-34.9176 Y44.7808 I-28.7807 J5.5304
G2 X-38.3569 Y40.4432 I-22.787 J14.5355
G2 X-42.6474 Y36.9453 I-17.4143 J16.9805
G2 X-44.1366 Y36.0578 I-6.0648 J8.4832
G1 X-44.2827 Y35.9868
G2 X-45.4428 Y35.4978 I-5.9629 J12.5239
G2 X-47.2492 Y34.9496 I-5.7131 J15.5765
G2 X-49.108 Y34.6195 I-3.4925 J14.2695
G1 X-49.9895 Y34.7711
G3 X-53.4663 Y35.3356 I-46.2531 J-273.8668
G1 X-53.8742 Y35.3985
G3 X-57.1153 Y35.8756 I-43.0476 J-281.1809
G1 X-58.6364 Y36.0864
G3 X-58.7285 Y36.0989 I-0.3155 J-1.9771
G3 X-58.8205 Y36.1114 I-0.3153 J-1.9806
G3 X-58.9124 Y36.1238 I-0.315 J-1.9841
G3 X-59.004 Y36.1362 I-0.3148 J-1.9876
G3 X-59.0955 Y36.1485 I-0.3146 J-1.9912
G3 X-59.1868 Y36.1608 I-0.3144 J-1.9948
G3 X-59.2779 Y36.173 I-0.3142 J-1.9984
G3 X-59.3688 Y36.1851 I-0.314 J-2.0021
G1 X-60.8209 Y36.3758
G3 X-66.4544 Y37.0609 I-49.4252 J-382.93
G1 X-67.6878 Y37.2013
G3 X-72.4699 Y37.7232 I-69.7509 J-616.9591
G3 X-72.7315 Y37.751 I-1.0541 J-8.6804
G1 X-76.8851 Y38.1868
G1 X-80.5197 Y38.5673
G1 X-80.9172 Y38.6093
G1 X-81.3085 Y38.6508
G2 X-84.3893 Y38.9824 I58.8665 J561.227
G1 X-85.7367 Y39.1314
G1 X-86.9996 Y39.2736
G1 X-87.2957 Y39.3074
G1 X-87.587 Y39.3408
G2 X-89.8804 Y39.6099 I69.1485 J599.3107
G1 X-90.1312 Y39.64
G1 X-90.3781 Y39.6698
G2 X-92.3211 Y39.9098 I26.167 J219.8117
G1 X-92.5336 Y39.9367
G1 X-92.7427 Y39.9633
G1 X-92.9486 Y39.9895
G1 X-93.1513 Y40.0155
G1 X-93.3507 Y40.0412
G1 X-93.5471 Y40.0665
G1 X-93.7403 Y40.0916
G1 X-93.9306 Y40.1165
G1 X-95.4276 Y40.3156
G1 X-96.0823 Y40.4049
G2 X-105.875 Y41.9287 I35.968 J263.3677
G1 X-106.0274 Y42.1129
G3 X-106.1768 Y42.2904 I-12.0957 J-10.0253
G1 X-106.3224 Y42.4622
G1 X-106.4638 Y42.6289
G1 X-106.7365 Y42.9536
G2 X-106.989 Y43.2624 I8.8065 J7.457
G2 X-107.4447 Y43.8582 I12.5355 J10.0608
G2 X-107.814 Y44.4051 I6.9215 J5.0717
G2 X-108.3464 Y45.434 I5.518 J3.5069
G2 X-108.5971 Y46.2706 I4.2513 J1.73
G2 X-108.6216 Y47.5772 I3.6408 J0.7219
G2 X-108.2008 Y48.8145 I4.0287 J-0.6799
G1 X-107.7435 Y49.5656
G3 X-107.6635 Y49.6985 I-147.432 J88.8928
G0 Z5.0
G0 X-109.1537 Y50.6251
G1 Z0.0
G2 X-110.1179 Y49.1279 I-47.5845 J29.5857
G1 X-110.127 Y48.9757
G1 X-110.1438 Y48.6756
G1 X-110.1583 Y48.3845
G1 X-110.1705 Y48.102
G3 X-110.1869 Y47.5536 I36.3821 J-1.3663
G3 X-110.1836 Y46.5224 I18.4104 J-0.4567
G3 X-110.1295 Y45.6175 I14.0952 J0.3893
G3 X-110.1248 Y45.568 I0.5272 J0.025
G3 X-109.8541 Y44.0128 I9.7151 J0.8896
G3 X-109.4531 Y42.8933 I6.6665 J1.7562
G3 X-108.4553 Y41.4183 I4.9491 J2.273
G3 X-107.7879 Y40.8248 I3.8887 J3.7012
G1 X-107.6981 Y40.7584
G3 X-107.037 Y40.3415 I3.7941 J5.2841
G3 X-106.9227 Y40.3238 I0.5121 J2.9263
G3 X-106.8087 Y40.3062 I0.5116 J2.9294
G3 X-103.1651 Y39.7599 I60.7066 J392.5218
G1 X-101.4555 Y39.5146
G3 X-101.352 Y39.5 I0.4924 J3.1079
G3 X-101.2486 Y39.4854 I0.4922 J3.1119
G3 X-101.1455 Y39.4709 I0.4919 J3.1159
G3 X-94.5517 Y38.5848 I81.0888 J578.4504
G1 X-93.108 Y38.4008
G1 X-92.4085 Y38.3127
G3 X-92.2364 Y38.2912 I0.7304 J5.1318
G3 X-92.0649 Y38.2697 I0.7315 J5.1529
G3 X-91.894 Y38.2484 I0.7327 J5.1743
G3 X-91.7239 Y38.2272 I0.7339 J5.1961
G3 X-91.5543 Y38.2061 I0.7351 J5.2182
G3 X-91.3855 Y38.1851 I0.7365 J5.2407
G1 X-90.0401 Y38.0193
G1 X-88.7364 Y37.8606
G1 X-86.2101 Y37.5578
G3 X-81.4719 Y37.0016 I262.1299 J2212.5409
G1 X-77.3252 Y36.5205
G1 X-75.511 Y36.3097
G1 X-72.1098 Y35.9114
G1 X-70.622 Y35.7351
G1 X-69.2273 Y35.5682
G1 X-66.6131 Y35.2502
G1 X-64.3263 Y34.9655
G1 X-62.3262 Y34.7105
G1 X-60.5767 Y34.4822
G1 X-59.0465 Y34.2782
G1 X-57.7081 Y34.096
G2 X-48.3547 Y32.7098 I-56.962 J-416.5815
G3 X-44.4085 Y33.9824 I-3.4434 J17.4323
G3 X-42.8019 Y34.8064 I-8.0677 J17.7079
G3 X-40.0148 Y36.7126 I-10.7891 J18.7647
G1 X-39.8714 Y36.8286
G3 X-37.7159 Y38.8061 I-16.1464 J19.7636
G3 X-36.015 Y40.7156 I-20.8417 J20.2762
G3 X-34.6623 Y42.4968 I-25.8886 J21.0663
G3 X-32.583 Y45.8104 I-29.5295 J20.8389
G3 X-30.1179 Y51.1317 I-35.6266 J19.7359
G3 X-29.1789 Y53.9116 I-37.1783 J14.1064
G3 X-28.4506 Y56.7542 I-35.2492 J10.5455
G3 X-28.4479 Y57.8258 I-4.5125 J0.5473
G3 X-28.6309 Y58.7411 I-5.4333 J-0.6105
G3 X-29.2537 Y60.2457 I-7.1206 J-2.0664
G3 X-30.7108 Y62.201 I-7.6744 J-4.1984
G3 X-31.6344 Y63.0035 I-5.5673 J-5.4746
G3 X-32.6807 Y63.6381 I-3.9057 J-5.2596
G2 X-32.8279 Y63.6728 I1.3853 J6.205
G2 X-32.9746 Y63.7075 I1.3904 J6.2176
G2 X-33.1207 Y63.742 I1.3954 J6.2303
G2 X-33.2662 Y63.7764 I1.4005 J6.243
G2 X-33.4111 Y63.8108 I1.4055 J6.2557
G2 X-42.6361 Y66.0546 I229.6657 J964.2991
G1 X-46.0923 Y66.9091
G1 X-49.1172 Y67.6544
G1 X-51.7652 Y68.301
G3 X-52.3448 Y68.4415 I-12.1244 J-48.7636
G1 X-54.5915 Y68.9814
G1 X-56.559 Y69.447
G1 X-58.282 Y69.8483
G1 X-59.7909 Y70.1941
G1 X-61.1122 Y70.492
G1 X-62.2692 Y70.7489
G1 X-63.2823 Y70.9705
G1 X-64.1692 Y71.1619
G1 X-64.9458 Y71.3273
G1 X-66.3058 Y71.6121
G1 X-66.8161 Y71.7173
G1 X-67.7097 Y71.8991
G1 X-69.0512 Y72.1662
G1 X-69.7225 Y72.2972
G1 X-70.394 Y72.4263
G2 X-73.08 Y72.595 I0.5932 J30.9205
G2 X-74.249 Y72.7339 I3.4688 J34.187
G2 X-74.7956 Y72.8092 I10.1597 J75.715
G1 X-75.3245 Y72.8875
G2 X-77.3687 Y73.2256 I13.8277 J89.9368
G1 X-79.1545 Y73.5439
G1 X-79.3499 Y73.5788
G1 X-79.5423 Y73.613
G1 X-79.7317 Y73.6466
G1 X-79.9182 Y73.6795
G3 X-81.3883 Y73.9299 I-27.3767 J-156.2986
G1 X-81.5494 Y73.956
G3 X-82.8197 Y74.1494 I-13.5897 J-85.0111
G3 X-85.0528 Y74.4165 I-6.5691 J-45.4566
G3 X-86.7359 Y74.5366 I-3.4028 J-35.8361
G3 X-89.2666 Y74.5519 I-1.4509 J-30.6761
G3 X-91.7882 Y74.3361 I0.9613 J-26.0792
G3 X-94.9736 Y71.9847 I12.0834 J-19.7025
G3 X-96.233 Y70.8037 I17.3469 J-19.7614
G1 X-96.5166 Y70.5158
G1 X-96.7918 Y70.2285
G1 X-97.0586 Y69.942
G3 X-99.0339 Y67.5771 I24.8951 J-22.8003
G3 X-100.5991 Y65.3852 I33.9304 J-25.8846
G1 X-100.9246 Y64.8943
G3 X-101.5404 Y63.9337 I39.756 J-26.1628
G1 X-101.6821 Y63.7069
G1 X-101.8207 Y63.4831
G3 X-102.3585 Y62.597 I123.6173 J-75.6318
G1 X-102.4828 Y62.3883
G3 X-103.4428 Y60.7337 I83.0314 J-49.2784
G1 X-103.8541 Y60.0048
G3 X-105.3701 Y57.2567 I248.5516 J-138.9053
G3 X-105.4407 Y57.1276 I3.7713 J-2.1465
G1 X-105.9971 Y56.1113
G2 X-106.2412 Y55.667 I-49.1121 J26.6934
G2 X-106.2985 Y55.5629 I-2.3311 J1.2157
G2 X-106.355 Y55.4605 I-2.2727 J1.1858
G1 X-106.5777 Y55.0574
G2 X-106.9977 Y54.303 I-93.4768 J51.5547
G2 X-107.7434 Y52.9888 I-78.03 J43.4031
G2 X-108.8989 Y51.0389 I-77.9316 J44.8655
G2 X-109.1537 Y50.6251 I-47.8393 J29.1719
G0 Z5.0
G0 X-110.6028 Y52.065
G1 Z0.0
G1 X-110.5985 Y52.0694
G3 X-109.5866 Y53.2829 I-7.8231 J7.552
G3 X-108.9361 Y54.2731 I-11.2599 J8.1057
G3 X-108.5025 Y55.0487 I-15.6922 J9.281
G3 X-108.4641 Y55.1227 I-0.8135 J0.4692
G3 X-107.4622 Y57.5001 I-15.0511 J7.7431
G3 X-107.6138 Y57.8036 I-5.9653 J-2.7894
G3 X-107.6935 Y57.9439 I-6.3149 J-3.4959
G3 X-107.8674 Y58.2029 I-2.0228 J-1.17
G3 X-108.0629 Y58.4167 I-1.3558 J-1.0434
G3 X-108.283 Y58.5602 I-0.5557 J-0.6117
G3 X-108.7377 Y58.5513 I-0.2174 J-0.5109
G3 X-109.0519 Y58.3414 I0.5213 J-1.1205
G3 X-109.284 Y58.1086 I1.6669 J-1.8946
G3 X-109.6498 Y57.6649 I7.0039 J-6.1458
G1 X-109.7828 Y57.4946
G2 X-110.0186 Y57.1987 I-10.0879 J7.7961
G1 X-110.1098 Y57.0897
G2 X-110.4521 Y56.7287 I-3.4488 J2.928
G2 X-110.6443 Y56.5699 I-1.4442 J1.5518
G2 X-110.8565 Y56.4389 I-0.832 J1.1107
G3 X-111.1934 Y56.4767 I-3.3685 J-28.5111
G1 X-111.3568 Y56.4938
G1 X-111.5178 Y56.5101
G3 X-112.1521 Y56.5691 I-6.6583 J-68.0575
G1 X-113.3437 Y56.6716
G2 X-114.3879 Y56.7712 I5.4687 J62.855
G2 X-116.2089 Y57.0289 I2.2997 J22.8185
G2 X-117.5549 Y57.3494 I2.5087 J13.522
G2 X-117.6172 Y57.3681 I0.2953 J1.0974
G2 X-118.5804 Y57.7131 I2.7307 J9.139
G2 X-119.9356 Y58.4322 I3.078 J7.4376
G2 X-121.1238 Y59.4025 I4.2942 J6.4712
G2 X-121.2175 Y59.426 I0.2875 J1.344
G2 X-121.5772 Y59.5485 I0.9966 J3.5157
G3 X-122.2448 Y59.8121 I-26.9351 J-67.2438
G3 X-122.3881 Y59.8636 I-1.4998 J-3.9489
G3 X-122.6649 Y59.9474 I-1.3155 J-3.8486
G3 X-122.9221 Y59.9939 I-0.4176 J-1.5742
G3 X-123.1546 Y59.9872 I-0.0913 J-0.8678
G3 X-123.3396 Y59.9121 I0.0742 J-0.4482
G3 X-123.4539 Y59.7881 I0.2486 J-0.3439
G3 X-123.542 Y59.5138 I0.6305 J-0.3537
G3 X-123.5513 Y59.4068 I2.3291 J-0.2558
G3 X-123.5493 Y59.2188 I2.2793 J-0.0703
G3 X-123.4643 Y58.6621 I3.4517 J0.2423
G1 X-123.4018 Y58.5889
G3 X-122.3277 Y57.5236 I6.8115 J5.7936
G3 X-121.3866 Y56.8753 I3.996 J4.7938
G3 X-120.6021 Y56.5232 I2.4507 J4.4099
G3 X-119.3362 Y56.2886 I1.4086 J4.0682
G3 X-118.0576 Y56.4389 I0.127 J4.4338
G1 X-117.9552 Y56.3596
G3 X-117.5405 Y56.0622 I5.6138 J7.3913
G3 X-117.3412 Y55.9292 I3.0457 J4.349
G1 X-117.2437 Y55.8659
G1 X-117.0504 Y55.7429
G3 X-116.6722 Y55.5096 I9.4691 J14.9284
G1 X-116.4934 Y55.4015
G1 X-115.7984 Y54.9845
G1 X-115.4937 Y54.7991
G1 X-115.209 Y54.622
G2 X-114.1694 Y53.9096 I-7.6484 J-12.2768
G2 X-113.9812 Y53.7625 I-10.2736 J-13.3366
G2 X-113.6396 Y53.4718 I-4.7493 J-5.9264
G2 X-113.0933 Y52.9054 I-3.4828 J-3.9057
G2 X-112.7504 Y52.4221 I-3.2253 J-2.6523
G2 X-112.4085 Y51.6022 I-2.5223 J-1.533
G2 X-112.3356 Y50.7169 I-2.7413 J-0.6713
G3 X-111.4432 Y51.3074 I-3.2556 J5.8899
G3 X-110.7424 Y51.9246 I-5.1553 J6.5604
G1 X-110.6028 Y52.065
G0 Z5.0
G0 X-113.4994 Y48.8145
G1 Z0.0
G2 X-113.836 Y48.3992 I-1.3611 J0.7589
G2 X-114.2294 Y48.1652 I-0.9024 J1.0697
G2 X-114.6124 Y48.0643 I-0.6771 J1.7921
G1 X-114.698 Y48.0522
G2 X-114.8649 Y48.0364 I-0.4104 J3.4567
G2 X-114.9435 Y48.032 I-0.0892 J0.8754
G2 X-115.0958 Y48.0275 I-0.1968 J4.11
G1 X-115.2389 Y48.0272
G1 X-115.5075 Y48.0323
G1 X-115.7432 Y48.0382
G3 X-115.795 Y48.0391 I-0.0345 J-0.4699
G1 X-115.8953 Y48.0402
G1 X-116.0835 Y48.0385
G3 X-116.4125 Y48.016 I0.0502 J-3.1452
G3 X-116.8941 Y47.901 I0.2032 J-1.917
G3 X-117.3171 Y47.6433 I0.4956 J-1.2897
G3 X-117.5197 Y48.2336 I-3.2406 J-0.7821
G3 X-118.2247 Y49.1407 I-2.2366 J-1.0109
G3 X-118.6418 Y49.4122 I-1.6669 J-2.1042
G3 X-118.8524 Y49.5141 I-1.3263 J-2.4746
G3 X-119.7192 Y49.7839 I-1.765 J-4.1422
G3 X-120.5216 Y49.9101 I-1.8252 J-8.9891
G1 X-120.6124 Y49.9202
G1 X-120.7919 Y49.9384
G1 X-121.1423 Y49.9692
G1 X-121.808 Y50.0217
G1 X-122.106 Y50.0481
G2 X-122.6678 Y50.1153 I1.3052 J13.2953
G2 X-122.9158 Y50.1573 I0.6036 J4.3136
G2 X-123.3763 Y50.2697 I0.7835 J4.2109
G2 X-123.7656 Y50.4216 I0.8991 J2.8788
G2 X-124.0782 Y50.6123 I0.7949 J1.6549
G2 X-124.4925 Y51.0931 I0.881 J1.1778
G2 X-124.6551 Y51.5365 I1.573 J0.8284
G2 X-124.7055 Y51.8863 I2.014 J0.4689
G2 X-124.6999 Y52.4156 I3.4239 J0.2287
G2 X-124.6281 Y52.9401 I5.1522 J-0.4383
G1 X-124.7794 Y52.8095
G3 X-125.3501 Y52.2684 I6.5017 J-7.4279
G3 X-126.3285 Y51.1677 I10.9365 J-10.7081
G1 X-126.5291 Y50.916
G3 X-126.906 Y50.4192 I13.9509 J-10.978
G1 X-127.0778 Y50.1828
G3 X-128.3197 Y48.2896 I24.4833 J-17.4152
G3 X-129.1666 Y46.818 I32.0532 J-19.4243
G1 X-129.3187 Y46.5384
G3 X-130.4035 Y44.4116 I47.3548 J-25.4925
G3 X-130.4683 Y44.2771 I3.3943 J-1.7192
G3 X-131.4039 Y42.2439 I64.434 J-30.8844
G2 X-130.1461 Y42.7339 I2.7599 J-5.2258
G2 X-129.8609 Y42.8049 I1.3658 J-4.8796
G2 X-128.7381 Y42.9864 I2.103 J-9.4434
G2 X-128.6144 Y42.9987 I0.296 J-2.3439
G2 X-127.6376 Y43.0576 I1.5029 J-16.805
G1 X-127.4236 Y43.0632
G2 X-127.2163 Y43.0666 I0.3768 J-16.5293
G1 X-126.8145 Y43.0687
G1 X-126.4376 Y43.0663
G1 X-125.7311 Y43.0553
G1 X-125.4218 Y43.0493
G3 X-125.2768 Y43.0466 I0.1354 J3.3451
G3 X-125.2065 Y43.0453 I0.0675 J1.781
G1 X-124.6534 Y43.0372
G1 X-124.1692 Y43.0351
G1 X-123.9573 Y43.0363
G3 X-123.1629 Y43.0577 I-0.3148 J26.4094
G3 X-121.9755 Y43.1639 I-0.5673 J13.0331
G3 X-121.3877 Y43.2649 I-1.0295 J7.7538
G3 X-120.8086 Y43.4078 I-1.5568 J7.5576
G3 X-120.5507 Y43.6442 I-0.6994 J1.0218
G3 X-120.4138 Y43.9106 I-0.5734 J0.4629
G3 X-120.3985 Y44.1641 I-0.6789 J0.1681
G3 X-120.4497 Y44.3769 I-0.9526 J-0.1165
G3 X-120.5239 Y44.5527 I-1.4447 J-0.5063
G3 X-120.6866 Y44.8439 I-3.931 J-2.0049
G1 X-120.8186 Y45.0569
G2 X-121.005 Y45.3838 I2.7864 J1.8053
G2 X-121.1238 Y45.7409 I1.0389 J0.544
G2 X-120.8702 Y45.8335 I1.6766 J-4.1993
G2 X-120.3625 Y45.9609 I1.3346 J-4.2438
G2 X-119.3836 Y46.0822 I1.5237 J-8.2869
G1 X-119.274 Y46.0896
G2 X-119.0576 Y46.1017 I0.5139 J-7.2039
G1 X-119.0049 Y46.1043
G1 X-118.5861 Y46.1197
G2 X-118.1893 Y46.1289 I0.7079 J-22.0379
G1 X-117.8132 Y46.1353
G1 X-117.1004 Y46.1494
G1 X-116.7813 Y46.1598
G1 X-116.4791 Y46.1742
G3 X-115.908 Y46.2189 I-0.6516 J11.9765
G3 X-115.402 Y46.2882 I-0.5754 J6.0851
G3 X-114.9592 Y46.385 I-0.6807 J4.1731
G3 X-114.5788 Y46.5108 I-0.8485 J3.2056
G3 X-114.2613 Y46.6642 I-0.908 J2.285
G3 X-113.789 Y47.0594 I-0.8445 J1.4891
G3 X-113.5584 Y47.4576 I-1.1935 J0.9569
G3 X-113.467 Y47.7894 I-1.5961 J0.6179
G3 X-113.4377 Y48.3033 I-2.3389 J0.3913
G3 X-113.4994 Y48.8145 I-3.6414 J-0.1802
G0 Z5.0
G0 X-133.3064 Y56.4389
G1 Z0.0
G2 X-131.9166 Y61.3996 I15.2006 J-1.5837
G2 X-131.0113 Y63.1006 I17.5422 J-8.2444
G1 X-130.7934 Y63.4615
G2 X-130.3558 Y64.1515 I20.4993 J-12.5193
G2 X-129.4961 Y65.42 I37.9139 J-24.7699
G2 X-129.4 Y65.5576 I3.5546 J-2.38
G1 X-128.6395 Y66.6382
G1 X-128.3078 Y67.1124
G3 X-127.1093 Y68.9222 I-33.8254 J23.7023
G3 X-126.2994 Y70.3364 I-20.255 J12.5378
G3 X-125.3189 Y72.5755 I-14.8071 J7.818
G3 X-124.6959 Y74.9391 I-14.5818 J5.1075
G3 X-124.3662 Y75.3791 I-6.871 J5.4923
G3 X-124.0966 Y75.814 I-3.5728 J2.516
G3 X-123.9095 Y76.261 I-1.9148 J1.064
G3 X-123.8729 Y76.4672 I-1.0925 J0.3003
G3 X-123.886 Y76.6574 I-0.6886 J0.048
G3 X-124.0764 Y76.9359 I-0.446 J-0.1006
G3 X-124.3454 Y77.0478 I-0.4234 J-0.638
G3 X-124.6117 Y77.082 I-0.3327 J-1.5396
G3 X-125.1115 Y77.0548 I-0.1033 J-2.7097
G3 X-125.9643 Y76.8633 I0.7771 J-5.4542
G3 X-127.1836 Y76.3775 I2.1726 J-7.2268
G3 X-127.7546 Y76.0442 I2.0649 J-4.1926
G3 X-128.0165 Y75.8394 I1.3874 J-2.0443
G3 X-128.0767 Y75.7816 I0.769 J-0.8613
G3 X-128.2277 Y75.5824 I0.5971 J-0.6095
G1 X-128.3171 Y75.5301
G2 X-128.6892 Y75.3468 I-1.398 J2.3684
G2 X-128.8635 Y75.2896 I-0.5158 J1.2777
G2 X-129.03 Y75.2654 I-0.1843 J0.6824
G2 X-129.1768 Y75.2898 I-0.0127 J0.376
G2 X-129.2803 Y75.3674 I0.1019 J0.2439
G2 X-129.3349 Y75.4709 I0.2883 J0.2183
G2 X-129.3656 Y75.6894 I0.702 J0.21
G2 X-129.3164 Y76.0953 I1.9111 J-0.0256
G1 X-129.2757 Y76.269
G2 X-129.0764 Y76.9071 I8.4575 J-2.2911
G1 X-128.9908 Y77.1427
G1 X-128.8337 Y77.5523
G1 X-128.5932 Y78.1648
G3 X-128.5349 Y78.3189 I-5.4061 J2.1307
G1 X-128.5137 Y78.377
G1 X-128.4955 Y78.4279
G1 X-128.4799 Y78.4726
G1 X-128.4294 Y78.6302
G3 X-128.3927 Y78.7916 I-0.916 J0.2934
G1 X-128.1745 Y79.127
G1 X-128.1478 Y79.1676
G1 X-128.0411 Y79.329
G1 X-127.9354 Y79.4875
G2 X-127.5108 Y80.1067 I22.3053 J-14.8387
G1 X-127.3061 Y80.3945
G1 X-127.1039 Y80.6711
G1 X-126.9042 Y80.9367
G2 X-126.0907 Y81.9371 I16.2166 J-12.3557
G2 X-125.3153 Y82.7646 I12.106 J-10.5678
G2 X-124.5791 Y83.4357 I9.3713 J-9.5414
G2 X-123.145 Y84.4317 I5.9663 J-7.0599
G2 X-121.9446 Y84.9654 I3.5339 J-6.3311
G2 X-120.0064 Y85.2974 I2.0249 J-5.9978
G2 X-119.0226 Y85.2351 I0.0812 J-6.5142
G2 X-118.5367 Y85.1507 I-0.9123 J-6.6948
G1 X-118.4162 Y85.1245
G2 X-118.0576 Y85.0341 I-1.3531 J-6.1258
G2 X-117.867 Y85.396 I3.186 J-1.4465
G2 X-117.4172 Y86.0179 I4.4694 J-2.759
G1 X-117.3079 Y86.1475
G1 X-117.1996 Y86.2715
G1 X-116.9849 Y86.5082
G1 X-116.5724 Y86.9473
G3 X-116.3903 Y87.1415 I-5.1614 J5.0207
G1 X-116.2208 Y87.3262
G1 X-116.0641 Y87.5027
G3 X-115.7815 Y87.8452 I-4.7116 J4.1752
G3 X-115.5529 Y88.1626 I-4.8338 J3.7225
G3 X-115.2302 Y88.7687 I-2.6524 J1.8014
G3 X-115.0936 Y89.2675 I-2.0021 J0.8162
G3 X-115.1262 Y90.0394 I-2.0317 J0.3008
G3 X-115.4147 Y90.7561 I-2.6711 J-0.6586
G1 X-115.9043 Y90.8823
G3 X-117.8067 Y91.3503 I-25.5594 J-99.7976
G3 X-119.4776 Y91.7334 I-23.9573 J-100.6569
G1 X-120.2103 Y91.8935
G3 X-120.2962 Y91.912 I-0.5384 J-2.2936
G3 X-120.3815 Y91.9303 I-0.5476 J-2.3454
G3 X-121.0587 Y92.0734 I-12.0858 J-55.5258
G3 X-121.2175 Y92.1064 I-1.0227 J-4.5206
G3 X-126.2378 Y93.0572 I-33.0975 J-161.0349
G1 X-127.497 Y93.2719
G1 X-128.4422 Y93.4282
G1 X-129.8612 Y93.656
G1 X-130.5711 Y93.7674
G1 X-130.7486 Y93.795
G1 X-131.2811 Y93.8773
G2 X-131.6408 Y94.0906 I1.1396 J2.3323
G1 X-131.6804 Y94.1193
G2 X-132.2516 Y94.642 I2.4436 J3.2432
G2 X-132.4762 Y94.897 I5.5575 J5.1212
G1 X-132.5781 Y95.0201
G2 X-132.959 Y95.5091 I14.4844 J11.6746
G1 X-133.1227 Y95.7275
G3 X-133.4306 Y96.1382 I-29.9829 J-22.1582
G3 X-133.9981 Y96.8415 I-10.4642 J-7.8633
G1 X-134.0553 Y96.9055
G3 X-134.5292 Y97.372 I-4.107 J-3.6993
G3 X-134.9344 Y97.6688 I-2.1055 J-2.4486
G1 X-135.0159 Y97.7167
G3 X-135.679 Y97.9602 I-1.0514 J-1.8384
G3 X-136.3855 Y97.9553 I-0.3397 J-1.9528
G3 X-136.6028 Y97.427 I3.1292 J-1.5963
G3 X-136.7379 Y96.381 I2.6475 J-0.8735
G3 X-136.529 Y95.5045 I2.7745 J0.1979
G3 X-136.3616 Y95.1521 I3.6287 J1.5081
G3 X-135.9645 Y94.5406 I4.5678 J2.5313
G3 X-135.5595 Y94.0493 I5.8019 J4.3713
G3 X-134.7842 Y93.2496 I11.9482 J10.8069
G1 X-134.1827 Y92.6691
G2 X-133.7362 Y92.228 I-15.9871 J-16.63
G2 X-133.4115 Y91.8869 I-15.2892 J-14.8793
G2 X-132.956 Y91.3466 I-5.3193 J-4.9467
G1 X-132.851 Y91.2044
G2 X-132.7027 Y90.9844 I-2.7429 J-2.0101
G2 X-132.5678 Y90.7561 I-3.5962 J-2.2785
G3 X-133.8587 Y89.5793 I12.0092 J-14.471
G3 X-134.9502 Y88.3654 I11.4009 J-11.3478
G3 X-136.6172 Y85.816 I11.6471 J-9.4359
G3 X-137.6258 Y83.3664 I14.2484 J-7.2986
G3 X-137.9423 Y82.255 I18.492 J-5.8672
G3 X-138.3667 Y80.1328 I22.5528 J-5.6139
G3 X-138.5987 Y78.2547 I34.0256 J-5.1575
G3 X-138.6715 Y77.4299 I37.9153 J-3.7584
G1 X-138.6866 Y77.2364
G1 X-138.7009 Y77.0458
G1 X-138.7521 Y76.2953
G1 X-138.7631 Y76.1193
G1 X-138.7737 Y75.946
G1 X-138.7838 Y75.7753
G3 X-138.8585 Y74.4316 I403.3259 J-23.0926
G1 X-138.8745 Y74.1375
G1 X-138.9398 Y72.9982
G2 X-139.0876 Y71.0062 I-67.3678 J3.9975
G1 X-139.1231 Y70.6331
G1 X-139.1592 Y70.2836
G1 X-139.1959 Y69.9563
G2 X-139.5753 Y67.5159 I-29.5825 J3.35
G1 X-139.6062 Y67.3646
G2 X-140.1922 Y65.1245 I-21.5756 J4.4471
G2 X-140.2306 Y64.5755 I-2.0851 J-0.1298
G2 X-140.3804 Y64.084 I-2.7995 J0.5843
G2 X-140.4035 Y64.028 I-0.7163 J0.2626
G2 X-140.4274 Y63.9727 I-0.6857 J0.2638
G2 X-140.6456 Y63.5475 I-4.4221 J2.001
G1 X-140.7035 Y63.45
G1 X-140.8232 Y63.2608
G2 X-140.946 Y63.08 I-5.318 J3.4794
G2 X-141.0077 Y62.993 I-2.3462 J1.5996
G2 X-141.2609 Y62.6562 I-8.252 J5.9399
G1 X-141.3858 Y62.4988
G1 X-141.4477 Y62.4225
G1 X-141.6962 Y62.1238
G1 X-141.9376 Y61.8418
G1 X-142.4017 Y61.305
G1 X-142.6104 Y61.0591
G3 X-142.9959 Y60.5811 I11.9862 J-10.0616
G3 X-143.1602 Y60.3599 I4.136 J-3.2427
G3 X-143.4452 Y59.9237 I4.5706 J-3.298
G3 X-143.6513 Y59.5092 I2.8892 J-1.6949
G3 X-143.7671 Y59.1179 I1.7896 J-0.7424
G3 X-143.786 Y58.7627 I1.3815 J-0.2513
G3 X-143.5817 Y58.1867 I1.2054 J0.1033
G3 X-143.2806 Y57.8475 I1.3982 J0.9377
G3 X-142.7217 Y57.4641 I2.0134 J2.3362
G3 X-142.4189 Y57.3116 I2.0362 J3.6655
G1 X-142.2641 Y57.2425
G3 X-142.1859 Y57.2095 I0.9795 J2.2106
G3 X-142.1074 Y57.1775 I0.427 J0.9349
G3 X-141.2282 Y57.8477 I-12.3029 J17.0527
G1 X-141.134 Y57.9237
G3 X-139.716 Y59.1981 I-11.5204 J14.2457
G3 X-138.7543 Y60.2606 I-9.843 J9.8761
G3 X-138.1122 Y61.1244 I-8.9078 J7.2911
G3 X-137.3226 Y62.5324 I-7.7876 J5.2924
G3 X-137.0269 Y63.2845 I-8.218 J3.6651
G3 X-136.9083 Y63.671 I-5.2672 J1.8284
G3 X-136.8107 Y64.0633 I-5.9564 J1.6905
G1 X-136.8888 Y65.606
G1 X-136.9643 Y67.0562
G1 X-136.9977 Y67.7379
G2 X-137.0276 Y68.3993 I41.6468 J2.2106
G2 X-137.031 Y68.4795 I1.1305 J0.0881
G2 X-137.1014 Y71.0372 I79.0151 J3.4548
G2 X-137.0686 Y73.2859 I43.8155 J0.4865
G2 X-137.0131 Y74.2718 I30.1299 J-1.2026
G1 X-136.9764 Y74.7338
G2 X-136.7586 Y76.517 I25.2454 J-2.1779
G2 X-136.6199 Y77.2922 I22.7751 J-3.677
G1 X-136.5446 Y77.6538
G2 X-136.1855 Y79.0391 I18.3474 J-4.0168
G2 X-135.2698 Y81.3692 I14.7539 J-4.4529
G2 X-133.1707 Y84.4749 I12.3793 J-6.1047
G2 X-131.8331 Y85.7924 I11.5422 J-10.381
G2 X-130.3501 Y86.9439 I11.2585 J-12.9691
G3 X-131.315 Y85.0299 I14.7801 J-8.6518
G3 X-131.6872 Y84.0992 I17.8235 J-7.6666
G3 X-132.003 Y83.1817 I18.8519 J-7.0024
G3 X-132.5029 Y81.3706 I23.7228 J-7.5222
G1 X-132.601 Y80.9412
G3 X-132.9281 Y79.2381 I32.9827 J-7.2169
G1 X-132.9927 Y78.8364
G3 X-133.2112 Y77.2492 I44.3246 J-6.9108
G3 X-133.3752 Y75.7544 I62.7584 J-7.6416
G1 X-133.4424 Y75.0518
G1 X-133.4733 Y74.7111
G1 X-133.5029 Y74.3755
G1 X-133.5592 Y73.7145
G1 X-133.5858 Y73.3941
G1 X-133.6118 Y73.0785
G1 X-133.7137 Y71.8357
G1 X-133.8137 Y70.6695
G1 X-133.8638 Y70.1225
G2 X-133.8764 Y69.99 I-2.9812 J0.2154
G2 X-133.889 Y69.8585 I-2.8821 J0.2104
G2 X-133.9017 Y69.7281 I-2.7927 J0.2062
G2 X-134.1344 Y67.6606 I-64.3567 J6.1953
G2 X-134.2602 Y66.7574 I-36.1607 J4.5764
G1 X-134.3255 Y66.3347
G1 X-134.393 Y65.9256
G1 X-134.4627 Y65.53
G1 X-134.5345 Y65.1474
G2 X-135.2595 Y62.2202 I-26.9547 J5.1225
G2 X-136.0434 Y60.0949 I-19.7271 J6.0696
G2 X-136.7905 Y58.5678 I-16.3111 J7.0327
G2 X-139.8769 Y54.5291 I-14.776 J8.0935
G1 X-140.0314 Y54.5442
G3 X-140.6417 Y54.5682 I-0.5681 J-6.6673
G3 X-141.2092 Y54.5189 I0.0495 J-3.864
G3 X-141.7135 Y54.3748 I0.3306 J-2.1112
G3 X-142.1169 Y54.1226 I0.5531 J-1.3337
G3 X-142.3875 Y53.7883 I0.8512 J-0.9654
G3 X-142.5396 Y53.4245 I1.4083 J-0.8027
G3 X-142.6135 Y53.0659 I2.4971 J-0.7014
G3 X-142.6421 Y52.3826 I4.1474 J-0.5157
G3 X-142.6038 Y51.7853 I8.1517 J0.2228
G3 X-142.5778 Y51.5242 I7.1642 J0.5803
G3 X-142.551 Y51.2794 I9.5095 J0.9189
G1 X-142.4989 Y50.8202
G1 X-142.4879 Y50.7194
G2 X-142.4197 Y49.937 I-14.9067 J-1.6936
G2 X-142.407 Y49.3459 I-7.8772 J-0.4654
G2 X-142.4346 Y48.9022 I-4.4544 J0.0552
G2 X-142.5667 Y48.2483 I-3.3837 J0.3432
G2 X-142.8479 Y47.6433 I-2.3959 J0.7457
G3 X-141.3431 Y48.3257 I-3.919 J10.643
G1 X-141.185 Y48.4126
G3 X-140.5751 Y48.776 I-6.6144 J11.7942
G3 X-140.0217 Y49.1451 I-6.0534 J9.6763
G3 X-139.031 Y49.9011 I-9.5082 J13.4861
G1 X-138.9262 Y49.9883
G3 X-137.361 Y51.4542 I-13.5351 J16.0212
G3 X-136.8107 Y52.0403 I-16.1075 J15.6739
G1 X-136.5753 Y52.3016
G3 X-135.7181 Y53.3037 I-25.5728 J22.7461
G3 X-135.4056 Y53.6869 I-16.7839 J14.003
G1 X-135.2702 Y53.8557
G1 X-135.0184 Y54.1737
G3 X-134.1537 Y55.2997 I-47.5991 J37.4438
G3 X-134.1004 Y55.3707 I-1.6319 J1.2832
G3 X-134.0504 Y55.4372 I-1.5061 J1.183
G3 X-134.0036 Y55.4997 I-1.3994 J1.0978
G3 X-133.9597 Y55.5582 I-1.3071 J1.0241
G1 X-133.3064 Y56.4389
G0 Z5.0
G0 X-150.8957 Y72.4263
G1 Z0.0
G1 X-150.699 Y73.0442
G1 X-150.5129 Y73.6441
G1 X-150.3363 Y74.2264
G1 X-150.1685 Y74.7915
G1 X-150.0086 Y75.3397
G1 X-149.856 Y75.8714
G1 X-149.5655 Y76.9031
G1 X-149.298 Y77.8717
G1 X-148.3089 Y81.5081
G2 X-147.5438 Y84.2296 I172.4715 J-47.0162
G2 X-147.2434 Y85.2464 I64.6733 J-18.552
G2 X-147.1764 Y85.4685 I7.3669 J-2.1021
G2 X-147.111 Y85.6835 I7.2516 J-2.0889
G2 X-147.0472 Y85.8916 I7.1559 J-2.0812
G2 X-146.9849 Y86.0931 I7.0784 J-2.0786
G2 X-146.924 Y86.2881 I7.0189 J-2.0812
G2 X-145.9156 Y89.2894 I70.618 J-22.0579
G1 X-145.7795 Y89.661
G2 X-145.2824 Y90.9542 I60.7339 J-22.6057
G1 X-145.1528 Y91.2754
G1 X-144.9542 Y91.7554
G1 X-144.7503 Y92.2333
G2 X-144.3382 Y93.3916 I5.6361 J-1.3528
G2 X-143.8187 Y94.3315 I7.9331 J-3.7718
G1 X-143.692 Y94.53
G2 X-143.4376 Y94.9088 I11.7658 J-7.6293
G1 X-143.1905 Y95.2588
G1 X-142.9539 Y95.5841
G1 X-142.8418 Y95.7362
G1 X-142.6238 Y96.0304
G3 X-142.2166 Y96.5843 I-49.9205 J37.127
G1 X-142.1284 Y96.7067
G1 X-141.9595 Y96.9454
G3 X-141.3648 Y97.8679 I-11.2582 J7.911
G3 X-140.9868 Y98.6031 I-6.9334 J4.0293
G3 X-140.6214 Y99.7885 I-4.4966 J2.0352
G3 X-140.6156 Y101.0289 I-3.813 J0.6381
G3 X-141.8479 Y102.3742 I-5.3847 J-3.6955
G3 X-143.1833 Y103.2118 I-3.9787 J-4.8603
G3 X-143.8165 Y103.4726 I-2.9613 J-6.2896
G3 X-145.0508 Y103.8117 I-2.961 J-8.3608
G1 X-145.3255 Y103.8633
G3 X-146.3987 Y104.0018 I-2.0884 J-11.9594
G1 X-146.5165 Y104.0117
G1 X-146.6326 Y104.0207
G3 X-147.0902 Y104.0484 I-1.6222 J-23.056
G3 X-148.8085 Y104.0693 I-1.1878 J-26.9678
G1 X-149.4529 Y104.0559
G1 X-150.0167 Y104.0401
G1 X-151.0034 Y104.0124
G1 X-151.3736 Y104.0048
G2 X-152.6695 Y104.009 I-0.5628 J26.308
G2 X-153.3168 Y104.0406 I0.2876 J12.5448
G2 X-153.4784 Y104.0529 I0.1861 J3.522
G1 X-153.5995 Y104.0634
G2 X-153.9619 Y104.1025 I2.8926 J28.5205
G2 X-154.0293 Y103.7958 I-7.9531 J1.5867
G1 X-154.0464 Y103.7215
G2 X-154.3611 Y102.5525 I-16.5507 J3.8282
G2 X-154.5281 Y102.044 I-21.5478 J6.7948
G2 X-154.8964 Y101.1062 I-11.566 J4.001
G2 X-155.2889 Y100.3092 I-8.6376 J3.7594
G2 X-156.1734 Y99.0218 I-6.5083 J3.5235
G2 X-156.5841 Y98.5964 I-3.8817 J3.3367
G2 X-157.4144 Y97.9792 I-3.1427 J3.3609
G2 X-158.8773 Y97.4789 I-2.0058 J3.4758
G2 X-159.652 Y97.4428 I-0.5852 J4.2299
G2 X-160.4225 Y97.5319 I0.2198 J5.2764
G3 X-160.4179 Y97.135 I0.9479 J-0.1874
G3 X-160.3054 Y96.8098 I1.563 J0.3585
G3 X-160.1623 Y96.5431 I3.402 J1.6537
G3 X-160.092 Y96.4293 I1.6033 J0.911
G3 X-159.9541 Y96.2182 I4.7167 J2.9327
G2 X-159.712 Y95.8435 I-7.2603 J-4.9555
G2 X-159.5535 Y95.5404 I-2.3822 J-1.4386
G2 X-159.4739 Y95.2928 I-1.0866 J-0.486
G2 X-159.4872 Y94.9039 I-0.7738 J-0.1682
G2 X-159.6839 Y94.5683 I-0.8489 J0.272
G1 X-160.1186 Y94.4874
G1 X-160.9348 Y94.3422
G1 X-161.6495 Y94.2169
G1 X-162.2745 Y94.1047
G1 X-162.8207 Y94.002
G3 X-164.719 Y93.5789 I5.5136 J-29.2061
G1 X-164.9539 Y93.5159
G1 X-165.1588 Y93.4584
G1 X-165.3376 Y93.4062
G3 X-166.5697 Y92.9811 I4.1501 J-14.0267
G2 X-167.7545 Y92.6702 I-2.0102 J5.2471
G2 X-168.8216 Y92.5849 I-1.1517 J7.6911
G2 X-169.7608 Y92.6063 I-0.1839 J12.5553
G2 X-170.5844 Y92.6656 I1.2389 J22.9284
G1 X-171.3077 Y92.7269
G1 X-171.4668 Y92.7396
G3 X-172.0842 Y92.7797 I-1.653 J-20.6663
G3 X-172.3556 Y92.7904 I-0.8424 J-17.9464
G3 X-173.3749 Y92.7657 I-0.2973 J-8.7622
G3 X-174.1332 Y92.6443 I0.5051 J-5.5839
G3 X-175.2035 Y92.2208 I0.8698 J-3.7622
G3 X-176.0965 Y91.4947 I1.9691 J-3.3342
G3 X-174.3339 Y90.9031 I5.7042 J14.0735
G1 X-174.1377 Y90.8504
G3 X-172.5784 Y90.4954 I6.5235 J25.0548
G1 X-172.4926 Y90.4786
G1 X-172.4073 Y90.4621
G1 X-172.0689 Y90.3988
G3 X-171.7405 Y90.3403 I5.0493 J27.3925
G1 X-171.6608 Y90.3265
G3 X-171.0282 Y90.2217 I4.6754 J26.2771
G1 X-170.7312 Y90.1751
G1 X-170.5873 Y90.153
G1 X-170.0202 Y90.0684
G1 X-168.9558 Y89.9168
G1 X-168.0241 Y89.786
G1 X-167.6165 Y89.7278
G2 X-167.4254 Y89.7001 I-0.7781 J-6.0458
G1 X-166.6858 Y89.5895
G1 X-166.0395 Y89.4866
G2 X-163.7904 Y89.0522 I-5.9949 J-37.0714
G2 X-163.5115 Y88.9867 I-1.7821 J-8.2146
G2 X-162.542 Y88.7314 I-4.9509 J-20.7719
G2 X-162.4818 Y88.714 I-0.1609 J-0.6679
G2 X-161.5863 Y88.4284 I-4.6701 J-16.1941
G2 X-161.5644 Y88.4286 I0.0124 J-0.1519
G2 X-160.8649 Y88.4104 I0.0576 J-11.1938
G2 X-160.1945 Y88.3402 I-0.4392 J-7.4344
G2 X-159.5592 Y88.2134 I-0.911 J-6.2183
G2 X-158.4022 Y87.7666 I-1.1887 J-4.8
G2 X-157.4905 Y87.0909 I-1.9496 J-3.583
G2 X-156.8409 Y86.2732 I-3.1513 J-3.1706
G2 X-156.4027 Y85.4072 I-4.9007 J-3.0233
G2 X-156.1088 Y84.5479 I-7.4935 J-3.0429
G1 X-156.0944 Y84.4965
G2 X-155.897 Y83.6704 I-13.0198 J-3.5466
G2 X-155.7557 Y82.8846 I-19.9879 J-3.9999
G1 X-155.7412 Y82.7918
G1 X-155.7134 Y82.6074
G1 X-155.6623 Y82.2437
G2 X-155.5732 Y81.5366 I-79.5986 J-10.3962
G1 X-155.534 Y81.2036
G1 X-155.4598 Y80.5571
G1 X-155.4244 Y80.253
G1 X-155.3891 Y79.9581
G3 X-155.3715 Y79.8151 I3.2929 J0.3327
G3 X-155.2978 Y79.2522 I23.9391 J2.8475
G1 X-155.2601 Y78.9881
G3 X-155.0867 Y77.9675 I19.5412 J2.795
G3 X-155.0756 Y77.9117 I0.5982 J0.0897
G3 X-155.0645 Y77.8563 I0.5896 J0.0902
G3 X-154.8587 Y76.9837 I15.3336 J3.1553
G3 X-154.7487 Y76.6057 I8.065 J2.1422
G3 X-154.1948 Y75.2373 I7.8937 J2.3988
G3 X-153.5973 Y74.3008 I5.4717 J2.8323
G3 X-152.3863 Y73.1621 I4.2192 J3.2735
G3 X-151.6659 Y72.7439 I3.2248 J4.7254
G3 X-150.8957 Y72.4263 I2.8962 J5.9328
G0 Z5.0
G0 X-168.7874 Y97.2167
G1 Z0.0
G2 X-169.0264 Y97.421 I4.3245 J5.3005
G2 X-169.4663 Y97.8454 I3.9202 J4.5032
G2 X-169.8284 Y98.2865 I2.9696 J2.8074
G2 X-170.0801 Y98.7484 I1.7928 J1.2762
G2 X-170.1695 Y99.2123 I1.1694 J0.4661
G2 X-170.0813 Y99.6235 I1.0401 J-0.0081
G2 X-169.8813 Y99.9498 I1.3652 J-0.6127
G2 X-169.6364 Y100.2072 I1.7212 J-1.3919
G1 X-169.5741 Y100.2623
G2 X-169.3168 Y100.4644 I2.4248 J-2.8219
G2 X-168.803 Y100.8004 I3.911 J-5.4193
G1 X-168.5707 Y100.9375
G1 X-167.6894 Y101.4385
G1 X-167.5237 Y101.5358
G3 X-166.9161 Y101.9259 I-4.9499 J8.376
G3 X-166.4871 Y102.2638 I-2.4672 J3.5736
G1 X-166.4111 Y102.3335
G3 X-166.1472 Y102.6158 I-2.2303 J2.3497
G3 X-165.8457 Y103.111 I-1.5583 J1.288
G3 X-165.7211 Y103.6773 I-1.4919 J0.6252
G3 X-166.1246 Y104.4417 I-2.1379 J-0.6397
G3 X-167.1827 Y105.1785 I-1.7557 J-1.3931
G3 X-168.4721 Y105.1637 I-0.6222 J-1.9606
G1 X-169.0984 Y105.0725
G1 X-169.25 Y105.0499
G1 X-169.8515 Y104.9588
G1 X-171.016 Y104.7758
G1 X-172.1069 Y104.5982
G1 X-173.1293 Y104.4286
G1 X-173.6085 Y104.3487
G1 X-174.5372 Y104.1943
G1 X-174.9727 Y104.1226
G1 X-175.3947 Y104.0538
G1 X-175.5993 Y104.0207
G1 X-176.4048 Y103.8929
G1 X-177.1607 Y103.7774
G2 X-180.0037 Y103.4018 I-10.9732 J72.1214
G2 X-181.0739 Y103.293 I-4.7638 J41.5372
G1 X-181.5427 Y103.2522
G2 X-185.0685 Y103.1002 I-3.6519 J43.7461
G2 X-188.5943 Y103.2539 I-0.0211 J40.0419
G2 X-190.1277 Y102.4307 I-3.3861 J4.4674
G2 X-191.6006 Y102.134 I-1.8503 J5.3814
G2 X-192.9087 Y102.1517 I-0.5421 J8.2453
G1 X-193.1937 Y102.1807
G2 X-194.2914 Y102.3482 I1.7579 J15.1982
G1 X-194.7698 Y102.44
G1 X-195.666 Y102.6234
G3 X-196.4535 Y102.7791 I-6.6575 J-31.6082
G3 X-196.5401 Y102.795 I-0.2958 J-1.3602
G3 X-196.6254 Y102.8105 I-0.2775 J-1.2896
G3 X-196.7095 Y102.8254 I-0.2615 J-1.231
G3 X-196.7923 Y102.8397 I-0.2474 J-1.1818
G3 X-197.4464 Y102.9391 I-3.2179 J-18.9862
G3 X-198.6021 Y103.0297 I-1.4152 J-10.6322
G3 X-198.7111 Y103.031 I-0.0784 J-1.9777
G3 X-199.5541 Y102.9885 I-0.0753 J-6.8831
G3 X-200.7908 Y102.7207 I0.6609 J-6.0412
G3 X-201.9407 Y102.1927 I1.8485 J-5.5424
G2 X-202.79 Y101.9105 I-1.6173 J3.4487
G2 X-203.6187 Y101.8094 I-1.0006 J4.7554
G2 X-204.0109 Y101.8044 I-0.2745 J6.0994
G1 X-204.0586 Y101.8053
G2 X-204.8155 Y101.8571 I0.2292 J8.9029
G1 X-204.9932 Y101.878
G2 X-206.3837 Y102.1183 I2.3623 J17.8122
G1 X-206.4605 Y102.1344
G1 X-206.5367 Y102.1506
G2 X-207.1408 Y102.2838 I10.4634 J48.8732
G1 X-207.7105 Y102.4135
G1 X-207.9795 Y102.4744
G1 X-208.2411 Y102.5328
G1 X-208.7505 Y102.6416
G3 X-209.717 Y102.8174 I-4.3688 J-21.2743
G3 X-210.5797 Y102.9177 I-1.7171 J-11.0084
G3 X-211.345 Y102.9375 I-0.5657 J-7.0796
G3 X-212.015 Y102.8788 I0.1468 J-5.5317
G3 X-212.5905 Y102.7512 I0.7298 J-4.6543
G3 X-214.2983 Y101.644 I0.9866 J-3.3924
G3 X-214.8738 Y100.7996 I3.7241 J-3.1564
G3 X-215.2871 Y99.8651 I5.9927 J-3.209
G3 X-214.5804 Y99.4929 I1.3103 J1.6309
G3 X-213.9029 Y99.3928 I0.7072 J2.4444
G3 X-213.3092 Y99.4307 I0.0496 J3.8933
G3 X-212.7979 Y99.5227 I-0.9736 J6.8782
G3 X-211.9181 Y99.7505 I-3.1207 J13.865
G1 X-211.2622 Y99.9379
G2 X-210.7675 Y100.0697 I4.3497 J-15.3252
G2 X-210.0154 Y100.2259 I2.1729 J-8.5749
G2 X-209.2499 Y100.2903 I0.7775 J-4.664
G3 X-207.5106 Y98.2379 I5.1442 J2.5962
G3 X-206.3309 Y97.5693 I3.3675 J4.5665
G3 X-205.0217 Y97.2167 I1.9512 J4.6382
G2 X-202.4487 Y97.6138 I3.2991 J-12.8395
G2 X-200.184 Y97.5492 I0.7278 J-14.2075
G2 X-199.9383 Y97.5211 I-0.9069 J-9.0233
G2 X-199.456 Y97.4551 I-1.2927 J-11.2334
G2 X-197.6083 Y97.0825 I-3.0184 J-19.7361
G2 X-196.019 Y96.6426 I-8.0546 J-32.1886
G1 X-195.674 Y96.5368
G1 X-195.0074 Y96.3251
G1 X-194.6956 Y96.2237
G1 X-194.3937 Y96.1244
G1 X-193.225 Y95.7365
G1 X-192.7129 Y95.568
G1 X-192.2319 Y95.4125
G3 X-191.3264 Y95.1316 I22.1795 J69.904
G3 X-189.7256 Y94.6936 I8.5797 J28.2095
G3 X-188.5083 Y94.4304 I5.2636 J21.4011
G3 X-186.6571 Y94.1801 I3.3166 J17.5586
G3 X-184.7895 Y94.1431 I1.2262 J14.7276
G1 Y94.8835
G2 X-185.8394 Y95.1438 I60.1195 J244.7841
G2 X-187.8052 Y95.6438 I46.106 J185.3924
G1 X-188.6637 Y95.8691
G1 X-189.4673 Y96.0849
G1 X-190.2196 Y96.2918
G2 X-193.0271 Y97.1145 I25.3307 J91.6388
G2 X-193.0927 Y97.1349 I0.4282 J1.4963
G2 X-193.1577 Y97.1551 I0.4229 J1.4742
G2 X-195.2113 Y97.8259 I21.8427 J70.3444
G2 X-196.7374 Y98.3712 I19.0295 J55.6658
G2 X-197.8718 Y98.8078 I15.5299 J42.0417
G2 X-199.5526 Y99.5137 I17.3748 J43.7257
G1 X-199.9682 Y99.7008
G2 X-200.2786 Y99.8441 I6.8485 J15.2406
G1 X-200.5106 Y99.9533
G1 X-200.6842 Y100.0362
G1 X-200.9436 Y100.1622
G1 X-201.2021 Y100.2903
G3 X-199.9371 Y100.0393 I2.6836 J10.2131
G3 X-198.8164 Y99.9208 I2.2567 J15.9786
G3 X-198.5706 Y99.9034 I0.5663 J6.2757
G1 X-198.511 Y99.8996
G3 X-198.2746 Y99.8858 I0.76 J11.0143
G3 X-197.3576 Y99.8504 I1.7303 J32.9325
G1 X-196.9562 Y99.8424
G3 X-195.4509 Y99.8397 I0.885 J74.6008
G1 X-194.8864 Y99.8462
G1 X-194.3924 Y99.8536
G1 X-193.5281 Y99.8679
G1 X-193.2039 Y99.8728
G1 X-192.9203 Y99.8765
G1 X-192.7961 Y99.8779
G1 X-192.6797 Y99.8791
G1 X-192.2434 Y99.8819
G1 X-192.0798 Y99.8822
G1 X-191.7935 Y99.8814
G1 X-191.3641 Y99.8763
G1 X-191.1494 Y99.8715
G1 X-191.0421 Y99.8685
G1 X-190.9348 Y99.8651
G3 X-188.2367 Y98.0811 I7.7017 J8.7158
G3 X-185.9577 Y97.2558 I5.359 J11.2394
G3 X-184.1714 Y96.9217 I3.3774 J13.1155
G3 X-181.4494 Y96.8406 I1.821 J15.3988
G3 X-178.7523 Y97.2167 I-0.9589 J16.7352
G2 X-178.6121 Y97.6256 I3.2402 J-0.8823
G2 X-178.4196 Y97.9763 I1.7442 J-0.7289
G2 X-178.175 Y98.2497 I1.2348 J-0.8589
G2 X-177.575 Y98.5348 I0.8319 J-0.9768
G2 X-177.0107 Y98.5535 I0.3471 J-1.9482
G2 X-176.5283 Y98.4667 I-0.4219 J-3.7279
G2 X-176.1177 Y98.3453 I-1.5389 J-5.962
G2 X-175.7659 Y98.2175 I-1.7945 J-5.4862
G1 X-175.6137 Y98.1571
G1 X-175.5426 Y98.1281
G1 X-175.2688 Y98.0121
G1 X-174.793 Y97.8011
G2 X-174.7484 Y97.7811 I-0.1402 J-0.3715
G1 X-174.4031 Y97.6266
G1 X-174.2732 Y97.5696
G1 X-174.1592 Y97.5204
G3 X-173.7568 Y97.3567 I4.035 J9.3469
G3 X-173.3455 Y97.2167 I2.0468 J5.3361
G2 X-173.0848 Y97.3547 I0.6586 J-0.9286
G2 X-172.8221 Y97.4293 I0.6272 J-1.7091
G2 X-172.3152 Y97.4683 I0.4397 J-2.402
G2 X-171.8726 Y97.4377 I-0.1584 J-5.4941
G2 X-171.1053 Y97.3202 I-1.4375 J-11.9519
G2 X-170.9616 Y97.2948 I-1.0697 J-6.4709
G1 X-170.6921 Y97.2477
G3 X-170.633 Y97.2376 I0.1538 J0.7285
G1 X-170.4038 Y97.2008
G1 X-170.2025 Y97.1722
G3 X-169.4926 Y97.121 I0.7385 J5.2882
G3 X-169.1365 Y97.1432 I0.0146 J2.6312
G3 X-168.7874 Y97.2167 I-0.2506 J2.0567
G0 Z5.0
G0 X-175.3072 Y108.6934
G1 Z0.0
G3 X-175.1505 Y108.8267 I-0.2713 J0.4776
G3 X-175.0048 Y109.099 I-0.6799 J0.5391
G3 X-174.9621 Y109.2475 I-1.4099 J0.4854
G3 X-174.9537 Y109.2852 I-0.3553 J0.0993
G3 X-174.9478 Y109.3136 I-0.1001 J0.0353
G3 X-174.9327 Y109.3992 I-1.7491 J0.3528
G3 X-176.0869 Y109.8001 I-18.3907 J-51.0881
G3 X-180.6315 Y111.1188 I-18.4264 J-55.0141
G3 X-182.6483 Y111.5789 I-13.5966 J-54.9446
G1 X-183.1231 Y111.6769
G3 X-186.8834 Y112.3283 I-13.6067 J-67.3662
G3 X-190.1953 Y112.7491 I-13.933 J-96.4242
G1 X-190.9214 Y112.8267
G1 X-191.6253 Y112.8979
G3 X-191.7959 Y112.9146 I-0.5862 J-5.1031
G3 X-191.9651 Y112.931 I-0.6376 J-5.7016
G3 X-194.6532 Y113.1706 I-19.1473 J-199.5909
G1 X-197.0071 Y113.3626
G1 X-197.5221 Y113.4043
G1 X-198.5199 Y113.4859
G1 X-198.9875 Y113.5249
G1 X-199.4405 Y113.5633
G2 X-202.9484 Y113.8926 I14.3033 J171.2101
G1 X-203.6053 Y113.9629
G2 X-208.5169 Y114.6152 I10.9639 J101.3792
G2 X-213.3847 Y115.5391 I12.3696 J78.4596
G3 X-213.9734 Y115.7002 I-1.2512 J-3.4155
G3 X-214.5404 Y115.7706 I-0.8542 J-4.5622
G3 X-215.077 Y115.7837 I-0.421 J-6.2528
G3 X-215.5816 Y115.7626 I0.0871 J-8.1241
G1 X-215.8186 Y115.7445
G3 X-216.0485 Y115.7231 I0.5594 J-7.2763
G1 X-216.1601 Y115.7117
G3 X-217.0375 Y115.6067 I3.8738 J-36.1022
G1 X-217.4249 Y115.5583
G1 X-217.79 Y115.5157
G1 X-217.962 Y115.4974
G2 X-218.6312 Y115.4439 I-1.678 J16.7778
G2 X-219.2224 Y115.4318 I-0.4448 J7.2959
G1 X-219.3523 Y115.4352
G2 X-220.3503 Y115.5658 I0.1348 J4.9085
G2 X-221.0625 Y115.8249 I0.7625 J3.2046
G2 X-221.9642 Y116.5095 I1.3823 J2.7568
G2 X-222.313 Y116.9572 I2.6112 J2.394
G2 X-222.5963 Y117.4489 I3.7437 J2.4846
G2 X-223.7884 Y116.6372 I-3.723 J4.1872
G2 X-224.9541 Y116.1848 I-2.8934 J5.7273
G2 X-226.0193 Y115.9568 I-2.2997 J8.1393
G2 X-226.9652 Y115.854 I-1.662 J10.8987
G1 X-227.1728 Y115.841
G1 X-227.374 Y115.831
G2 X-227.5691 Y115.8236 I-0.4719 J9.9468
G2 X-228.3252 Y115.8135 I-0.6631 J21.2829
G1 X-228.6561 Y115.8165
G1 X-228.8112 Y115.8191
G2 X-230.0124 Y115.856 I1.1859 J58.0908
G1 X-230.4628 Y115.8732
G1 X-231.2513 Y115.8999
G3 X-231.5471 Y115.9071 I-0.8447 J-28.3258
G3 X-231.8059 Y115.9116 I-0.2539 J-7.1785
G3 X-232.0325 Y115.9138 I-0.1805 J-6.9901
G1 X-232.2307 Y115.9141
G1 X-232.5776 Y115.9107
G3 X-232.6427 Y115.9094 I-0.0209 J-0.5906
G3 X-232.8865 Y115.9026 I0.1019 J-8.0001
G3 X-232.9323 Y115.9009 I-0.0057 J-0.4748
G1 X-233.2748 Y115.8844
G3 X-233.6169 Y115.8598 I1.3162 J-20.6868
G1 X-233.6966 Y115.9247
G3 X-234.3884 Y116.3786 I-2.9512 J-3.7439
G3 X-235.3702 Y116.8119 I-3.1529 J-5.8149
G3 X-235.6232 Y116.8933 I-1.7887 J-5.1274
G3 X-236.1792 Y117.0277 I-1.4717 J-4.8702
G3 X-236.4845 Y117.0702 I-0.6535 J-3.5747
G3 X-236.7725 Y117.0805 I-0.2308 J-2.427
G3 X-237.0434 Y117.0428 I0.0101 J-1.0656
G3 X-237.1512 Y116.9999 I0.1145 J-0.4445
G3 X-237.2845 Y116.8449 I0.1105 J-0.2298
G3 X-237.2764 Y116.6796 I0.29 J-0.0686
G3 X-237.2153 Y116.5424 I0.5601 J0.1671
G3 X-237.0503 Y116.317 I1.3935 J0.8475
G3 X-236.8819 Y116.1408 I1.9385 J1.6835
G3 X-236.5619 Y115.8594 I3.8187 J4.0208
G3 X-236.4367 Y115.7601 I4.4141 J5.4313
G3 X-235.5193 Y115.1212 I7.769 J10.1788
G1 X-235.2668 Y115.0661
G3 X-235.2045 Y115.0528 I0.1587 J0.593
G3 X-235.1424 Y115.0397 I0.1576 J0.5946
G3 X-235.0805 Y115.0269 I0.1566 J0.5962
G3 X-235.0189 Y115.0141 I0.1555 J0.5979
G3 X-234.9575 Y115.0016 I0.1544 J0.5995
G3 X-234.4676 Y114.9061 I3.7768 J18.074
G3 X-233.5146 Y114.7425 I7.5933 J41.3779
G1 X-233.0666 Y114.6751
G3 X-231.3239 Y114.4626 I5.9214 J41.3073
G1 X-230.9417 Y114.4251
G1 X-230.5712 Y114.3914
G3 X-230.4814 Y114.3836 I0.1479 J1.1816
G3 X-230.3923 Y114.376 I0.147 J1.1951
G1 X-229.6849 Y114.3198
G1 X-229.3532 Y114.2958
G1 X-228.7102 Y114.2523
G1 X-228.1071 Y114.2144
G1 X-226.9761 Y114.1466
G1 X-225.9865 Y114.0856
G2 X-225.1208 Y114.0267 I-11.4799 J-174.9478
G1 X-224.3638 Y113.968
G1 X-224.0328 Y113.9397
G2 X-221.5576 Y113.6573 I-4.0565 J-46.5394
G1 X-221.2495 Y113.6115
G1 X-220.9802 Y113.5692
G1 X-220.5099 Y113.4901
G2 X-219.1066 Y113.2114 I-5.7997 J-32.8791
G2 X-219.235 Y113.1719 I-1.0354 J3.136
G2 X-220.2517 Y112.8815 I-7.3948 J23.9628
G2 X-222.0552 Y112.4675 I-7.2 J27.2313
G2 X-227.5796 Y112.0476 I-4.5578 J23.4123
G2 X-228.4583 Y111.9315 I-1.0291 J4.4057
G2 X-229.239 Y111.9492 I-0.2404 J6.6087
G2 X-229.4111 Y111.9639 I0.278 J4.2896
G2 X-229.4947 Y111.9721 I0.1141 J1.5933
G2 X-229.577 Y111.9808 I0.0933 J1.2755
G2 X-230.2239 Y112.066 I1.7451 J15.7412
G1 X-230.7956 Y112.1537
G1 X-230.9224 Y112.173
G3 X-231.4156 Y112.2413 I-2.0905 J-13.276
G3 X-231.443 Y112.2446 I-0.037 J-0.1912
G3 X-231.6603 Y112.2682 I-1.8016 J-15.5552
G1 X-231.8655 Y112.2853
G1 X-232.0588 Y112.2955
G3 X-232.2409 Y112.2986 I-0.4839 J-23.0349
G3 X-232.5829 Y112.2826 I-0.0313 J-2.9864
G3 X-233.1695 Y112.1565 I0.1941 J-2.3304
G3 X-233.9083 Y111.6527 I0.5883 J-1.6562
G3 X-234.1661 Y111.2853 I1.7252 J-1.4847
G3 X-234.3555 Y110.8783 I2.4885 J-1.4053
G1 X-233.7974 Y110.8362
G3 X-231.598 Y110.7026 I8.4044 J120.1298
G3 X-231.0822 Y110.6777 I1.8748 J33.56
G3 X-229.0503 Y110.5998 I5.5429 J117.96
G3 X-225.2389 Y110.5204 I6.2733 J209.7446
G1 X-224.405 Y110.5118
G1 X-223.5972 Y110.5058
G1 X-223.2058 Y110.5036
G1 X-221.6651 Y110.499
G3 X-215.8871 Y110.5143 I-0.4727 J1265.7155
G1 X-214.8036 Y110.5186
G1 X-213.7879 Y110.5218
G1 X-211.8833 Y110.5245
G1 X-210.2168 Y110.5212
G1 X-208.7585 Y110.5123
G2 X-203.6557 Y110.413 I-1.316 J-198.7993
G1 X-203.018 Y110.3905
G2 X-201.9025 Y110.3441 I-3.8141 J-105.1829
G1 X-201.6933 Y110.3343
G1 X-200.9093 Y110.2944
G1 X-200.3215 Y110.261
G2 X-198.5592 Y110.1397 I-7.2901 J-118.7939
G3 X-196.8072 Y109.2032 I3.9966 J5.3703
G3 X-195.3716 Y108.8246 I2.9212 J8.1655
G1 X-195.0972 Y108.779
G3 X-194.0608 Y108.664 I1.9959 J13.2653
G3 X-192.4979 Y108.6161 I1.385 J19.6605
G1 X-192.3025 Y108.6175
G3 X-190.9348 Y108.6533 I-0.7934 J56.3989
G3 X-189.6103 Y107.7054 I3.7517 J3.8433
G3 X-188.2837 Y107.2435 I2.4671 J4.9491
G3 X-187.0732 Y107.1025 I1.3927 J6.6912
G3 X-186.0111 Y107.1337 I0.252 J9.529
G1 X-185.78 Y107.1554
G1 X-185.5566 Y107.1808
G1 X-185.3408 Y107.2091
G3 X-185.132 Y107.2398 I-0.9286 J7.0476
G1 X-185.0311 Y107.2557
G1 X-184.9319 Y107.272
G1 X-184.8342 Y107.2887
G3 X-183.3097 Y107.613 I-4.137 J23.1938
G3 X-183.1677 Y107.6478 I-0.5735 J2.6463
G3 X-182.6187 Y107.7868 I-8.2123 J33.5869
G1 X-181.6599 Y108.0378
G2 X-181.6149 Y108.0496 I0.1445 J-0.4603
G2 X-181.5706 Y108.0612 I0.1414 J-0.4504
G2 X-181.527 Y108.0725 I0.1384 J-0.441
G2 X-181.4841 Y108.0837 I0.1354 J-0.4319
G2 X-181.4418 Y108.0947 I0.1326 J-0.4233
G1 X-181.1091 Y108.1803
G1 X-180.8174 Y108.2534
G1 X-180.5618 Y108.3155
G1 X-180.3377 Y108.368
G1 X-179.9442 Y108.4547
G1 X-179.6479 Y108.5142
G1 X-179.425 Y108.5551
G2 X-178.7523 Y108.6533 I1.8144 J-10.0818
G2 X-178.3317 Y108.9618 I0.9678 J-0.8783
G2 X-177.8954 Y109.0691 I0.5197 J-1.1732
G2 X-177.501 Y109.0553 I0.1305 J-1.9167
G2 X-177.414 Y109.0425 I-0.1714 J-1.4651
G2 X-177.0794 Y108.97 I-0.4716 J-2.9853
G2 X-176.7838 Y108.8851 I-2.4314 J-9.0209
G1 X-176.5196 Y108.8021
G3 X-176.0407 Y108.6645 I2.1709 J6.6536
G1 X-175.945 Y108.6439
G3 X-175.5774 Y108.6151 I0.2913 J1.358
G3 X-175.3089 Y108.6924 I-0.0403 J0.6449
G3 X-175.3072 Y108.6934 I-0.2696 J0.4785
G0 Z5.0
G0 X-194.7415 Y105.587
G1 Z0.0
G3 X-199.5364 Y107.04 I-14.0911 J-37.8636
G3 X-203.8363 Y107.8491 I-10.8904 J-46.043
G3 X-207.639 Y108.2544 I-7.9136 J-56.2138
G1 X-208.056 Y108.2838
G1 X-208.4667 Y108.3102
G3 X-211.7048 Y108.4351 I-4.396 J-71.9635
G1 X-212.0591 Y108.4406
G3 X-214.8495 Y108.4369 I-1.2677 J-97.8235
G1 X-215.1547 Y108.432
G3 X-217.557 Y108.3666 I2.2156 J-125.5784
G3 X-219.6578 Y108.278 I5.7405 J-161.0076
G1 X-219.8875 Y108.2668
G3 X-223.5043 Y108.0667 I16.3368 J-327.9097
G1 X-224.8602 Y107.9841
G1 X-227.2328 Y107.8387
G2 X-228.1227 Y107.7855 I-6.6182 J103.3379
G1 X-229.6801 Y107.6968
G1 X-230.2643 Y107.6653
G1 X-230.7755 Y107.6389
G1 X-231.2229 Y107.6166
G1 X-231.6144 Y107.5979
G1 X-232.2995 Y107.5668
G1 X-232.8135 Y107.5451
G1 X-233.5844 Y107.5154
G1 X-234.3555 Y107.4895
G3 X-234.3993 Y107.5811 I-2.3516 J-1.0686
G3 X-234.7832 Y108.2902 I-8.2301 J-3.9967
G3 X-235.2135 Y108.9111 I-5.1478 J-3.1081
G3 X-235.6929 Y109.4247 I-3.4142 J-2.7062
G3 X-236.2155 Y109.8104 I-2.1187 J-2.3239
G3 X-237.3476 Y110.178 I-1.3929 J-2.3628
G3 X-237.8578 Y110.1876 I-0.3186 J-3.3701
G3 X-238.7953 Y110.0302 I0.3109 J-4.7224
G3 X-239.5841 Y109.7745 I2.0243 J-7.5909
G3 X-239.9219 Y109.6422 I2.6058 J-7.1459
G1 X-240.0792 Y109.5771
G1 X-240.1551 Y109.5451
G1 X-240.4529 Y109.4161
G1 X-241.008 Y109.1663
G1 X-241.4933 Y108.9453
G1 X-241.7061 Y108.8496
G2 X-241.8062 Y108.8051 I-1.2607 J2.7002
G1 X-242.1954 Y108.6364
G2 X-242.5389 Y108.4954 I-10.0415 J23.9721
G2 X-243.7726 Y108.0868 I-3.7017 J9.111
G2 X-244.4114 Y107.9612 I-1.6234 J6.5687
G2 X-244.7354 Y107.9267 I-0.6855 J4.8998
G2 X-245.0608 Y107.9147 I-0.3056 J3.8526
G3 X-247.3786 Y109.0039 I-6.4706 J-10.758
G1 X-247.5105 Y109.0491
G3 X-249.6577 Y109.5657 I-4.0617 J-12.1615
G3 X-251.5756 Y109.7291 I-2.2109 J-14.6109
G1 X-251.7858 Y109.7327
G3 X-253.4393 Y109.6795 I-0.196 J-19.6259
G3 X-254.8786 Y109.535 I1.9069 J-26.2366
G1 X-255.1922 Y109.4939
G1 X-255.4957 Y109.4514
G1 X-255.7893 Y109.4078
G3 X-258.0559 Y109.0134 I9.2773 J-60.0228
G3 X-258.9032 Y108.8507 I11.879 J-64.1633
G1 X-260.3861 Y108.5655
G1 X-260.9429 Y108.4621
G2 X-262.8984 Y108.1385 I-9.1137 J48.9954
G2 X-263.3894 Y108.071 I-2.8868 J19.1969
G2 X-263.4816 Y108.0591 I-0.3411 J2.2824
G2 X-264.8678 Y107.9147 I-3.5869 J27.6935
G3 X-265.7546 Y108.4398 I-3.7982 J-5.4032
G3 X-267.5875 Y108.9644 I-2.3557 J-4.7658
G3 X-268.4096 Y108.9806 I-0.5144 J-5.24
G3 X-269.172 Y108.8909 I0.371 J-6.4409
G3 X-269.8722 Y108.7307 I1.2866 J-7.2313
G3 X-270.5142 Y108.5274 I2.4506 J-8.8535
G1 X-270.5885 Y108.5007
G3 X-271.7463 Y108.019 I4.9493 J-13.5268
G1 X-271.8712 Y107.9608
G1 X-271.9938 Y107.9028
G1 X-272.2344 Y107.7865
G1 X-272.6981 Y107.5553
G1 X-273.5644 Y107.1106
G2 X-274.3277 Y106.7232 I-17.0142 J32.5709
G2 X-275.0061 Y106.3984 I-11.5099 J23.1756
G1 X-275.3077 Y106.2638
G2 X-276.4687 Y105.8291 I-4.2698 J9.6361
G1 X-276.5808 Y105.7959
G2 X-277.0197 Y105.6837 I-2.1675 J7.5624
G2 X-277.8037 Y105.5641 I-1.2137 J5.3275
G2 X-278.991 Y105.623 I-0.3744 J4.4477
G2 X-280.1166 Y106.0049 I0.803 J4.2165
G3 X-280.54 Y105.587 I57.14 J-58.3153
G3 X-280.0246 Y105.1542 I2.2353 J2.1387
G3 X-278.8735 Y104.7138 I1.5934 J2.4398
G3 X-278.3456 Y104.6659 I0.6234 J3.9394
G3 X-277.8507 Y104.6793 I0.1245 J4.5525
G3 X-276.9338 Y104.8106 I-0.5713 J7.2612
G3 X-276.5381 Y104.8977 I-1.5511 J7.9865
G1 X-276.3537 Y104.9429
G1 X-275.9977 Y105.0366
G1 X-275.6653 Y105.1301
G1 X-275.0444 Y105.3141
G1 X-274.5013 Y105.4778
G1 X-274.0245 Y105.6176
G2 X-273.9722 Y105.6326 I0.1966 J-0.5906
G2 X-273.9206 Y105.6471 I0.1879 J-0.5659
G2 X-273.8698 Y105.6614 I0.18 J-0.5439
G2 X-273.8198 Y105.6753 I0.1728 J-0.524
G2 X-273.7705 Y105.6889 I0.1661 J-0.5059
G2 X-273.7219 Y105.7022 I0.16 J-0.4895
G2 X-272.953 Y105.8924 I3.6757 J-13.2119
G2 X-272.3682 Y106.002 I2.1099 J-9.6381
G2 X-272.1471 Y106.0329 I0.6537 J-3.8705
G2 X-271.3673 Y106.0815 I0.7302 J-5.4397
G2 X-270.5897 Y106.0049 I-0.0157 J-4.1442
G2 X-270.6062 Y105.5378 I-2.2551 J-0.1544
G2 X-270.6906 Y105.1295 I-3.1312 J0.4344
G1 X-270.7163 Y105.0395
G1 X-270.7715 Y104.8659
G1 X-270.7997 Y104.7841
G2 X-270.9167 Y104.4683 I-10.6789 J3.7747
G1 X-270.9434 Y104.3979
G3 X-271.0446 Y104.1231 I6.5138 J-2.5534
G1 X-271.0855 Y103.9997
G1 X-271.1198 Y103.8821
G1 X-271.1467 Y103.7699
G3 X-271.1765 Y103.5551 I1.1824 J-0.2732
G3 X-271.1193 Y103.1819 I0.8514 J-0.0604
G3 X-270.9676 Y102.9462 I0.7527 J0.3176
G3 X-270.6378 Y102.6904 I0.9937 J0.9404
G3 X-270.2598 Y102.5134 I1.3831 J2.463
G1 X-269.9708 Y102.5943
G1 X-269.6867 Y102.6752
G1 X-269.4073 Y102.7561
G1 X-269.1325 Y102.8369
G1 X-268.8623 Y102.9173
G1 X-268.5966 Y102.9973
G1 X-268.3352 Y103.0769
G1 X-267.8212 Y103.2353
G1 X-267.3238 Y103.3907
G1 X-265.3984 Y104.0015
G1 X-264.5551 Y104.2679
G2 X-264.3572 Y104.3299 I4.6809 J-14.6034
G2 X-262.7953 Y104.8062 I32.424 J-103.514
G1 X-262.1089 Y105.0057
G1 X-261.4633 Y105.1861
G1 X-260.8561 Y105.3483
G1 X-260.2849 Y105.4935
G2 X-258.1255 Y105.9644 I9.2298 J-37.1372
G2 X-257.3082 Y106.1051 I4.2948 J-22.5048
G1 X-256.9494 Y106.1595
G2 X-254.2405 Y106.408 I3.6134 J-24.5039
G2 X-251.5214 Y106.3275 I0.7385 J-21.0139
G2 X-250.3179 Y106.897 I2.9352 J-4.646
G2 X-249.1863 Y107.1287 I1.5752 J-4.8141
G2 X-248.1829 Y107.1189 I0.4513 J-5.1665
G2 X-247.3216 Y106.9687 I-0.6074 J-6.0297
G2 X-246.9533 Y106.8686 I-1.4958 J-6.2274
G2 X-245.6214 Y106.3496 I-2.8272 J-9.2233
G2 X-244.6723 Y105.8533 I-5.6857 J-12.0299
G1 X-244.4983 Y105.7529
G1 X-244.1749 Y105.5599
G2 X-244.0346 Y105.4737 I-1.7783 J-3.0506
G1 X-243.7731 Y105.3093
G1 X-243.5458 Y105.1631
G1 X-243.1512 Y104.9027
G2 X-242.8571 Y104.7045 I-7.6113 J-11.6091
G1 X-241.9799 Y104.1025
G2 X-240.9405 Y104.9066 I9.434 J-11.1207
G2 X-240.6972 Y105.0736 I9.2911 J-13.2718
G2 X-240.2132 Y105.3827 I6.6282 J-9.8449
G2 X-239.2573 Y105.9006 I5.2296 J-8.5118
G2 X-238.3616 Y106.2653 I3.3897 J-7.0427
G2 X-237.5339 Y106.4823 I1.9245 J-5.654
G2 X-236.7845 Y106.5583 I0.8397 J-4.5472
G2 X-236.1266 Y106.5068 I0.0671 J-3.3731
G2 X-235.0577 Y106.0927 I-0.4923 J-2.8571
G2 X-234.4105 Y105.534 I-1.7278 J-2.6557
G2 X-234.2088 Y105.2853 I-3.4707 J-3.0225
G2 X-233.9057 Y104.8149 I-3.8849 J-2.8357
G2 X-233.5543 Y104.0534 I-4.9726 J-2.7561
G2 X-233.3016 Y103.2539 I-7.9887 J-2.9648
G3 X-230.0348 Y102.6895 I4.4344 J15.9293
G1 X-229.6744 Y102.6663
G3 X-228.2537 Y102.6392 I1.0837 J19.5494
G3 X-227.9211 Y102.6466 I-0.0277 J8.6798
G3 X-225.3115 Y102.8595 I-0.8729 J26.8022
G3 X-223.0514 Y103.2216 I-4.9352 J38.0312
G1 X-222.9284 Y103.245
G3 X-220.9838 Y103.6525 I-11.7147 J60.7488
G1 X-220.5601 Y103.7491
G3 X-220.1499 Y103.8445 I-4.649 J20.9
G1 X-219.3562 Y104.0339
G1 X-218.6131 Y104.2151
G1 X-218.2649 Y104.301
G1 X-216.916 Y104.6349
G2 X-214.5511 Y105.2037 I36.4745 J-146.4519
G2 X-214.44 Y105.2293 I0.6969 J-2.7782
G2 X-213.5634 Y105.4251 I14.9037 J-64.656
G2 X-212.0233 Y105.7391 I10.6588 J-48.3358
G2 X-209.6956 Y106.1142 I7.2746 J-37.7347
G2 X-209.6225 Y106.1236 I0.2259 J-1.4683
G2 X-207.3475 Y106.3275 I3.7165 J-28.6794
G2 X-207.2484 Y106.334 I0.1881 J-2.105
G2 X-206.461 Y106.3542 I0.7168 J-12.5746
G1 X-206.2766 Y106.3514
G1 X-206.0951 Y106.3461
G1 X-205.9165 Y106.3385
G2 X-204.5151 Y106.208 I-0.8228 J-16.419
G1 X-204.2099 Y106.1656
G1 X-203.9146 Y106.1208
G2 X-203.629 Y106.0743 I-1.3449 J-9.1705
G2 X-203.4907 Y106.0509 I-0.5401 J-3.5996
G2 X-202.4048 Y105.8496 I-11.6131 J-65.686
G2 X-202.1673 Y105.8029 I-2.8878 J-15.3063
G1 X-201.7073 Y105.7113
G1 X-201.2758 Y105.6253
G1 X-201.0732 Y105.5853
G1 X-200.6804 Y105.5093
G1 X-200.3114 Y105.4406
G3 X-199.9648 Y105.3794 I3.2322 J17.2786
G3 X-199.802 Y105.3519 I1.4813 J8.2979
G3 X-199.644 Y105.3263 I1.0654 J6.0597
G3 X-199.4908 Y105.3024 I0.9034 J5.2853
G3 X-198.2978 Y105.1584 I2.7377 J17.669
G3 X-197.3959 Y105.1176 I0.9909 J11.9042
G3 X-196.0452 Y105.2197 I0.0829 J7.8823
G3 X-194.7415 Y105.587 I-0.9546 J5.8855
G0 Z5.0
G0 X-203.8578 Y60.5664
G1 Z0.0
G3 X-204.8884 Y60.4182 I0.1056 J-4.3939
G3 X-205.7226 Y60.076 I0.9378 J-3.4736
G3 X-206.0535 Y59.8665 I2.2417 J-3.9069
G3 X-206.614 Y59.3961 I2.5749 J-3.6367
G1 X-206.6707 Y59.3398
G3 X-207.0924 Y58.8732 I4.9337 J-4.8831
G3 X-207.4334 Y58.4414 I9.0783 J-7.5199
G1 X-207.5058 Y58.3451
G1 X-208.0572 Y57.5918
G1 X-208.1092 Y57.5213
G2 X-208.5231 Y56.9826 I-14.2987 J10.5575
G2 X-209.2076 Y56.2274 I-6.15 J4.8865
G2 X-210.0032 Y55.5903 I-3.7822 J3.9079
G1 X-210.1834 Y55.7083
G3 X-210.3599 Y55.8194 I-3.9311 J-6.0511
G1 X-210.4461 Y55.8722
G3 X-211.1357 Y56.2693 I-9.1357 J-15.0655
G1 X-211.2886 Y56.3529
G1 X-211.5861 Y56.5126
G1 X-212.1463 Y56.8081
G2 X-212.2691 Y56.8727 I1.191 J2.4092
G2 X-213.2132 Y57.3862 I13.0679 J25.1529
G1 X-213.3881 Y57.4872
G2 X-214.0311 Y57.8867 I6.3542 J10.9437
G2 X-214.495 Y58.2149 I5.9836 J8.9489
G1 X-214.6634 Y58.3457
G2 X-215.2206 Y58.8417 I4.0182 J5.0758
G2 X-215.4759 Y59.1137 I3.4975 J3.5385
G1 X-215.5369 Y59.1844
G2 X-215.7123 Y59.4025 I2.9172 J2.5249
G3 X-215.9289 Y59.0013 I2.8258 J-1.7843
G3 X-216.1929 Y58.1938 I4.076 J-1.7794
G3 X-216.3161 Y57.4634 I6.22 J-1.4247
G3 X-216.3675 Y56.8181 I8.3208 J-0.9875
G1 X-216.3772 Y56.5352
G3 X-216.3612 Y55.4741 I14.4155 J-0.3128
G3 X-216.3074 Y54.6801 I17.5137 J0.7872
G3 X-216.1798 Y53.4933 I26.7384 J2.2743
G3 X-216.0129 Y52.3115 I43.9674 J5.6072
G3 X-215.9507 Y51.25 I39.8334 J1.8014
G3 X-215.8632 Y50.256 I32.9917 J2.4025
G3 X-215.8602 Y50.2268 I0.2057 J0.0068
G3 X-215.5945 Y48.377 I23.8055 J2.4744
G3 X-215.5143 Y47.9754 I21.2297 J4.0334
G3 X-215.1028 Y46.4432 I13.258 J2.7392
G3 X-214.5751 Y45.161 I9.2181 J3.0442
G3 X-213.1855 Y43.1901 I7.1542 J3.5687
G3 X-212.5373 Y42.5628 I8.2053 J7.8295
G1 X-212.39 Y42.4316
G1 X-212.318 Y42.3687
G3 X-212.0321 Y42.1239 I8.1139 J9.1879
G3 X-211.4895 Y41.6724 I33.6194 J39.8505
G1 X-211.2516 Y41.4752
G2 X-210.3737 Y40.719 I-19.8686 J-23.9531
G2 X-210.2934 Y40.6458 I-1.4085 J-1.6284
G2 X-210.2159 Y40.5745 I-1.2313 J-1.4148
G2 X-209.0801 Y39.4038 I-9.7125 J-10.5591
G2 X-208.0879 Y38.1092 I-10.3548 J-8.9633
G2 X-207.9865 Y34.0805 I-133.2676 J-5.3695
G1 X-207.983 Y33.6397
G2 X-208.1111 Y26.6993 I-143.0321 J-0.8328
G2 X-208.9038 Y16.3182 I-153.071 J6.4673
G2 X-208.9217 Y16.1565 I-3.3116 J0.2857
G2 X-209.5768 Y11.0734 I-143.2921 J15.8835
G2 X-210.4137 Y6.017 I-137.8179 J20.2138
G3 X-211.05 Y5.3017 I4.5033 J-4.6466
G3 X-211.8923 Y3.7396 I4.5499 J-3.4614
G1 X-211.9534 Y3.5574
G3 X-211.9814 Y3.4672 I0.9698 J-0.3497
G3 X-212.1557 Y2.7387 I6.912 J-2.0389
G3 X-212.2874 Y1.3454 I8.6091 J-1.5171
G3 X-212.2545 Y0.1227 I14.0183 J-0.2337
G1 X-212.2349 Y-0.1443
G3 X-212.1885 Y-0.661 I100.0487 J8.7411
G1 X-212.1371 Y-1.145
G1 X-212.0305 Y-2.0519
G1 X-212.0067 Y-2.2505
G1 X-211.9615 Y-2.6354
G2 X-211.8836 Y-3.3582 I-29.1676 J-3.5094
G2 X-211.7921 Y-4.6282 I-22.9075 J-2.2873
G2 X-211.7867 Y-5.5846 I-12.6279 J-0.5505
G2 X-211.8334 Y-6.3009 I-10.6575 J0.3357
G2 X-212.0081 Y-7.3634 I-8.7239 J0.8886
G2 X-212.3308 Y-8.3906 I-6.9129 J1.6078
G2 X-212.4871 Y-9.0777 I-4.2436 J0.6037
G2 X-212.7432 Y-9.6804 I-3.0932 J0.9589
G2 X-213.5561 Y-10.5665 I-2.1963 J1.1988
G2 X-214.0144 Y-10.8115 I-1.6577 J2.5501
G2 X-214.2423 Y-10.8985 I-1.2433 J2.9133
G2 X-215.1662 Y-11.1034 I-1.4776 J4.4785
G2 X-215.5869 Y-11.1445 I-1.1271 J9.3593
G1 X-215.6869 Y-11.151
G1 X-215.7858 Y-11.1565
G1 X-215.9811 Y-11.1645
G2 X-216.1716 Y-11.1694 I-0.1946 J3.8811
G1 X-216.5429 Y-11.1724
G1 X-216.8958 Y-11.1702
G3 X-217.5657 Y-11.1629 I-0.922 J-53.9991
G3 X-217.6033 Y-11.1627 I-0.0202 J-0.2837
G3 X-217.6406 Y-11.1626 I-0.0197 J-0.2775
G3 X-218.2334 Y-11.1706 I-0.0868 J-15.3587
G3 X-218.7608 Y-11.2065 I0.2035 J-6.8933
G3 X-219.2238 Y-11.2791 I0.4789 J-4.568
G3 X-219.4246 Y-11.3293 I0.4815 J-2.3526
G3 X-219.7886 Y-11.4652 I0.6775 J-2.3685
G3 X-220.3266 Y-11.874 I0.659 J-1.4259
G3 X-220.5791 Y-12.3087 I1.1895 J-0.9815
G3 X-220.6803 Y-12.6703 I1.9427 J-0.7389
G3 X-220.7286 Y-13.2305 I3.2138 J-0.5592
G1 X-220.7263 Y-13.3712
G3 X-220.7144 Y-13.5818 I10.5982 J0.4914
G3 X-220.6938 Y-13.7918 I20.5687 J1.9077
G1 X-220.6292 Y-14.142
G1 X-220.5987 Y-14.3123
G1 X-220.5396 Y-14.648
G2 X-220.4265 Y-15.2999 I-104.276 J-18.4169
G3 X-220.2026 Y-16.5256 I44.2826 J7.4575
G3 X-219.9671 Y-17.5991 I25.7903 J5.0948
G3 X-219.9074 Y-17.8337 I5.6052 J1.3018
G3 X-219.6384 Y-18.7331 I12.0331 J3.108
G1 X-219.5699 Y-18.9277
G1 X-219.4997 Y-19.115
G3 X-219.188 Y-19.8247 I7.3902 J2.8225
G3 X-218.4596 Y-20.9697 I5.5534 J2.7284
G3 X-216.8954 Y-22.2597 I3.932 J3.1748
G3 X-215.9588 Y-22.6559 I2.7714 J5.2463
G3 X-215.4696 Y-22.7955 I2.3352 J7.2525
G3 X-215.4077 Y-22.8105 I0.211 J0.7365
G3 X-214.9719 Y-22.9008 I2.0556 J8.8287
G3 X-214.8677 Y-22.8959 I-0.0203 J1.548
G3 X-208.2764 Y-22.0864 I-2.2231 J45.3435
G3 X-208.2 Y-22.0714 I-0.2893 J1.6686
G3 X-205.7798 Y-21.5285 I-9.7629 J49.1928
G3 X-201.6173 Y-20.3035 I-13.482 J53.4949
G3 X-200.0829 Y-19.7617 I-20.6899 J61.0367
G3 X-194.8336 Y-17.5579 I-23.0926 J62.3595
G1 X-194.1908 Y-17.2523
G3 X-189.771 Y-14.9538 I-36.5829 J75.7443
G2 X-190.2431 Y-14.1953 I15.4428 J10.1376
G2 X-190.6708 Y-13.4436 I18.321 J10.9233
G2 X-192.0756 Y-10.4046 I22.9563 J12.4553
G2 X-193.0057 Y-7.629 I29.5288 J11.439
G2 X-193.6139 Y-5.1411 I33.657 J9.5463
G2 X-194.3587 Y3.7729 I36.9938 J7.5792
G2 X-194.209 Y6.0111 I35.4685 J-1.2475
G1 X-194.1651 Y6.4295
G2 X-193.6656 Y9.544 I31.6878 J-3.4844
G2 X-192.8373 Y12.5876 I26.1846 J-5.4923
G2 X-192.8333 Y13.1381 I2.1396 J0.26
G2 X-192.7146 Y13.634 I2.5084 J-0.3384
G2 X-192.5273 Y14.0717 I3.5667 J-1.2676
G2 X-192.0566 Y14.83 I5.2376 J-2.7258
G1 X-191.9408 Y14.9889
G1 X-191.9123 Y15.0272
G1 X-191.6819 Y15.328
G2 X-191.4613 Y15.6081 I85.6715 J-67.2707
G1 X-191.2533 Y15.8712
G1 X-191.0598 Y16.1202
G3 X-190.9701 Y16.2384 I-2.5679 J2.0435
G3 X-190.927 Y16.2959 I-1.0239 J0.8114
G1 X-190.7603 Y16.5251
G3 X-190.2082 Y17.4346 I-5.4393 J3.9243
G3 X-189.9255 Y18.186 I-3.4779 J1.7373
G3 X-189.8484 Y19.3838 I-3.0425 J0.7974
G3 X-189.9773 Y19.9719 I-3.5488 J-0.4695
G3 X-190.0769 Y20.2562 I-3.6361 J-1.1148
G1 X-190.1342 Y20.3954
G1 X-190.1962 Y20.5327
G3 X-190.8109 Y21.5999 I-9.701 J-4.8769
G3 X-192.1759 Y23.3256 I-9.7945 J-6.3447
G3 X-192.4824 Y23.6298 I-11.4602 J-11.2385
G3 X-193.1005 Y24.1613 I-5.3247 J-5.5681
G3 X-193.3921 Y24.3742 I-3.5661 J-4.5763
G3 X-193.6775 Y24.5591 I-3.2448 J-4.6964
G3 X-194.244 Y24.8554 I-2.4598 J-4.014
G3 X-194.2763 Y24.8693 I-0.1172 J-0.2264
G3 X-194.3085 Y24.883 I-0.1149 J-0.2268
G3 X-194.8332 Y25.059 I-1.4316 J-3.3972
G3 X-195.796 Y25.1392 I-0.7146 J-2.7576
G3 X-196.4992 Y24.9708 I0.2408 J-2.5586
G3 X-196.9815 Y24.7253 I1.0565 J-2.672
G1 X-197.0665 Y24.6699
G3 X-197.6473 Y24.1805 I2.15 J-3.1408
G1 X-197.7775 Y24.042
G3 X-198.1359 Y23.599 I3.9564 J-3.5671
G2 X-198.3526 Y24.6949 I2.123 J0.9893
G2 X-198.2899 Y25.1671 I2.76 J-0.1263
G2 X-198.2642 Y25.275 I6.3242 J-1.4501
G2 X-198.1298 Y25.69 I3.5886 J-0.9331
G2 X-197.9656 Y26.0632 I3.879 J-1.483
G2 X-197.5909 Y26.7282 I6.7671 J-3.3753
G1 X-197.5686 Y26.7635
G1 X-197.5463 Y26.7984
G2 X-197.3649 Y27.0724 I18.2354 J-11.879
G2 X-196.6395 Y28.0686 I21.4101 J-14.826
G1 X-196.3606 Y28.4379
G1 X-196.1181 Y28.7625
G1 X-195.9092 Y29.0492
G1 X-195.7304 Y29.3032
G3 X-195.4313 Y29.7571 I-11.1977 J7.7046
G3 X-195.0342 Y30.4695 I-5.9102 J3.761
G3 X-194.7415 Y31.2307 I-4.1782 J2.0435
G3 X-194.8964 Y31.5095 I-1.1597 J-0.4618
G3 X-195.0891 Y31.7427 I-1.9369 J-1.4042
G3 X-195.1899 Y31.8464 I-1.3664 J-1.2284
G3 X-195.3975 Y32.0392 I-3.0427 J-3.0672
G1 X-195.4231 Y32.0617
G1 X-195.526 Y32.1498
G1 X-195.7314 Y32.3184
G1 X-196.1325 Y32.6352
G2 X-196.1786 Y32.6715 I0.3531 J0.4955
G2 X-196.5394 Y32.9636 I9.5321 J12.1467
G1 X-196.6192 Y33.0315
G1 X-196.6961 Y33.0987
G2 X-196.8424 Y33.2333 I1.9398 J2.2554
G2 X-196.9755 Y33.3666 I7.1162 J7.2386
G2 X-197.2034 Y33.6405 I1.8567 J1.7769
G2 X-197.3571 Y33.9159 I1.0804 J0.7835
G2 X-197.4199 Y34.1824 I0.765 J0.321
G2 X-197.3033 Y34.6325 I0.7709 J0.0403
G2 X-197.0871 Y34.9 I1.0867 J-0.6571
G2 X-196.6811 Y35.2154 I1.7997 J-1.8976
G2 X-196.2334 Y35.4681 I2.7033 J-4.2663
G1 X-195.8876 Y35.5057
G2 X-194.5456 Y35.6328 I7.9857 J-77.1679
G1 X-193.3698 Y35.7294
G1 X-192.3406 Y35.8113
G1 X-191.4402 Y35.8868
G1 X-191.0463 Y35.9222
G3 X-189.5715 Y36.0763 I-5.2319 J57.2173
G3 X-188.4689 Y36.224 I-3.468 J30.0867
G1 X-188.2626 Y36.2557
G1 X-188.0695 Y36.2867
G3 X-188.0242 Y36.2941 I-0.0931 J0.7054
G3 X-187.9352 Y36.309 I-0.1194 J0.9869
G3 X-187.8489 Y36.3238 I-0.1205 J0.9662
G3 X-187.5154 Y36.3834 I-1.8991 J11.5762
G3 X-185.2128 Y36.9453 I-3.5295 J19.4616
G3 X-185.0359 Y37.348 I-2.1185 J1.1711
G3 X-184.8618 Y38.0964 I-3.734 J1.2629
G3 X-184.8345 Y39.2507 I-4.92 J0.6939
G3 X-184.9415 Y39.8246 I-3.0508 J-0.2718
G3 X-185.0466 Y40.099 I-1.72 J-0.5012
G3 X-185.2128 Y40.3415 I-0.8549 J-0.4079
G3 X-185.3369 Y40.5285 I-3.4249 J-2.1377
G3 X-185.6071 Y40.8682 I-2.813 J-1.9603
G3 X-185.902 Y41.1434 I-1.7627 J-1.5928
G3 X-186.2176 Y41.3419 I-1.0943 J-1.3901
G3 X-186.8822 Y41.4987 I-0.6788 J-1.3903
G3 X-187.175 Y41.4805 I-0.0433 J-1.6705
G3 X-187.7069 Y41.3522 I0.419 J-2.9032
G3 X-187.932 Y41.2711 I3.2373 J-9.3309
G3 X-188.0363 Y41.2296 I1.1164 J-2.9608
G1 X-188.2367 Y41.1447
G1 X-188.3301 Y41.1033
G1 X-189.049 Y40.7719
G2 X-189.599 Y40.5412 I-3.3366 J7.1845
G2 X-190.0253 Y40.4013 I-1.594 J4.1369
G2 X-190.6889 Y40.2872 I-0.8532 J2.9766
G2 X-191.36 Y40.3415 I-0.1429 J2.4089
G3 X-191.6573 Y40.5619 I-0.9021 J-0.9062
G3 X-191.9769 Y40.6907 I-0.8001 J-1.5243
G3 X-192.1347 Y40.7299 I-0.437 J-1.4232
G3 X-192.763 Y40.7929 I-0.6519 J-3.3342
G3 X-192.8344 Y40.7937 I-0.0545 J-1.6247
G3 X-193.3976 Y40.7754 I-0.032 J-7.6748
G1 X-193.9069 Y40.7405
G1 X-194.0218 Y40.7325
G1 X-194.1338 Y40.7254
G2 X-194.3521 Y40.7138 I-1.315 J22.7371
G2 X-194.559 Y40.7074 I-0.3469 J7.8861
G1 X-194.7547
G2 X-195.1234 Y40.7322 I0.0909 J4.1141
G2 X-195.444 Y40.7965 I0.282 J2.2351
G2 X-195.7099 Y40.9042 I0.4077 J1.3898
G2 X-196.074 Y41.24 I0.4651 J0.8694
G2 X-196.2185 Y41.5774 I0.9949 J0.6257
G2 X-196.2792 Y42.1216 I2.0446 J0.5037
G2 X-196.2334 Y42.6673 I4.1117 J-0.0703
G2 X-197.233 Y42.5087 I-1.7302 J7.676
G2 X-198.1749 Y42.4947 I-0.5624 J6.1086
G2 X-199.0392 Y42.6258 I0.3557 J5.2595
G2 X-200.5161 Y43.2772 I1.1046 J4.5045
G2 X-201.0675 Y43.7021 I3.0434 J4.519
G2 X-201.9498 Y44.6542 I4.5461 J5.0977
G2 X-202.5867 Y45.5894 I8.2749 J6.3198
G2 X-203.0703 Y46.452 I12.3701 J7.5029
G1 X-203.1693 Y46.6443
G2 X-203.5358 Y47.398 I21.714 J11.0244
G1 X-203.6131 Y47.5643
G1 X-203.7607 Y47.8875
G1 X-203.8971 Y48.1914
G1 X-204.402 Y49.3341
G1 X-204.5936 Y49.762
G1 X-204.7645 Y50.1349
G1 X-204.9178 Y50.4596
G3 X-205.4964 Y51.5748 I-15.6628 J-7.4195
G3 X-205.8225 Y52.1122 I-10.3592 J-5.9179
G3 X-206.1836 Y52.6267 I-6.0623 J-3.8711
G2 X-205.8348 Y53.1771 I1.9055 J-0.8221
G2 X-205.4004 Y53.5299 I1.3329 J-1.1972
G2 X-204.9551 Y53.7162 I0.9728 J-1.7001
G2 X-204.8536 Y53.7431 I0.2878 J-0.8822
G2 X-204.7544 Y53.765 I0.3014 J-1.128
G2 X-204.3648 Y53.8172 I0.6695 J-3.5164
G2 X-203.6784 Y53.8189 I0.3558 J-5.0673
G2 X-203.1655 Y53.7779 I-0.6455 J-11.297
G1 X-202.7815 Y53.738
G3 X-202.2047 Y53.6852 I1.4112 J12.2482
G3 X-201.6255 Y53.6806 I0.3223 J4.0897
G3 X-201.9495 Y54.5424 I-5.466 J-1.5629
G3 X-202.3224 Y55.2588 I-10.0044 J-4.7535
G1 X-202.5006 Y55.5658
G1 X-202.8452 Y56.1371
G1 X-202.9971 Y56.388
G2 X-203.0326 Y56.4471 I0.6545 J0.4331
G2 X-203.5611 Y57.3949 I12.0833 J7.3594
G2 X-203.7342 Y57.7668 I6.6596 J3.3261
G2 X-203.9744 Y58.4447 I4.5518 J1.9946
G2 X-204.0795 Y58.9751 I3.2831 J0.9256
G2 X-203.8578 Y60.5664 I3.07 J0.3835
G0 Z5.0
G0 X-271.0131 Y118.9334
G1 Z0.0
G1 Y119.6739
G1 X-272.2371 Y119.6243
G2 X-281.8791 Y119.3068 I-32.599 J843.4415
G1 X-282.9341 Y119.2783
G1 X-285.0111 Y119.2245
G1 X-285.5141 Y119.2118
G1 X-289.5073 Y119.1159
G1 X-293.2511 Y119.029
G1 X-296.7611 Y118.9457
G1 X-300.0518 Y118.8621
G3 X-306.2216 Y118.6779 I19.1168 J-743.6951
G3 X-307.5711 Y118.6308 I11.4706 J-348.6162
G1 X-308.8784 Y118.5824
G1 X-309.5116 Y118.5579
G1 X-310.1349 Y118.533
G1 X-310.7484 Y118.5078
G1 X-311.9562 Y118.4559
G3 X-312.1025 Y118.4494 I0.1054 J-4.0266
G3 X-316.7628 Y118.2166 I20.0569 J-448.1592
G3 X-320.8381 Y117.9656 I19.4383 J-348.8406
G3 X-321.0609 Y117.9504 I0.3974 J-7.4862
G3 X-321.282 Y117.9352 I0.4105 J-7.5877
G3 X-321.5014 Y117.92 I0.4241 J-7.6948
G3 X-321.719 Y117.9047 I0.4383 J-7.8078
G3 X-321.9349 Y117.8894 I0.4531 J-7.9277
G3 X-325.3602 Y117.6256 I19.0588 J-269.8575
G3 X-325.7347 Y117.5943 I1.3888 J-18.8383
G3 X-326.1033 Y117.5629 I1.6303 J-21.3389
G3 X-326.4661 Y117.5316 I2.0062 J-25.3162
G1 X-327.894 Y117.4032
G3 X-330.5694 Y117.1409 I21.737 J-235.512
G1 X-331.1543 Y117.0797
G1 X-331.7207 Y117.0189
G1 X-332.8177 Y116.8973
G1 X-333.8456 Y116.7784
G1 X-334.3273 Y116.7211
G3 X-341.7744 Y115.6916 I23.9271 J-200.5263
G1 X-342.7024 Y115.5433
G3 X-349.1761 Y114.3753 I29.6835 J-183.0365
G1 Y113.2114
G3 X-347.7109 Y113.2209 I0.5862 J22.6546
G3 X-346.3407 Y113.3102 I-1.2912 J30.3815
G1 X-346.2606 Y113.3174
G3 X-343.7154 Y113.6301 I-4.1432 J44.2362
G1 X-343.5766 Y113.6508
G3 X-342.4758 Y113.8242 I-15.1242 J99.6073
G1 X-341.445 Y113.9967
G1 X-341.3241 Y114.0173
G1 X-339.4066 Y114.3466
G1 X-338.5663 Y114.4873
G1 X-337.7772 Y114.6141
G2 X-334.8058 Y115.01 I9.0121 J-56.2912
G2 X-334.7357 Y115.0172 I0.1911 J-1.5159
G2 X-333.6228 Y115.1144 I4.265 J-42.435
G2 X-331.6687 Y115.1923 I2.0887 J-27.8539
G2 X-330.2016 Y115.1545 I0.1496 J-22.6806
G2 X-328.0146 Y114.9036 I-1.0631 J-18.9247
G2 X-325.8777 Y114.3753 I-2.6805 J-15.4275
G2 X-319.0725 Y115.4394 I26.8148 J-149.1974
G2 X-316.0834 Y115.8159 I25.1601 J-187.6915
G1 X-315.382 Y115.8973
G1 X-314.6914 Y115.9752
G1 X-314.0112 Y116.0496
G1 X-313.3416 Y116.1207
G2 X-308.0613 Y116.6162 I26.3822 J-252.7829
G1 X-306.905 Y116.711
G1 X-305.7846 Y116.7987
G1 X-305.2418 Y116.8399
G2 X-300.9654 Y117.137 I31.4032 J-421.0558
G1 X-299.0937 Y117.2542
G1 X-297.3386 Y117.3586
G2 X-296.9271 Y117.3824 I2.0105 J-31.2044
G1 X-295.3071 Y117.4739
G2 X-295.1172 Y117.4845 I0.6165 J-9.4002
G1 X-292.1031 Y117.6473
G1 X-290.7843 Y117.7168
G2 X-290.6297 Y117.7249 I0.3374 J-4.9574
G1 X-285.7229 Y117.9824
G1 X-283.883 Y118.0816
G1 X-282.2732 Y118.171
G1 X-280.8647 Y118.2519
G3 X-280.7107 Y118.2609 I-0.1055 J3.1228
G3 X-280.559 Y118.2698 I-0.1051 J3.0835
G3 X-280.4097 Y118.2786 I-0.1047 J3.045
G3 X-280.2628 Y118.2873 I-0.1044 J3.0073
G3 X-279.1058 Y118.3571 I-7.3785 J131.8837
G3 X-278.9793 Y118.3649 I-0.1017 J2.6856
G3 X-278.8547 Y118.3726 I-0.1014 J2.6551
G3 X-278.732 Y118.3802 I-0.1011 J2.625
G3 X-278.6113 Y118.3877 I-0.1009 J2.5955
G3 X-278.4925 Y118.3951 I-0.1006 J2.5664
G3 X-278.3755 Y118.4025 I-0.1004 J2.5379
G3 X-274.6929 Y118.6491 I-28.2927 J450.059
G1 X-273.7727 Y118.7162
G3 X-273.6864 Y118.7226 I-0.1008 J1.9376
G3 X-273.0179 Y118.7732 I-6.3894 J89.0027
G1 X-272.5166 Y118.812
G1 X-271.0131 Y118.9334
G0 Z5.0
G0 X-295.3654 Y64.0633
G1 Z0.0
G1 X-295.7967 Y64.1185
G1 X-296.6523 Y64.2304
G1 X-297.4941 Y64.3436
G2 X-304.1083 Y65.3372 I32.1494 J236.5133
G2 X-309.8728 Y66.3466 I41.7913 J255.6451
G1 X-310.5019 Y66.4644
G1 X-311.7397 Y66.7005
G2 X-321.2969 Y68.7059 I58.9118 J304.5279
G2 X-328.4231 Y70.3963 I73.8752 J327.3146
G1 X-329.7554 Y70.7294
G1 X-331.0033 Y71.046
G1 X-332.1721 Y71.3466
G1 X-333.2671 Y71.6317
G2 X-341.4544 Y73.8641 I109.259 J416.83
G1 X-342.4748 Y74.1542
G1 X-344.2589 Y74.6672
G2 X-344.4261 Y74.7157 I1.3769 J5.0634
G2 X-344.588 Y74.7627 I1.3525 J4.9629
G2 X-344.7449 Y74.8082 I1.3286 J4.8651
G2 X-344.8968 Y74.8525 I1.3053 J4.7698
G2 X-345.044 Y74.8953 I1.2825 J4.6773
G2 X-345.1866 Y74.9369 I1.2602 J4.5869
G1 X-346.291 Y75.2605
G1 X-347.1187 Y75.5048
G2 X-347.2739 Y75.5508 I1.2666 J4.5605
G2 X-347.4194 Y75.5939 I1.2257 J4.3998
G2 X-347.5558 Y75.6344 I1.1863 J4.2459
G2 X-347.6836 Y75.6724 I1.1482 J4.0982
G1 X-349.5995 Y76.2459
G2 X-349.717 Y76.0768 I-1.042 J0.5987
G1 X-349.7656 Y76.0155
G3 X-349.9098 Y75.7819 I0.7128 J-0.6014
G3 X-349.9148 Y75.5073 I0.3533 J-0.1437
G1 X-347.0865 Y74.5879
G1 X-344.4327 Y73.7327
G1 X-343.8104 Y73.5334
G1 X-343.1976 Y73.3375
G3 X-333.5255 Y70.3208 I224.7933 J703.6936
G1 X-332.6164 Y70.0455
G3 X-325.5546 Y67.9664 I160.5844 J532.4
G1 X-324.2271 Y67.5883
G1 X-322.9815 Y67.2374
G3 X-313.6059 Y64.7299 I109.0985 J389.1425
G1 X-313.0177 Y64.581
G1 X-312.4662 Y64.4424
G3 X-304.1665 Y62.4743 I79.0257 J314.7762
G3 X-303.7318 Y62.3928 I4.1309 J20.8416
G1 X-302.9091 Y62.2475
G1 X-302.5446 Y62.1788
G2 X-301.8606 Y62.0295 I-3.4538 J-17.4719
G2 X-301.263 Y61.8639 I-2.1386 J-8.878
G2 X-300.747 Y61.6791 I-1.8763 J-6.0501
G2 X-299.8968 Y61.2237 I-1.5726 J-3.957
G2 X-299.3609 Y60.7294 I-1.5787 J-2.2494
G2 X-298.8945 Y59.7482 I-1.7491 J-1.4329
G2 X-298.8358 Y59.2062 I-2.5876 J-0.5542
G2 X-298.8697 Y58.6621 I-3.4684 J-0.0571
G3 X-298.1984 Y58.7381 I0.01 J2.9144
G3 X-297.2768 Y59.1485 I-0.6442 J2.6864
G3 X-296.8812 Y59.4631 I-2.0015 J2.9228
G3 X-296.5292 Y59.8259 I-3.5322 J3.779
G2 X-296.3761 Y60.0726 I3.4333 J-1.9602
G2 X-296.0633 Y60.522 I12.462 J-8.3386
G2 X-295.9206 Y60.7186 I10.396 J-7.3993
G1 X-295.6526 Y61.0904
G1 X-295.5364 Y61.2572
G3 X-295.1341 Y61.9095 I-5.2583 J3.693
G3 X-294.9032 Y62.4505 I-2.6519 J1.4513
G3 X-294.8201 Y62.8893 I-1.7276 J0.5546
G3 X-294.9482 Y63.5434 I-1.2832 J0.0883
G3 X-295.1305 Y63.8245 I-1.2539 J-0.6134
G3 X-295.3654 Y64.0633 I-1.4158 J-1.158
G0 Z5.0
G0 X-83.435 Y75.9487
G1 Z0.0
G3 X-83.4251 Y75.8207 I3.0443 J0.1707
G3 X-81.0483 Y75.5207 I4.2782 J24.3324
G3 X-77.4566 Y75.4496 I2.4055 J30.7467
G3 X-75.6639 Y75.575 I-1.1201 J28.8788
G3 X-74.7715 Y75.6815 I-2.2596 J22.7219
G1 X-74.549 Y75.7131
G1 X-74.2159 Y75.7645
G1 X-74.0496 Y75.7919
G1 X-73.8836 Y75.8207
G2 X-72.537 Y75.6344 I-2.0099 J-19.4896
G2 X-72.3803 Y75.6064 I-0.5312 J-3.4265
G2 X-72.225 Y75.5774 I-0.6333 J-3.8245
G2 X-71.0009 Y75.3081 I-4.0492 J-21.3181
G2 X-68.7463 Y74.6478 I-7.1918 J-28.7387
G1 X-68.2593 Y74.4826
G1 X-67.7893 Y74.317
G1 X-67.3356 Y74.1521
G2 X-65.5875 Y73.4835 I-27.815 J-75.3375
G1 X-64.063 Y72.88
G1 X-63.729 Y72.7482
G1 X-63.0809 Y72.4948
G3 X-62.4714 Y72.2611 I16.2808 J41.5525
G3 X-62.1849 Y72.1533 I4.5677 J11.7079
G3 X-61.0691 Y71.7504 I14.7226 J39.0251
G3 X-59.0872 Y71.1282 I10.2545 J29.1933
G1 X-58.7104 Y71.0274
G1 X-58.3557 Y70.9385
G3 X-57.6867 Y70.7878 I4.0956 J16.6268
G3 X-55.3106 Y70.4606 I3.4783 J16.4648
G1 X-55.0108 Y70.4452
G3 X-52.9128 Y70.5239 I0.5662 J12.9134
G1 X-53.2202 Y70.6919
G1 X-53.5255 Y70.8518
G1 X-53.8286 Y71.0039
G3 X-54.4322 Y71.2888 I-12.8599 J-26.4568
G1 X-54.5796 Y71.3551
G3 X-55.7645 Y71.8458 I-10.68 J-24.1102
G3 X-56.8942 Y72.2558 I-11.0983 J-28.82
G3 X-57.9657 Y72.6043 I-10.9765 J-31.9307
G1 X-58.0919 Y72.6432
G1 X-58.2172 Y72.6814
G3 X-60.2181 Y73.2489 I-18.6944 J-62.102
G1 X-61.0985 Y73.4806
G1 X-62.7528 Y73.9036
G1 X-63.4769 Y74.0885
G1 X-63.8163 Y74.1759
G2 X-66.4362 Y74.8924 I20.3824 J79.6759
G2 X-68.3789 Y75.5105 I11.9762 J41.0043
G2 X-68.4693 Y75.5419 I0.8642 J2.6333
G2 X-69.8792 Y76.0706 I9.9102 J28.5778
G2 X-71.9348 Y77.0065 I9.0115 J22.5163
G2 X-73.8836 Y78.1483 I8.8982 J17.4213
G2 X-74.6489 Y77.7224 I-1.4238 J1.6577
G2 X-75.3897 Y77.6378 I-0.6091 J2.047
G2 X-75.7106 Y77.6741 I0.1335 J2.6126
G2 X-76.296 Y77.8221 I0.6735 J3.8962
G1 X-76.4213 Y77.8645
G1 X-76.5418 Y77.9079
G2 X-77.0023 Y78.0934 I3.296 J8.8492
G1 X-77.1023 Y78.1366
G1 X-77.8739 Y78.4789
G1 X-78.167 Y78.6028
G1 X-78.2965 Y78.6546
G3 X-78.7906 Y78.8275 I-2.0661 J-5.1141
G1 X-78.8851 Y78.8548
G3 X-79.6118 Y78.9796 I-0.9294 J-3.2346
G3 X-80.3442 Y78.8943 I-0.1202 J-2.1539
G2 X-80.8191 Y78.5706 I-2.0391 J2.482
G2 X-81.2747 Y78.3447 I-2.5394 J4.5482
G2 X-81.3779 Y78.2996 I-2.2831 J5.0882
G1 X-81.7822 Y78.1317
G1 X-81.9609 Y78.0574
G3 X-82.0447 Y78.0214 I0.7424 J-1.8474
G3 X-82.1256 Y77.9857 I0.4662 J-1.1668
G3 X-82.4342 Y77.8352 I2.4203 J-5.3512
G3 X-82.6923 Y77.6786 I1.1601 J-2.2042
G3 X-83.0818 Y77.3221 I0.9984 J-1.4817
G3 X-83.399 Y76.6047 I1.271 J-0.9908
G3 X-83.415 Y76.5076 I1.017 J-0.2176
G3 X-83.435 Y75.9487 I3.0243 J-0.3882
G0 Z5.0
M5
M30
