( Made using CamBam - http://www.cambam.co.uk )
( car1 1/21/2014 9:47:57 PM )
( T0 : 0.0 )
G21 G90 G64 G40
G0 Z5.0
( T0 : 0.0 )
T0 M6
( 1-20 )
G17
M3 S1000
G0 X477.8634 Y139.1583
G1 F1.0 Z0.0
G1 X475.9128 Y138.9448
G1 X473.9924 Y138.737
G1 X472.1017 Y138.5345
G1 X468.3789 Y138.1416
G1 X464.7718 Y137.768
G2 X464.5534 Y137.7456 I-0.9266 J7.956
G2 X464.3354 Y137.7233 I-0.9258 J7.9583
G1 X460.8539 Y137.3696
G1 X457.4807 Y137.0322
G2 X457.2764 Y137.0119 I-0.9007 J8.0378
G2 X457.0725 Y136.9917 I-0.9001 J8.0403
G2 X456.869 Y136.9716 I-0.8994 J8.0427
G2 X450.3703 Y136.3365 I-243.2019 J2455.327
G2 X450.1798 Y136.3182 I-0.8804 J8.1314
G2 X449.9897 Y136.2998 I-0.8799 J8.1341
G2 X449.8 Y136.2816 I-0.8795 J8.1368
G2 X449.6107 Y136.2634 I-0.879 J8.1395
G2 X449.4218 Y136.2452 I-0.8785 J8.1423
G2 X449.2332 Y136.227 I-0.8781 J8.1451
G2 X449.0449 Y136.209 I-0.8776 J8.1478
G2 X448.8571 Y136.1909 I-0.8772 J8.1506
G2 X448.6696 Y136.1729 I-0.8768 J8.1534
G2 X448.4824 Y136.155 I-0.8763 J8.1563
G2 X448.2957 Y136.1371 I-0.8759 J8.1591
G2 X448.1093 Y136.1193 I-0.8755 J8.1619
G2 X447.9232 Y136.1015 I-0.8751 J8.1647
G2 X447.7376 Y136.0837 I-0.8746 J8.1675
G2 X447.5522 Y136.066 I-0.8742 J8.1703
G2 X447.3673 Y136.0483 I-0.8738 J8.1732
G2 X447.1827 Y136.0307 I-0.8734 J8.176
G2 X446.9985 Y136.0132 I-0.873 J8.1789
G2 X446.8146 Y135.9956 I-0.8726 J8.1818
G2 X446.6311 Y135.9782 I-0.8722 J8.1846
G2 X446.4479 Y135.9607 I-0.8719 J8.1875
G1 X443.5234 Y135.6837
G1 X440.6899 Y135.4176
G1 X435.1996 Y134.9077
G1 X430.052 Y134.4351
G1 X425.2257 Y133.9956
G1 X416.1761 Y133.1762
G1 X408.2576 Y132.4593
G1 X404.7934 Y132.1442
G1 X401.5458 Y131.8474
G1 X395.4571 Y131.286
G1 X392.7935 Y131.0379
G3 X392.4814 Y131.0087 I2.0813 J-23.9381
G3 X392.1717 Y130.9797 I2.103 J-24.1357
G3 X391.8644 Y130.9509 I2.1254 J-24.3404
G3 X391.5595 Y130.9223 I2.1485 J-24.552
G1 X386.7201 Y130.4649
G1 X382.4863 Y130.0585
G3 X382.0232 Y130.0137 I6.2677 J-67.1442
G3 X381.1116 Y129.9252 I10.382 J-111.6731
G1 X377.5795 Y129.5792
G1 X374.4893 Y129.2721
G1 X371.7858 Y128.9998
G1 X369.4205 Y128.7587
G1 X367.3511 Y128.5454
G1 X363.7302 Y128.1665
G1 X361.015 Y127.8775
G1 X359.997 Y127.768
G1 X358.2155 Y127.5748
G1 X356.8795 Y127.4286
G1 X354.8759 Y127.2071
G1 X353.8741 Y127.0954
G1 X352.8725 Y126.983
G2 X351.9245 Y126.6841 I-6.331 J18.4245
G2 X351.8126 Y126.6517 I-0.7133 J2.2577
G1 X351.3673 Y126.5282
G1 X350.9341 Y126.4153
G1 X350.8815 Y126.402
G2 X350.0413 Y126.2019 I-6.7505 J26.4729
G1 X349.646 Y126.1146
G1 X349.2623 Y126.0337
G2 X346.2698 Y125.5059 I-11.5206 J56.5769
G2 X345.1416 Y125.3454 I-9.2198 J60.7339
G2 X341.1777 Y124.909 I-11.2462 J83.9411
G2 X337.1985 Y124.6481 I-7.814 J88.6786
G1 X337.168 Y125.0355
G1 X337.1373 Y125.4168
G1 X337.1064 Y125.792
G3 X336.8455 Y128.7456 I-254.9718 J-21.0401
G1 X336.7238 Y130.0371
G1 X336.253 Y134.8789
G1 X336.1658 Y135.787
G1 X336.0062 Y137.4899
G1 X335.8728 Y138.9805
G2 X335.6598 Y141.591 I245.3827 J21.3433
G2 X335.4102 Y145.5118 I144.6635 J11.1748
G1 X335.365 Y146.493
G1 X335.3364 Y147.2291
G2 X335.334 Y147.2981 I1.4827 J0.0868
G2 X335.3317 Y147.365 I1.4566 J0.0839
G2 X335.3295 Y147.4298 I1.4311 J0.0811
G2 X335.3253 Y147.5554 I1.9857 J0.1286
G1 X335.3111 Y148.026
G2 X335.2937 Y148.7322 I74.3398 J2.1821
G1 X335.2869 Y149.0853
G1 X335.2814 Y149.4384
G1 X335.8413 Y149.4195
G1 X336.9263 Y149.3871
G1 X337.9437 Y149.3611
G1 X338.8976 Y149.3401
G3 X339.792 Y149.3232 I2.2642 J96.327
G3 X346.502 Y149.2924 I4.4672 J242.1064
G3 X346.7121 Y149.2949 I0.0286 J6.435
G3 X348.3401 Y149.3252 I-2.8306 J195.6482
G3 X350.7825 Y149.4268 I-1.385 J62.6915
G3 X352.0056 Y149.5325 I-1.2416 J21.5004
G3 X352.6173 Y149.6244 I-0.7956 J7.3747
G3 X352.9215 Y149.6988 I-0.6921 J3.4903
G1 X352.9968 Y149.7248
G3 X353.1055 Y149.7759 I-0.1624 J0.4863
G3 X353.1545 Y149.8124 I-0.1533 J0.2566
G3 X353.1878 Y149.8636 I-0.0845 J0.0915
G2 X384.5803 Y149.0276 I-95.6702 J-4182.3771
G1 X390.4657 Y148.8457
G1 X395.983 Y148.668
G1 X398.5692 Y148.5824
G1 X403.5798 Y148.4123
G2 X441.1524 Y146.9601 I-155.7888 J-4517.4905
G1 X445.8481 Y146.757
G1 X449.9567 Y146.5754
G1 X453.5516 Y146.4135
G1 X456.6969 Y146.2695
G1 X459.4491 Y146.1419
G1 X464.2652 Y145.9145
G1 X466.0711 Y145.828
G2 X466.2687 Y145.8185 I-0.5056 J-12.5628
G2 X466.4632 Y145.8091 I-0.5018 J-12.4415
G2 X466.6546 Y145.7999 I-0.4981 J-12.3217
G2 X466.843 Y145.7908 I-0.4944 J-12.2034
G1 X469.8104 Y145.6466
G1 X472.0359 Y145.5372
G1 X473.705 Y145.4545
G1 X478.712 Y145.2028
G3 X478.4802 Y144.4711 I5.6428 J-2.1897
G3 X478.3545 Y143.8129 I6.6913 J-1.6194
G3 X478.2905 Y143.2306 I9.9724 J-1.3901
G1 X478.2721 Y142.9749
G3 X478.2281 Y142.0147 I56.1821 J-3.0567
G1 X478.2125 Y141.6544
G1 X478.1954 Y141.3392
G2 X478.0858 Y140.2401 I-12.7386 J0.7148
G2 X477.8634 Y139.1583 I-9.6223 J1.4149
G0 Z5.0
G0 X335.2814 Y121.2611
G1 Z0.0
G1 X335.3414 Y119.9116
G2 X335.6001 Y109.2788 I-308.0981 J-12.8155
G2 X335.6015 Y104.6261 I-318.6179 J-2.4245
G1 X335.5927 Y103.5357
G1 X335.5807 Y102.4624
G1 X335.5658 Y101.4059
G1 X335.5482 Y100.366
G1 X335.5279 Y99.3424
G2 X335.2752 Y91.284 I-416.0773 J9.015
G1 X335.1992 Y89.5221
G1 X335.1191 Y87.8155
G1 X335.0355 Y86.1626
G1 X334.9491 Y84.5615
G1 X334.8606 Y83.0108
G1 X334.7705 Y81.5089
G2 X334.7593 Y81.327 I-6.956 J0.3372
G2 X334.7481 Y81.1459 I-6.9515 J0.3396
G2 X334.7368 Y80.9654 I-6.947 J0.342
G2 X334.7256 Y80.7856 I-6.9422 J0.3443
G2 X334.7143 Y80.6066 I-6.9373 J0.3466
G2 X334.703 Y80.4282 I-6.9324 J0.3489
G2 X334.6917 Y80.2506 I-6.9274 J0.3512
G2 X334.6804 Y80.0736 I-6.9223 J0.3534
G2 X334.6691 Y79.8974 I-6.9174 J0.3556
G2 X334.6578 Y79.7218 I-6.9121 J0.3578
G2 X334.6464 Y79.547 I-6.9069 J0.3599
G2 X334.6351 Y79.3728 I-6.9016 J0.362
G2 X334.6237 Y79.1993 I-6.8962 J0.3641
G2 X334.6124 Y79.0265 I-6.8907 J0.3662
G2 X334.601 Y78.8543 I-6.8852 J0.3682
G2 X334.4132 Y76.1118 I-453.7833 J29.7028
G2 X334.4018 Y75.9511 I-6.7802 J0.3998
G2 X334.3904 Y75.791 I-6.7737 J0.4013
G2 X334.379 Y75.6316 I-6.7671 J0.4029
G2 X334.3677 Y75.4728 I-6.7605 J0.4044
G2 X333.57 Y65.3558 I-771.4888 J55.7359
G2 X333.4068 Y63.46 I-605.6031 J51.1729
G2 X333.0918 Y59.9062 I-933.0794 J80.9274
G1 X332.8079 Y56.7973
G2 X332.6817 Y55.4374 I-210.0 J18.8018
G1 X332.4424 Y52.8877
G1 X332.0174 Y48.4264
G1 X331.3742 Y41.735
G3 X331.3541 Y41.5259 I8.8613 J-0.9561
G3 X331.3347 Y41.3233 I8.7276 J-0.9396
G3 X331.3158 Y41.127 I8.5955 J-0.9235
G3 X331.2976 Y40.9369 I8.4655 J-0.9076
G1 X331.0162 Y37.9901
G1 X330.7379 Y35.0429
G2 X328.6223 Y34.0338 I-11.3702 J21.1162
G2 X326.7081 Y33.304 I-12.1664 J29.0365
G2 X325.0009 Y32.7608 I-12.4459 J36.1611
G1 X324.6245 Y32.6518
G2 X323.1587 Y32.2564 I-17.2089 J60.8808
G2 X322.5144 Y32.0947 I-8.1432 J31.0833
G2 X320.0889 Y31.5283 I-28.4245 J116.2395
G1 X318.2658 Y31.121
G1 X317.5824 Y30.9669
G3 X316.388 Y30.6901 I18.0704 J-80.6944
G1 X315.9408 Y30.5829
G3 X315.8431 Y30.5592 I0.5287 J-2.3881
G3 X315.7484 Y30.536 I0.519 J-2.3294
G1 X315.0159 Y30.3527
G1 X314.4679 Y30.2098
G1 X314.0578 Y30.0991
G3 X313.981 Y30.078 I0.4853 J-1.9156
G1 X313.4061 Y29.9157
G3 X313.2627 Y29.8741 I0.6851 J-2.6247
G1 X312.8334 Y29.7461
G1 X311.1198 Y29.282
G2 X310.276 Y29.0549 I-29.8602 J109.2264
G1 X309.8574 Y28.9425
G2 X296.4854 Y25.4635 I-238.2408 J888.2657
G1 X295.0198 Y25.0947
G1 X293.5766 Y24.734
G1 X292.1554 Y24.3809
G2 X269.7086 Y19.0834 I-259.5397 J1049.5177
G1 X267.5987 Y18.6108
G1 X265.5539 Y18.1568
G1 X263.5722 Y17.7204
G1 X261.6517 Y17.3008
G2 X260.7212 Y17.0987 I-26.7426 J120.8895
G2 X246.0463 Y14.0101 I-268.0852 J1237.3309
G2 X245.7019 Y13.9398 I-3.2875 J15.2199
G2 X245.3601 Y13.8701 I-3.2369 J14.9989
G2 X245.0211 Y13.801 I-3.1879 J14.7855
G2 X239.6363 Y12.7166 I-349.9281 J1723.6823
G2 X239.3416 Y12.6579 I-2.5174 J11.8712
G2 X239.0492 Y12.5997 I-2.4887 J11.7467
G2 X238.7592 Y12.5421 I-2.4606 J11.6251
G2 X238.4713 Y12.485 I-2.4333 J11.5062
G2 X238.1857 Y12.4283 I-2.4065 J11.39
G2 X229.1132 Y10.6619 I-266.5102 J1344.646
G2 X228.9004 Y10.6212 I-1.6944 J8.2833
G2 X228.6893 Y10.5809 I-1.6808 J8.2235
G1 X225.337 Y9.9447
G2 X225.1536 Y9.9101 I-1.4652 J7.2689
G2 X224.9716 Y9.8758 I-1.4547 J7.2218
G2 X224.7911 Y9.8418 I-1.4442 J7.1751
G2 X224.6119 Y9.8081 I-1.4339 J7.129
G2 X224.4342 Y9.7747 I-1.4237 J7.0835
G2 X224.2578 Y9.7416 I-1.4136 J7.0384
G2 X224.0828 Y9.7087 I-1.4036 J6.9938
G2 X223.9092 Y9.6761 I-1.3938 J6.9497
G2 X223.7369 Y9.6438 I-1.384 J6.9061
G2 X223.566 Y9.6118 I-1.3744 J6.863
G2 X223.3964 Y9.5801 I-1.3649 J6.8203
G2 X223.2281 Y9.5486 I-1.3555 J6.7781
G2 X223.0611 Y9.5173 I-1.3462 J6.7362
G2 X222.8955 Y9.4864 I-1.337 J6.695
G2 X222.7311 Y9.4557 I-1.3279 J6.6541
G2 X222.568 Y9.4252 I-1.3189 J6.6136
G2 X212.2064 Y7.5288 I-298.9803 J1604.3155
G1 X210.9102 Y7.2967
G1 X208.6416 Y6.8931
G1 X207.7907 Y6.7426
G2 X207.6045 Y6.7097 I-1.145 J5.942
G1 X204.7188 Y6.2032
G2 X204.5384 Y6.1717 I-1.0836 J5.675
G1 X201.8322 Y5.7018
G3 X206.217 Y38.9654 I-503.0262 J83.2286
G3 X207.2957 Y51.5024 I-498.5034 J49.2089
G3 X207.9865 Y62.4911 I-495.327 J36.6521
G1 X208.0477 Y63.6938
G1 X208.1053 Y64.8778
G3 X208.3054 Y69.5412 I-522.2449 J24.749
G3 X208.3158 Y69.8146 I-10.2117 J0.5262
G3 X208.4728 Y104.6791 I-526.2466 J19.802
G3 X208.155 Y113.3908 I-572.2268 J-16.5139
G3 X208.1367 Y113.7991 I-22.1904 J-0.7918
G3 X208.1183 Y114.201 I-22.2267 J-0.8131
G3 X206.3757 Y139.4808 I-558.3024 J-25.785
G1 X206.7714 Y139.4693
G1 X207.1656 Y139.4579
G1 X207.9508 Y139.4357
G1 X208.7299 Y139.4143
G1 X209.5029 Y139.3936
G1 X212.5709 Y139.3165
G1 X213.314 Y139.2988
G1 X216.2631 Y139.2321
G1 X219.1203 Y139.1715
G3 X220.5043 Y139.1432 I5.6885 J244.4506
G1 X231.4036 Y138.9268
G1 X232.5958 Y138.9021
G1 X233.7694 Y138.8774
G1 X234.9247 Y138.8525
G1 X237.1991 Y138.8015
G1 X237.7499 Y138.7888
G1 X238.2965 Y138.7759
G1 X238.8388 Y138.763
G1 X240.9909 Y138.7097
G1 X243.0756 Y138.6548
G1 X243.5806 Y138.641
G1 X244.0816 Y138.627
G2 X252.0331 Y138.3714 I-23.0558 J-841.0007
G1 X252.9028 Y138.339
G1 X253.7588 Y138.3061
G1 X254.6015 Y138.2728
G1 X256.2601 Y138.2043
G1 X257.8669 Y138.1342
G2 X270.3116 Y137.4412 I-24.4814 J-551.7539
G1 X271.4775 Y137.3608
G1 X272.6067 Y137.2801
G1 X273.7004 Y137.1992
G1 X274.7597 Y137.1183
G1 X275.7858 Y137.0374
G2 X276.7796 Y136.9566 I-23.8126 J-299.0695
G2 X284.4743 Y136.2453 I-33.1609 J-400.7313
G2 X284.8346 Y136.2081 I-1.7409 J-18.5992
G2 X285.1893 Y136.171 I-1.712 J-18.1131
G2 X285.5384 Y136.1342 I-1.6854 J-17.6594
G2 X291.031 Y135.507 I-35.3936 J-334.3152
G2 X299.2473 Y134.3851 I-37.1898 J-302.9913
G2 X303.3423 Y133.7348 I-36.2521 J-241.5262
G2 X303.5979 Y133.6921 I-1.5638 J-10.1382
G2 X307.4267 Y133.0202 I-38.7682 J-232.18
G1 X307.7578 Y132.8896
G1 X307.9208 Y132.825
G1 X308.5669 Y132.5669
G1 X309.192 Y132.3135
G1 X309.4943 Y132.1894
G1 X309.7916 Y132.0661
G1 X310.3757 Y131.8202
G1 X310.6581 Y131.6994
G1 X311.2127 Y131.458
G1 X311.7481 Y131.2193
G2 X312.2648 Y130.983 I-10.7171 J-24.1164
G2 X312.5144 Y130.8666 I-3.5514 J-7.9395
G2 X312.637 Y130.8088 I-2.1726 J-4.7706
G2 X312.7585 Y130.7512 I-2.0053 J-4.3849
G2 X314.6649 Y129.7897 I-19.111 J-40.2639
G2 X315.0758 Y129.5662 I-15.2318 J-28.4864
G2 X315.4712 Y129.3447 I-10.3084 J-18.8648
G2 X315.8517 Y129.1252 I-9.8437 J-17.5034
G2 X318.6869 Y127.2437 I-14.4976 J-24.9232
G2 X320.6375 Y125.5919 I-13.6548 J-18.1033
G1 X320.8104 Y125.4256
G2 X323.216 Y122.5981 I-13.5012 J-13.9236
G2 X325.0159 Y119.3513 I-15.1157 J-10.5019
G2 X326.9571 Y112.3545 I-32.1148 J-12.6775
G2 X326.9733 Y112.257 I-1.4481 J-0.2904
G2 X326.9892 Y112.1597 I-1.4591 J-0.288
G2 X327.0047 Y112.0626 I-1.4703 J-0.2855
G2 X327.3625 Y108.9427 I-35.2098 J-5.6177
G2 X327.3689 Y108.851 I-2.0344 J-0.1899
G2 X327.4629 Y105.9206 I-40.9998 J-2.7811
G2 X327.4353 Y104.5484 I-52.2387 J0.3636
G2 X327.2639 Y101.8964 I-45.441 J1.6047
G1 X327.2344 Y101.5866
G1 X327.2032 Y101.2794
G1 X327.1705 Y100.9748
G2 X326.8509 Y98.5648 I-52.8167 J5.777
G2 X326.4647 Y96.3198 I-64.5874 J9.9561
G1 X326.3634 Y95.7957
G1 X326.2601 Y95.2806
G1 X326.155 Y94.7742
G2 X325.2245 Y90.8094 I-93.9466 J19.9561
G1 X325.1133 Y90.378
G2 X324.8899 Y89.53 I-93.5095 J24.1735
G1 X324.6684 Y88.7098
G1 X324.4495 Y87.9165
G2 X323.57 Y84.8511 I-265.3313 J74.4719
G1 X323.3727 Y84.1819
G2 X322.9877 Y82.886 I-348.1528 J102.7564
G1 X322.2614 Y80.4575
G3 X322.2217 Y80.3246 I6.4115 J-1.9874
G3 X322.1823 Y80.1928 I6.1406 J-1.9049
G3 X322.1433 Y80.062 I5.8998 J-1.8314
G1 X321.8346 Y79.0236
G1 X321.5474 Y78.0494
G3 X321.2809 Y77.1352 I117.7772 J-34.8312
G3 X321.2498 Y77.028 I3.3377 J-1.0241
G3 X321.2191 Y76.9216 I3.2918 J-1.0087
G3 X320.2747 Y73.5354 I175.7508 J-50.8399
G3 X319.6213 Y70.9807 I122.3305 J-32.6509
G3 X318.7704 Y67.1179 I83.3933 J-20.3954
G3 X318.4198 Y65.1713 I73.6583 J-14.2686
G3 X318.1302 Y63.2147 I52.3549 J-8.7509
G1 X318.0579 Y62.8127
G1 X317.9842 Y62.4173
G1 X317.9657 Y62.32
G2 X317.3068 Y59.2352 I-72.0235 J13.7699
G1 X317.2673 Y59.0673
G1 X317.1076 Y58.4017
G1 X316.9485 Y57.7579
G2 X316.7903 Y57.1354 I-42.6452 J10.5002
G1 X316.7515 Y56.9847
G1 X316.5952 Y56.3874
G1 X316.5184 Y56.0984
G1 X316.3652 Y55.5298
G2 X315.7482 Y53.3335 I-166.8834 J45.6918
G2 X314.599 Y49.5101 I-212.7926 J61.8776
G1 X314.4878 Y49.1527
G1 X314.0525 Y47.7692
G1 X313.8603 Y47.1645
G1 X313.6792 Y46.5979
G1 X313.3377 Y45.5361
G2 X313.3002 Y45.42 I-3.6355 J1.1096
G1 X313.0043 Y44.506
G1 X312.4845 Y42.9072
G1 X311.7044 Y40.5093
G1 X311.5101 Y39.9095
G1 X311.3647 Y39.4596
G1 X311.1473 Y38.7845
G3 X311.1202 Y38.7001 I1.1851 J-0.4272
G3 X311.0965 Y38.6262 I1.1033 J-0.3948
G3 X311.0136 Y38.3677 I28.6544 J-9.3269
G3 X310.931 Y38.1092 I10.1598 J-3.3917
G1 X311.0314 Y37.9696
G3 X311.2393 Y37.7111 I2.6506 J1.9185
G3 X311.4597 Y37.4912 I1.5721 J1.3555
G3 X311.6991 Y37.3349 I0.6439 J0.7251
G3 X311.9428 Y37.2962 I0.189 J0.4029
G3 X312.135 Y37.3822 I-0.065 J0.4029
G3 X312.2682 Y37.5189 I-0.4775 J0.5988
G3 X312.3668 Y37.6665 I-0.9246 J0.7241
G3 X312.5147 Y37.9638 I-2.581 J1.4693
G3 X312.6238 Y38.2333 I-6.2403 J2.6835
G1 X312.6687 Y38.3526
G1 X312.8331 Y38.8014
G2 X312.8489 Y38.8436 I0.4373 J-0.1395
G1 X312.9114 Y39.0063
G2 X313.1684 Y39.5604 I3.9696 J-1.5045
G2 X313.3419 Y39.8146 I1.4339 J-0.7928
G2 X313.572 Y40.0189 I0.7577 J-0.6212
G1 X313.7209 Y40.5166
G1 X314.309 Y42.4922
G1 X314.874 Y44.4075
G3 X319.0912 Y59.2977 I-755.738 J222.081
G3 X324.8527 Y81.7845 I-742.1948 J202.1423
G1 X325.1906 Y83.1955
G1 X325.5052 Y84.5187
G1 X326.0893 Y87.0013
G1 X326.5944 Y89.175
G1 X326.8136 Y90.1264
G3 X329.9846 Y104.4232 I-962.0462 J220.8818
G3 X329.479 Y112.3814 I-32.5717 J1.9256
G3 X327.8219 Y118.1524 I-31.2395 J-5.8467
G3 X325.8495 Y122.2131 I-27.1647 J-10.6854
G3 X323.9528 Y125.0231 I-22.8249 J-13.3606
G3 X322.297 Y126.955 I-19.9663 J-15.4378
G3 X319.4546 Y129.4993 I-17.0105 J-16.1442
G3 X317.8847 Y130.5857 I-13.0502 J-17.1804
G1 X317.6821 Y130.7119
G3 X316.2277 Y131.5338 I-11.3346 J-18.3594
G2 X314.625 Y132.0324 I5.9726 J22.0246
G2 X314.5384 Y132.063 I0.6551 J1.9911
G2 X314.4526 Y132.0937 I0.6864 J2.0563
G2 X314.3676 Y132.1244 I0.7195 J2.1253
G2 X313.0312 Y132.6442 I10.5076 J28.9912
G2 X311.8766 Y133.1359 I21.3695 J51.782
G1 X310.8719 Y133.5804
G1 X309.9933 Y133.9708
G1 X309.6081 Y134.1401
G1 X309.2462 Y134.297
G1 X308.906 Y134.4423
G1 X308.5862 Y134.5763
G3 X307.3766 Y135.0542 I-14.5479 J-35.0456
G3 X305.5237 Y135.665 I-8.1934 J-21.7415
G3 X303.6199 Y136.092 I-4.7492 J-16.7156
G1 X302.8603 Y136.1711
G1 X299.8454 Y136.4816
G1 X299.4802 Y136.5188
G1 X296.5703 Y136.8126
G1 X293.7507 Y137.0918
G1 X292.3847 Y137.2251
G1 X291.04 Y137.355
G1 X288.3921 Y137.6067
G1 X287.1093 Y137.7266
G3 X277.0033 Y138.621 I-103.101 J-1107.4577
G3 X276.865 Y138.6326 I-0.3242 J-3.0423
G3 X276.727 Y138.6441 I-0.324 J-3.0472
G3 X272.3201 Y139.002 I-87.0256 J-1044.3735
G1 X271.8035 Y139.0426
G3 X267.7026 Y139.3545 I-87.5557 J-1123.8719
G3 X267.5824 Y139.3634 I-0.3232 J-3.5652
G3 X267.4624 Y139.3722 I-0.3233 J-3.5758
G3 X267.3427 Y139.381 I-0.3235 J-3.5865
G3 X267.2232 Y139.3898 I-0.3237 J-3.5973
G3 X259.5898 Y139.914 I-67.1237 J-921.4582
G1 X257.9194 Y140.0192
G3 X257.7171 Y140.0317 I-0.5934 J-7.9615
G3 X231.9019 Y141.1734 I-45.0092 J-725.2835
G3 X225.443 Y141.3128 I-17.0179 J-638.7746
G3 X220.5981 Y141.3787 I-13.8089 J-836.8814
G1 X218.7811 Y141.395
G1 X217.1913 Y141.4055
G1 X216.8435 Y141.4073
G1 X216.5066 Y141.409
G3 X211.2844 Y141.4143 I-3.2913 J-667.0729
G1 X210.958 Y141.4134
G1 X208.5101 Y141.4023
G1 X208.2041 Y141.4003
G1 X207.9363 Y141.3985
G1 X206.0623 Y141.3833
G3 X205.9986 Y141.7401 I-10.0711 J-1.6145
G3 X205.859 Y142.4054 I-17.5604 J-3.3376
G3 X205.826 Y142.5505 I-2.9779 J-0.6012
G3 X205.6939 Y143.1117 I-27.3088 J-6.1302
G1 X205.5776 Y143.6029
G2 X205.3897 Y144.4664 I26.9076 J6.3075
G2 X205.277 Y145.1201 I11.0504 J2.2416
G2 X205.1836 Y146.1107 I9.0686 J1.3549
G2 X205.2137 Y147.1052 I7.1211 J0.2819
G1 X207.5027 Y147.223
G2 X207.6413 Y147.2301 I0.2859 J-4.2167
G1 X212.0675 Y147.4556
G1 X214.1424 Y147.5598
G1 X218.1626 Y147.7579
G1 X220.0473 Y147.8486
G1 X220.9602 Y147.892
G1 X224.5548 Y148.0588
G1 X227.9252 Y148.2085
G2 X228.1227 Y148.2171 I0.4573 J-8.2784
G2 X240.7152 Y148.6998 I51.4818 J-1178.404
G1 X241.8961 Y148.7378
G1 X244.1841 Y148.8073
G2 X252.7656 Y149.015 I24.0764 J-817.2201
G1 X253.5703 Y149.0299
G2 X266.0433 Y149.1445 I12.5365 J-685.2075
G1 X266.4331 Y149.1444
G1 X266.8108 Y149.144
G1 X267.1767 Y149.1434
G2 X272.8468 Y149.1065 I-1.0334 J-594.2931
G1 X274.2642 Y149.0889
G1 X276.3902 Y149.0559
G1 X277.4533 Y149.0365
G1 X278.5162 Y149.015
G2 X278.5335 Y148.3213 I-11.1808 J-0.6249
G2 X278.5317 Y147.7066 I-82.7638 J-0.0771
G1 X278.5322 Y147.4344
G1 X278.5358 Y147.178
G1 X278.5435 Y146.9366
G3 X278.6402 Y146.0329 I6.1806 J0.2043
G3 X278.6768 Y145.8638 I2.1209 J0.371
G3 X278.8951 Y145.2528 I2.8127 J0.6605
G3 X279.5258 Y144.5175 I1.7439 J0.8576
G3 X279.954 Y144.2861 I1.3049 J1.9035
G3 X280.4186 Y144.1416 I1.1865 J2.9955
G2 X285.1114 Y144.3344 I5.8116 J-84.2545
G2 X289.2192 Y144.2915 I1.1375 J-87.7608
G2 X291.0143 Y144.2136 I-4.0271 J-113.5361
G2 X291.1195 Y144.208 I-0.0246 J-1.4453
G2 X291.2243 Y144.2022 I-0.0266 J-1.4486
G2 X291.3286 Y144.1964 I-0.0286 J-1.4519
G2 X291.4325 Y144.1905 I-0.0306 J-1.4553
G2 X298.038 Y143.6036 I-6.5478 J-111.1495
G1 X298.6552 Y143.5299
G2 X298.8047 Y143.5116 I-0.2778 J-2.8939
G2 X298.953 Y143.4933 I-0.2865 J-2.935
G2 X299.1001 Y143.475 I-0.2955 J-2.9781
G2 X303.7609 Y142.8287 I-23.8574 J-189.1715
G2 X307.2478 Y142.2853 I-50.3954 J-334.8178
G1 X309.8608 Y141.8634
G1 X311.8205 Y141.5469
G1 X312.5556 Y141.4292
G1 X313.8422 Y141.2257
G1 X314.8076 Y141.0758
G1 X315.532 Y140.9651
G1 X316.619 Y140.8025
G3 X317.7068 Y140.6447 I22.2987 J149.8016
G2 X318.9596 Y139.971 I-8.2725 J-16.8859
G1 X319.246 Y139.8007
G2 X321.4004 Y138.305 I-11.0599 J-18.2302
G2 X324.6913 Y135.1172 I-14.2531 J-18.0066
G2 X326.7222 Y132.344 I-18.8939 J-15.9671
G2 X330.3127 Y122.7456 I-21.323 J-13.4472
G3 X331.0592 Y121.9572 I4.3952 J3.4136
G3 X331.7293 Y121.48 I2.7215 J3.1128
G3 X332.2932 Y121.2204 I1.6903 J2.9302
G3 X333.2103 Y121.0617 I0.9071 J2.5113
G3 X334.1194 Y121.2611 I-0.0114 J2.2244
G1 X335.2814
G0 Z5.0
G0 X326.9144 Y189.7033
G1 Z0.0
G2 X326.885 Y189.6999 I-0.3533 J2.8898
G2 X326.5889 Y189.6733 I-0.5393 J4.3424
G1 X326.3292 Y189.6599
G2 X326.1018 Y189.6535 I-0.2513 J4.8925
G1 X325.9027 Y189.6511
G1 X325.5544 Y189.6528
G2 X324.5101 Y189.6901 I0.3115 J23.3239
G1 X323.2371 Y189.7595
G1 X320.7311 Y189.8986
G1 X318.3035 Y190.0363
G1 X317.1277 Y190.1038
G1 X312.4982 Y190.3739
G1 X310.3282 Y190.5023
G1 X301.92 Y191.006
G1 X294.5628 Y191.4484
G1 X291.3439 Y191.6407
G1 X285.3083 Y191.997
G1 X283.9878 Y192.074
G1 X278.8712 Y192.3679
G1 X274.3939 Y192.6181
G1 X270.4758 Y192.8306
G1 X268.7614 Y192.9214
G3 X268.6609 Y192.9267 I-0.1696 J-2.2705
G1 X267.06 Y193.01
G1 X264.058 Y193.1625
G3 X253.5488 Y193.6485 I-71.3915 J-1429.9034
G3 X243.0352 Y194.0302 I-34.8145 J-814.0727
G3 X244.7462 Y194.6263 I-4.2804 J15.0391
G3 X245.9702 Y195.221 I-4.7702 J11.3752
G3 X249.0706 Y197.8424 I-5.0769 J9.1488
G1 X249.6589 Y197.7727
G1 X250.2427 Y197.7043
G1 X250.822 Y197.6372
G1 X250.9657 Y197.6207
G1 X251.1092 Y197.6042
G1 X252.2546 Y197.4743
G3 X256.7669 Y196.9854 I58.5809 J519.6237
G3 X261.0001 Y196.5545 I70.9099 J675.5987
G1 X261.2482 Y196.5299
G1 X263.2255 Y196.3366
G1 X265.1415 Y196.1532
G1 X266.0697 Y196.0655
G1 X266.5265 Y196.0227
G1 X266.7532 Y196.0015
G1 X266.9789 Y195.9804
G1 X268.7781 Y195.8139
G1 X272.2646 Y195.4976
G1 X275.5336 Y195.2074
G1 X275.9168 Y195.1737
G1 X278.9581 Y194.9083
G1 X284.661 Y194.4175
G1 X289.6513 Y193.991
G2 X289.7878 Y193.9793 I-0.2897 J-4.1912
G1 X294.1372 Y193.6061
G1 X297.9426 Y193.2761
G1 X301.272 Y192.9828
G1 X304.1848 Y192.7215
G1 X306.7331 Y192.4884
G1 X308.9624 Y192.2803
G1 X310.9128 Y192.0944
G1 X312.6191 Y191.9286
G2 X318.588 Y191.3191 I-69.1082 J-706.2943
G1 X320.0793 Y191.1581
G1 X320.3589 Y191.1275
G1 X321.4072 Y191.0113
G1 X322.9791 Y190.8328
G1 X324.5504 Y190.6487
G2 X325.9722 Y190.439 I-2.9421 J-24.8725
G2 X326.155 Y190.4044 I-2.4149 J-13.276
G1 X326.2773 Y190.3799
G2 X326.8684 Y190.2379 I-1.8131 J-8.8519
G1 X326.9258 Y190.2211
G2 X327.1637 Y190.1407 I-0.6717 J-2.3799
G2 X327.3617 Y190.0473 I-0.3702 J-1.0407
G2 X327.433 Y189.9945 I-0.1927 J-0.3348
G2 X327.4733 Y189.9349 I-0.0968 J-0.109
G2 X327.466 Y189.88 I-0.0678 J-0.019
G2 X327.3921 Y189.8181 I-0.1486 J0.1024
G2 X327.2202 Y189.7574 I-0.329 J0.6575
G2 X326.9144 Y189.7033 I-0.659 J2.8357
G0 Z5.0
G0 X326.7011 Y191.9896
G1 Z0.0
G2 X326.0354 Y191.9474 I-1.0436 J11.1837
G2 X324.8139 Y191.9778 I-0.332 J11.1901
G1 X324.6998 Y191.9871
G2 X324.2584 Y192.0319 I1.3647 J15.6576
G1 X324.162 Y192.0434
G1 X323.7893 Y192.0928
G1 X323.4639 Y192.1414
G1 X323.1797 Y192.1873
G1 X323.0555 Y192.2082
G1 X322.8227 Y192.2483
G1 X322.4159 Y192.321
G1 X321.1964 Y192.5438
G1 X321.1908 Y194.7106
G1 X321.1904 Y195.2355
G1 Y195.7563
G1 X321.1929 Y197.823
G1 X321.2051 Y201.8278
G1 X321.2085 Y202.7666
G1 X321.2196 Y206.4631
G1 X321.2222 Y208.1962
G1 X321.2225 Y208.616
G1 X321.2216 Y210.282
G1 X321.2176 Y211.8961
G3 X321.1986 Y215.0236 I-432.1305 J-1.0692
G1 X321.1952 Y215.3902
G1 X321.1792 Y216.845
G1 X321.1699 Y217.5496
G1 X321.1596 Y218.2434
G1 X321.1359 Y219.609
G1 X321.1085 Y220.9319
G1 X321.0773 Y222.2135
G3 X320.9081 Y227.1784 I-284.7385 J-7.2217
G1 X320.8595 Y228.2642
G3 X320.8533 Y228.3957 I-4.2196 J-0.1327
G3 X320.3025 Y236.7684 I-216.6501 J-10.0483
G3 X320.0036 Y239.902 I-179.1706 J-15.508
G1 X319.9305 Y240.5867
G3 X319.2585 Y245.881 I-148.5006 J-16.158
G1 X319.1852 Y246.376
G1 X319.1124 Y246.8553
G3 X318.8131 Y248.7098 I-106.4477 J-16.233
G3 X318.5275 Y250.3286 I-96.5578 J-16.1975
G3 X317.3364 Y255.9565 I-103.0934 J-18.8788
G3 X316.6162 Y258.7415 I-86.9181 J-20.9924
G1 X316.5198 Y259.0879
G1 X316.3474 Y259.6932
G3 X315.8025 Y261.5007 I-83.363 J-24.1462
G1 X315.6532 Y261.7561
G3 X313.0303 Y265.6692 I-34.5065 J-20.2932
G3 X310.18 Y269.0169 I-31.138 J-23.6248
G1 X309.8233 Y269.3863
G3 X309.7787 Y269.4318 I-0.8979 J-0.8351
G3 X306.786 Y272.1874 I-29.1778 J-28.686
G3 X303.7584 Y274.4882 I-27.4139 J-32.9299
G3 X303.5754 Y274.6146 I-4.5467 J-6.3905
G3 X300.5817 Y276.5097 I-27.3727 J-39.9296
G3 X299.8621 Y276.9219 I-22.8989 J-39.1362
G3 X296.9706 Y278.4367 I-27.0794 J-48.1729
G1 X296.6266 Y278.6033
G1 X296.2843 Y278.7664
G3 X293.5346 Y279.9891 I-28.7157 J-60.8752
G1 X293.209 Y280.1244
G3 X290.6038 Y281.1439 I-29.7951 J-72.3029
G1 X290.2962 Y281.2573
G1 X289.9907 Y281.3688
G1 X289.6872 Y281.4782
G1 X289.3857 Y281.5857
G3 X284.5551 Y283.1613 I-35.6938 J-101.2425
G1 X284.0227 Y283.3203
G3 X279.8098 Y284.5017 I-42.8202 J-144.6087
G1 X278.8842 Y284.7458
G1 X277.9866 Y284.9783
G1 X277.5515 Y285.0896
G1 X277.123 Y285.1985
G1 X276.701 Y285.305
G1 X276.2854 Y285.4091
G1 X275.8762 Y285.5111
G1 X275.0701 Y285.7103
G1 X273.5074 Y286.0915
G1 X272.0412 Y286.4447
G1 X269.2907 Y287.1018
G1 X266.8844 Y287.6785
G1 X265.8321 Y287.9334
G2 X265.7088 Y287.9635 I0.7277 J3.2563
G2 X265.5865 Y287.9933 I0.7191 J3.2153
G1 X264.616 Y288.2313
G1 X263.7069 Y288.4569
G1 X262.8551 Y288.671
G1 X262.0571 Y288.8742
G2 X259.0722 Y289.6636 I44.737 J175.2158
G1 X258.5139 Y289.8172
G1 X257.9911 Y289.9631
G1 X257.5015 Y290.1016
G2 X256.5847 Y290.366 I34.5132 J121.3835
G1 X255.7841 Y290.6028
G1 X255.4343 Y290.7081
G2 X255.3523 Y290.7329 I0.4793 J1.7296
G2 X250.2344 Y292.4309 I28.6427 J94.8944
G1 X249.0095 Y292.7201
G1 X248.7129 Y292.7904
G1 X248.4186 Y292.8601
G1 X246.0833 Y293.4158
G1 X241.7058 Y294.4629
G1 X239.7906 Y294.9211
G1 X237.9949 Y295.3496
G1 X236.311 Y295.7499
G1 X234.732 Y296.1233
G1 X233.2511 Y296.4714
G1 X232.9039 Y296.5527
G1 X232.5622 Y296.6326
G1 X231.2162 Y296.9459
G1 X230.9007 Y297.019
G1 X230.59 Y297.0908
G1 X229.3666 Y297.3724
G1 X228.2193 Y297.6344
G1 X227.6813 Y297.7565
G3 X219.3268 Y299.5789 I-110.7401 J-487.6275
G1 X218.2801 Y299.7956
G3 X217.8219 Y299.8895 I-7.1871 J-33.8935
G3 X210.9357 Y301.2246 I-67.1913 J-328.1284
G2 X210.9045 Y301.7218 I4.6169 J0.5391
G2 X210.937 Y302.1844 I2.8512 J0.0327
G2 X211.0566 Y302.5915 I1.5461 J-0.2335
G2 X211.2782 Y302.8986 I0.8892 J-0.408
G2 X211.5668 Y303.0739 I0.5994 J-0.6615
G2 X211.8666 Y303.1458 I0.4562 J-1.2409
G2 X212.1526 Y303.1583 I0.2351 J-2.0971
G1 X212.2195 Y303.1558
G2 X212.7413 Y303.0886 I-0.2451 J-3.962
G1 X212.854 Y303.0659
G2 X213.7164 Y302.8412 I-2.5195 J-11.4354
G1 X214.3589 Y302.6521
G1 X214.48 Y302.6175
G3 X214.9364 Y302.496 I3.2471 J11.279
G1 X215.1091 Y302.4557
G1 X215.2612 Y302.4239
G1 X215.3949 Y302.3994
G1 X215.5126 Y302.381
G3 X215.9279 Y302.3471 I0.4811 J3.3295
G3 X216.3425 Y302.3884 I0.0386 J1.71
G3 X217.7575 Y302.0187 I51.4333 J193.9293
G1 X218.4545 Y301.8385
G1 X219.1463 Y301.661
G1 X219.833 Y301.4859
G1 X220.5147 Y301.3133
G1 X221.1913 Y301.143
G1 X221.8628 Y300.9751
G1 X222.5294 Y300.8093
G1 X223.1909 Y300.6458
G1 X223.8476 Y300.4843
G1 X224.4993 Y300.3249
G1 X225.7929 Y300.0109
G1 X227.0671 Y299.7045
G1 X228.3219 Y299.4053
G1 X229.5577 Y299.1129
G1 X230.1661 Y298.9697
G1 X230.77 Y298.8281
G1 X231.3692 Y298.6879
G1 X233.7481 Y298.1356
G1 X236.0538 Y297.6051
G1 X237.171 Y297.3494
G1 X238.2709 Y297.0983
G1 X242.6028 Y296.1134
G1 X246.6642 Y295.1899
G2 X247.1402 Y295.0814 I-7.7808 J-35.2135
G2 X247.6124 Y294.9736 I-6.8895 J-31.266
G2 X248.0809 Y294.8665 I-6.2421 J-28.3913
G2 X248.3133 Y294.8133 I-4.1869 J-18.8387
G2 X248.5448 Y294.7603 I-4.0311 J-18.1446
G1 X250.3893 Y294.3369
G1 X252.1756 Y293.9242
G1 X253.9055 Y293.5214
G2 X260.6004 Y291.9246 I-144.2185 J-619.4905
G2 X260.7833 Y291.8799 I-1.7763 J-7.6697
G2 X260.9655 Y291.8354 I-1.7659 J-7.6145
G2 X261.1469 Y291.7909 I-1.7556 J-7.5603
G2 X261.3276 Y291.7466 I-1.7457 J-7.5073
G2 X267.078 Y290.2988 I-111.3924 J-454.5609
G1 X268.3334 Y289.9719
G1 X269.5486 Y289.6512
G1 X270.7247 Y289.3368
G1 X271.8632 Y289.0284
G1 X272.9651 Y288.7259
G1 X274.0316 Y288.4293
G1 X275.0638 Y288.1384
G2 X283.0254 Y285.754 I-75.3177 J-265.9685
G1 X283.7679 Y285.5174
G2 X289.4941 Y283.5985 I-64.9325 J-203.2688
G1 X290.5617 Y283.2208
G2 X298.4937 Y280.1866 I-61.6224 J-172.9773
G2 X298.6165 Y280.1361 I-2.0712 J-5.2197
G2 X306.2628 Y276.7569 I-59.0611 J-143.979
G2 X309.7096 Y274.3651 I-21.6459 J-34.8735
G2 X315.378 Y268.9618 I-22.9582 J-29.7596
G2 X319.3011 Y263.3945 I-29.1023 J-24.6731
G2 X319.3476 Y263.3141 I-2.1112 J-1.2759
G2 X319.3938 Y263.2338 I-2.1434 J-1.2878
G2 X320.7742 Y260.6184 I-35.6149 J-20.4698
G2 X322.8835 Y255.5008 I-42.9431 J-20.6926
G2 X323.6271 Y253.1998 I-51.3255 J-17.8565
G2 X324.7693 Y248.8149 I-62.4236 J-18.6021
G1 X324.8762 Y248.3313
G2 X325.2667 Y246.4204 I-69.3222 J-15.159
G2 X325.3514 Y245.9713 I-22.029 J-4.3893
G1 X325.3922 Y245.7501
G1 X325.4715 Y245.3108
G1 X325.5473 Y244.8779
G1 X325.6199 Y244.4516
G2 X326.1256 Y241.0837 I-99.5478 J-16.667
G2 X326.4848 Y238.1259 I-114.1877 J-15.3677
G1 X326.5546 Y237.4779
G1 X326.6196 Y236.8498
G2 X326.8492 Y234.4142 I-178.2018 J-18.0272
G2 X326.8724 Y234.1476 I-16.1358 J-1.5382
G2 X326.8949 Y233.8851 I-13.0023 J-1.2469
G2 X326.9167 Y233.6267 I-11.1531 J-1.0727
G1 X326.9999 Y232.6092
G1 X327.0741 Y231.655
G2 X327.3285 Y228.0749 I-342.0738 J-26.1102
G1 X327.6825 Y222.7029
G3 X327.6882 Y222.6189 I1.7428 J0.0752
G1 X327.779 Y221.2971
G3 X327.814 Y220.8015 I35.4245 J2.2553
G1 X327.877 Y219.9343
G1 X327.9258 Y219.2841
G1 X328.0019 Y218.309
G3 X328.0068 Y218.248 I1.2472 J0.0694
G1 X328.0822 Y217.3341
G1 X328.0731 Y216.546
G1 X328.0618 Y215.0191
G3 X328.059 Y214.3032 I55.0722 J-0.5736
G1 X328.0581 Y213.9564
G1 X328.0575 Y213.6151
G1 X328.0576 Y212.2712
G1 X328.0707 Y207.2316
G1 X328.0705 Y205.3416
G1 X328.0678 Y204.5147
G1 X328.0636 Y203.7395
G2 X327.9546 Y197.9266 I-213.7577 J1.1001
G1 X327.929 Y197.2003
G2 X327.904 Y196.5649 I-96.5155 J3.4753
G2 X327.7968 Y194.3417 I-142.0885 J5.7375
G1 X327.765 Y193.7863
G1 X327.7134 Y192.9532
G1 X327.6858 Y192.5367
G1 X327.657 Y192.1204
G2 X326.7011 Y191.9896 I-1.9995 J11.0529
G0 Z5.0
G0 X313.4376 Y195.16
G1 Z0.0
G2 X313.325 Y194.7818 I-3.5148 J0.8401
G2 X313.1599 Y194.4153 I-2.2059 J0.7734
G2 X312.955 Y194.1116 I-1.6913 J0.9199
G2 X312.7143 Y193.8844 I-1.0365 J0.8571
G2 X312.4517 Y193.7584 I-0.4634 J0.6289
G2 X311.9823 Y193.862 I-0.1362 J0.498
G2 X311.7725 Y194.1374 I0.5507 J0.6371
G2 X311.68 Y194.3786 I1.2558 J0.6195
G1 X311.6556 Y194.4722
G2 X311.5871 Y195.1445 I2.8484 J0.6297
G1 X311.5848 Y195.4793
G1 X311.5804 Y195.8089
G1 X311.5692 Y196.4577
G1 X311.5568 Y197.0862
G1 X311.5026 Y199.5215
G1 X311.3994 Y203.783
G1 X311.2415 Y210.1753
G1 X311.2031 Y211.7734
G1 X311.1486 Y214.1706
G1 X311.1361 Y214.7699
G1 X311.1316 Y214.9947
G1 X311.1174 Y215.7814
G1 X311.1143 Y215.9781
G1 X311.1087 Y216.568
G2 X311.1955 Y217.4045 I3.7323 J0.0355
G2 X311.3099 Y217.7644 I2.4597 J-0.5835
G2 X311.4785 Y218.0664 I1.3712 J-0.5676
G2 X311.7013 Y218.2778 I0.6867 J-0.5005
G2 X311.9488 Y218.3572 I0.271 J-0.4195
G2 X312.1616 Y218.3149 I0.0193 J-0.4592
G2 X312.3169 Y218.2141 I-0.284 J-0.6076
G2 X312.5181 Y217.9648 I-0.6484 J-0.7293
G2 X312.7001 Y217.5229 I-1.6085 J-0.9208
G2 X312.7912 Y217.0537 I-2.9526 J-0.8171
G1 X312.8279 Y216.7205
G1 X312.8584 Y216.392
G2 X313.035 Y213.8001 I-95.219 J-7.7906
G1 X313.097 Y212.6653
G1 X313.1506 Y211.6011
G2 X313.1977 Y210.6032 I-102.6447 J-5.3398
G1 X313.2394 Y209.6677
G2 X313.2765 Y208.7904 I-99.9097 J-4.6741
G1 X313.3416 Y207.1455
G1 X313.3484 Y206.9655
G1 X313.3615 Y206.6113
G1 X313.4098 Y205.2385
G1 X313.4486 Y204.0371
G2 X313.5077 Y201.9344 I-840.7741 J-24.7101
G2 X313.509 Y201.8851 I-0.3919 J-0.0345
G2 X313.5677 Y198.755 I-189.7117 J-5.1241
G1 X313.5712 Y198.3636
G2 X313.571 Y196.9936 I-77.2578 J-0.6712
G2 X313.566 Y196.6511 I-22.9794 J0.1593
G2 X313.5515 Y196.1374 I-14.9505 J0.1673
G2 X313.517 Y195.6247 I-6.7105 J0.1933
G2 X313.4376 Y195.16 I-3.5943 J0.3754
G0 Z5.0
G0 X308.6033 Y200.4908
G1 Z0.0
G2 X301.8377 Y201.2843 I46.2678 J423.7092
G1 X300.3593 Y201.4714
G1 X298.9276 Y201.6563
G2 X297.541 Y201.8385 I27.3685 J213.6602
G2 X297.457 Y201.8496 I0.2602 J2.2871
G2 X297.3732 Y201.8607 I0.2611 J2.2913
G2 X297.2895 Y201.8718 I0.262 J2.2956
G1 X294.6198 Y202.2305
G1 X292.1176 Y202.5725
G1 X287.4267 Y203.2198
G1 X285.3742 Y203.502
G1 X283.4496 Y203.764
G1 X282.5472 Y203.8856
G3 X279.0494 Y204.3472 I-66.7322 J-492.2466
G1 X277.5183 Y204.5429
G1 X276.0824 Y204.7222
G1 X275.7457 Y204.7637
G3 X273.0934 Y205.0803 I-64.1947 J-526.4268
G1 X272.8032 Y205.1139
G3 X271.6602 Y205.2437 I-61.9139 J-539.7656
G1 X270.5883 Y205.3621
G1 X269.583 Y205.47
G1 X268.6402 Y205.5682
G1 X267.7561 Y205.6576
G1 X266.9271 Y205.739
G1 X266.1496 Y205.8132
G1 X264.6912 Y205.9464
G1 X264.3721 Y205.9745
G1 X264.0629 Y206.0013
G1 X262.8646 Y206.1018
G1 X261.8157 Y206.1851
G1 X260.8976 Y206.2542
G1 X260.6967 Y206.2689
G1 X260.5021 Y206.283
G1 X260.3135 Y206.2964
G1 X260.1308 Y206.3093
G3 X257.2987 Y206.4907 I-13.8484 J-194.0127
G1 X257.1216 Y206.5009
G1 X256.9555 Y206.5103
G3 X255.7102 Y206.5768 I-16.1452 J-290.6795
G1 X254.4645 Y206.6361
G2 X254.185 Y206.7738 I0.6742 J1.7208
G2 X253.9653 Y206.9435 I0.5182 J0.8979
G2 X253.8414 Y207.1459 I0.3796 J0.3716
G2 X253.8259 Y207.3445 I0.4486 J0.1348
G2 X253.8692 Y207.5099 I0.8042 J-0.1221
G1 X253.8981 Y207.5786
G1 X253.9287 Y207.6413
G2 X254.0618 Y207.8664 I2.1875 J-1.1419
G1 X254.0752 Y207.887
G1 X254.2835 Y208.2046
G3 X254.4645 Y208.5386 I-1.9677 J1.2821
G1 X256.1605 Y208.4029
G2 X282.4176 Y205.9486 I-84.61 J-1046.8734
G2 X308.6033 Y202.8239 I-105.5412 J-995.7344
G3 X308.6237 Y202.5293 I1.9958 J-0.0098
G1 X308.6436 Y202.4016
G3 X308.649 Y202.3717 I0.1886 J0.0184
G1 X308.6719 Y202.2544
G1 X308.6948 Y202.1447
G2 X308.7364 Y201.9386 I-3.2409 J-0.7603
G2 X308.773 Y201.2052 I-2.4321 J-0.489
G2 X308.6033 Y200.4908 I-3.1823 J0.3785
G0 Z5.0
G0 X309.3419 Y216.5882
G1 Z0.0
G1 X309.0916 Y216.6142
G3 X301.1067 Y217.3768 I-59.1 J-576.6423
G1 X299.3589 Y217.5321
G3 X298.9355 Y217.5693 I-2.1994 J-22.6047
G1 X295.5749 Y217.8598
G1 X292.4238 Y218.1261
G1 X289.4692 Y218.3722
G1 X278.3879 Y219.2823
G1 X274.2319 Y219.6257
G1 X270.5953 Y219.9306
G1 X269.0043 Y220.0659
G1 X266.0214 Y220.3238
G2 X263.4116 Y220.5553 I75.2431 J862.861
G1 X261.1281 Y220.7639
G2 X261.0656 Y220.7697 I0.0259 J0.6185
G1 X259.0756 Y220.9575
G1 X257.3346 Y221.1274
G1 X256.9537 Y221.1655
G2 X255.4781 Y221.3162 I18.9092 J192.4194
G1 X254.8325 Y221.3841
G1 X254.2273 Y221.4489
G1 X253.0928 Y221.5742
G2 X252.5964 Y221.6307 I9.6683 J87.0825
G1 X251.6661 Y221.7401
G1 X250.8521 Y221.8401
G1 X250.1399 Y221.9318
G2 X247.6529 Y222.2997 I8.3161 J64.8084
G1 X247.3414 Y222.3544
G2 X246.2563 Y222.5785 I3.5312 J19.839
G1 X246.1201 Y222.6127
G2 X245.6486 Y222.7553 I1.0859 J4.442
G2 X245.417 Y222.8565 I0.5984 J1.6854
G2 X245.3086 Y222.9301 I0.2409 J0.4714
G2 X245.2651 Y222.9822 I0.1252 J0.1486
G2 X245.2529 Y223.0488 I0.0839 J0.0499
G2 X253.2915 Y223.0576 I4.2558 J-214.7087
G1 X253.5113 Y223.0538
G2 X260.5129 Y222.8352 I-5.0603 J-274.3215
G2 X263.5738 Y222.6871 I-19.0588 J-425.753
G1 X264.2911 Y222.6483
G1 X265.7028 Y222.5677
G1 X267.0701 Y222.4844
G1 X267.7323 Y222.4423
G1 X268.0582 Y222.4212
G1 X268.3815 Y222.3999
G2 X278.6382 Y221.6062 I-32.8161 J-490.7027
G1 X280.5594 Y221.4355
G1 X282.3601 Y221.2705
G2 X282.5712 Y221.2508 I-0.7208 J-8.8858
G1 X284.2457 Y221.0928
G2 X284.4419 Y221.0741 I-0.5306 J-6.589
G2 X284.6366 Y221.0554 I-0.5175 J-6.4271
G2 X284.8298 Y221.0369 I-0.5052 J-6.2753
G2 X285.0215 Y221.0184 I-0.4936 J-6.1326
G1 X285.7821 Y220.9448
G1 X286.5189 Y220.8728
G1 X289.3731 Y220.5887
G1 X291.87 Y220.3342
G2 X294.0543 Y220.108 I-143.6746 J-1397.9616
G1 X297.8763 Y219.7065
G1 X303.6087 Y219.0987
G1 X306.4752 Y218.7965
G1 X307.1918 Y218.7214
G1 X309.3419 Y218.4979
G1 Y216.5882
G0 Z5.0
G0 Y220.7229
G1 Z0.0
G1 X306.8074 Y220.9513
G1 X304.352 Y221.1703
G1 X304.0546 Y221.1966
G1 X301.685 Y221.4056
G1 X300.5371 Y221.506
G3 X282.4513 Y223.0088 I-183.7278 J-2101.4759
G1 X280.755 Y223.1411
G1 X277.468 Y223.3926
G3 X277.0828 Y223.4216 I-1.6587 J-19.4307
G1 X274.0249 Y223.6489
G1 X272.5913 Y223.7533
G1 X269.8135 Y223.9518
G1 X267.2089 Y224.133
G3 X257.439 Y224.7671 I-94.3909 J-1378.772
G3 X257.3245 Y224.7741 I-0.2748 J-3.5673
G3 X242.7175 Y225.5646 I-65.0257 J-1066.1707
G1 X240.8909 Y225.6483
G1 X239.2924 Y225.7185
G1 X238.593 Y225.7482
G1 X237.9374 Y225.7756
G3 X228.0998 Y226.1223 I-31.7069 J-759.9282
G1 X228.1748 Y226.8349
G3 X228.6947 Y232.4529 I-265.5933 J27.4123
G1 X228.7928 Y233.6832
G1 X228.8829 Y234.8754
G1 X228.9659 Y236.0306
G1 X229.0046 Y236.5903
G1 X229.078 Y237.6923
G1 X229.1124 Y238.2262
G1 X229.1777 Y239.2773
G3 X229.2383 Y240.2959 I-167.2304 J10.4648
G3 X229.2455 Y240.4192 I-2.6031 J0.2132
G3 X229.2526 Y240.5421 I-2.6145 J0.2129
G3 X229.3613 Y242.5006 I-244.2361 J14.535
G1 X229.4562 Y244.337
G1 X229.54 Y246.0589
G3 X229.687 Y249.2879 I-1045.6702 J49.2313
G1 X229.8091 Y252.1135
G1 X229.9146 Y254.5861
G1 X230.0082 Y256.7495
G1 X230.0927 Y258.6424
G1 X230.1116 Y259.0564
G1 X230.1302 Y259.4576
G1 X230.1483 Y259.8461
G1 X230.166 Y260.2226
G1 X230.1834 Y260.5872
G1 X230.2004 Y260.9405
G1 X230.2171 Y261.2827
G2 X230.3527 Y263.9342 I883.2487 J-43.8281
G2 X230.4632 Y265.9224 I246.8894 J-12.7252
G1 X230.474 Y266.1088
G1 X230.5604 Y267.553
G2 X230.7 Y269.7187 I293.5603 J-17.8335
G1 X230.7369 Y270.26
G1 X230.8527 Y271.8835
G2 X230.9201 Y271.884 I0.0419 J-1.0399
G2 X230.9874 Y271.8845 I0.0418 J-1.0396
G2 X239.596 Y271.8975 I5.3062 J-666.6566
G1 X240.5376 Y271.8922
G1 X242.3911 Y271.878
G1 X242.8401 Y271.8737
G1 X244.6216 Y271.8539
G1 X245.4846 Y271.8426
G2 X247.1835 Y271.817 I-6.7786 J-505.7371
G1 X248.8292 Y271.788
G1 X249.6264 Y271.7724
G1 X251.1956 Y271.7391
G2 X251.2907 Y271.737 I0.0151 J-1.4459
G2 X251.3855 Y271.7348 I0.0147 J-1.4466
G2 X251.4802 Y271.7327 I0.0144 J-1.4473
G2 X251.5747 Y271.7305 I0.0141 J-1.4481
G2 X257.6071 Y271.5657 I-14.1931 J-629.7925
G1 X258.9265 Y271.5228
G1 X259.2461 Y271.5121
G2 X260.5142 Y271.4682 I-7.8064 J-243.8457
G1 X261.7426 Y271.4237
G1 X264.1223 Y271.3322
G1 X265.2378 Y271.2871
G1 X265.7781 Y271.2647
G1 X267.9052 Y271.1736
G2 X275.8804 Y270.796 I-64.3692 J-1443.7715
G1 X278.8706 Y270.6434
G1 X284.1029 Y270.3684
G1 X285.084 Y270.3162
G1 X286.9235 Y270.2182
G1 X293.3616 Y269.8777
G1 X294.9713 Y269.7942
G1 X295.1222 Y269.7864
G1 X297.4612 Y269.6671
G1 X299.8004 Y269.5503
G2 X301.6953 Y266.9722 I-28.6426 J-23.0368
G2 X304.5854 Y261.738 I-29.4659 J-19.6851
G2 X304.6186 Y261.6635 I-1.1136 J-0.5406
G2 X305.1252 Y260.4652 I-33.2969 J-14.7848
G1 X305.2415 Y260.1726
G1 X305.3543 Y259.8813
G2 X305.7783 Y258.7167 I-36.1811 J-13.8322
G2 X305.8028 Y258.6458 I-1.4745 J-0.5481
G2 X306.1748 Y257.5075 I-34.3097 J-11.8431
G2 X307.3076 Y253.0122 I-42.6086 J-13.128
G2 X307.664 Y251.018 I-47.4281 J-9.503
G1 X307.7366 Y250.5489
G1 X307.8044 Y250.0867
G2 X308.2203 Y246.4319 I-69.4176 J-9.7502
G1 X308.2867 Y245.6302
G1 X308.3438 Y244.853
G2 X308.4363 Y243.3461 I-92.2095 J-6.4146
G1 X308.4722 Y242.6393
G1 X308.5031 Y241.9545
G2 X308.5529 Y240.6272 I-102.2733 J-4.5052
G1 X308.5629 Y240.316
G1 X308.5971 Y239.0907
G1 X308.6228 Y237.9418
G1 X308.6429 Y236.8646
G1 X308.7052 Y232.8246
G1 X308.7182 Y232.067
G1 X308.747 Y230.6467
G3 X308.762 Y230.0253 I47.3828 J0.8336
G3 X308.7697 Y229.7341 I20.25 J0.3857
G3 X308.7775 Y229.4519 I17.0219 J0.3299
G3 X308.7854 Y229.1786 I14.9721 J0.2995
G3 X308.7935 Y228.9138 I13.5249 J0.2818
G3 X308.8018 Y228.6573 I12.434 J0.2714
G3 X308.8102 Y228.4089 I11.5747 J0.2656
G3 X308.8186 Y228.1682 I10.8758 J0.2628
G3 X308.8272 Y227.935 I10.2934 J0.2621
G3 X308.8359 Y227.7091 I9.7986 J0.2629
G3 X308.8446 Y227.4903 I9.3719 J0.2648
G3 X308.8534 Y227.2784 I8.9992 J0.2675
G3 X308.8623 Y227.0731 I8.6705 J0.2707
G3 X308.8712 Y226.8742 I8.3774 J0.2744
G3 X308.8801 Y226.6816 I8.1141 J0.2784
G3 X308.889 Y226.4949 I7.8762 J0.2825
G3 X309.0682 Y223.6052 I106.8003 J5.1738
G3 X309.0823 Y223.4248 I7.4966 J0.4943
G3 X309.2003 Y222.0727 I92.481 J7.389
G3 X309.2334 Y221.735 I12.0694 J1.0124
G3 X309.2592 Y221.4818 I11.1211 J1.0061
G3 X309.2995 Y221.1023 I14.6809 J1.3692
G3 X309.3419 Y220.7229 I16.7869 J1.6833
G0 Z5.0
G0 X252.0372 Y212.2484
G1 Z0.0
G2 X252.1369 Y211.1888 I-9.9361 J-1.4694
G2 X251.8404 Y211.1352 I-0.8998 J4.1304
G2 X251.5572 Y211.1019 I-0.6207 J4.0667
G1 X251.288 Y211.0787
G1 X250.7776 Y211.0411
G3 X250.3218 Y211.0001 I0.7706 J-11.1193
G3 X250.2711 Y210.9944 I0.0227 J-0.4332
G1 X250.0716 Y210.969
G3 X249.6974 Y210.9031 I0.5413 J-4.1688
G3 X249.3722 Y210.8167 I0.6306 J-3.0274
G3 X249.0956 Y210.7089 I0.6211 J-2.0027
G3 X248.6648 Y210.4177 I0.6268 J-1.3916
G3 X248.3155 Y209.7327 I0.8676 J-0.874
G3 X248.2909 Y209.3475 I1.8305 J-0.3104
G3 X248.332 Y208.9638 I2.7039 J0.0956
G2 X247.9695 Y208.4454 I-2.7602 J1.5442
G2 X247.5564 Y208.0218 I-3.4228 J2.9246
G2 X247.131 Y207.663 I-6.0439 J6.7348
G2 X246.711 Y207.3497 I-7.1671 J9.1675
G2 X246.3045 Y207.0689 I-6.8086 J9.4221
G1 X245.9155 Y206.8122
G1 X245.1761 Y206.3368
G3 X245.0942 Y206.284 I1.4514 J-2.3435
G1 X244.7721 Y206.0745
G3 X244.4706 Y205.8736 I6.1099 J-9.4943
G1 X244.1895 Y205.6797
G3 X243.6717 Y205.2971 I7.9958 J-11.36
G3 X243.6437 Y205.2751 I0.1522 J-0.2228
G3 X242.8108 Y204.5139 I4.2102 J-5.4435
G3 X242.3038 Y203.8216 I2.7576 J-2.5513
G3 X242.0583 Y203.2234 I2.2161 J-1.2589
G3 X242.0052 Y202.2598 I2.2873 J-0.6092
G3 X242.1157 Y201.7888 I2.8855 J0.4282
G3 X242.2948 Y201.3394 I3.9606 J1.3177
G3 X242.8937 Y201.4945 I-1.9589 J8.7962
G3 X243.9909 Y201.8667 I-4.1037 J13.8991
G3 X244.9295 Y202.2485 I-7.6666 J20.1907
G1 X245.3355 Y202.4266
G1 X245.7141 Y202.5979
G1 X245.8027 Y202.6386
G1 X246.1503 Y202.8005
G1 X246.7995 Y203.1097
G1 X247.9318 Y203.6591
G2 X248.7824 Y204.0688 I25.1032 J-51.0411
G2 X250.0717 Y204.6551 I16.2104 J-33.9369
G2 X250.7284 Y204.9209 I6.4575 J-15.0081
G2 X251.0613 Y205.0419 I6.1501 J-16.406
G2 X251.3982 Y205.1516 I3.2004 J-9.2588
G2 X250.8232 Y203.247 I-8.7561 J1.6047
G2 X250.002 Y201.7239 I-8.9483 J3.8414
G1 X249.8973 Y201.5669
G2 X248.986 Y200.3941 I-9.926 J6.7723
G2 X248.085 Y199.4604 I-11.094 J9.8033
G1 X247.8774 Y199.267
G2 X246.1665 Y197.8889 I-12.1754 J13.3647
G2 X245.9984 Y197.77 I-4.7138 J6.4839
G2 X244.6601 Y196.9011 I-13.534 J19.38
G2 X242.5597 Y195.7548 I-14.7775 J24.5813
G2 X241.4779 Y195.2435 I-13.5673 J27.3013
G1 X241.3415 Y195.1822
G2 X240.3795 Y194.7688 I-12.696 J28.2179
G2 X240.3269 Y194.7666 I-0.0466 J0.4952
G2 X239.493 Y194.7503 I-0.8046 J19.775
G2 X238.0341 Y194.8125 I0.0069 J17.3164
G2 X235.8741 Y195.1748 I1.0837 J13.0779
G2 X233.8218 Y195.94 I2.5556 J9.9902
G2 X234.2033 Y196.5357 I3.4245 J-1.7731
G1 X234.2546 Y196.6008
G2 X234.7001 Y197.0841 I4.2732 J-3.4922
G2 X235.6636 Y197.8578 I5.3461 J-5.6707
G2 X236.1219 Y198.1596 I9.9058 J-14.5409
G2 X237.0141 Y198.6885 I11.9673 J-19.1721
G2 X237.1148 Y198.7453 I2.4652 J-4.2524
G1 X237.9122 Y199.1885
G1 X238.267 Y199.3872
G1 X238.4339 Y199.4823
G3 X239.0753 Y199.8656 I-10.0705 J17.5818
G3 X239.6263 Y200.2348 I-6.0825 J9.6722
G3 X239.8609 Y200.4111 I-4.4808 J6.2067
G1 X239.9686 Y200.4975
G3 X240.3651 Y200.8578 I-3.1626 J3.8786
G1 X240.4465 Y200.9431
G3 X240.7343 Y201.2977 I-2.5711 J2.3807
G3 X241.0855 Y202.0136 I-1.965 J1.4081
G3 X241.1754 Y202.6034 I-2.1506 J0.6299
G3 X241.144 Y203.0488 I-2.3525 J0.0576
G3 X240.9716 Y203.6946 I-3.4447 J-0.5732
G3 X240.6947 Y204.303 I-4.8597 J-1.8447
G3 X240.0566 Y204.7085 I-8.9466 J-13.3742
G3 X239.4779 Y205.0347 I-6.7073 J-11.2223
G3 X238.4134 Y205.5087 I-3.8929 J-7.3108
G1 X238.2054 Y205.5796
G3 X237.4057 Y205.7771 I-1.8022 J-5.5806
G3 X237.0988 Y205.8185 I-0.8932 J-5.4577
G3 X236.0176 Y205.7905 I-0.4349 J-4.102
G3 X234.9856 Y205.4668 I0.619 J-3.7799
G3 X235.1143 Y205.9265 I-1.7043 J0.7252
G3 X235.0905 Y206.3365 I-1.0286 J0.146
G3 X234.9312 Y206.6464 I-0.8712 J-0.252
G3 X234.7175 Y206.8573 I-1.0394 J-0.8396
G3 X234.6119 Y206.935 I-1.2038 J-1.5255
G3 X234.4026 Y207.0644 I-1.4359 J-2.0881
G3 X234.0197 Y207.2639 I-4.038 J-7.2853
G2 X233.9831 Y207.2822 I0.1223 J0.2891
G1 X233.842 Y207.3541
G2 X233.5991 Y207.4896 I2.3882 J4.57
G2 X233.425 Y207.6072 I1.0123 J1.6855
G2 X233.1997 Y207.8281 I0.7205 J0.9602
G2 X233.0685 Y208.1152 I0.5661 J0.4323
G2 X232.7065 Y208.2068 I0.0356 J0.9015
G2 X232.4422 Y208.4137 I0.4006 J0.7841
G2 X232.269 Y208.6716 I0.905 J0.7948
G2 X232.1543 Y208.9419 I1.8499 J0.9447
G2 X232.0146 Y209.4838 I3.8447 J1.2802
G2 X231.9341 Y209.9921 I8.6845 J1.6359
G1 X231.8751 Y210.4657
G1 X231.8618 Y210.5753
G3 X231.8044 Y211.0038 I-19.1447 J-2.3454
G3 X231.7356 Y211.3893 I-6.8701 J-1.0267
G3 X231.6455 Y211.7286 I-3.8094 J-0.8295
G3 X231.5229 Y212.0173 I-1.5245 J-0.4771
G3 X231.3594 Y212.2386 I-0.8358 J-0.4465
G3 X230.9334 Y212.4252 I-0.4542 J-0.4575
G3 X230.5948 Y212.3848 I-0.0387 J-1.1148
G3 X230.1238 Y212.1917 I0.6276 J-2.2018
G3 X229.6888 Y211.9274 I2.3608 J-4.3749
G3 X229.6625 Y212.7053 I-2.5249 J0.304
G3 X229.4312 Y213.3352 I-2.1428 J-0.4294
G3 X229.0941 Y213.8106 I-2.3198 J-1.2879
G3 X228.9191 Y213.9967 I-3.3355 J-2.9605
G3 X228.5622 Y214.3175 I-3.4728 J-3.5046
G3 X227.8906 Y214.8309 I-10.371 J-12.8722
G1 X227.7612 Y214.9273
G1 X227.7006 Y214.973
G2 X227.2448 Y215.3456 I4.3347 J5.7693
G2 X226.9355 Y215.6682 I1.7577 J1.9945
G2 X226.7466 Y215.9475 I1.5548 J1.2548
G2 X226.5874 Y216.4266 I1.2055 J0.6666
G2 X226.6079 Y216.9309 I1.5463 J0.1898
G2 X226.645 Y217.1195 I0.8373 J-0.0665
G2 X226.7934 Y217.4561 I1.4701 J-0.4476
G2 X226.9819 Y217.7421 I2.4218 J-1.3907
G2 X227.3999 Y218.227 I3.7036 J-2.7704
G2 X227.8055 Y218.6127 I5.721 J-5.6092
G2 X229.3835 Y219.7704 I7.4786 J-8.5387
G1 X229.5947 Y219.896
G2 X229.782 Y220.0017 I3.7053 J-6.3461
G2 X230.4582 Y220.3329 I3.3486 J-5.9803
G1 X230.6337 Y220.4027
G2 X230.9028 Y220.4908 I1.1431 J-3.0358
G2 X231.1807 Y220.5452 I0.4158 J-1.3891
G2 X231.5508 Y220.6668 I3.2586 J-9.2878
G1 X231.6374 Y220.6928
G1 X231.8097 Y220.741
G2 X231.9851 Y220.7839 I0.6478 J-2.2675
G2 X232.3444 Y220.8417 I0.5432 J-2.234
G2 X232.5041 Y220.844 I0.097 J-1.1599
G2 X232.6482 Y220.819 I-0.02 J-0.5435
G2 X232.7602 Y220.7551 I-0.0878 J-0.2838
G2 X232.8186 Y220.6584 I-0.1615 J-0.1636
G2 X232.8217 Y220.4498 I-0.4371 J-0.1108
G2 X232.7686 Y220.2582 I-1.2822 J0.252
G2 X232.617 Y219.9029 I-3.2539 J1.1785
G1 X232.6071 Y219.8822
G1 X232.4471 Y219.555
G1 X232.3745 Y219.404
G3 X232.2462 Y219.1125 I5.8571 J-2.7518
G1 X232.196 Y218.9776
G3 X232.1261 Y218.7122 I1.3684 J-0.5022
G3 X232.1196 Y218.4691 I0.7493 J-0.1417
G3 X232.3513 Y218.1411 I0.4239 J0.0536
G3 X232.6281 Y218.0525 I0.4031 J0.7822
G3 X233.0616 Y218.032 I0.316 J2.0972
G3 X233.4937 Y218.0727 I-0.1532 J3.9413
G2 X233.6507 Y217.9276 I-0.1358 J-0.3043
G2 X233.6779 Y217.7495 I-0.3024 J-0.1373
G2 X233.64 Y217.5881 I-0.7822 J0.0984
G2 X233.5109 Y217.3022 I-2.1402 J0.7944
G1 X233.4777 Y217.2397
G1 X233.3456 Y216.9975
G3 X233.1366 Y216.5495 I2.7802 J-1.5698
G3 X233.0847 Y216.3645 I1.1184 J-0.4134
G3 X233.0863 Y216.029 I0.7301 J-0.1644
G3 X233.1968 Y215.8056 I0.5945 J0.1549
G3 X233.4823 Y215.5707 I0.7359 J0.6038
G3 X233.8218 Y215.4243 I0.9103 J1.6443
G2 X234.2039 Y215.4266 I0.2059 J-2.5004
G2 X234.5525 Y215.3603 I-0.0887 J-1.416
G2 X234.8213 Y215.1956 I-0.2035 J-0.6341
G2 X234.9592 Y214.9548 I-0.4294 J-0.4057
G2 X234.9961 Y214.7019 I-0.913 J-0.2623
G2 X234.9964 Y214.6716 I-0.2366 J-0.018
G2 X234.9919 Y214.5515 I-1.6038 J0.0
G2 X234.9172 Y214.0883 I-3.0737 J0.2583
G1 X234.8932 Y213.9842
G1 X234.7913 Y213.5792
G3 X234.7683 Y213.4878 I1.0444 J-0.3115
G3 X234.7573 Y213.4432 I0.4082 J-0.1245
G3 X234.7158 Y213.2668 I3.0485 J-0.8104
G3 X234.6525 Y212.9296 I3.3805 J-0.8091
G3 X234.6275 Y212.6253 I2.1384 J-0.3283
G3 X234.6502 Y212.3567 I1.3877 J-0.0181
G3 X234.8604 Y211.9417 I0.7851 J0.1369
G3 X235.1453 Y211.7515 I0.618 J0.6175
G3 X235.3882 Y211.6722 I0.6563 J1.5988
G3 X235.7669 Y211.6179 I0.5252 J2.3147
G3 X235.9581 Y211.6103 I0.2103 J2.8923
G1 X236.006 Y211.61
G3 X236.1494 Y211.6121 I0.0434 J1.8875
G3 X236.1128 Y210.4523 I2.7193 J-0.6665
G3 X236.3797 Y209.6327 I3.3146 J0.6264
G1 X236.4497 Y209.4872
G3 X236.7444 Y208.9593 I6.5064 J3.2854
G1 X236.9827 Y208.5733
G2 X237.0278 Y208.5011 I-0.9354 J-0.633
G2 X237.354 Y207.9526 I-8.9236 J-5.6799
G1 X237.4294 Y207.8119
G2 X237.6285 Y207.3766 I-3.7816 J-1.9924
G3 X238.488 Y208.4183 I-6.6201 J6.3375
G3 X238.6557 Y208.661 I-4.6459 J3.3894
G3 X239.2418 Y209.6413 I-9.4158 J6.2946
G1 X239.3 Y209.7518
G3 X240.0774 Y211.5562 I-12.3936 J6.4098
G3 X240.8174 Y214.4057 I-16.9819 J5.9311
G3 X241.0209 Y215.8645 I-19.4949 J3.4622
G1 X241.0389 Y216.0478
G3 X241.1181 Y217.3341 I-20.9491 J1.936
G2 X241.406 Y217.2378 I-0.1495 J-0.9256
G2 X241.6382 Y217.101 I-0.8997 J-1.7912
G2 X242.0308 Y216.8214 I-9.7927 J-14.1705
G3 X242.3512 Y216.6201 I1.5471 J2.107
G3 X242.6251 Y216.5214 I0.47 J0.8748
G3 X243.0474 Y216.6037 I0.1097 J0.5615
G3 X243.213 Y216.7424 I-0.4373 J0.6904
G3 X243.3486 Y216.9107 I-1.0913 J1.0181
G1 X243.3946 Y216.9326
G3 X243.7343 Y217.1472 I-0.7319 J1.5348
G3 X243.9654 Y217.4244 I-0.5947 J0.7308
G3 X244.0504 Y217.7359 I-0.6406 J0.342
G3 X244.0148 Y218.0368 I-0.9528 J0.04
G3 X243.901 Y218.3289 I-1.4316 J-0.3896
G3 X243.6919 Y218.674 I-2.5985 J-1.3386
G3 X243.4599 Y218.9756 I-4.195 J-2.9876
G3 X243.2021 Y219.2703 I-6.9202 J-5.7924
G1 X242.8904 Y219.6065
G2 X242.7048 Y219.8174 I3.3529 J3.1391
G2 X242.6624 Y219.8719 I0.3539 J0.3186
G2 X242.6277 Y219.9223 I0.3066 J0.2487
G2 X242.584 Y220.0257 I0.1999 J0.1452
G2 X242.6257 Y220.0876 I0.0565 J0.007
G2 X242.7497 Y220.0964 I0.0842 J-0.3097
G2 X242.8071 Y220.0899 I-0.0156 J-0.3948
G2 X243.2421 Y219.9868 I-0.5597 J-3.3314
G2 X243.3225 Y219.9631 I-0.2156 J-0.8772
G1 X243.4726 Y219.9167
G1 X243.6035 Y219.8746
G1 X243.8317 Y219.7986
G1 X244.1726 Y219.6805
G1 X244.5124 Y219.5591
G3 X244.7238 Y219.7204 I-0.4863 J0.8563
G3 X244.9327 Y220.1227 I-0.5856 J0.5595
G3 X244.9613 Y220.4571 I-1.4447 J0.2921
G3 X244.9571 Y220.5827 I-1.7434 J0.004
G1 X244.95 Y220.6926
G1 X244.9344 Y220.8845
G1 X244.924 Y221.0288
G2 X244.9377 Y221.4616 I1.8956 J0.157
G2 X245.0232 Y221.4068 I-0.8254 J-1.3838
G2 X245.6953 Y220.9623 I-14.0561 J-21.9806
G1 X246.0063 Y220.747
G1 X246.3048 Y220.534
G1 X246.5911 Y220.3234
G2 X247.6683 Y219.4644 I-12.2948 J-16.5233
G2 X249.3902 Y217.7719 I-10.6462 J-12.5536
G1 X249.538 Y217.5993
G2 X250.5758 Y216.1786 I-9.4419 J-7.9864
G2 X251.6844 Y213.7863 I-8.8635 J-5.5605
G2 X252.0372 Y212.2484 I-9.5833 J-3.0074
G0 Z5.0
G0 X239.0494 Y202.7508
G1 Z0.0
G2 X239.0836 Y202.6982 I-0.4654 J-0.3404
G2 X239.0925 Y202.3558 I-0.3277 J-0.1798
G2 X238.9229 Y202.1067 I-0.8264 J0.3802
G2 X238.8215 Y202.0042 I-1.0822 J0.9704
G2 X238.375 Y201.6563 I-2.4659 J2.7038
G2 X237.9274 Y201.3724 I-6.5787 J9.8768
G2 X237.0613 Y200.8841 I-11.1361 J18.7429
G1 X236.6774 Y200.6778
G1 X235.9562 Y200.2921
G1 X235.641 Y200.1215
G1 X235.4934 Y200.0407
G1 X235.4219 Y200.0014
G3 X234.8625 Y199.6862 I13.8858 J-25.2994
G3 X233.9021 Y199.0992 I10.9884 J-19.0592
G1 X233.8136 Y199.0409
G3 X233.475 Y198.8085 I6.4374 J-9.7418
G1 X233.3292 Y198.7032
G3 X233.194 Y198.6022 I2.6478 J-3.684
G3 X232.9452 Y198.4062 I5.9587 J-7.822
G3 X232.5291 Y198.0396 I4.4503 J-5.4702
G3 X231.9775 Y197.4161 I3.0721 J-3.2737
G3 X231.7556 Y197.0624 I2.5684 J-1.8579
G3 X231.5913 Y196.6786 I1.8894 J-1.0358
G1 X230.9325 Y195.8836
G1 X230.6223 Y195.5121
G1 X230.547 Y195.4222
G1 X229.3491 Y193.9983
G1 X229.2178 Y193.8428
G1 X228.184 Y192.6181
G1 X227.7323 Y192.0816
G1 X227.3097 Y191.5779
G1 X226.5207 Y190.6307
G3 X226.4777 Y190.5788 I1.1051 J-0.9589
G1 X225.7977 Y189.7522
G1 X225.2077 Y189.0249
G1 X224.9512 Y188.7053
G1 X224.7119 Y188.4049
G1 X224.4885 Y188.1223
G1 X224.28 Y187.8568
G1 X224.0855 Y187.6071
G1 X223.9039 Y187.3723
G1 X223.7344 Y187.1517
G1 X223.4188 Y186.7363
G1 X223.2817 Y186.5539
G1 X223.1536 Y186.3825
G3 X221.3111 Y183.7556 I41.3915 J-30.991
G3 X221.2501 Y183.7659 I-0.1439 J-0.6645
G3 X221.1892 Y183.7762 I-0.1434 J-0.6645
G3 X221.1286 Y183.7864 I-0.1429 J-0.6645
G3 X220.8872 Y183.8267 I-1.3704 J-7.465
G1 X219.9361 Y183.9809
G1 X219.0435 Y184.1196
G1 X218.206 Y184.2449
G1 X217.8131 Y184.3023
G1 X217.0517 Y184.4112
G1 X215.6232 Y184.6091
G1 X213.122 Y184.9453
G1 X212.184 Y185.0718
G2 X208.9046 Y185.5391 I29.4881 J218.6579
G1 X208.6999 Y185.5704
G1 X208.508 Y185.6
G1 X208.3282 Y185.628
G1 X208.1597 Y185.6545
G1 X208.0017 Y185.6795
G1 X207.8536 Y185.7032
G1 X207.7148 Y185.7256
G2 X205.6371 Y186.0832 I16.6417 J102.9025
G2 X205.9677 Y186.235 I3.287 J-6.7222
G2 X206.6303 Y186.5062 I4.8913 J-11.0035
G2 X207.9485 Y186.9377 I5.6107 J-14.9112
G2 X209.213 Y187.2486 I6.0184 J-21.7554
G1 X209.3627 Y187.2802
G1 X209.6603 Y187.3401
G1 X209.9541 Y187.3959
G2 X211.1163 Y187.5892 I5.4666 J-29.2785
G2 X211.6645 Y187.6684 I4.5917 J-29.8414
G1 X212.1969 Y187.7401
G1 X212.4554 Y187.7735
G1 X213.4745 Y187.8995
G3 X214.4327 Y188.016 I-17.8031 J150.3966
G3 X216.2311 Y188.2575 I-7.7872 J64.8054
G1 X216.6252 Y188.3186
G1 X217.0067 Y188.3819
G1 X217.3759 Y188.4474
G1 X217.7329 Y188.5155
G3 X219.1065 Y188.8304 I-3.9551 J20.4089
G1 X219.4045 Y188.9121
G3 X220.5441 Y189.2814 I-4.1078 J14.6187
G3 X222.4442 Y190.168 I-4.083 J11.2304
G3 X224.8776 Y192.1502 I-4.9808 J8.5991
G3 X225.8333 Y193.3997 I-8.0899 J7.1775
G3 X226.2424 Y194.072 I-10.099 J6.6069
G3 X226.6079 Y194.7688 I-13.3816 J7.4639
G2 X228.7596 Y197.327 I22.8026 J-16.9952
G2 X230.5458 Y199.0859 I23.7353 J-22.3167
G2 X236.5728 Y203.5644 I25.0019 J-27.3525
G2 X237.2296 Y203.4512 I-2.5708 J-16.8809
G2 X237.8103 Y203.3244 I-2.2393 J-11.6529
G1 X237.8791 Y203.307
G2 X238.0161 Y203.2702 I-0.6247 J-2.599
G2 X238.551 Y203.0878 I-1.2113 J-4.4278
G1 X238.6634 Y203.0365
G2 X238.7682 Y202.9814 I-0.4373 J-0.9579
G2 X238.9541 Y202.8526 I-0.572 J-1.0244
G2 X239.0494 Y202.7508 I-0.3702 J-0.4421
G0 Z5.0
G0 X234.145 Y204.5212
G1 Z0.0
G2 X234.1338 Y204.4912 I-1.2075 J0.4359
G2 X233.9806 Y204.1804 I-1.7597 J0.6743
G2 X233.6171 Y203.6984 I-2.8155 J1.7451
G2 X233.5409 Y203.6149 I-1.0541 J0.8861
G2 X232.9256 Y203.0318 I-5.9727 J5.6856
G1 X232.7645 Y202.894
G1 X232.6427 Y202.7919
G1 X232.2749 Y202.4885
G1 X232.1917 Y202.4176
G1 X232.1517 Y202.3816
G3 X231.8495 Y202.0786 I3.4072 J-3.6997
G1 X231.7132 Y201.9287
G1 X231.4535 Y201.6318
G1 X231.3925 Y201.5611
G1 X231.1513 Y201.283
G2 X230.6807 Y200.7707 I-8.5272 J7.3606
G2 X230.6265 Y200.7159 I-0.7408 J0.6785
G2 X230.1773 Y200.3065 I-4.2687 J4.2325
G2 X229.7405 Y199.9961 I-2.5263 J3.093
G2 X229.3196 Y199.7868 I-1.4536 J2.3943
G2 X228.5161 Y199.6358 I-0.7899 J1.9908
G2 X227.9135 Y199.7291 I0.0439 J2.2771
G2 X227.4882 Y199.8945 I0.7213 J2.4836
G2 X226.9031 Y200.2474 I1.7 J3.4803
G1 X226.7662 Y200.3498
G2 X226.7157 Y200.3893 I0.529 J0.7268
G2 X226.3751 Y200.6814 I3.7506 J4.7185
G2 X225.8025 Y201.3202 I3.224 J3.4659
G2 X225.3705 Y201.992 I5.0885 J3.7473
G2 X225.0422 Y202.6622 I7.3929 J4.0371
G2 X224.5852 Y203.9815 I9.2962 J3.9585
G2 X224.3196 Y205.173 I12.3512 J3.3791
G2 X224.0881 Y207.2962 I16.4157 J2.8641
G2 X224.2191 Y210.5002 I17.9994 J0.8684
G2 X224.2475 Y210.6998 I6.0962 J-0.7654
G2 X224.2618 Y210.7933 I4.3853 J-0.6217
G2 X224.3949 Y211.5139 I13.3306 J-2.0896
G2 X224.6879 Y212.574 I8.7673 J-1.8528
G1 X224.7351 Y212.7036
G2 X224.7788 Y212.816 I1.9137 J-0.6792
G2 X224.953 Y213.2006 I3.9075 J-1.5385
G2 X225.171 Y213.5622 I2.5405 J-1.2847
G2 X225.2298 Y213.644 I1.4173 J-0.9578
G2 X225.4695 Y213.9556 I5.4927 J-3.9753
G2 X225.5878 Y214.0885 I4.0429 J-3.4816
G2 X225.8434 Y214.3065 I1.0132 J-0.9292
G2 X226.1124 Y214.4157 I0.3882 J-0.5706
G2 X226.357 Y214.4021 I0.0917 J-0.5557
G2 X226.5494 Y214.3184 I-0.2055 J-0.7359
G2 X226.8316 Y214.0891 I-0.8101 J-1.2851
G1 X226.8784 Y214.0397
G2 X227.042 Y213.8438 I-2.4012 J-2.1708
G1 X227.0565 Y213.8247
G1 X227.1114 Y213.7501
G2 X227.4565 Y213.2012 I-4.7103 J-3.3439
G3 X228.0581 Y212.2235 I14.1245 J8.0178
G3 X228.6261 Y211.3952 I22.1302 J14.5666
G1 X228.7541 Y211.2166
G3 X230.8784 Y208.5556 I28.3718 J20.4716
G1 X231.0204 Y208.3965
G1 X231.29 Y208.1013
G3 X232.2748 Y207.1076 I15.2082 J14.0868
G3 X232.7994 Y206.6441 I7.1865 J7.6037
G3 X233.3562 Y206.2201 I5.3981 J6.5122
G2 X233.8399 Y205.8083 I-1.6198 J-2.3924
G2 X234.1416 Y205.3447 I-1.1197 J-1.0589
G2 X234.2191 Y204.8821 I-1.0066 J-0.4064
G2 X234.145 Y204.5212 I-1.2815 J0.0749
G0 Z5.0
G0 X222.7711 Y212.8872
G1 Z0.0
G1 X222.3778 Y212.3526
G1 X222.5155 Y214.9508
G2 X222.524 Y215.1081 I4.652 J-0.1701
G2 X222.5324 Y215.2651 I4.655 J-0.1707
G2 X222.5408 Y215.4219 I4.6581 J-0.1713
G2 X222.5492 Y215.5783 I4.6611 J-0.1719
G1 X222.6844 Y218.0755
G1 X222.952 Y222.9136
G1 X223.0795 Y225.1814
G1 X223.1416 Y226.2799
G1 X223.3884 Y230.6047
G1 X224.3234 Y246.8227
G1 X224.6678 Y252.9048
G3 X224.6864 Y253.2374 I-17.9536 J1.1708
G3 X224.7048 Y253.5675 I-18.4045 J1.1931
G1 X224.85 Y256.1872
G3 X224.8669 Y256.4942 I-25.7686 J1.571
G3 X224.8836 Y256.7989 I-27.291 J1.6509
G3 X224.9001 Y257.1011 I-29.1362 J1.7481
G3 X225.4081 Y266.6977 I-3026.2589 J164.9936
G1 X225.5879 Y270.2971
G1 X225.6263 Y271.0845
G1 X225.6632 Y271.8473
G1 X225.6986 Y272.5863
G1 X225.7326 Y273.3023
G1 X225.7653 Y273.9958
G1 X225.7966 Y274.6677
G1 X225.8267 Y275.3186
G1 X225.8556 Y275.9492
G1 X225.8834 Y276.56
G1 X225.9101 Y277.1518
G1 X225.9357 Y277.7252
G1 X225.9603 Y278.2806
G1 X225.984 Y278.8186
G1 X226.0067 Y279.3399
G3 X226.6079 Y295.5026 I-1231.2729 J53.8918
G1 X226.6662 Y295.5792
G2 X226.926 Y295.8465 I1.3932 J-1.0943
G2 X227.1999 Y296.021 I0.8299 J-1.0002
G2 X227.7482 Y296.1291 I0.4925 J-1.0545
G2 X228.157 Y296.0579 I-0.0618 J-1.5655
G2 X228.7275 Y295.8144 I-0.9074 J-2.916
G2 X229.2636 Y295.5026 I-5.5836 J-10.2185
G2 X229.263 Y295.3549 I-4.4011 J-0.0542
G2 X229.2623 Y295.2074 I-4.4048 J-0.0525
G2 X229.2615 Y295.0602 I-4.4084 J-0.0508
G2 X229.2607 Y294.9133 I-4.412 J-0.0492
G2 X229.2598 Y294.7667 I-4.4156 J-0.0475
G2 X229.2589 Y294.6204 I-4.4191 J-0.0458
G2 X229.1034 Y285.2779 I-477.9313 J3.2859
G1 X229.0456 Y283.2349
G2 X228.7521 Y275.3204 I-600.5517 J18.3064
G1 X228.6746 Y273.5897
G1 X228.5956 Y271.9132
G2 X228.5858 Y271.7102 I-7.4973 J0.2613
G2 X228.5759 Y271.508 I-7.5154 J0.2646
G2 X228.566 Y271.3065 I-7.534 J0.2679
G2 X228.2262 Y264.888 I-846.3905 J41.6003
G1 X228.1459 Y263.4843
G1 X227.9854 Y260.7649
G2 X227.9662 Y260.4462 I-12.8771 J0.6164
G2 X227.9471 Y260.13 I-12.9842 J0.6273
G2 X227.928 Y259.8163 I-13.0946 J0.6384
G2 X227.909 Y259.505 I-13.2085 J0.6496
G2 X227.7559 Y257.0348 I-803.2123 J48.5349
G1 X227.6091 Y254.7191
G1 X227.3272 Y250.3777
G2 X227.2959 Y249.9029 I-33.6229 J1.9718
G1 X226.8006 Y242.4248
G1 X226.6157 Y239.6205
G1 X226.5354 Y238.3935
G1 X226.4606 Y237.2431
G1 X226.391 Y236.1647
G1 X226.3261 Y235.1536
G1 X226.2658 Y234.2057
G1 X226.2097 Y233.317
G1 X226.1576 Y232.4838
G1 X226.1091 Y231.7027
G1 X226.064 Y230.9704
G1 X226.022 Y230.2838
G1 X225.9831 Y229.6401
G1 X225.8398 Y227.2262
G1 X225.7358 Y225.4155
G1 X225.6598 Y224.0574
G1 X225.6318 Y223.5481
G1 X225.5835 Y222.6567
G1 X225.5128 Y221.3197
G1 X225.4441 Y219.9825
G2 X225.1392 Y217.9148 I-21.1554 J2.0635
G2 X224.9622 Y217.1496 I-16.184 J3.3387
G2 X224.5365 Y215.8434 I-10.5471 J2.7151
G2 X224.1033 Y214.9091 I-8.2764 J3.2705
G2 X223.7159 Y214.2413 I-9.8524 J5.2688
G2 X223.0637 Y213.285 I-16.0265 J10.2301
G1 X222.7711 Y212.8872
G0 Z5.0
G0 X218.7174 Y210.0071
G1 Z0.0
G2 X218.7469 Y209.9429 I-0.154 J-0.1094
G2 X218.7603 Y209.7959 I-0.5373 J-0.1231
G2 X218.7214 Y209.5408 I-1.2553 J0.0609
G2 X218.5735 Y209.1776 I-1.3289 J0.3294
G2 X218.4424 Y209.0197 I-0.5106 J0.2905
G2 X218.3504 Y208.9678 I-0.1793 J0.2107
G2 X218.2449 Y208.9638 I-0.0602 J0.1907
G1 X216.8612 Y209.026
G1 X216.2127 Y209.0559
G1 X213.6998 Y209.1754
G1 X211.5012 Y209.2836
G1 X203.8064 Y209.6695
G1 X203.3255 Y209.6931
G3 X196.1103 Y210.0249 I-53.8716 J-1092.8247
G3 X196.0261 Y210.5136 I-0.546 J0.1575
G3 X195.8635 Y210.7011 I-1.1674 J-0.8482
G1 X195.7738 Y210.7868
G2 X195.6851 Y210.8735 I0.8744 J0.9827
G1 X195.864 Y210.8783
G1 X196.5738 Y210.894
G1 X197.2617 Y210.9041
G2 X202.5918 Y210.8476 I1.2581 J-132.6661
G1 X203.0913 Y210.8323
G1 X204.0588 Y210.799
G1 X204.9658 Y210.7635
G1 X205.8159 Y210.7269
G1 X206.6128 Y210.69
G1 X208.1067 Y210.6149
G2 X208.4334 Y210.5976 I-0.7738 J-17.7002
G1 X209.6993 Y210.5281
G1 X210.2532 Y210.4966
G1 X212.3297 Y210.375
G1 X213.1084 Y210.3286
G1 X213.2788 Y210.3184
G1 X215.9191 Y210.1638
G1 X216.2492 Y210.1453
G1 X216.3936 Y210.1372
G1 X217.4767 Y210.0789
G1 X218.5601 Y210.0249
G2 X218.6165 Y210.045 I0.1142 J-0.2319
G2 X218.7114 Y210.0151 I0.0227 J-0.0934
G2 X218.7174 Y210.0071 I-0.148 J-0.1174
G0 Z5.0
G0 X217.8847 Y223.2053
G1 Z0.0
G1 X217.6159 Y223.1883
G2 X214.9504 Y223.064 I-7.0348 J122.1669
G1 X213.7836 Y223.0254
G1 X213.2365 Y223.0097
G1 X212.7066 Y222.9957
G2 X210.6528 Y222.9521 I-5.0041 J187.3635
G2 X203.4632 Y222.9091 I-5.5319 J323.5577
G2 X199.8684 Y222.9546 I0.964 J218.2392
G1 X198.9698 Y222.9753
G2 X198.296 Y222.994 I2.0392 J85.7495
G2 X196.2752 Y223.0708 I2.777 J99.7345
G1 X195.7588 Y223.0978
G2 X193.8122 Y223.2571 I1.8313 J34.3437
G2 X193.1553 Y223.3438 I2.6639 J22.7287
G2 X192.6051 Y223.4456 I1.113 J7.5495
G1 X192.5555 Y223.4572
G2 X192.4531 Y223.4835 I0.2456 J1.1722
G2 X192.2543 Y223.5483 I0.3906 J1.5334
G2 X192.1217 Y223.6223 I0.1587 J0.4405
G2 X192.0914 Y223.6664 I0.0544 J0.0699
G2 X192.1249 Y223.738 I0.0709 J0.0105
G2 X192.2521 Y223.8024 I0.2942 J-0.4237
G2 X192.5168 Y223.8728 I0.6764 J-2.0094
G2 X192.6427 Y223.8968 I0.4277 J-1.9014
G2 X192.8881 Y223.935 I1.05 J-5.9423
G1 X193.1189 Y223.9641
G1 X193.3359 Y223.9873
G2 X193.7433 Y224.0234 I1.1045 J-10.1666
G1 X194.1003 Y224.049
G1 X194.2566 Y224.0588
G2 X196.6033 Y224.1448 I3.3347 J-58.945
G1 X198.9507 Y224.1997
G1 X199.9777 Y224.2246
G1 X203.8288 Y224.3169
G1 X204.551 Y224.3337
G1 X204.8895 Y224.3416
G1 X206.2012 Y224.3714
G2 X206.3447 Y224.3746 I0.1422 J-3.1513
G1 X207.4745 Y224.3994
G1 X209.4517 Y224.4405
G1 X210.1932 Y224.455
G1 X211.4908 Y224.4785
G1 X212.4639 Y224.4941
G1 X212.8289 Y224.4993
G1 X213.4677 Y224.5073
G2 X215.3839 Y224.5132 I1.2336 J-90.7571
G2 X215.9458 Y224.4667 I-0.0808 J-4.4024
G2 X216.0675 Y224.4478 I-0.1869 J-1.5974
G2 X216.9949 Y224.2271 I-1.3829 J-7.8714
G1 X217.166 Y224.1754
G1 X217.4851 Y224.073
G2 X218.0401 Y223.8839 I-7.4918 J-22.8918
G3 X218.8733 Y223.6021 I12.9715 J36.9927
G3 X219.7221 Y223.3713 I2.6147 J7.9392
G2 X219.358 Y223.3266 I-1.6564 J11.9792
G1 X218.9989 Y223.2905
G1 X218.645 Y223.2599
G1 X218.4706 Y223.2462
G1 X218.2975 Y223.2334
G1 X217.9541 Y223.2096
G1 X217.8847 Y223.2053
G0 Z5.0
G0 X217.7195 Y225.9924
G1 Z0.0
G2 X215.4839 Y225.8741 I-10.468 J176.6438
G1 X214.7465 Y225.8414
G1 X214.032 Y225.8128
G1 X213.859 Y225.8063
G1 X213.6872 Y225.8
G1 X213.0056 Y225.7768
G1 X212.6754 Y225.7664
G1 X212.0254 Y225.7479
G2 X209.506 Y225.6973 I-4.464 J159.3621
G2 X205.0963 Y225.675 I-3.662 J289.0657
G1 X204.8896 Y225.6755
G1 X203.2618 Y225.6821
G1 X200.4132 Y225.6999
G1 X198.2768 Y225.7119
G1 X197.4756 Y225.715
G1 X196.0735 Y225.7178
G1 X195.9421 Y225.7179
G3 X193.9047 Y225.7138 I1.2359 J-1116.6315
G3 X193.65 Y225.7125 I-0.0822 J-9.2891
G1 X193.2043 Y225.71
G3 X193.0372 Y225.7089 I-0.0337 J-7.5412
G1 X192.964 Y225.7084
G1 X191.8674 Y225.699
G2 X193.4885 Y231.6094 I273.3912 J-71.8105
G1 X193.8593 Y232.8977
G1 X193.9498 Y233.2095
G1 X194.04 Y233.5188
G1 X194.4003 Y234.7455
G1 X194.7533 Y235.9327
G1 X194.9255 Y236.5074
G1 X195.0958 Y237.0729
G1 X195.2641 Y237.6293
G1 X195.5975 Y238.7242
G1 X195.7599 Y239.2542
G1 X196.4041 Y241.3396
G1 X197.0144 Y243.2928
G1 X197.591 Y245.1225
G1 X198.1346 Y246.8369
G2 X198.3902 Y247.6403 I94.5288 J-29.6288
G1 X198.6382 Y248.4185
G1 X199.1193 Y249.926
G1 X199.345 Y250.6325
G1 X199.5637 Y251.317
G1 X199.7756 Y251.9802
G1 X200.5957 Y254.5499
G1 X200.9535 Y255.6745
G1 X201.2881 Y256.7291
G1 X201.6009 Y257.718
G1 X201.8932 Y258.6455
G1 X202.1662 Y259.5153
G1 X202.4212 Y260.331
G1 X202.8965 Y261.8613
G1 X203.3089 Y263.2015
G3 X203.6666 Y264.3751 I-143.47 J44.3766
G1 X203.8222 Y264.8889
G1 X203.9674 Y265.3707
G3 X206.0623 Y272.6221 I-301.9888 J91.1726
G3 X207.9992 Y272.3904 I4.7512 J31.5107
G1 X208.1055 Y272.3809
G3 X209.7942 Y272.2642 I4.0811 J46.7815
G1 X210.1641 Y272.2464
G1 X210.3433 Y272.2386
G1 X211.0489 Y272.2131
G3 X212.3725 Y272.1843 I2.4733 J83.0962
G1 X212.6621 Y272.1807
G1 X213.2231 Y272.1763
G1 X213.7491 Y272.1747
G3 X213.8725 I0.0637 J4.1765
G1 X214.3579 Y272.1755
G1 X215.2681 Y272.1806
G1 X218.4536 Y272.2126
G2 X220.0465 Y272.2178 I1.4385 J-196.5411
G1 X220.8429 Y272.2123
G2 X220.8927 Y272.2117 I0.0194 J-0.4663
G1 X221.266 Y272.2062
G1 X221.4526 Y272.2027
G1 X221.6392 Y272.1987
G2 X221.8129 Y272.1258 I-0.2052 J-0.7321
G2 X222.0095 Y271.8733 I-0.2103 J-0.3666
G2 X222.0433 Y271.6356 I-0.9983 J-0.2632
G1 X222.0479 Y271.5435
G3 X222.0538 Y271.4624 I0.5964 J0.0027
G3 X222.0793 Y271.3214 I0.8629 J0.0829
G3 X222.1904 Y271.1384 I0.3669 J0.0975
G3 X222.3778 Y271.0349 I0.3423 J0.3984
G1 X222.3723 Y270.6833
G1 X222.3661 Y270.3345
G1 X222.3592 Y269.9885
G1 X222.3518 Y269.6452
G1 X222.3438 Y269.3045
G2 X222.3061 Y267.9529 I-122.1616 J2.727
G1 X222.2957 Y267.6256
G1 X222.249 Y266.3267
G1 X222.2237 Y265.6977
G1 X222.169 Y264.4596
G1 X222.1102 Y263.2605
G1 X222.0951 Y262.9701
G2 X221.9655 Y260.6658 I-308.0323 J16.1733
G2 X221.8294 Y258.5064 I-711.9023 J43.7643
G2 X221.5452 Y254.4595 I-540.2254 J35.9069
G1 X221.4122 Y252.6897
G1 X221.2843 Y251.0306
G1 X221.0399 Y247.9202
G3 X221.0131 Y247.58 I22.7949 J-1.9708
G1 X220.8026 Y244.901
G3 X220.7911 Y244.7544 I6.6353 J-0.5905
G1 X220.6125 Y242.4282
G1 X220.5363 Y241.4102
G3 X220.0311 Y233.7715 I421.5019 J-31.7107
G1 X219.9794 Y232.816
G1 X219.9368 Y231.9797
G3 X219.9323 Y231.8882 I2.4912 J-0.1683
G3 X219.9279 Y231.7981 I2.4653 J-0.1655
G3 X219.9236 Y231.7094 I2.44 J-0.1627
G1 X219.8601 Y230.3132
G3 X219.7221 Y226.1223 I219.4909 J-9.3246
G1 X218.8532 Y226.0632
G2 X217.7195 Y225.9924 I-11.6017 J176.573
G0 Z5.0
G0 X192.0438 Y234.1263
G1 Z0.0
G3 X191.9881 Y233.9515 I5.3803 J-1.8093
G3 X191.9329 Y233.7781 I5.3473 J-1.7966
G3 X191.8782 Y233.606 I5.3146 J-1.784
G3 X191.824 Y233.4353 I5.2822 J-1.7716
G3 X191.7702 Y233.2658 I5.2503 J-1.7593
G3 X191.7169 Y233.0977 I5.2187 J-1.7472
G3 X191.6641 Y232.9309 I5.1873 J-1.7352
G3 X191.6117 Y232.7653 I5.1564 J-1.7233
G3 X191.5597 Y232.6011 I5.126 J-1.7116
G3 X191.5082 Y232.4381 I5.0958 J-1.7
G3 X191.4572 Y232.2763 I5.0659 J-1.6885
G3 X191.4065 Y232.1159 I5.0363 J-1.6771
G3 X188.2853 Y221.8992 I523.2252 J-165.4305
G1 X188.0973 Y221.2585
G3 X188.0534 Y221.1083 I4.3667 J-1.3585
G3 X185.4049 Y211.6121 I362.7733 J-106.2946
G2 X185.1278 Y211.7176 I0.4919 J1.7094
G1 X185.0691 Y211.7458
G1 X185.0129 Y211.7744
G1 X184.959 Y211.8031
G1 X184.9071 Y211.8317
G1 X184.5112 Y212.0642
G3 X184.4359 Y212.107 I-0.6945 J-1.1321
G3 X184.1449 Y212.2524 I-1.4129 J-2.4653
G3 X183.6744 Y212.3814 I-0.6837 J-1.571
G3 X183.1873 Y212.3526 I-0.1579 J-1.4648
G1 X183.2908 Y212.6934
G2 X186.6332 Y223.5443 I1396.8505 J-424.3391
G1 X187.3742 Y225.9148
G1 X187.7341 Y227.0627
G1 X187.9115 Y227.6276
G1 X188.6172 Y229.8692
G1 X189.3029 Y232.04
G1 X190.6368 Y236.2442
G1 X191.2641 Y238.2143
G1 X192.4828 Y242.0303
G1 X193.6283 Y245.6068
G1 X195.7814 Y252.3111
G1 X199.5517 Y264.0429
G1 X200.2572 Y266.2431
G1 X200.9178 Y268.306
G1 X202.1536 Y272.1749
G1 X202.4235 Y273.0214
G1 X202.6846 Y273.8416
G1 X202.9374 Y274.6362
G1 X203.1822 Y275.406
G1 X203.419 Y276.1518
G1 X203.6483 Y276.8744
G1 X203.8702 Y277.5744
G3 X203.9239 Y277.744 I-5.129 J1.7182
G3 X203.9772 Y277.9123 I-5.0908 J1.705
G3 X204.0301 Y278.0792 I-5.0532 J1.692
G3 X204.0825 Y278.2449 I-5.016 J1.6791
G3 X204.1345 Y278.4092 I-4.9795 J1.6665
G3 X204.1861 Y278.5723 I-4.9433 J1.654
G3 X204.2373 Y278.7341 I-4.9077 J1.6416
G3 X204.2881 Y278.8947 I-4.8726 J1.6295
G3 X204.3385 Y279.054 I-4.8379 J1.6174
G3 X204.3884 Y279.212 I-4.8038 J1.6056
G3 X204.438 Y279.3688 I-4.77 J1.5939
G3 X204.4872 Y279.5244 I-4.7366 J1.5823
G3 X204.536 Y279.6788 I-4.7037 J1.5709
G3 X204.5843 Y279.832 I-4.6712 J1.5597
G3 X204.6323 Y279.984 I-4.6391 J1.5485
G3 X204.6799 Y280.1348 I-4.6075 J1.5375
G3 X204.7272 Y280.2844 I-4.5762 J1.5267
G3 X204.774 Y280.4329 I-4.5452 J1.5159
G1 X205.5162 Y282.7895
G3 X205.5567 Y282.9185 I-4.0458 J1.3424
G3 X205.5969 Y283.0464 I-4.0209 J1.3337
G3 X205.6368 Y283.1733 I-3.9962 J1.3251
G3 X205.6764 Y283.2993 I-3.9718 J1.3166
G3 X205.7156 Y283.4242 I-3.9477 J1.3082
G3 X205.7545 Y283.5482 I-3.9238 J1.2999
G3 X205.7931 Y283.6713 I-3.9001 J1.2917
G3 X205.8314 Y283.7933 I-3.8767 J1.2835
G3 X205.8694 Y283.9144 I-3.8534 J1.2755
G3 X205.9071 Y284.0346 I-3.8305 J1.2675
G3 X206.206 Y284.9883 I-119.4055 J37.9403
G1 X206.765 Y286.7769
G1 X207.7388 Y289.9083
G1 X208.1025 Y291.0831
G1 X208.7366 Y293.1396
G1 X209.6822 Y296.2261
G1 X210.1523 Y297.7702
G1 X210.6205 Y299.3149
G2 X211.091 Y299.4645 I0.8684 J-1.9156
G2 X211.3056 Y299.4827 I0.1943 J-1.0163
G2 X211.5011 Y299.4556 I-0.0144 J-0.8211
G2 X211.7998 Y299.2641 I-0.1586 J-0.5759
G2 X211.9444 Y299.004 I-0.6567 J-0.5356
G2 X212.0066 Y298.7542 I-1.4968 J-0.5049
G2 X212.0291 Y298.5309 I-1.6251 J-0.2767
G2 X212.0213 Y298.1387 I-2.676 J-0.1428
G2 X211.935 Y297.5573 I-4.5016 J0.3706
G2 X211.7843 Y296.989 I-6.1046 J1.3153
G1 X211.4302 Y295.6381
G1 X211.254 Y294.9737
G2 X208.2993 Y284.4697 I-396.4491 J105.8519
G1 X207.9602 Y283.3255
G2 X206.5997 Y278.8278 I-439.2631 J130.4194
G1 X205.9492 Y276.7234
G1 X205.6315 Y275.7049
G1 X205.0013 Y273.7013
G1 X204.3854 Y271.762
G1 X203.7841 Y269.8847
G2 X203.4913 Y268.9759 I-101.4766 J32.1892
G2 X203.3468 Y268.5287 I-48.4257 J15.3938
G2 X203.2033 Y268.085 I-41.4048 J13.1499
G2 X203.0607 Y267.6449 I-36.7066 J11.6505
G2 X202.919 Y267.2083 I-33.2763 J10.5572
G2 X202.7783 Y266.7751 I-30.6281 J9.7142
G2 X202.6384 Y266.3454 I-28.5028 J9.0382
G2 X202.4995 Y265.9191 I-26.7461 J8.4801
G2 X202.3615 Y265.4962 I-25.2631 J8.0092
G2 X202.2244 Y265.0766 I-23.9884 J7.6047
G2 X202.0883 Y264.6604 I-22.8774 J7.2524
G1 X201.0031 Y261.3581
G1 X199.98 Y258.2641
G1 X199.4991 Y256.8142
G1 X199.0326 Y255.4098
G1 X197.2239 Y249.9682
G3 X197.1744 Y249.8194 I6.6727 J-2.2988
G3 X197.1252 Y249.6712 I6.6341 J-2.2854
G3 X197.0762 Y249.5235 I6.596 J-2.2722
G3 X197.0273 Y249.3764 I6.5585 J-2.2591
G3 X196.9787 Y249.2299 I6.5214 J-2.2462
G3 X196.9302 Y249.0839 I6.4848 J-2.2335
G3 X196.882 Y248.9385 I6.4487 J-2.2209
G3 X196.8339 Y248.7937 I6.4131 J-2.2085
G3 X196.7861 Y248.6495 I6.3779 J-2.1962
G3 X196.7384 Y248.5058 I6.3431 J-2.184
G3 X196.6909 Y248.3626 I6.3088 J-2.172
G3 X196.6436 Y248.2201 I6.2749 J-2.1601
G3 X196.5966 Y248.078 I6.2414 J-2.1484
G3 X196.5497 Y247.9366 I6.2084 J-2.1368
G3 X196.5029 Y247.7957 I6.1757 J-2.1253
G3 X196.4564 Y247.6553 I6.1433 J-2.1139
G3 X196.4101 Y247.5155 I6.1114 J-2.1027
G3 X193.4808 Y238.5949 I1288.3919 J-428.0215
G1 X193.2095 Y237.7574
G1 X192.9475 Y236.9458
G1 X192.6943 Y236.1594
G1 X192.4498 Y235.3974
G1 X192.2136 Y234.6589
G3 X192.1565 Y234.48 I5.4819 J-1.8482
G3 X192.0999 Y234.3025 I5.4476 J-1.8351
G3 X192.0438 Y234.1263 I5.4138 J-1.8221
G0 Z5.0
G0 X188.3026 Y235.296
G1 Z0.0
G2 X181.272 Y213.0985 I-2985.0656 J933.2419
G1 X180.8705 Y213.3026
G1 X180.4801 Y213.4977
G3 X177.4167 Y214.9295 I-32.8075 J-66.2037
G3 X176.2522 Y215.4311 I-27.4578 J-62.1362
G1 X175.7403 Y215.6449
G3 X175.6201 Y215.6946 I-1.3427 J-3.0816
G3 X175.5017 Y215.7432 I-1.3497 J-3.1145
G3 X175.385 Y215.791 I-1.357 J-3.1484
G3 X175.2702 Y215.8378 I-1.3648 J-3.1834
G3 X171.6218 Y217.2337 I-36.3115 J-89.4445
G3 X167.9256 Y218.4979 I-41.7777 J-116.1027
G1 X167.8197 Y219.0103
G1 X167.7728 Y219.2522
G2 X167.6162 Y220.1958 I20.2982 J3.852
G2 X167.5232 Y221.0345 I14.0306 J1.9808
G1 X167.5099 Y221.2199
G2 X167.5246 Y222.6616 I8.9944 J0.6291
G2 X167.7274 Y223.7358 I5.6261 J-0.5057
G2 X168.0344 Y224.5007 I4.1576 J-1.2251
G2 X168.7909 Y225.4749 I3.0377 J-1.578
G2 X169.8409 Y226.1223 I2.418 J-2.7461
G2 X169.8823 Y226.24 I5.003 J-1.6962
G2 X169.9237 Y226.3574 I4.9976 J-1.6949
G2 X169.965 Y226.4746 I4.9922 J-1.6936
G2 X170.0062 Y226.5915 I4.9869 J-1.6924
G2 X170.0474 Y226.7083 I4.9816 J-1.691
G2 X170.0885 Y226.8247 I4.9762 J-1.6897
G2 X170.1295 Y226.941 I4.9709 J-1.6884
G2 X170.1704 Y227.057 I4.9656 J-1.6871
G2 X170.2113 Y227.1728 I4.9602 J-1.6857
G2 X170.2521 Y227.2884 I4.9548 J-1.6844
G1 X171.5589 Y230.9773
G1 X172.7892 Y234.4338
G1 X173.3668 Y236.0538
G1 X174.4864 Y239.1924
G1 X175.0109 Y240.6637
G1 X175.5187 Y242.0892
G1 X176.5004 Y244.8517
G1 X176.9594 Y246.1472
G1 X177.4032 Y247.4025
G1 X177.8321 Y248.6188
G1 X178.6599 Y250.9767
G1 X179.4315 Y253.1888
G1 X179.7915 Y254.2264
G1 X180.139 Y255.2319
G1 X180.809 Y257.1812
G3 X180.8481 Y257.2955 I-4.8022 J1.7073
G3 X180.926 Y257.5232 I-6.768 J2.4417
G3 X181.0032 Y257.7492 I-6.7438 J2.4301
G3 X181.0797 Y257.9733 I-6.7198 J2.4186
G3 X181.1556 Y258.1958 I-6.6961 J2.4073
G3 X181.2308 Y258.4166 I-6.6725 J2.3959
G3 X181.3053 Y258.6356 I-6.6489 J2.3847
G3 X181.3792 Y258.853 I-6.6256 J2.3735
G3 X181.4524 Y259.0686 I-6.6024 J2.3624
G3 X181.525 Y259.2827 I-6.5794 J2.3513
G3 X181.597 Y259.495 I-6.5566 J2.3404
G3 X181.6684 Y259.7058 I-6.5339 J2.3295
G3 X183.8956 Y266.4087 I-633.3889 J214.1843
G3 X184.7094 Y268.9293 I-451.2732 J147.0833
G3 X187.4439 Y277.7873 I-420.7698 J134.747
G3 X187.4851 Y277.9262 I-5.8487 J1.8085
G3 X189.9631 Y286.7089 I-334.1317 J99.0152
G3 X190.0973 Y287.9906 I-11.7627 J1.8798
G3 X190.1043 Y289.117 I-12.846 J0.6424
G3 X189.9043 Y291.0762 I-15.3394 J-0.5757
G3 X189.1888 Y293.9393 I-18.6343 J-3.136
G3 X188.0607 Y296.6665 I-19.688 J-6.5473
G3 X187.6889 Y297.3168 I-2.9008 J-1.2268
G3 X187.2174 Y297.8382 I-2.8681 J-2.12
G3 X186.6966 Y298.2523 I-3.4804 J-3.8423
G3 X186.1585 Y298.5866 I-3.647 J-5.2703
G3 X185.0685 Y299.1116 I-5.3798 J-9.7751
G1 X184.9411 Y299.165
G3 X184.6882 Y299.268 I-2.6761 J-6.2082
G1 X184.5642 Y299.3173
G1 X184.0724 Y299.5075
G1 X183.6031 Y299.6858
G1 X183.1585 Y299.8575
G1 X183.0535 Y299.8991
G2 X182.2351 Y300.2515 I4.7144 J12.0778
G2 X181.8804 Y300.4305 I3.2854 J6.9496
G2 X181.2475 Y300.8323 I2.1298 J4.0542
G2 X180.7723 Y301.2886 I1.6387 J2.182
G2 X180.3616 Y302.3386 I1.4168 J1.1595
G2 X180.3746 Y302.755 I2.2848 J0.1374
G2 X180.5458 Y303.46 I3.3434 J-0.4387
G2 X180.7549 Y303.9614 I5.3659 J-1.9444
G2 X181.1473 Y304.6751 I7.0957 J-3.4363
G2 X181.6001 Y305.3521 I10.4498 J-6.4986
G3 X181.9547 Y305.9961 I-0.7056 J0.8082
G3 X181.9815 Y306.2685 I-1.689 J0.3037
G3 X181.9801 Y306.5086 I-4.4539 J0.0938
G1 X181.978 Y306.5614
G1 X181.9581 Y306.9704
G2 X181.9615 Y307.2803 I2.5472 J0.1266
G2 X181.9929 Y307.5119 I1.3811 J-0.0693
G2 X182.3387 Y308.1104 I1.0446 J-0.2042
G1 X182.544 Y308.0726
G1 X184.174 Y307.7747
G1 X184.9383 Y307.6363
G1 X186.4195 Y307.3707
G1 X187.8088 Y307.1249
G1 X189.1117 Y306.8973
G3 X208.718 Y303.873 I89.8755 J517.5858
G2 X208.6177 Y303.5164 I-22.1475 J6.0411
G2 X208.5176 Y303.1612 I-22.1592 J6.0492
G2 X208.4179 Y302.8073 I-22.1713 J6.0573
G2 X208.3185 Y302.4549 I-22.1831 J6.0654
G2 X208.2195 Y302.1039 I-22.1951 J6.0736
G2 X207.4281 Y299.3075 I-1320.2572 J372.1039
G1 X206.658 Y296.5995
G1 X205.9087 Y293.9769
G1 X205.1798 Y291.4372
G1 X204.4708 Y288.9777
G1 X203.7814 Y286.5958
G2 X203.6977 Y286.3074 I-22.8654 J6.4766
G2 X203.6144 Y286.0201 I-22.8806 J6.4848
G2 X203.5313 Y285.734 I-22.8958 J6.493
G2 X203.4485 Y285.449 I-22.9111 J6.5013
G2 X203.366 Y285.1651 I-22.9266 J6.5095
G2 X203.2838 Y284.8823 I-22.9422 J6.5178
G2 X203.2018 Y284.6007 I-22.9577 J6.526
G2 X200.572 Y275.6291 I-2613.7382 J761.2864
G2 X191.1045 Y244.3075 I-2480.2676 J732.6113
G2 X190.9535 Y243.819 I-60.6416 J18.4758
G2 X190.8048 Y243.3382 I-61.2495 J18.68
G2 X190.6584 Y242.8649 I-61.8856 J18.8929
G2 X188.3026 Y235.296 I-2987.4214 J925.6729
G0 Z5.0
G0 X173.3412 Y240.5013
G1 Z0.0
G1 X173.0754 Y239.7375
G1 X172.7933 Y238.9355
G1 X172.6601 Y238.5597
G1 X172.3999 Y237.8319
G2 X172.3846 Y237.7892 I-0.4342 J0.132
G2 X172.3693 Y237.7467 I-0.4321 J0.1314
G1 X172.1245 Y237.0701
G1 X172.0088 Y236.753
G2 X171.0908 Y234.3026 I-144.0992 J52.5843
G1 X171.0021 Y234.0725
G2 X170.9156 Y233.8496 I-8.8858 J3.3187
G1 X170.576 Y232.9871
G1 X170.4246 Y232.6095
G1 X170.1354 Y231.9021
G1 X169.8755 Y231.2827
G1 X169.6415 Y230.7399
G2 X169.4304 Y230.264 I-23.8259 J10.2846
G2 X169.3355 Y230.0547 I-13.2478 J5.8819
G1 X169.2904 Y229.9564
G1 X169.2463 Y229.861
G1 X169.0725 Y229.4918
G1 X169.0333 Y229.4103
G1 X168.995 Y229.3311
G1 X168.9575 Y229.2543
G1 X168.8092 Y228.9568
G2 X168.2329 Y227.9209 I-12.0684 J6.0355
G2 X168.1304 Y227.7629 I-4.6591 J2.9086
G2 X167.9227 Y227.4767 I-3.0781 J2.0151
G2 X167.711 Y227.2466 I-1.6163 J1.2749
G2 X167.6115 Y227.1679 I-0.4941 J0.5229
G2 X167.511 Y227.1146 I-0.3506 J0.5388
G2 X167.4137 Y227.0959 I-0.0935 J0.2245
G2 X167.2643 Y227.1646 I0.0062 J0.2102
G2 X167.1953 Y227.2634 I0.3628 J0.327
G2 X167.1303 Y227.4314 I0.9475 J0.463
G1 X167.1079 Y227.5186
G1 X167.0899 Y227.6069
G3 X167.0927 Y227.6934 I-1.3149 J0.0858
G3 X167.0954 Y227.7797 I-1.3149 J0.0852
G3 X167.0981 Y227.8659 I-1.3149 J0.0846
G3 X167.1008 Y227.9519 I-1.3148 J0.084
G3 X167.1034 Y228.0377 I-1.3147 J0.0833
G3 X167.106 Y228.1234 I-1.3147 J0.0827
G3 X167.1086 Y228.2089 I-1.3146 J0.0821
G3 X167.1111 Y228.2942 I-1.3146 J0.0815
G3 X167.1136 Y228.3794 I-1.3145 J0.0809
G3 X167.116 Y228.4644 I-1.3145 J0.0803
G3 X167.1184 Y228.5492 I-1.3144 J0.0797
G3 X167.1208 Y228.6339 I-1.3144 J0.0791
G3 X167.1231 Y228.7184 I-1.3143 J0.0785
G3 X167.1254 Y228.8027 I-1.3144 J0.0779
G3 X167.1816 Y231.4958 I-197.2262 J5.4633
G1 X167.1902 Y232.127
G3 X167.2021 Y233.3698 I-114.0822 J1.7179
G3 X167.1914 Y238.1858 I-280.8425 J1.7804
G1 X167.178 Y239.2391
G3 X167.1618 Y240.2595 I-102.1638 J-1.1168
G3 X167.1596 Y240.3831 I-1.916 J0.028
G3 X167.1574 Y240.5062 I-1.9175 J0.027
G3 X166.941 Y248.3504 I-483.3378 J-9.4077
G1 X166.9152 Y249.0857
G1 X166.8635 Y250.5102
G1 X166.6635 Y255.8517
G1 X166.5913 Y257.8549
G1 X166.5321 Y259.6078
G1 X166.5077 Y260.3748
G1 X166.4651 Y261.813
G1 X166.4478 Y262.4423
G1 X166.4181 Y263.6222
G1 X166.3951 Y264.6547
G2 X166.3626 Y266.4616 I436.1067 J8.7452
G1 X166.3454 Y267.817
G1 X166.3369 Y268.8336
G1 X166.3347 Y269.2149
G1 X166.3333 Y269.5485
G1 X166.332 Y270.716
G1 X166.3326 Y271.0079
G1 X166.3333 Y271.2268
G2 X166.3366 Y271.8835 I52.7608 J0.0624
G1 X166.4648 Y271.892
G1 X167.4824 Y271.9582
G2 X169.391 Y272.0739 I34.0177 J-545.3083
G1 X169.8086 Y272.0977
G1 X170.0109 Y272.109
G1 X170.2101 Y272.12
G1 X170.6021 Y272.1413
G2 X171.3618 Y272.1811 I5.2108 J-92.1787
G2 X171.4064 Y272.1834 I0.0463 J-0.4697
G1 X172.1159 Y272.2187
G1 X173.4465 Y272.2807
G1 X173.7376 Y272.2935
G1 X174.0196 Y272.3057
G1 X175.1124 Y272.351
G1 X176.0688 Y272.3883
G1 X176.278 Y272.3962
G1 X177.0887 Y272.4261
G1 X177.7981 Y272.4514
G1 X178.4189 Y272.4732
G1 X180.5914 Y272.5475
G1 X182.7639 Y272.6221
G1 X182.6025 Y271.8932
G1 X182.5211 Y271.5349
G1 X182.3562 Y270.8246
G2 X181.672 Y268.0363 I-150.4392 J35.4348
G2 X181.3361 Y266.733 I-531.2697 J136.2457
G1 X181.1705 Y266.1024
G2 X179.8129 Y261.1509 I-279.952 J74.0951
G2 X177.2615 Y252.5329 I-395.709 J112.4628
G1 X176.7616 Y250.9218
G1 X176.2868 Y249.4128
G1 X176.1747 Y249.0593
G1 X175.9529 Y248.3635
G1 X175.5197 Y247.0165
G1 X175.1089 Y245.7548
G2 X174.9148 Y245.1636 I-74.5576 J24.1585
G2 X173.3732 Y240.5935 I-280.9574 J92.2255
G1 X173.3412 Y240.5013
G0 Z5.0
G0 X178.4391 Y306.112
G1 Z0.0
G2 X177.8946 Y306.1806 I0.4436 J5.7093
G2 X177.3649 Y306.2876 I1.4217 J8.4049
G1 X177.2496 Y306.3142
G2 X176.8045 Y306.4236 I4.9249 J20.9977
G1 X176.0278 Y306.6256
G3 X175.7356 Y306.7 I-2.9813 J-11.0929
G3 X175.2217 Y306.8211 I-2.9351 J-11.3041
G3 X174.4402 Y306.9546 I-1.7201 J-7.7127
G3 X174.0433 Y306.9771 I-0.4248 J-3.9857
G3 X173.6476 Y306.9393 I-0.0049 J-2.0362
G2 X169.0713 Y307.3699 I20.1324 J238.4546
G2 X169.0087 Y307.3764 I0.086 J1.1319
G2 X168.9463 Y307.3829 I0.0865 J1.1333
G1 X167.9503 Y307.4886
G2 X167.89 Y307.4951 I0.0949 J1.1615
G2 X167.8297 Y307.5016 I0.0954 J1.1633
G2 X167.7696 Y307.5081 I0.0958 J1.1651
G2 X167.7097 Y307.5146 I0.0963 J1.1669
G2 X167.6498 Y307.5211 I0.0968 J1.1687
G2 X167.5901 Y307.5277 I0.0973 J1.1706
G2 X167.5304 Y307.5342 I0.0978 J1.1724
G2 X167.4709 Y307.5407 I0.0983 J1.1744
G2 X163.675 Y307.9765 I55.0948 J496.5562
G1 X162.8451 Y308.0762
G1 X161.2376 Y308.2719
G1 X160.484 Y308.3645
G2 X160.3928 Y308.3757 I0.2711 J2.577
G1 X158.9387 Y308.5552
G3 X158.7683 Y308.5762 I-0.7095 J-5.0477
G3 X158.5992 Y308.5971 I-0.7456 J-5.3471
G1 X157.2571 Y308.7622
G1 X155.9987 Y308.9156
G1 X155.4088 Y308.9867
G1 X155.123 Y309.021
G1 X154.8416 Y309.0546
G3 X153.7336 Y309.1853 I-45.8275 J-383.711
G1 X152.6946 Y309.3052
G1 X152.451 Y309.3329
G3 X151.4917 Y309.4402 I-21.4299 J-187.2782
G3 X147.8913 Y309.8131 I-26.4115 J-237.42
G3 X142.4802 Y310.2589 I-18.5026 J-191.5132
G3 X141.1255 Y310.3448 I-7.0942 J-101.1884
G1 X140.6173 Y310.3741
G3 X137.0578 Y310.5334 I-8.1144 J-141.5044
G1 X136.6462 Y310.5713
G3 X123.4912 Y311.649 I-61.7482 J-672.9555
G1 X121.9484 Y311.7586
G1 X120.4175 Y311.8641
G1 X118.8983 Y311.9656
G1 X117.3908 Y312.0631
G1 X115.8949 Y312.1568
G1 X114.4106 Y312.2467
G1 X112.9376 Y312.333
G1 X111.4761 Y312.4159
G1 X110.0257 Y312.4953
G1 X109.3062 Y312.5336
G1 X108.5894 Y312.5712
G3 X102.8766 Y312.8471 I-40.8812 J-787.2122
G3 X91.8033 Y313.2679 I-39.1446 J-884.1072
G1 X91.1543 Y313.2881
G1 X90.5078 Y313.3077
G3 X85.356 Y313.4472 I-28.4814 J-956.5376
G3 X75.3728 Y313.6352 I-24.013 J-1010.2154
G1 X73.0328 Y313.6641
G3 X71.881 Y313.6763 I-2.2583 J-158.9136
G1 X71.3096 Y313.6819
G1 X70.7405 Y313.6871
G3 X61.6694 Y313.7271 I-9.4436 J-1111.7815
G3 X44.662 Y313.5969 I-0.1059 J-1097.0482
G3 X29.7836 Y313.2825 I19.8687 J-1292.4921
G1 X28.1565 Y313.2376
G3 X15.3457 Y312.8164 I37.1935 J-1326.1697
G3 X-7.0629 Y311.8145 I60.753 J-1609.9741
G3 X-7.3254 Y311.801 I0.7284 J-16.6399
G3 X-7.5869 Y311.7874 I0.7231 J-16.4792
G3 X-7.8474 Y311.7739 I0.718 J-16.3224
G3 X-8.1069 Y311.7603 I0.7129 J-16.1693
G3 X-8.3653 Y311.7468 I0.708 J-16.0198
G3 X-8.6228 Y311.7333 I0.7033 J-15.8738
G3 X-8.8792 Y311.7199 I0.6986 J-15.7307
G3 X-9.1346 Y311.7064 I0.694 J-15.5912
G3 X-9.389 Y311.6929 I0.6896 J-15.4548
G3 X-9.6424 Y311.6795 I0.6853 J-15.3213
G3 X-9.8949 Y311.6661 I0.681 J-15.1907
G3 X-13.9175 Y311.4474 I52.2204 J-997.6279
G1 X-17.6882 Y311.2343
G1 X-21.2229 Y311.0276
G1 X-22.8796 Y310.9285
G1 X-24.4846 Y310.8312
G3 X-36.9199 Y310.0344 I135.8632 J-2217.832
G1 X-38.0854 Y309.956
G1 X-39.2146 Y309.8795
G1 X-40.3083 Y309.8049
G1 X-41.3679 Y309.7321
G3 X-45.4734 Y309.4455 I81.5331 J-1197.4158
G3 X-45.698 Y309.4296 I0.4773 J-8.345
G3 X-47.48 Y309.3028 I39.0346 J-561.3578
G1 X-50.8209 Y309.0617
G1 X-53.744 Y308.8472
G3 X-53.9039 Y308.8354 I0.4026 J-6.5288
G1 X-56.4414 Y308.6464
G3 X-56.5802 Y308.636 I0.376 J-5.9456
G3 X-56.7179 Y308.6257 I0.3746 J-5.9155
G3 X-56.8545 Y308.6154 I0.3732 J-5.8856
G3 X-56.9901 Y308.6052 I0.3718 J-5.8558
G3 X-57.1246 Y308.5951 I0.3704 J-5.8264
G3 X-74.1989 Y307.2618 I227.5841 J-3024.4624
G2 X-74.6606 Y306.9603 I-2.9127 J3.956
G2 X-75.5906 Y306.5152 I-3.4853 J6.0871
G2 X-75.6956 Y306.4745 I-0.8287 J1.9842
G2 X-76.5391 Y306.2001 I-3.5149 J9.3705
G2 X-76.7266 Y306.1501 I-1.237 J4.2636
G1 X-76.8177 Y306.1271
G2 X-79.7498 Y305.7685 I-2.9747 J12.1563
G1 X-79.9352 Y305.7692
G2 X-81.3211 Y305.8734 I0.0663 J10.153
G1 X-81.493 Y305.9002
G2 X-82.0892 Y306.0235 I1.4311 J8.4243
G2 X-82.6719 Y306.2006 I1.45 J5.8156
G2 X-82.5419 Y306.6117 I0.7414 J-0.0083
G2 X-82.4095 Y306.7822 I1.2554 J-0.8385
G2 X-82.2613 Y306.9393 I3.0067 J-2.6878
G2 X-82.141 Y306.9589 I0.4793 J-2.5549
G2 X-81.1897 Y307.0907 I3.6892 J-23.1238
G2 X-79.5179 Y307.2739 I11.7118 J-99.178
G3 X-79.3607 Y307.2906 I-0.5828 J6.2365
G1 X-78.7521 Y307.3576
G3 X-78.6854 Y307.3653 I-0.0404 J0.6444
G1 X-78.1614 Y307.4291
G1 X-78.0468 Y307.444
G3 X-77.161 Y307.5771 I-2.5526 J20.0099
G3 X-75.8487 Y307.8729 I-1.8546 J11.2869
G3 X-75.5277 Y307.9774 I-1.9218 J6.4454
G3 X-75.0598 Y308.1708 I-1.6442 J4.6398
G3 X-74.6223 Y308.4257 I-1.3261 J2.7804
G1 X-73.6312 Y308.5148
G1 X-69.682 Y308.8653
G1 X-65.7938 Y309.2029
G1 X-65.3153 Y309.244
G1 X-64.8377 Y309.2848
G1 X-62.9311 Y309.4467
G2 X-32.6437 Y311.765 I160.8172 J-1902.0004
G2 X-6.1104 Y313.3725 I114.2097 J-1665.3818
G1 X-5.3845 Y313.4105
G1 X-4.6614 Y313.448
G1 X-3.941 Y313.485
G1 X-3.2235 Y313.5216
G1 X-2.5088 Y313.5577
G1 X0.3391 Y313.6983
G1 X3.1428 Y313.8317
G1 X3.8328 Y313.8637
G1 X4.5202 Y313.8954
G1 X5.2049 Y313.9265
G2 X27.035 Y314.7546 I67.4903 J-1490.9878
G1 X29.4236 Y314.825
G1 X31.7749 Y314.8903
G1 X34.0896 Y314.9505
G1 X36.3683 Y315.0059
G2 X37.4899 Y315.0318 I4.4643 J-169.3126
G2 X38.0463 Y315.0443 I2.0448 J-78.7819
G2 X38.6006 Y315.0565 I1.7526 J-67.0511
G2 X39.1527 Y315.0684 I1.5571 J-59.3448
G2 X39.7026 Y315.08 I1.4135 J-53.7852
G2 X40.2504 Y315.0914 I1.3017 J-49.5308
G2 X48.9815 Y315.2413 I27.7375 J-1361.3258
G1 X51.028 Y315.2677
G1 X53.0426 Y315.2905
G2 X53.2906 Y315.2931 I0.2863 J-15.6141
G2 X53.538 Y315.2956 I0.2816 J-15.4862
G2 X53.7849 Y315.2981 I0.2771 J-15.3612
G2 X85.3301 Y315.1856 I11.6959 J-1143.1051
G2 X85.5149 Y315.1823 I-0.0486 J-7.9081
G2 X91.4175 Y315.0598 I-22.4903 J-1226.3731
G2 X102.4825 Y314.7376 I-23.5176 J-997.7453
G2 X102.6337 Y314.7324 I-0.1383 J-6.1445
G2 X102.7847 Y314.7271 I-0.1389 J-6.1313
G2 X102.9354 Y314.7218 I-0.1396 J-6.1182
G2 X103.0858 Y314.7165 I-0.1402 J-6.1051
G2 X103.2359 Y314.7111 I-0.1408 J-6.0921
G2 X103.3857 Y314.7058 I-0.1415 J-6.0791
G2 X103.5352 Y314.7005 I-0.1421 J-6.0662
G2 X103.6844 Y314.6951 I-0.1427 J-6.0533
G2 X103.8333 Y314.6897 I-0.1434 J-6.0405
G2 X103.982 Y314.6843 I-0.144 J-6.0278
G2 X104.1303 Y314.6789 I-0.1446 J-6.015
G2 X104.2784 Y314.6735 I-0.1452 J-6.0024
G2 X123.1803 Y313.7872 I-32.6425 J-898.1206
G1 X124.0659 Y313.7358
G1 X124.9376 Y313.6843
G2 X138.6583 Y312.7521 I-47.6254 J-802.4836
G2 X138.8191 Y312.7398 I-0.3048 J-5.0343
G2 X138.9792 Y312.7275 I-0.3051 J-5.0201
G2 X139.1386 Y312.7152 I-0.3054 J-5.006
G2 X139.2975 Y312.703 I-0.3056 J-4.9919
G2 X159.5219 Y310.863 I-56.0205 J-727.8351
G2 X159.6797 Y310.8464 I-0.3943 J-4.4989
G2 X179.683 Y308.4257 I-66.8609 J-636.3492
G2 X179.8376 Y307.8317 I-5.885 J-1.8496
G1 X179.8636 Y307.6906
G2 X179.8986 Y307.4114 I-3.0357 J-0.5218
G2 X179.9054 Y307.143 I-2.9145 J-0.2083
G2 X179.8776 Y306.8913 I-1.6213 J0.0517
G2 X179.8089 Y306.6645 I-1.0028 J0.1799
G2 X179.5392 Y306.3204 I-0.7599 J0.3178
G2 X179.1888 Y306.1592 I-0.6078 J0.8595
G2 X178.8383 Y306.1064 I-0.4284 J1.6537
G2 X178.508 Y306.107 I-0.1587 J3.2323
G2 X178.4391 Y306.112 I0.3747 J5.7143
G0 Z5.0
G0 X181.0433 Y329.3489
G1 Z0.0
G1 X180.2277 Y329.4403
G1 X178.1852 Y329.6644
G3 X170.5217 Y330.4659 I-98.0784 J-900.7066
G1 X167.6464 Y330.7516
G3 X157.5772 Y331.694 I-116.7898 J-1193.6547
G1 X155.0587 Y331.9167
G1 X154.1142 Y331.9991
G1 X150.8079 Y332.2822
G1 X147.501 Y332.558
G3 X147.3373 Y332.5705 I-0.353 J-3.5542
G1 X147.176 Y332.5808
G3 X147.0966 Y332.5853 I-0.1183 J-1.3909
G1 X146.939 Y332.5932
G1 X146.7838 Y332.5998
G1 X146.631 Y332.6053
G3 X145.4273 Y332.6255 I-1.4123 J-48.2334
G3 X144.374 Y332.6219 I-0.3516 J-50.5481
G1 X143.4525 Y332.6089
G1 X142.6463 Y332.5923
G1 X141.9409 Y332.5749
G1 X140.7065 Y332.54
G1 X140.4751 Y332.533
G1 X139.6071 Y332.5064
G1 X138.9562 Y332.4867
G1 X138.4679 Y332.4729
G1 X137.7353 Y332.4565
G1 X137.3689 Y332.4535
G1 X137.2771 Y332.4541
G1 X137.2084 Y332.4553
G2 X137.0028 Y332.47 I-0.0015 J1.4165
G1 X136.6353 Y332.4895
G3 X124.9187 Y333.0152 I-40.4815 J-771.4141
G3 X104.4017 Y333.5501 I-34.7189 J-937.8272
G1 X103.9207 Y333.5574
G3 X96.2848 Y333.6441 I-15.4512 J-1024.518
G1 X95.4495 Y333.6504
G1 X94.6273 Y333.6559
G1 X93.818 Y333.6607
G1 X92.2247 Y333.6685
G1 X90.6811 Y333.6739
G3 X78.7185 Y333.647 I-3.1188 J-1274.9443
G1 X76.4756 Y333.6289
G3 X59.6552 Y333.3671 I12.0391 J-1314.4293
G3 X58.604 Y333.3436 I5.4699 J-268.1407
G3 X42.8395 Y332.8934 I30.6417 J-1349.1196
G2 X35.6244 Y332.3396 I-79.8208 J992.5867
G2 X35.5186 Y332.3318 I-0.2704 J2.9729
G2 X35.413 Y332.3241 I-0.2701 J2.9728
G2 X35.3074 Y332.3164 I-0.2697 J2.9728
G2 X35.2019 Y332.3088 I-0.2694 J2.9727
G2 X35.0966 Y332.3011 I-0.269 J2.9726
G2 X28.3613 Y331.8298 I-84.1527 J1154.2429
G1 X25.2032 Y331.6189
G1 X22.1433 Y331.4189
G1 X16.2139 Y331.0382
G1 X13.4342 Y330.8606
G1 X10.7413 Y330.6876
G1 X10.0891 Y330.6455
G1 X7.5006 Y330.4769
G1 X6.2469 Y330.3942
G1 X3.7787 Y330.2292
G3 X-5.7827 Y329.5462 I69.1655 J-1035.5737
G1 X-6.8283 Y329.466
G1 X-8.8864 Y329.3041
G1 X-9.8832 Y329.2237
G1 X-10.8643 Y329.1433
G1 X-12.7956 Y328.9807
G3 X-20.2741 Y328.2927 I52.2054 J-608.4201
G1 X-21.9088 Y328.1283
G3 X-28.2378 Y327.4364 I48.9969 J-477.5149
G3 X-39.2845 Y325.982 I41.6934 J-359.3597
G1 X-40.3177 Y325.8276
G1 X-41.3181 Y325.6749
G1 X-42.2868 Y325.5239
G1 X-43.2248 Y325.3747
G1 X-44.1331 Y325.2274
G3 X-51.1555 Y323.9893 I47.5141 J-290.0526
G1 X-52.4687 Y323.7374
G1 X-53.6986 Y323.4952
G3 X-62.8826 Y321.4883 I50.1113 J-251.3411
G3 X-71.9812 Y319.1237 I52.642 J-221.2356
G1 X-72.0923 Y318.8605
G2 X-72.6038 Y317.861 I-8.5683 J3.7539
G2 X-73.1991 Y317.0005 I-6.3706 J3.7711
G2 X-74.625 Y315.681 I-5.0884 J4.0685
G2 X-75.3491 Y315.2521 I-3.9399 J5.8264
G2 X-76.8098 Y314.6718 I-3.8885 J7.6595
G1 X-76.9746 Y314.6235
G2 X-78.292 Y314.3191 I-3.9831 J14.2376
G2 X-79.4614 Y314.1286 I-4.8701 J26.2102
G1 X-79.7185 Y314.092
G1 X-80.716 Y313.9557
G1 X-81.1531 Y313.8946
G3 X-81.2556 Y313.8798 I0.4285 J-3.3334
G3 X-81.3565 Y313.865 I0.3503 J-2.7443
G3 X-82.1492 Y313.7385 I3.365 J-23.6282
G3 X-83.5248 Y313.4456 I2.9556 J-17.2571
G3 X-84.5345 Y313.133 I2.8108 J-10.8672
G3 X-85.9681 Y312.4566 I2.7948 J-7.7804
G3 X-87.23 Y311.4974 I3.6967 J-6.1732
G3 X-87.6886 Y310.7667 I3.5894 J-2.7622
G3 X-88.1673 Y309.3405 I4.7125 J-2.375
G3 X-88.1471 Y307.091 I5.7545 J-1.0731
G3 X-87.8044 Y306.0122 I5.1458 J1.0404
G3 X-87.23 Y305.0368 I4.2955 J1.873
G1 X-87.5474 Y304.7014
G1 X-87.8632 Y304.367
G1 X-88.1773 Y304.0336
G3 X-98.0157 Y293.2446 I352.1327 J-330.9864
G1 X-98.5445 Y292.6464
G1 X-99.0683 Y292.0522
G1 X-99.5872 Y291.4618
G1 X-100.1013 Y290.8753
G1 X-100.6105 Y290.2927
G3 X-108.5945 Y280.9585 I480.2354 J-418.8527
G1 X-109.4573 Y279.9287
G3 X-112.8363 Y275.859 I566.0999 J-473.4628
G1 X-113.2305 Y275.3806
G1 X-114.7914 Y273.479
G3 X-120.7917 Y266.0715 I726.857 J-594.9066
G1 X-122.0952 Y264.4437
G1 X-123.3551 Y262.8646
G1 X-124.5731 Y261.3329
G3 X-126.9268 Y258.3602 I1112.0207 J-882.8665
G3 X-131.3205 Y252.771 I1726.8637 J-1362.02
G1 X-133.2361 Y250.3207
G1 X-134.1329 Y249.1712
G1 X-135.0011 Y248.0571
G1 X-135.8417 Y246.9774
G1 X-137.4689 Y244.8845
G1 X-140.5166 Y240.9577
G1 X-141.1829 Y240.0984
G1 X-143.7639 Y236.768
G1 X-148.2816 Y230.9406
G1 X-149.9774 Y228.7566
G1 X-152.949 Y224.9377
G1 X-153.507 Y224.2222
G1 X-155.6016 Y221.541
G1 X-157.1755 Y219.5325
G1 X-158.3578 Y218.0276
G1 X-160.1347 Y215.773
G1 X-160.5797 Y215.2098
G1 X-161.9162 Y213.5219
G2 X-164.2473 Y213.007 I-17.033 J71.5694
G2 X-166.4444 Y212.5823 I-20.6505 J100.9439
G1 X-166.5735 Y212.5588
G2 X-168.6325 Y212.2019 I-20.8557 J114.189
G1 X-169.1159 Y212.1222
G1 X-170.068 Y211.9691
G1 X-170.9912 Y211.8248
G1 X-171.2149 Y211.7903
G1 X-172.1027 Y211.6552
G1 X-173.8239 Y211.3991
G1 X-175.4383 Y211.1626
G1 X-176.952 Y210.9411
G1 X-178.3709 Y210.7313
G1 X-179.7007 Y210.5308
G1 X-180.9468 Y210.3381
G1 X-182.1142 Y210.1519
G1 X-182.6611 Y210.0625
G1 X-183.72 Y209.8847
G3 X-183.9681 Y209.8421 I2.2292 J-13.7263
G3 X-187.8645 Y209.1145 I21.3995 J-125.3865
G3 X-190.7695 Y208.4802 I18.0372 J-89.5784
G3 X-195.0805 Y207.3361 I16.5509 J-71.0618
G3 X-197.2048 Y206.6562 I17.2421 J-57.5299
G1 X-197.7316 Y206.4732
G3 X-197.8302 Y206.4383 I0.4785 J-1.5068
G3 X-197.9225 Y206.4054 I0.467 J-1.4558
G3 X-199.2997 Y205.8902 I15.5758 J-43.7339
G1 X-200.252 Y205.8352
G2 X-207.755 Y205.4832 I-24.2078 J435.8249
G1 X-209.3969 Y205.4224
G1 X-209.7947 Y205.4085
G1 X-211.373 Y205.3557
G1 X-212.1377 Y205.3316
G1 X-213.643 Y205.2866
G1 X-214.3722 Y205.266
G1 X-215.8078 Y205.2274
G1 X-216.1555 Y205.2185
G1 X-216.5006 Y205.2097
G1 X-219.239 Y205.1446
G1 X-221.8065 Y205.0895
G1 X-224.2136 Y205.0419
G1 X-233.2405 Y204.8778
G1 X-234.933 Y204.8463
G1 X-235.7264 Y204.8311
G1 X-238.8007 Y204.7692
G1 X-241.4905 Y204.7092
G1 X-243.844 Y204.6511
G1 X-244.8736 Y204.6236
G1 X-245.8389 Y204.5966
G1 X-247.6486 Y204.5425
G1 X-249.232 Y204.4911
G1 X-249.9247 Y204.4672
G1 X-250.574 Y204.4441
G1 X-251.7916 Y204.3987
G1 X-252.8568 Y204.3565
G3 X-256.5841 Y204.1895 I16.0993 J-401.0341
G1 X-257.5157 Y204.1426
G3 X-257.6031 Y204.1381 I0.0522 J-1.8573
G3 X-257.6877 Y204.1337 I0.0523 J-1.8247
G1 X-258.9988 Y204.0631
G3 X-259.0808 Y204.0585 I0.0563 J-1.7471
G1 X-260.3096 Y203.9877
G3 X-266.8674 Y203.5933 I7.5776 J-180.708
G3 X-267.0465 Y203.5794 I0.3683 J-5.886
G3 X-267.2249 Y203.5653 I0.3743 J-5.8935
G3 X-267.4026 Y203.5512 I0.3802 J-5.9007
G3 X-267.5796 Y203.537 I0.3861 J-5.9075
G3 X-270.398 Y203.291 I21.0442 J-257.4543
G1 X-271.7181 Y203.1642
G1 X-272.9962 Y203.0349
G1 X-274.2338 Y202.9039
G3 X-279.0245 Y202.3514 I42.8685 J-392.7399
G3 X-279.1554 Y202.3354 I0.6096 J-5.5371
G3 X-279.2858 Y202.3195 I0.61 J-5.5243
G3 X-279.4157 Y202.3035 I0.6104 J-5.5114
G3 X-279.5451 Y202.2876 I0.6107 J-5.4984
G3 X-279.6739 Y202.2717 I0.611 J-5.4854
G3 X-279.8023 Y202.2559 I0.6112 J-5.4723
G3 X-279.9301 Y202.24 I0.6114 J-5.459
G3 X-280.0575 Y202.2242 I0.6116 J-5.4458
G3 X-280.1843 Y202.2084 I0.6117 J-5.4325
G3 X-280.3106 Y202.1927 I0.6118 J-5.4191
G3 X-280.4365 Y202.1769 I0.6118 J-5.4056
G3 X-280.5618 Y202.1612 I0.6118 J-5.3921
G3 X-280.6867 Y202.1456 I0.6118 J-5.3785
G3 X-280.811 Y202.1299 I0.6117 J-5.3649
G3 X-284.7726 Y201.6172 I84.1499 J-665.7248
G3 X-285.6389 Y201.5021 I12.6095 J-98.218
G3 X-286.4779 Y201.3899 I37.8887 J-286.495
G1 X-288.1034 Y201.1709
G1 X-291.1508 Y200.7577
G1 X-292.4841 Y200.5771
G1 X-294.9844 Y200.2412
G1 X-296.0786 Y200.096
G1 X-298.1306 Y199.8281
G1 X-299.9269 Y199.5996
G1 X-300.7131 Y199.5017
G2 X-300.8974 Y199.4789 I-0.7886 J5.6311
G2 X-301.0789 Y199.4566 I-0.779 J5.5847
G2 X-306.7988 Y198.8009 I-40.8817 J331.3367
G2 X-306.9778 Y198.7821 I-0.6778 J5.5983
G2 X-308.365 Y198.6407 I-30.9488 J296.8301
G1 X-309.4059 Y198.5398
G1 X-310.1869 Y198.4671
G1 X-311.3589 Y198.3632
G1 X-312.5313 Y198.2658
G3 X-313.4305 Y198.2112 I2.0649 J-41.4665
G3 X-320.1382 Y197.4251 I4.9453 J-71.21
G1 X-320.5547 Y197.3549
G3 X-323.6618 Y196.7405 I10.285 J-60.1723
G1 X-324.0477 Y196.6517
G3 X-326.7263 Y195.94 I10.3716 J-44.4281
G2 X-327.6219 Y196.7836 I2.5753 J3.6311
G2 X-328.1245 Y197.5543 I3.6891 J2.955
G2 X-328.4089 Y198.1821 I5.4786 J2.8599
G1 X-328.4545 Y198.3031
G2 X-328.7358 Y199.2298 I9.2321 J3.3077
G2 X-328.7928 Y199.4652 I12.9519 J3.2614
G1 X-328.833 Y199.6423
G1 X-328.89 Y199.9086
G2 X-328.9173 Y200.042 I8.1557 J1.7387
G2 X-328.944 Y200.1755 I2.6065 J0.5902
G1 X-330.5763 Y200.0932
G1 X-332.1578 Y200.0174
G1 X-335.2226 Y199.8776
G1 X-335.9411 Y199.8455
G1 X-338.7699 Y199.7187
G1 X-341.4221 Y199.5954
G1 X-341.7329 Y199.5804
G1 X-342.0413 Y199.5655
G1 X-343.2651 Y199.5047
G1 X-344.4506 Y199.4435
G1 X-344.7377 Y199.4282
G1 X-345.0226 Y199.413
G1 X-345.3053 Y199.3976
G3 X-347.5482 Y199.2694 I31.368 J-568.4502
G1 X-348.5993 Y199.2049
G1 X-349.6174 Y199.1393
G1 X-350.6036 Y199.0727
G1 X-350.8424 Y199.0561
G1 X-351.0794 Y199.0395
G3 X-354.8385 Y198.7473 I19.6239 J-276.8712
G1 X-355.6603 Y198.6759
G1 X-356.4562 Y198.6038
G1 X-357.2269 Y198.5313
G1 X-357.9734 Y198.4583
G1 X-358.6962 Y198.3851
G1 X-359.3962 Y198.3116
G1 X-360.074 Y198.2381
G3 X-360.7305 Y198.1644 I5.4942 J-51.9631
G1 X-361.0484 Y198.128
G1 X-361.3612 Y198.0915
G3 X-366.2789 Y197.4414 I19.8902 J-169.3776
G3 X-373.6087 Y196.1621 I20.2242 J-137.5186
G1 X-374.5195 Y195.9734
G3 X-377.6957 Y195.2582 I24.1393 J-114.6072
G1 X-378.4865 Y195.0656
G1 X-378.7828 Y194.992
G1 X-379.0418 Y194.9268
G3 X-379.9471 Y194.694 I34.8965 J-137.5825
G1 X-380.8504 Y194.4536
G2 X-381.1974 Y194.842 I3.2949 J3.2919
G2 X-381.4894 Y195.2342 I6.2365 J4.9493
G2 X-381.9753 Y196.0141 I9.0951 J6.2075
G1 X-382.1732 Y196.3674
G1 X-382.3554 Y196.702
G1 X-382.4406 Y196.8595
G3 X-382.482 Y196.936 I-1.6386 J-0.8378
G3 X-382.8136 Y197.535 I-39.6308 J-21.5478
G1 X-382.9658 Y197.7952
G3 X-383.0393 Y197.9162 I-3.9431 J-2.3116
G3 X-383.3402 Y198.3754 I-9.9698 J-6.2064
G3 X-383.4104 Y198.4734 I-1.6344 J-1.0954
G3 X-384.0199 Y199.1806 I-4.3872 J-3.1648
G3 X-384.2842 Y199.4125 I-2.6235 J-2.7239
G3 X-385.3609 Y199.9961 I-2.1283 J-2.6416
G3 X-385.9596 Y200.1334 I-1.1116 J-3.4726
G3 X-386.5724 Y200.1755 I-0.5935 J-4.155
G1 X-387.5814 Y199.6188
G1 X-389.4761 Y198.5789
G1 X-390.3035 Y198.1206
G1 X-391.0772 Y197.6868
G1 X-391.2581 Y197.5844
G1 X-391.4361 Y197.4833
G1 X-392.1349 Y197.0819
G1 X-392.4614 Y196.8918
G1 X-393.0916 Y196.5193
G1 X-393.6792 Y196.1648
G3 X-393.9535 Y195.9966 I30.7477 J-50.4643
G3 X-396.0485 Y194.6448 I31.7898 J-51.5663
G3 X-399.0539 Y192.4186 I23.6312 J-35.0447
G3 X-400.4729 Y191.1995 I21.9681 J-27.0051
G3 X-401.1566 Y190.5611 I21.0789 J-23.2578
G1 X-401.3246 Y190.3983
G1 X-401.5743 Y190.1519
G1 X-401.8212 Y189.9027
G1 X-402.7728 Y190.8536
G1 X-403.2482 Y191.3295
G1 X-403.4859 Y191.5674
G1 X-403.6048 Y191.6863
G3 X-403.6643 Y191.7458 I-0.684 J-0.6244
G3 X-403.7237 Y191.8052 I-0.743 J-0.6836
G3 X-405.0455 Y191.4223 I7.3926 J-27.995
G3 X-407.4643 Y190.5273 I8.8132 J-27.533
G3 X-411.4746 Y188.4648 I11.903 J-28.0748
G3 X-416.8398 Y184.3562 I16.7256 J-27.3987
G3 X-419.1669 Y181.8992 I20.9891 J-22.2089
G3 X-420.225 Y180.5778 I23.8863 J-20.2127
G1 X-420.4776 Y180.2381
G1 X-420.6638 Y179.981
G3 X-420.9376 Y179.5914 I19.3635 J-13.9032
G3 X-421.2048 Y179.1974 I12.4294 J-8.7168
G1 X-422.2561 Y178.8925
G1 X-423.2741 Y178.5953
G1 X-424.2597 Y178.3052
G1 X-425.2139 Y178.0217
G3 X-428.9027 Y176.8944 I75.9756 J-255.2031
G1 X-429.7075 Y176.6402
G3 X-432.816 Y175.6238 I57.829 J-182.1189
G1 X-433.4936 Y175.3939
G3 X-433.6576 Y175.3377 I1.632 J-5.0347
G3 X-433.8203 Y175.2819 I1.6369 J-5.0293
G3 X-438.947 Y173.4067 I43.3708 J-126.5213
G3 X-439.1854 Y173.3134 I2.8925 J-7.7456
G3 X-442.9103 Y171.7724 I40.5324 J-103.2442
G3 X-445.6619 Y170.5187 I36.4762 J-83.705
G1 X-446.1731 Y170.2735
G1 X-446.651 Y170.0407
G3 X-450.1854 Y168.1974 I34.7945 J-71.0274
G3 X-453.6196 Y166.1736 I34.4646 J-62.4087
G3 X-457.4518 Y160.7069 I22.4843 J-19.8385
G3 X-458.7254 Y158.0912 I26.7181 J-14.6271
G3 X-459.6949 Y155.5472 I29.9364 J-12.8645
G3 X-460.9488 Y150.6101 I33.5535 J-11.1501
G3 X-461.2794 Y148.409 I35.998 J-6.5315
G1 X-461.3388 Y147.8909
G3 X-461.581 Y143.7937 I43.35 J-4.6176
G3 X-461.583 Y142.8961 I37.6488 J-0.5359
G3 X-461.4312 Y139.4224 I48.6832 J0.3874
G3 X-461.2889 Y137.908 I50.3149 J3.9639
G3 X-460.378 Y132.2798 I54.9269 J6.0019
G3 X-457.9996 Y124.0694 I59.3002 J12.7289
G1 X-457.8129 Y123.5682
G3 X-456.2709 Y119.8667 I55.9424 J21.1317
G3 X-456.2448 Y119.8097 I0.6457 J0.2614
G3 X-456.1414 Y119.5856 I6.6664 J2.9418
G3 X-455.9448 Y119.1668 I24.0957 J11.0548
G3 X-455.2289 Y117.7144 I50.5432 J24.0106
G3 X-455.1363 Y117.5344 I4.3579 J2.128
G1 X-454.9726 Y117.2203
G1 X-454.7228 Y116.7513
G3 X-454.6912 Y116.6928 I0.5503 J0.2595
G1 X-454.4681 Y116.285
G3 X-453.8437 Y115.2768 I8.2767 J4.4285
G3 X-453.5113 Y114.8298 I9.3624 J6.6162
G3 X-453.4276 Y114.7237 I1.9462 J1.449
G3 X-452.7288 Y113.9097 I13.5256 J10.9049
G3 X-452.3828 Y113.5417 I21.533 J19.9013
G1 X-452.2117 Y113.366
G3 X-450.8157 Y112.0287 I26.5461 J26.3126
G1 X-450.1837 Y111.4526
G1 X-449.5873 Y110.911
G1 X-449.0287 Y110.3975
G2 X-448.9633 Y110.3366 I-0.6715 J-0.7867
