( Made using CamBam - http://www.cambam.co.uk )
( _2014_1_20_car 1/20/2014 11:53:19 PM )
( T0 : 0.0 )
G21 G90 G64 G40
G0 Z5.0
( T0 : 0.0 )
T0 M6
( 122-135 )
G17
M3 S1000
G0 X-59.5446 Y23.7346
G1 F1.0 Z0.0
G2 X-59.4454 Y23.6875 I-0.4878 J-1.1567
G2 X-59.3043 Y23.5905 I-0.3219 J-0.6193
G2 X-59.2375 Y23.4966 I-0.1755 J-0.1955
G2 X-59.2672 Y23.337 I-0.1467 J-0.0552
G2 X-59.3394 Y23.2705 I-0.2448 J0.1936
G2 X-59.4344 Y23.2169 I-0.3988 J0.5949
G2 X-59.6874 Y23.1398 I-0.4457 J1.0101
G3 X-60.2286 Y22.9547 I0.3195 J-1.8177
G3 X-60.6684 Y22.589 I0.7346 J-1.3304
G3 X-60.8853 Y22.2743 I1.6214 J-1.3498
G3 X-61.1036 Y21.8177 I3.1336 J-1.7785
G1 X-61.1524 Y21.6921
G3 X-61.3703 Y21.0174 I8.9526 J-3.2633
G1 X-61.4205 Y20.8358
G1 X-65.3888 Y21.5312
G2 X-65.2706 Y22.2542 I2.2909 J-0.0036
G2 X-64.9445 Y22.9103 I2.6003 J-0.8831
G2 X-64.6518 Y23.301 I3.47 J-2.2946
G2 X-64.6318 Y23.3248 I0.1872 J-0.1371
G2 X-64.444 Y23.5365 I4.339 J-3.661
G2 X-63.9125 Y24.0661 I8.8771 J-8.3762
G1 X-63.5995 Y24.3572
G1 X-63.2429 Y24.6888
G2 X-62.0038 Y24.5268 I-0.3304 J-7.3478
G2 X-61.598 Y24.4308 I-1.39 J-6.7807
G1 X-61.4905 Y24.4022
G1 X-61.3761 Y24.3706
G2 X-60.7722 Y24.1834 I-4.2731 J-14.8502
G1 X-60.4307 Y24.0652
G1 X-60.043 Y23.9237
G1 X-59.6019 Y23.7571
G2 X-59.5446 Y23.7346 I-0.4305 J-1.1792
G0 Z5.0
G0 X-59.1305 Y25.0827
G1 Z0.0
G3 X-60.6163 Y25.4853 I-6.771 J-22.0427
G3 X-61.7995 Y25.7347 I-4.5725 J-18.7642
G3 X-62.4841 Y25.8291 I-1.3287 J-7.1101
G3 X-62.6628 Y25.8324 I-0.1108 J-1.1372
G3 X-63.6284 Y25.6113 I0.2218 J-3.188
G3 X-64.4879 Y25.1189 I1.415 J-3.4661
G3 X-64.9864 Y24.6855 I2.905 J-3.8446
G3 X-65.5719 Y24.0322 I5.227 J-5.2744
G3 X-65.6068 Y23.9887 I0.4325 J-0.3818
G3 X-66.3011 Y23.0348 I12.2392 J-9.6375
G1 X-66.677 Y22.4782
G1 X-66.8777 Y22.1823
G1 X-67.0951 Y21.8699
G2 X-67.624 Y21.1835 I-8.5436 J6.0352
G1 X-63.9607 Y19.2589
G1 X-63.8505 Y18.3351
G2 X-63.7447 Y17.4108 I-98.0649 J-11.6929
G1 X-63.6769 Y16.7944
G1 X-63.6392 Y16.442
G2 X-63.3723 Y13.6193 I-122.3628 J-12.9947
G2 X-63.2429 Y11.7334 I-70.9911 J-5.8172
G1 X-61.7329
G1 X-61.6847 Y18.5952
G2 X-60.8796 Y19.0267 I2.2157 J-3.1671
G2 X-59.992 Y19.2426 I1.2798 J-3.3277
G2 X-59.3824 Y19.2617 I0.4234 J-3.7841
G2 X-58.5769 Y19.1664 I-0.2347 J-5.4386
G2 X-58.3647 Y19.1243 I-4.8807 J-25.13
G1 X-58.14 Y19.0739
G1 X-57.9016 Y19.0152
G1 X-57.6489 Y18.9484
G1 X-57.3806 Y18.8741
G1 X-57.0957 Y18.793
G3 X-56.4466 Y18.6103 I13.12 J45.3591
G3 X-55.7024 Y18.4252 I3.6701 J13.1714
G3 X-55.6551 Y18.4149 I0.1251 J0.4608
G3 X-55.6074 Y18.4048 I0.1234 J0.4619
G3 X-55.5594 Y18.3947 I0.1216 J0.4628
G3 X-55.5109 Y18.3848 I0.1197 J0.4633
G3 X-54.5237 Y18.4201 I0.3115 J5.1202
G3 X-53.5581 Y18.6281 I-0.8801 J6.4295
G3 X-53.2876 Y18.7088 I-6.9733 J23.8718
G1 X-53.2533 Y18.7194
G1 X-52.9405 Y18.8171
G1 X-52.7735 Y18.8681
G2 X-52.687 Y18.8934 I0.4338 J-1.3205
G1 X-52.5015 Y18.9439
G1 X-52.4051 Y18.9674
G1 X-52.305 Y18.9892
G2 X-52.0425 Y18.9306 I0.0721 J-0.2943
G2 X-51.8828 Y18.7142 I-0.378 J-0.4461
G2 X-51.8227 Y18.5478 I-0.9695 J-0.444
G2 X-51.7775 Y17.8956 I-1.7031 J-0.4459
G2 X-51.8808 Y17.4807 I-1.4583 J0.143
G2 X-52.0028 Y17.2694 I-0.8131 J0.3285
G2 X-52.2232 Y17.0926 I-0.4657 J0.3546
G2 X-53.55 Y16.6374 I-3.216 J7.2122
G2 X-53.594 Y16.6263 I-0.1357 J0.4474
G2 X-53.6394 Y16.6151 I-0.1353 J0.4516
G2 X-53.8476 Y16.5665 I-4.7736 J19.9668
G2 X-54.4064 Y16.4547 I-3.049 J13.7889
G1 X-54.7634 Y5.6917
G2 X-55.1875 Y5.4165 I-3.2637 J4.5652
G2 X-55.6345 Y5.1802 I-2.0877 J3.4089
G2 X-55.9528 Y5.0682 I-0.7716 J1.6844
G2 X-56.1464 Y5.051 I-0.1519 J0.6138
G2 X-56.2483 Y5.0815 I0.0277 J0.2782
G2 X-56.3292 Y5.1746 I0.0901 J0.1599
G1 X-56.3585 Y5.2499
G2 X-56.385 Y5.3261 I1.1014 J0.4261
G1 X-56.4319 Y5.4806
G1 X-56.4442 Y5.5252
G2 X-56.4748 Y5.6444 I3.0459 J0.8454
G2 X-56.5119 Y5.8042 I3.0096 J0.7829
G2 X-56.634 Y6.4483 I12.8501 J2.769
G2 X-56.8219 Y7.7445 I37.6087 J6.1139
G2 X-56.8329 Y7.8283 I0.9614 J0.1687
G1 X-56.9472 Y8.722
G1 X-57.1006 Y9.913
G1 X-57.1432 Y10.2303
G1 X-57.2456 Y10.955
G3 X-57.2591 Y11.0469 I-2.1105 J-0.2648
G3 X-57.596 Y13.0004 I-35.9143 J-5.1876
G1 X-57.6483 Y13.2507
G3 X-57.9274 Y14.3868 I-19.0077 J-4.0667
G3 X-58.1125 Y14.983 I-9.6838 J-2.6805
G3 X-58.3521 Y15.6053 I-7.4206 J-2.4993
G3 X-58.4991 Y15.917 I-5.8257 J-2.5565
G1 X-58.5393 Y15.9941
G3 X-58.722 Y16.304 I-3.3148 J-1.7457
G3 X-58.9456 Y16.6028 I-2.2307 J-1.4359
G3 X-59.2269 Y16.872 I-1.4593 J-1.2436
G3 X-59.5871 Y17.0721 I-0.843 J-1.0932
G1 X-59.5328 Y16.7548
G1 X-59.4823 Y16.4369
G2 X-59.3912 Y15.7997 I-28.1001 J-4.3428
G2 X-59.2413 Y14.521 I-45.9685 J-6.0351
G2 X-59.0199 Y11.9562 I-94.0393 J-9.4096
G1 X-58.8903 Y10.245
G3 X-58.6881 Y7.966 I92.8442 J7.089
G1 X-58.6218 Y7.3594
G3 X-58.4409 Y5.9766 I36.8105 J4.1132
G1 X-58.4144 Y5.8014
G1 X-58.3867 Y5.6236
G1 X-58.3575 Y5.4431
G3 X-58.2215 Y4.675 I25.4428 J4.11
G1 X-58.1433 Y4.2801
G3 X-57.9562 Y3.4415 I33.3804 J7.0055
G1 X-57.904 Y3.2296
G1 X-57.8489 Y3.0149
G1 X-57.7907 Y2.7973
G3 X-57.1432 Y0.8395 I18.3493 J4.9828
G3 X-56.939 Y0.3473 I12.02 J4.6975
G1 X-51.4534
G3 X-50.7926 Y0.3248 I0.4422 J3.2733
G3 X-50.1384 Y0.421 I-0.2334 J3.8619
G3 X-48.9078 Y0.8905 I-1.0639 J4.6358
G3 X-48.1825 Y1.3873 I-1.9913 J3.6851
G3 X-47.8278 Y1.7448 I-1.93 J2.2696
G3 X-47.5247 Y2.2387 I-1.4039 J1.2017
G3 X-47.4488 Y2.5439 I-1.0458 J0.4221
G3 X-47.4851 Y2.8893 I-0.8281 J0.0875
G2 X-48.9569 Y2.5861 I-1.4814 J3.4671
G2 X-49.4591 Y2.6314 I0.0031 J2.8377
G2 X-50.0956 Y2.8527 I0.36 J2.0615
G2 X-50.7356 Y3.4992 I0.7555 J1.3881
G2 X-50.572 Y3.984 I1.474 J-0.2274
G2 X-50.2249 Y4.3599 I0.9474 J-0.5266
G2 X-49.9182 Y4.5133 I0.7896 J-1.1952
G2 X-49.4803 Y4.6297 I0.9451 J-2.673
G2 X-48.8959 Y4.724 I3.7235 J-21.2198
G3 X-48.741 Y4.75 I-0.359 J2.6107
G3 X-48.3942 Y4.8262 I-0.8051 J4.4939
G3 X-48.2142 Y4.8826 I-0.3951 J1.5774
G3 X-47.8309 Y5.0751 I-0.5421 J1.5573
G3 X-47.4851 Y5.4294 I-0.739 J1.067
G3 X-47.5021 Y5.7135 I-2.4734 J-0.0052
G3 X-47.5635 Y5.9913 I-1.4442 J-0.1735
G3 X-47.8955 Y6.4515 I-0.8324 J-0.2507
G3 X-48.2513 Y6.5988 I-0.5513 J-0.828
G3 X-48.7567 Y6.6351 I-0.3977 J-2.0063
G3 X-49.0418 Y6.6136 I0.1064 J-3.3215
G3 X-49.3596 Y6.5723 I0.692 J-6.5659
G1 X-49.7131 Y6.5187
G2 X-50.1084 Y6.4712 I-0.8702 J5.5793
G2 X-50.3183 Y6.4661 I-0.1416 J1.501
G2 X-50.5386 Y6.5005 I0.0115 J0.7958
G2 X-50.7356 Y6.6512 I0.0883 J0.3196
G2 X-50.789 Y6.9975 I1.9129 J0.4719
G2 X-50.7708 Y7.3474 I1.4945 J0.0979
G2 X-50.4162 Y7.9475 I0.9836 J-0.1764
G2 X-50.0138 Y8.1902 I1.0564 J-1.2967
G1 X-49.8981 Y8.2383
G1 X-49.7732 Y8.2841
G2 X-49.1113 Y8.468 I2.3539 J-7.1889
G1 X-49.0254 Y8.4886
G1 X-48.6407 Y8.5825
G3 X-48.4388 Y8.6375 I-1.9086 J7.4047
G1 X-48.3358 Y8.6685
G3 X-47.888 Y8.8493 I-0.7173 J2.4222
G3 X-47.6728 Y8.9901 I-0.6323 J1.2014
G3 X-47.4851 Y9.1932 I-0.5845 J0.7281
G3 X-47.5685 Y9.4209 I-1.4376 J-0.3975
G3 X-47.6928 Y9.6291 I-0.9067 J-0.3998
G3 X-48.0892 Y9.9047 I-0.6175 J-0.4654
G3 X-48.4112 Y9.9508 I-0.3236 J-1.1127
G3 X-48.8361 Y9.9136 I0.0041 J-2.4918
G3 X-49.3766 Y9.8101 I2.9636 J-16.9323
G2 X-49.5198 Y9.7838 I-0.6575 J3.1866
G2 X-49.8443 Y9.7431 I-0.542 J3.0084
G2 X-50.2129 Y9.7631 I-0.1123 J1.3386
G2 X-50.5927 Y9.9615 I0.1433 J0.7374
G2 X-50.7356 Y10.1508 I0.5824 J0.5883
G2 X-50.7758 Y10.4383 I1.6557 J0.3777
G2 X-50.7654 Y10.7283 I1.4207 J0.0943
G2 X-50.5302 Y11.2567 I1.0182 J-0.1368
G2 X-50.2365 Y11.5121 I1.029 J-0.8867
G2 X-49.7798 Y11.7447 I1.4153 J-2.2138
G2 X-49.5078 Y11.8456 I1.5405 J-3.737
G2 X-49.437 Y11.8694 I0.4422 J-1.1942
G1 X-49.2864 Y11.9181
G1 X-49.1262 Y11.9679
G1 X-48.7655 Y12.0784
G1 X-48.5754 Y12.1394
G3 X-48.3757 Y12.2084 I-1.7228 J5.3122
G3 X-47.9372 Y12.393 I-1.5077 J4.1944
G3 X-47.4851 Y12.6855 I-0.9481 J1.9607
G3 X-47.5164 Y12.9779 I-2.1578 J-0.0829
G3 X-47.6068 Y13.2577 I-0.9989 J-0.1684
G3 X-47.7227 Y13.4173 I-0.5598 J-0.2846
G3 X-47.9554 Y13.5467 I-0.364 J-0.3807
G3 X-48.31 Y13.5677 I-0.2364 J-0.9866
G3 X-48.7601 Y13.4867 I0.3508 J-3.2414
G1 X-48.8774 Y13.4582
G1 X-49.1369 Y13.3931
G2 X-49.1699 Y13.385 I-0.0791 J0.2503
G2 X-49.2032 Y13.3769 I-0.0854 J0.2779
G2 X-49.4989 Y13.3115 I-1.0602 J4.0969
G1 X-49.6557 Y13.2844
G2 X-50.0078 Y13.2548 I-0.3636 J2.2096
G2 X-50.4017 Y13.302 I-0.0158 J1.5341
G2 X-50.8071 Y13.5081 I0.2757 J1.044
G2 X-51.141 Y13.9201 I0.889 J1.0618
G2 X-51.0124 Y14.5552 I1.5145 J0.024
G2 X-50.6089 Y15.0622 I1.2751 J-0.6007
G2 X-50.2466 Y15.2989 I1.4906 J-1.886
G2 X-49.7256 Y15.53 I2.1279 J-4.0933
G2 X-49.0218 Y15.7756 I8.8089 J-24.1118
G1 X-48.8352 Y15.8415
G3 X-48.4198 Y16.0093 I-1.9243 J5.3613
G3 X-47.9807 Y16.2669 I-0.9278 J2.0847
G3 X-47.7827 Y16.4547 I-0.7868 J1.0279
G1 X-50.4083 Y17.0721
G1 X-50.4075 Y17.3752
G2 X-50.3959 Y17.6781 I3.9937 J-0.0017
G2 X-50.3737 Y17.879 I2.0833 J-0.1284
G2 X-50.314 Y18.1422 I1.8048 J-0.2711
G2 X-50.1622 Y18.4695 I1.2505 J-0.3812
G2 X-49.8374 Y18.8276 I1.2892 J-0.8429
G2 X-49.6124 Y18.9892 I1.3637 J-1.661
G3 X-48.2949 Y18.971 I0.7217 J4.5543
G3 X-47.0216 Y19.3098 I-0.7108 J5.2343
G3 X-46.2264 Y19.6833 I-2.7001 J6.7806
G3 X-45.2269 Y20.286 I-6.534 J11.9662
G3 X-45.1012 Y20.369 I-2.1023 J3.3223
G3 X-44.5748 Y20.7676 I-3.4679 J5.127
G1 X-44.4066 Y20.9097
G1 X-44.3116 Y20.9922
G3 X-43.5718 Y21.6738 I-13.6724 J15.5809
G1 X-43.4752 Y21.7668
G3 X-41.9662 Y23.2904 I-39.156 J40.289
G3 X-40.9835 Y24.3282 I-92.043 J88.1454
G3 X-40.9214 Y24.3944 I-1.1376 J1.1279
G1 X-39.6012 Y25.8095
G2 X-39.4299 Y25.9911 I5.4207 J-4.9426
G1 X-39.3865 Y26.0368
G2 X-39.2981 Y26.1292 I2.5723 J-2.3718
G2 X-39.1134 Y26.3178 I5.4987 J-5.2003
G2 X-38.1053 Y27.1082 I4.115 J-4.2104
G2 X-36.9571 Y27.6764 I3.5724 J-5.7747
G2 X-36.1448 Y27.9412 I3.2008 J-8.4407
G2 X-35.0322 Y28.1765 I2.6698 J-9.8745
G1 X-34.7322 Y28.2202
G2 X-34.0439 Y28.2945 I1.7033 J-12.5469
G2 X-32.2073 Y28.3571 I1.5954 J-19.8318
G2 X-31.9702 Y28.3541 I0.0057 J-8.9371
G1 X-31.7257 Y28.3489
G2 X-30.6115 Y28.3022 I-0.6755 J-29.4305
G2 X-30.5413 Y28.2982 I-0.006 J-0.7182
G2 X-30.4705 Y28.294 I-0.0074 J-0.7289
G2 X-30.3993 Y28.2897 I-0.009 J-0.7399
G2 X-29.7927 Y28.249 I-1.5082 J-26.9982
G1 X-29.1471 Y28.199
G1 X-28.4599 Y28.1405
G2 X-28.3734 Y28.1328 I-0.0762 J-1.3552
G1 X-27.6362 Y28.0662
G1 X-26.8511 Y27.9944
G3 X-26.0148 Y27.9205 I8.1978 J88.025
G3 X-24.1069 Y27.7831 I5.1388 J58.0198
G2 X-23.7328 Y27.74 I-0.1201 J-2.6867
G2 X-23.3719 Y27.6327 I-0.2763 J-1.5914
G2 X-23.1618 Y27.4926 I-0.2603 J-0.6174
G2 X-23.0875 Y27.3644 I-0.2062 J-0.2053
G2 X-23.1183 Y27.1823 I-0.2309 J-0.0546
G2 X-23.2797 Y27.0196 I-0.4602 J0.2952
G2 X-23.5062 Y26.8995 I-0.7456 J1.1329
G2 X-24.0697 Y26.7455 I-0.9816 J2.4822
G1 X-24.4671 Y26.6817
G2 X-24.524 Y26.6731 I-0.1159 J0.571
G1 X-24.9793 Y26.6078
G2 X-25.8922 Y26.4947 I-4.5561 J33.0435
G2 X-27.7232 Y26.3161 I-7.955 J72.0509
G1 X-28.2469 Y26.2715
G1 X-29.6436 Y26.1553
G1 X-30.0161 Y26.1232
G3 X-31.9992 Y25.9232 I5.3562 J-63.0445
G1 X-32.2545 Y25.8919
G3 X-32.7983 Y25.8194 I2.3663 J-19.8041
G3 X-32.8237 Y25.8157 I0.0068 J-0.1379
G3 X-32.8492 Y25.8119 I0.0117 J-0.1653
G3 X-32.8999 Y25.8038 I0.038 J-0.4001
G1 X-33.0011 Y25.785
G3 X-33.1995 Y25.731 I0.2091 J-1.1592
G3 X-33.3194 Y25.6635 I0.1058 J-0.328
G3 X-33.3437 Y25.5822 I0.0494 J-0.0591
G3 X-33.3164 Y25.5369 I0.1142 J0.038
G3 X-33.2725 Y25.4968 I0.1691 J0.1406
G3 X-33.1561 Y25.4256 I0.4143 J0.547
G3 X-32.6571 Y25.2411 I1.2885 J2.7176
G1 X-18.8815 Y26.2656
G2 X-18.8228 Y26.6385 I2.0516 J-0.1318
G2 X-18.7069 Y26.9979 I2.8984 J-0.7369
G2 X-18.3868 Y27.6791 I5.9255 J-2.3682
G1 X-18.3394 Y27.7677
G1 X-18.0812 Y28.2355
G1 X-17.9344 Y28.503
G3 X-17.5816 Y29.2347 I-6.2161 J3.4485
G1 X-17.5627 Y29.2828
G3 X-17.5257 Y29.3827 I-1.3851 J0.5698
G3 X-17.4025 Y29.855 I-2.4202 J0.8834
G3 X-17.4118 Y30.4196 I-1.5422 J0.257
G3 X-17.7121 Y31.0174 I-1.3282 J-0.2929
G3 X-17.9748 Y31.2726 I-1.3462 J-1.1232
G3 X-18.2995 Y31.4978 I-1.7434 J-2.1666
G1 X-18.3864 Y31.5482
G1 X-18.4762 Y31.597
G2 X-18.4462 Y32.1932 I5.862 J0.0038
G2 X-18.3703 Y32.7853 I9.2253 J-0.8811
G1 X-18.3098 Y33.1786
G3 X-18.2366 Y33.7039 I-11.3159 J1.8452
G3 X-18.1787 Y34.4086 I-8.1346 J1.0229
G3 X-18.8597 Y34.2599 I0.0721 J-1.9637
G3 X-19.443 Y33.8784 I0.7843 J-1.8359
G3 X-19.7587 Y33.5369 I2.0709 J-2.2314
G3 X-20.116 Y33.0354 I4.4671 J-3.5598
G1 X-20.5515 Y32.3503
G1 X-20.6711 Y32.1705
G2 X-20.8032 Y31.9826 I-5.3197 J3.6009
G2 X-21.1318 Y31.5761 I-4.1735 J3.0379
G2 X-21.327 Y31.3774 I-2.0615 J1.8294
G2 X-21.8345 Y30.9927 I-2.043 J2.168
G2 X-22.2118 Y31.1558 I1.2277 J3.3571
G2 X-22.5557 Y31.381 I0.8055 J1.605
G2 X-22.7361 Y31.589 I0.6039 J0.7062
G2 X-22.8383 Y31.947 I0.5816 J0.3597
G2 X-22.8179 Y32.1621 I1.2115 J-0.0067
G2 X-22.7548 Y32.3997 I1.6508 J-0.3111
G1 X-22.7125 Y32.5229
G1 X-22.6108 Y32.7976
G1 X-22.559 Y32.9435
G3 X-22.5465 Y32.9808 I-0.3052 J0.1227
G3 X-22.4575 Y33.3203 I-2.2092 J0.7606
G3 X-22.4363 Y33.7117 I-1.5162 J0.2786
G3 X-22.5523 Y34.139 I-1.2147 J-0.1005
G3 X-22.8418 Y34.0914 I0.3597 J-3.0881
G1 X-22.9369 Y34.0686
G3 X-23.3052 Y33.9369 I0.4925 J-1.9574
G3 X-23.9235 Y33.4622 I0.7725 J-1.6466
G3 X-24.2174 Y33.0311 I2.1073 J-1.7524
G3 X-24.5144 Y32.4091 I6.1436 J-3.3158
G1 X-24.6721 Y32.051
G1 X-24.7606 Y31.8627
G2 X-24.9888 Y31.4495 I-4.353 J2.1343
G2 X-25.3188 Y31.0255 I-2.1889 J1.3634
G2 X-25.8028 Y30.6449 I-1.637 J1.5835
G1 X-25.9508 Y30.6422
G1 X-26.0989 Y30.6438
G1 X-26.1976 Y30.6476
G1 X-26.2539 Y30.651
G2 X-26.6993 Y30.7227 I0.1037 J2.0625
G2 X-26.9733 Y30.8505 I0.2256 J0.841
G2 X-27.1771 Y31.2137 I0.2854 J0.399
G2 X-27.1667 Y31.4615 I1.0451 J0.0802
G2 X-27.1044 Y31.7335 I2.1484 J-0.349
G2 X-27.0135 Y32.0292 I5.6039 J-1.5599
G3 X-26.9169 Y32.3598 I-6.748 J2.151
G3 X-26.8599 Y32.7335 I-1.5937 J0.4343
G3 X-26.8768 Y32.9309 I-0.9718 J0.0165
G3 X-27.1152 Y33.3134 I-0.6305 J-0.1275
G3 X-27.3276 Y33.4417 I-0.6226 J-0.7907
G1 X-30.2806 Y30.2972
G2 X-30.6465 Y30.4644 I1.0867 J2.8614
G2 X-30.9709 Y30.7023 I0.6607 J1.2413
G2 X-31.1309 Y30.9196 I0.6195 J0.6235
G2 X-31.2118 Y31.274 I0.681 J0.3421
G2 X-31.1903 Y31.4827 I1.0136 J0.0007
G2 X-31.1281 Y31.7132 I1.4779 J-0.2747
G2 X-31.0311 Y31.9649 I3.9101 J-1.3635
G2 X-31.0035 Y32.0286 I0.5854 J-0.2153
G1 X-30.875 Y32.3123
G1 X-30.8076 Y32.4624
G1 X-30.7742 Y32.5399
G3 X-30.7081 Y32.7051 I-5.1875 J2.1717
G1 X-30.6774 Y32.791
G3 X-30.5855 Y33.1869 I-1.7513 J0.615
G3 X-30.8952 Y33.1576 I0.0869 J-2.5701
G3 X-31.1973 Y33.0839 I0.2426 J-1.6508
G3 X-31.7046 Y32.7268 I0.3179 J-0.9905
G3 X-31.8918 Y32.3513 I1.0311 J-0.7486
G3 X-31.9546 Y32.1202 I3.0606 J-0.9553
G3 X-31.981 Y31.9957 I1.5062 J-0.3844
G1 X-32.0343 Y31.713
G2 X-32.0483 Y31.6403 I-4.0962 J0.7514
G2 X-32.1252 Y31.3156 I-2.9889 J0.5369
G1 X-32.151 Y31.2337
G2 X-32.3183 Y30.8838 I-1.4125 J0.4601
G2 X-32.6316 Y30.5684 I-0.9316 J0.6122
G2 X-33.1021 Y30.3609 I-0.8658 J1.3259
G2 X-33.3711 Y30.3046 I-0.5874 J2.1366
G3 X-33.4868 Y30.7002 I-3.5452 J-0.8216
G3 X-33.6264 Y31.0881 I-10.6388 J-3.6121
G1 X-33.9191 Y31.8584
G1 X-34.0 Y32.0795
G2 X-34.2009 Y32.6742 I11.724 J4.2909
G1 X-34.2248 Y32.7516
G1 X-34.2489 Y32.8317
G3 X-34.6766 Y32.1707 I5.7618 J-4.1974
G3 X-35.048 Y31.4765 I10.6958 J-6.1682
G1 X-35.2808 Y31.0063
G1 X-35.4133 Y30.7373
G2 X-35.7813 Y30.0278 I-14.2995 J6.9667
G2 X-36.0117 Y29.6333 I-7.6916 J4.2292
G2 X-36.512 Y29.2818 I-0.6581 J0.4048
G2 X-37.1202 Y29.3445 I-0.2075 J0.9687
G2 X-37.4406 Y29.6017 I0.2892 J0.6884
G2 X-37.5297 Y29.8253 I0.4502 J0.3091
G2 X-37.5031 Y30.1075 I0.5912 J0.0866
G1 X-37.4657 Y30.2216
G2 X-37.4277 Y30.3355 I1.9425 J-0.5846
G1 X-37.3504 Y30.5629
G2 X-37.1929 Y31.0167 I23.8081 J-8.0049
G3 X-37.1719 Y31.0773 I-0.6063 J0.2444
G3 X-36.8515 Y32.0506 I-22.9134 J8.0823
G1 X-36.7702 Y32.3319
G1 X-36.7296 Y32.4827
G3 X-36.5569 Y33.2979 I-8.8542 J2.3021
G3 X-36.4878 Y34.4086 I-5.5549 J0.9032
G2 X-35.4917 Y34.8214 I8.1987 J-18.3769
G2 X-34.4803 Y35.1952 I19.805 J-52.0256
G1 X-33.8031 Y35.4363
G1 X-33.4164 Y35.5745
G1 X-32.9753 Y35.7351
G3 X-31.8106 Y36.1937 I-10.1543 J27.4993
G3 X-31.1591 Y36.4893 I-5.3238 J12.6004
G1 X-30.9936 Y36.5711
G3 X-30.2561 Y36.9835 I-3.8961 J7.8338
G3 X-29.4735 Y37.5531 I-3.3996 J5.4928
G3 X-30.7834 Y37.6858 I-1.5282 J-8.5566
G3 X-32.0983 Y37.619 I-0.2015 J-9.0052
G3 X-32.9645 Y37.4756 I1.3463 J-10.8263
G3 X-34.1003 Y37.1966 I3.1916 J-15.4434
G1 X-34.1718 Y37.1767
G1 X-34.4764 Y37.0899
G1 X-35.1711 Y36.8888
G1 X-35.5425 Y36.7855
G1 X-35.5894 Y36.7729
G2 X-36.4543 Y36.575 I-2.9038 J10.6997
G3 X-36.1622 Y37.5762 I-2.579 J1.2958
G3 X-36.251 Y38.6153 I-2.9673 J0.2696
G3 X-36.4921 Y39.2686 I-3.4151 J-0.8891
G3 X-36.9703 Y40.0584 I-4.2364 J-2.0254
G3 X-37.0422 Y40.1535 I-2.5023 J-1.8171
G3 X-37.9121 Y41.0602 I-4.8054 J-3.7395
G1 X-39.7457 Y39.7455
G2 X-39.0304 Y39.3013 I-2.5154 J-4.8485
G2 X-38.4163 Y38.7253 I-1.9878 J-2.7349
G2 X-38.3474 Y38.6363 I-1.6952 J-1.3823
G2 X-38.0573 Y38.1094 I-1.7543 J-1.3094
G2 X-37.9235 Y37.3142 I-1.9961 J-0.7445
G2 X-37.9704 Y36.8532 I-2.6383 J0.0354
G2 X-38.1 Y36.3415 I-3.9913 J0.7383
G2 X-38.31 Y35.781 I-7.0549 J2.3244
G2 X-38.834 Y34.5953 I-41.8622 J17.7899
G1 X-38.9113 Y34.427
G2 X-39.5557 Y33.0929 I-39.9775 J18.4867
G1 X-39.6452 Y32.9168
G1 X-39.8532 Y32.5161
G1 X-40.0968 Y32.0611
G2 X-40.1607 Y31.9443 I-3.2357 J1.6934
G2 X-40.2271 Y31.8239 I-7.534 J4.0782
G1 X-40.3703 Y31.568
G1 X-40.5255 Y31.2964
G2 X-41.3976 Y29.874 I-28.1308 J16.2683
G1 X-41.6436 Y29.5032
G2 X-43.0663 Y27.6035 I-19.4472 J13.0822
G2 X-43.9752 Y26.5953 I-13.2312 J11.0135
G2 X-45.1161 Y25.5416 I-10.0358 J9.7213
G2 X-45.7743 Y25.0365 I-7.4028 J8.966
G2 X-48.0987 Y23.7754 I-6.4217 J9.0629
G2 X-48.2632 Y23.7108 I-1.164 J2.7236
G2 X-48.4397 Y23.6445 I-1.4449 J3.5817
G2 X-51.3676 Y22.9597 I-4.2665 J11.6391
G2 X-53.3748 Y22.9237 I-1.2016 J11.0187
G2 X-53.9082 Y22.9796 I0.5561 J7.8723
G2 X-55.1094 Y23.2281 I1.0642 J8.1719
G2 X-56.4151 Y23.7519 I1.832 J6.4561
G1 X-56.4931 Y23.7945
G1 X-56.5711 Y23.8387
G2 X-57.2068 Y24.2685 I2.8243 J4.863
G3 X-57.4169 Y24.4084 I-1.1309 J-1.4695
G3 X-57.4903 Y24.4497 I-0.5194 J-0.8385
G3 X-57.5898 Y24.5018 I-0.7924 J-1.3929
G1 X-57.7244 Y24.5669
G3 X-58.2765 Y24.7953 I-3.5172 J-7.7219
G3 X-58.6516 Y24.9287 I-3.0687 J-8.0333
G1 X-58.8675 Y25.0002
G3 X-59.1305 Y25.0827 I-7.034 J-21.9602
G0 Z5.0
G0 X-58.3241 Y26.4006
G1 Z0.0
G3 X-58.0597 Y26.2554 I1.6787 J2.7433
G1 X-58.0151 Y26.2333
G3 X-57.5287 Y26.0276 I2.4735 J5.1717
G3 X-56.859 Y25.8216 I2.213 J6.0035
G3 X-56.8376 Y25.8161 I0.0488 J0.1465
G3 X-56.8159 Y25.8107 I0.0488 J0.1478
G3 X-56.7941 Y25.8052 I0.0488 J0.1491
G3 X-56.7721 Y25.7998 I0.0488 J0.1504
G3 X-56.75 Y25.7944 I0.0487 J0.1518
G3 X-56.7276 Y25.789 I0.0487 J0.1531
G3 X-56.7051 Y25.7837 I0.0487 J0.1545
G3 X-55.7415 Y25.606 I2.3869 J10.2453
G3 X-55.7109 Y25.6018 I0.0454 J0.2183
G3 X-54.4088 Y25.4906 I1.9014 J14.583
G3 X-49.3403 Y26.0203 I0.6453 J18.34
G3 X-47.9449 Y26.4376 I-3.9 J15.5833
G3 X-46.4163 Y27.0892 I-4.0749 J11.6775
G3 X-46.0387 Y27.2929 I-4.6448 J9.0655
G3 X-45.2659 Y27.7846 I-4.6182 J8.111
G1 X-45.2192 Y27.8183
G3 X-44.465 Y28.4502 I-3.9955 J5.5345
G3 X-43.7814 Y29.2559 I-3.7166 J3.8464
G3 X-43.261 Y30.2746 I-3.6078 J2.4854
G3 X-43.0334 Y31.5059 I-3.8453 J1.3473
G3 X-43.0602 Y32.1422 I-3.6589 J0.1649
G3 X-43.1039 Y32.3504 I-1.6631 J-0.241
G3 X-43.2276 Y32.607 I-0.6898 J-0.1742
G3 X-43.357 Y32.7124 I-0.2924 J-0.2271
G3 X-43.5527 Y32.7505 I-0.1751 J-0.3771
G3 X-43.782 Y32.7051 I0.0417 J-0.8116
G3 X-44.0227 Y32.6025 I0.5641 J-1.6571
G3 X-44.2736 Y32.4621 I1.2935 J-2.6066
G3 X-44.5429 Y32.2904 I3.292 J-5.4612
G3 X-44.8278 Y32.0976 I5.488 J-8.4142
G1 X-44.9732 Y31.9978
G1 X-45.0468 Y31.9474
G2 X-45.3583 Y31.7379 I-7.975 J11.5214
G1 X-45.521 Y31.6329
G2 X-45.8789 Y31.4191 I-3.1696 J4.9004
G2 X-46.2876 Y31.2166 I-2.0807 J3.6855
G1 X-46.3959 Y31.1727
G2 X-46.899 Y31.0395 I-0.8056 J2.0268
G2 X-47.1762 Y31.03 I-0.1852 J1.3569
G2 X-47.7827 Y31.2493 I0.0688 J1.1387
G2 X-47.6937 Y31.5354 I0.8091 J-0.0946
G2 X-47.5212 Y31.7804 I1.0638 J-0.5659
G2 X-47.3823 Y31.9235 I1.1685 J-0.9957
G2 X-47.1839 Y32.0986 I4.451 J-4.8427
G2 X-47.1576 Y32.1205 I0.1921 J-0.2035
G2 X-47.1304 Y32.143 I0.2254 J-0.2446
G2 X-47.0724 Y32.1907 I0.5127 J-0.5648
G3 X-46.7681 Y32.4467 I-4.0327 J5.1027
G3 X-46.6057 Y32.6049 I-1.4422 J1.6431
G3 X-46.4461 Y32.8093 I-0.9028 J0.8692
G3 X-46.3347 Y33.0876 I-0.6396 J0.4174
G3 X-46.3619 Y33.4417 I-0.7209 J0.1227
G3 X-47.0549 Y33.4632 I-0.6881 J-11.0087
G1 X-47.2859 Y33.463
G3 X-47.5941 Y33.4601 I-0.0658 J-9.3539
G1 X-47.7701 Y33.4578
G1 X-48.2396 Y33.4528
G1 X-48.5079 Y33.4529
G1 X-48.8145 Y33.4577
G2 X-49.6304 Y33.5138 I0.1428 J8.0398
G2 X-49.7351 Y33.5276 I0.2547 J2.3418
G2 X-50.2098 Y33.6176 I0.6358 J4.6478
G2 X-50.7356 Y33.7913 I0.7443 J3.1376
G2 X-50.4068 Y34.0874 I1.7983 J-1.6658
G2 X-50.0361 Y34.3291 I2.0235 J-2.6989
G2 X-49.2302 Y34.6887 I2.6024 J-4.7501
G2 X-49.1192 Y34.728 I0.6612 J-1.6875
G1 X-48.8641 Y34.8131
G2 X-48.7274 Y34.8562 I0.9866 J-2.89
G1 X-48.5812 Y34.9009
G1 X-47.8014 Y35.1294
G3 X-47.3577 Y35.2646 I-8.6668 J29.2496
G3 X-47.2438 Y35.3013 I-0.7545 J2.5376
G1 X-47.0021 Y35.383
G3 X-46.4589 Y35.5937 I-2.5609 J7.4101
G3 X-45.8629 Y35.8913 I-2.292 J5.3348
G3 X-45.2388 Y36.3314 I-2.088 J3.6233
G3 X-45.489 Y36.8276 I-1.1231 J-0.2552
G3 X-45.9495 Y37.1385 I-0.8592 J-0.7763
G3 X-46.3083 Y37.2325 I-0.6472 J-1.738
G3 X-46.7953 Y37.2634 I-0.4269 J-2.8723
G3 X-47.4298 Y37.2038 I0.1032 J-4.507
G3 X-48.2383 Y37.0246 I1.1492 J-7.0983
G3 X-49.2591 Y36.6877 I2.9891 J-10.773
G3 X-50.5451 Y36.1369 I5.8603 J-15.4577
G3 X-51.2542 Y35.7835 I7.1406 J-15.2129
G3 X-53.0469 Y34.742 I10.7954 J-20.6473
G3 X-54.0186 Y34.0773 I10.6333 J-16.5871
G3 X-55.064 Y33.2421 I7.9485 J-11.0201
G3 X-55.19 Y33.1281 I2.8122 J-3.2361
G3 X-55.6991 Y32.613 I4.4354 J-4.8929
G3 X-55.9338 Y32.3214 I3.7599 J-3.2664
G3 X-56.1353 Y31.9894 I1.8842 J-1.3705
G3 X-56.2055 Y31.803 I0.8229 J-0.4162
G3 X-56.2287 Y31.597 I0.5949 J-0.1715
G3 X-55.3305 Y31.013 I2.6255 J3.0551
G3 X-54.313 Y30.6776 I1.9062 J4.0724
G3 X-53.6058 Y30.5754 I1.2265 J5.9893
G1 X-53.4158 Y30.5609
G3 X-52.4039 Y30.5465 I0.6617 J10.9115
G1 X-52.1343 Y30.5548
G3 X-51.9953 Y30.5602 I-0.0341 J2.6762
G1 X-51.3617 Y30.5893
G1 X-51.0242 Y30.6041
G2 X-50.6647 Y30.6159 I0.6271 J-13.6005
G1 X-50.4792 Y30.6194
G2 X-49.6335 Y30.5986 I0.1946 J-9.2678
G2 X-49.1851 Y30.5513 I-0.3641 J-5.6025
G2 X-48.1843 Y30.2972 I-0.6075 J-4.4896
G2 X-51.3413 Y28.6638 I-5.0294 J5.8532
G2 X-52.5174 Y28.4562 I-2.027 J8.0472
G2 X-54.1068 Y28.4236 I-0.9863 J9.3498
G2 X-55.0104 Y28.5155 I0.6206 J10.5965
G2 X-57.3505 Y29.0849 I1.8195 J12.5713
G2 X-58.6238 Y29.6017 I3.7568 J11.0821
G1 X-58.78 Y29.6799
G3 X-59.2432 Y29.102 I1.7161 J-1.8504
G3 X-59.4538 Y28.392 I1.3602 J-0.7896
G3 X-59.4056 Y27.8968 I1.7795 J-0.0768
G3 X-59.1816 Y27.2773 I3.0565 J0.755
G3 X-58.9757 Y26.9499 I1.4069 J0.6562
G3 X-58.705 Y26.6737 I1.523 J1.2222
G3 X-58.3241 Y26.4006 I2.0596 J2.4702
G0 Z5.0
G0 X-61.4205 Y9.1932
G1 Z0.0
G1 X-62.1346
G1 X-62.1459 Y9.0219
G1 X-62.1496 Y8.9647
G3 X-62.1639 Y8.7362 I14.179 J-1.0021
G1 X-62.1906 Y8.2791
G1 X-62.2073 Y7.9742
G1 X-62.2695 Y6.7546
G1 X-62.3131 Y5.9416
G1 X-62.3419 Y5.4773
G2 X-62.359 Y5.2297 I-7.0544 J0.3648
G1 X-62.3685 Y5.1019
G2 X-62.5097 Y3.7431 I-21.7138 J1.5688
G2 X-62.5651 Y3.3828 I-16.6873 J2.3842
G2 X-62.7353 Y2.5669 I-11.0734 J1.8839
G2 X-63.0321 Y1.6595 I-6.912 J1.7585
G2 X-63.5554 Y0.695 I-4.511 J1.8232
G1 X-60.2975 Y0.3473
G1 X-61.4205 Y9.1932
G0 Z5.0
G0 X-64.3453 Y8.3106
G1 Z0.0
G3 X-64.6438 Y8.8768 I-1.6052 J-0.4844
G3 X-65.0489 Y9.2308 I-1.3251 J-1.1075
G3 X-65.3203 Y9.3767 I-1.2377 J-1.978
G3 X-66.0954 Y9.6122 I-1.3937 J-3.194
G1 X-66.1982 Y9.6309
G1 X-66.3045 Y9.6482
G3 X-66.7871 Y9.7043 I-1.2052 J-8.2576
G3 X-67.0439 Y9.7226 I-0.4591 J-4.656
G3 X-67.622 Y9.7432 I-0.6703 J-10.6476
G1 X-67.9279 Y9.7462
G1 X-68.2512 Y9.7455
G1 X-68.4174 Y9.7441
G1 X-68.5882 Y9.7422
G1 X-68.9492 Y9.7375
G1 X-69.3308 Y9.7336
G1 X-69.7344 Y9.7329
G1 X-69.7852 Y9.7332
G1 X-69.9941 Y9.7357
G1 X-70.2088 Y9.7407
G2 X-70.663 Y9.762 I0.2872 J10.9571
G2 X-70.8962 Y9.7803 I0.3343 J5.7442
G2 X-71.1355 Y9.8059 I0.39 J4.788
G2 X-71.6394 Y9.8893 I0.7233 J5.9321
G1 X-71.7657 Y9.9184
G2 X-71.893 Y9.9519 I1.2202 J4.8912
G2 X-72.418 Y10.1508 I0.7702 J2.8255
G3 X-73.2102 Y8.9179 I16.0184 J-11.1638
G3 X-73.2341 Y8.8771 I0.4119 J-0.2691
G3 X-73.2587 Y8.8349 I0.4301 J-0.2788
G3 X-73.9636 Y7.4415 I10.8513 J-6.3648
G3 X-74.3163 Y6.4611 I8.2359 J-3.5166
G3 X-74.565 Y5.0921 I6.1152 J-1.8179
G3 X-74.5527 Y4.2937 I5.231 J-0.3184
G3 X-73.8349 Y2.2719 I4.418 J0.4301
G3 X-73.312 Y1.9837 I2.5578 J4.022
G3 X-73.276 Y1.9666 I0.2176 J0.4107
G3 X-73.2375 Y1.9485 I0.2052 J0.3875
G3 X-72.6103 Y1.6872 I3.2951 J7.0259
G3 X-72.5901 Y1.6797 I0.0507 J0.1051
G3 X-72.5694 Y1.672 I0.0513 J0.107
G3 X-72.5485 Y1.6643 I0.0519 J0.1089
G3 X-72.5272 Y1.6566 I0.0525 J0.1109
G3 X-72.5055 Y1.6487 I0.0532 J0.1129
G3 X-72.0407 Y1.4933 I4.4581 J12.5616
G3 X-70.1251 Y1.0982 I2.9446 J9.4353
G3 X-69.8648 Y1.076 I0.5387 J4.77
G3 X-68.4723 Y1.1098 I0.5243 J7.0976
G3 X-67.6898 Y1.2672 I-0.6992 J5.5001
G3 X-67.5923 Y1.2955 I-0.4143 J1.6073
G3 X-66.7321 Y1.6509 I-1.3944 J4.5938
G3 X-65.8614 Y2.2755 I-1.9697 J3.6647
G3 X-65.0839 Y3.237 I-3.1059 J3.3068
G3 X-64.9935 Y3.401 I-3.3322 J1.9433
G1 X-64.9097 Y3.5684
G3 X-64.7605 Y3.9117 I-4.4652 J2.1453
G3 X-64.5265 Y4.6222 I-6.1663 J2.4246
G3 X-64.5011 Y4.7188 I-1.8135 J0.5285
G3 X-64.2572 Y6.2922 I-8.3277 J2.0968
G3 X-64.2656 Y7.3541 I-7.0591 J0.4747
G3 X-64.2732 Y7.9546 I-3.0192 J0.2621
G3 X-64.3059 Y8.1525 I-1.9705 J-0.2237
G3 X-64.3453 Y8.3106 I-1.6446 J-0.3263
G0 Z5.0
G0 X-64.6556 Y-1.7689
G1 Z0.0
G2 X-68.5898 Y-1.5911 I4.2111 J136.7978
G1 X-68.7891 Y-1.5792
G1 X-69.5977 Y-1.5285
G1 X-69.8006 Y-1.5152
G1 X-70.0043 Y-1.5015
G2 X-71.683 Y-1.3788 I17.7606 J254.692
G2 X-73.4121 Y-1.235 I16.2624 J205.8922
G2 X-77.0854 Y-0.8744 I16.0363 J182.2645
G3 X-75.7251 Y-1.6665 I4.5473 J6.2457
G3 X-74.247 Y-2.2082 I4.4224 J9.779
G3 X-73.2294 Y-2.4644 I4.0124 J13.787
G1 X-72.9556 Y-2.5218
G1 X-72.6628 Y-2.5788
G3 X-71.0936 Y-2.8245 I5.507 J30.0378
G1 X-70.6737 Y-2.8781
G1 X-70.4568 Y-2.9045
G3 X-69.994 Y-2.9585 I2.696 J21.096
G1 X-69.5004 Y-3.0138
G1 X-68.3735 Y-3.1385
G1 X-67.7732 Y-3.2085
G1 X-67.134 Y-3.2893
G1 X-66.9719 Y-3.3112
G1 X-66.8072 Y-3.3342
G1 X-66.6402 Y-3.3582
G1 X-66.4706 Y-3.3835
G2 X-65.7491 Y-3.5024 I-6.3859 J-41.003
G1 X-65.6585 Y-3.5188
G1 X-65.5671 Y-3.5357
G1 X-65.1911 Y-3.6096
G2 X-64.3941 Y-3.792 I-4.5547 J-21.725
G2 X-63.5554 Y-4.032 I-3.6625 J-14.3875
G2 X-64.4539 Y-4.4515 I-1.9606 J3.027
G2 X-65.4281 Y-4.6373 I-1.3313 J4.334
G2 X-66.0889 Y-4.6588 I-0.5369 J6.323
G2 X-66.2651 Y-4.6544 I0.0001 J3.4736
G2 X-66.4529 Y-4.6458 I0.0814 J3.8305
G2 X-66.8807 Y-4.6139 I1.1697 J18.5864
G2 X-68.0114 Y-4.4817 I2.9142 J29.8299
G1 X-68.1571 Y-4.463
G1 X-68.4676 Y-4.4243
G1 X-68.6279 Y-4.4055
G1 X-68.7934 Y-4.3872
G3 X-69.5504 Y-4.3284 I-1.2815 J-11.5873
G1 X-69.7463 Y-4.3225
G3 X-70.64 Y-4.3729 I-0.1415 J-5.4391
G3 X-71.1091 Y-4.4701 I0.6033 J-4.0919
G3 X-71.5923 Y-4.6438 I0.8106 J-3.014
G1 X-68.7473 Y-7.1783
G2 X-70.2035 Y-7.2858 I-1.6058 J11.8327
G2 X-71.6625 Y-7.2263 I-0.1294 J14.7399
G2 X-71.7564 Y-7.2175 I0.073 J1.2818
G2 X-71.8532 Y-7.2078 I0.0821 J1.3111
G2 X-72.8814 Y-7.0704 I1.8185 J17.5169
G2 X-74.2376 Y-6.8025 I3.1944 J19.737
G1 X-74.5963 Y-6.7172
G2 X-76.4866 Y-6.1856 I7.7999 J31.3608
G1 X-76.6056 Y-6.1481
G1 X-76.7263 Y-6.1097
G1 X-77.2398 Y-5.9419
G1 X-77.5041 Y-5.853
G1 X-78.0661 Y-5.6589
G2 X-78.2085 Y-5.6088 I0.8834 J2.7367
G1 Y-6.574
G3 X-78.0048 Y-6.7554 I2.508 J2.6112
G3 X-77.7872 Y-6.9196 I3.923 J4.9728
G1 X-77.6363 Y-7.021
G3 X-77.0029 Y-7.3761 I3.5677 J5.6231
G3 X-76.5631 Y-7.5782 I4.1768 J8.5082
G3 X-75.964 Y-7.8159 I4.8885 J11.4444
G3 X-75.9449 Y-7.8229 I0.0587 J0.1304
G3 X-75.1247 Y-8.0979 I5.1585 J14.0275
G1 X-74.9038 Y-8.1645
G3 X-73.7174 Y-8.4807 I7.5234 J25.8405
G1 X-73.3987 Y-8.5557
G1 X-73.0581 Y-8.6319
G1 X-72.6941 Y-8.7093
G3 X-70.7452 Y-9.062 I8.8733 J43.4619
G3 X-68.1334 Y-9.4097 I8.9416 J57.1803
G3 X-68.0923 Y-9.4143 I0.0661 J0.4103
G1 X-67.3909 Y-9.4877
G1 X-67.0287 Y-9.5227
G1 X-66.6547 Y-9.557
G1 X-66.2686 Y-9.5903
G3 X-62.1511 Y-9.8288 I6.9627 J84.5333
G1 X-61.6192 Y-9.8453
G3 X-55.9558 Y-9.834 I2.6461 J93.5205
G3 X-48.439 Y-9.292 I-2.7577 J90.6313
G1 X-48.2032 Y-9.2644
G3 X-46.1951 Y-9.0006 I-8.1704 J69.9662
G1 X-46.0693 Y-8.9823
G3 X-41.4991 Y-8.1517 I-9.319 J64.2691
G1 X-41.3568 Y-8.1201
G1 X-40.7794 Y-7.9879
G3 X-38.3342 Y-7.3487 I-10.9754 J46.9784
G1 X-38.2582 Y-7.3265
G3 X-35.6909 Y-6.4811 I-10.6819 J36.7573
G1 X-35.3722 Y-6.3611
G3 X-32.7084 Y-5.1861 I-9.6284 J25.4342
G3 X-31.3918 Y-4.4549 I-8.941 J17.6507
G1 X-31.3112 Y-4.4058
G3 X-30.6653 Y-3.9906 I-9.6438 J15.7152
G1 X-30.5857 Y-3.9366
G1 X-30.5063 Y-3.882
G3 X-29.243 Y-2.9022 I-7.8941 J11.4827
G3 X-28.6479 Y-2.3453 I-7.9728 J9.1153
G1 X-27.8909 Y-1.5819
G1 X-27.7819 Y-1.4737
G2 X-26.8759 Y-0.6439 I9.5004 J-9.4644
G2 X-26.5993 Y-0.4274 I3.8239 J-4.5974
G1 X-26.5634 Y-0.4008
G2 X-25.7479 Y0.0918 I2.9058 J-3.8891
G2 X-25.2365 Y0.2848 I1.5869 J-3.4317
G2 X-23.7659 Y0.3377 I0.8417 J-2.9284
G2 X-22.954 Y0.0777 I-0.8569 J-4.0727
G2 X-24.1179 Y-1.4238 I-9.6478 J6.2768
G2 X-25.4764 Y-2.752 I-12.3452 J11.269
G2 X-26.4533 Y-3.558 I-15.252 J17.4883
G2 X-26.7213 Y-3.7635 I-9.526 J12.146
G2 X-26.8607 Y-3.8681 I-4.4709 J5.8147
G2 X-27.0054 Y-3.975 I-2.875 J3.7385
G2 X-27.1555 Y-4.0844 I-2.3308 J3.0435
G2 X-27.1935 Y-4.1118 I-0.2343 J0.2849
G2 X-27.2319 Y-4.1393 I-0.2353 J0.287
G2 X-27.2706 Y-4.167 I-0.2363 J0.2892
G2 X-27.3097 Y-4.1949 I-0.2372 J0.2914
G2 X-27.3491 Y-4.2229 I-0.2382 J0.2937
G1 X-27.6869 Y-4.4585
G2 X-28.4713 Y-4.9785 I-16.9735 J24.7563
G2 X-28.5721 Y-5.0428 I-1.0378 J1.5166
G2 X-28.6748 Y-5.1076 I-1.0273 J1.5114
G2 X-29.6237 Y-5.6825 I-14.8335 J23.4156
G2 X-32.2319 Y-7.068 I-19.309 J33.2017
G2 X-35.8395 Y-8.6261 I-20.6105 J42.7632
G2 X-37.9506 Y-9.3863 I-19.8533 J51.8235
G2 X-40.396 Y-10.1489 I-17.2837 J51.1222
G1 X-41.0321 Y-10.3282
G1 X-41.6905 Y-10.5059
G1 X-42.372 Y-10.6817
G2 X-45.5065 Y-11.3875 I-16.3233 J65.1757
G2 X-53.9639 Y-12.5332 I-13.5852 J68.4988
G1 X-54.5047 Y-12.5715
G2 X-59.4495 Y-12.7382 I-5.0336 J75.8985
G1 X-60.0777 Y-12.736
G2 X-65.8049 Y-12.478 I0.5496 J75.8903
G2 X-72.2946 Y-11.6713 I6.6177 J79.746
G2 X-79.5879 Y-10.1086 I13.2494 J79.6387
G1 X-80.0421 Y-9.988
G1 Y-10.6836
G3 X-77.7323 Y-11.4804 I17.5258 J47.0574
G1 X-77.3993 Y-11.5849
G3 X-74.7111 Y-12.3401 I16.0323 J51.905
G3 X-69.24 Y-13.4499 I14.6901 J58.3802
G1 X-68.8839 Y-13.5044
G1 X-68.516 Y-13.5586
G3 X-64.5762 Y-14.0118 I10.1039 J70.4899
G3 X-64.4517 Y-14.0225 I0.2278 J1.9234
G3 X-59.1309 Y-14.2879 I6.4568 J75.9707
G3 X-59.0473 Y-14.2892 I0.0699 J1.7806
G3 X-58.9633 Y-14.2905 I0.0684 J1.7879
G3 X-58.8791 Y-14.2916 I0.0669 J1.7954
G3 X-51.6996 Y-14.0898 I1.104 J88.5204
G1 X-51.2446 Y-14.0578
G3 X-47.0945 Y-13.6663 I-7.1216 J97.6864
G2 X-46.8992 Y-13.6916 I0.0465 J-0.4088
G2 X-46.7332 Y-13.7975 I-0.1895 J-0.4801
G2 X-46.5447 Y-14.1323 I-0.4558 J-0.4771
G2 X-46.5504 Y-14.3896 I-0.5153 J-0.1173
G2 X-46.7822 Y-14.6499 I-0.3965 J0.1198
G2 X-47.2445 Y-14.8531 I-2.6971 J5.5091
G2 X-47.7182 Y-15.0281 I-4.0289 J10.1772
G2 X-48.6854 Y-15.3172 I-4.6357 J13.7445
G1 X-48.8157 Y-15.351
G2 X-49.5142 Y-15.5158 I-6.903 J27.6921
G1 X-49.9155 Y-15.6
G2 X-50.9907 Y-15.7962 I-7.4558 J37.8273
G1 X-51.1299 Y-15.8189
G1 X-51.2737 Y-15.8418
G2 X-51.5806 Y-15.8888 I-2.7787 J17.1164
G1 X-51.9083 Y-15.9364
G2 X-52.6585 Y-16.0361 I-4.6423 J32.0353
G2 X-54.6633 Y-16.2515 I-7.434 J59.7654
G1 X-55.1989 Y-16.2986
G1 X-55.7704 Y-16.3448
G2 X-56.3802 Y-16.3897 I-5.6638 J72.7344
G2 X-59.6335 Y-16.5656 I-7.2336 J103.578
G1 X-60.5016 Y-16.5972
G1 X-61.4276 Y-16.6247
G1 X-62.4154 Y-16.6474
G2 X-67.6795 Y-16.6653 I-3.1775 J160.0228
G1 X-68.3586 Y-16.6549
G1 X-69.0596 Y-16.6396
G2 X-70.0516 Y-16.5541 I2.8814 J39.2289
G1 X-70.3818 Y-16.52
G1 X-70.8216 Y-16.4706
G1 X-71.4072 Y-16.3979
G2 X-71.5633 Y-16.3773 I0.3526 J3.2677
G2 X-74.05 Y-15.985 I7.339 J54.6001
G1 X-74.7573 Y-15.8543
G2 X-76.6372 Y-15.474 I14.0616 J74.3475
G1 X-77.1372 Y-15.366
G1 X-77.6699 Y-15.2484
G1 X-78.2375 Y-15.1203
G1 X-78.8423 Y-14.9814
G1 X-79.4871 Y-14.831
G1 X-80.9593 Y-14.4822
G1 X-81.7444 Y-14.2959
G1 X-82.5823 Y-14.0996
G3 X-80.6324 Y-15.069 I13.8613 J25.4348
G3 X-78.6204 Y-15.9017 I13.5342 J29.8574
G3 X-78.5556 Y-15.926 I0.2751 J0.6329
G3 X-77.1648 Y-16.4164 I14.7781 J39.6946
G3 X-75.2836 Y-16.9883 I13.5963 J41.345
G3 X-72.739 Y-17.6157 I12.0158 J43.2616
G3 X-72.6582 Y-17.6331 I0.2243 J0.8449
G3 X-72.5768 Y-17.6505 I0.2242 J0.8503
G3 X-69.0819 Y-18.2635 I10.6466 J50.426
G3 X-64.3761 Y-18.7169 I7.6386 J54.6345
G3 X-58.0793 Y-18.7337 I3.3108 J60.8148
G3 X-57.9806 Y-18.7289 I-0.0151 J1.3287
G3 X-57.8814 Y-18.7239 I-0.0173 J1.334
G3 X-57.7819 Y-18.7188 I-0.0194 J1.3393
G3 X-57.682 Y-18.7135 I-0.0216 J1.3446
G3 X-57.5818 Y-18.708 I-0.0238 J1.35
G3 X-57.4811 Y-18.7023 I-0.026 J1.3554
G3 X-48.9649 Y-17.6501 I-3.7765 J65.5562
G3 X-37.9736 Y-14.5597 I-12.3535 J65.0273
G3 X-31.9931 Y-11.9489 I-22.3453 J59.3407
G3 X-25.5338 Y-8.2301 I-27.712 J55.6035
G3 X-11.0074 Y5.2183 I-33.1742 J50.4029
G3 X-7.9408 Y9.5423 I-49.1793 J38.1279
G3 X-7.8957 Y9.612 I-1.0286 J0.7144
G3 X-5.0386 Y14.4967 I-55.0751 J35.4923
G3 X-4.9973 Y14.575 I-1.0725 J0.6157
G3 X-4.956 Y14.6535 I-1.0732 J0.6142
G3 X-2.3875 Y20.1255 I-60.9606 J31.9542
G1 X-2.3277 Y20.2733
G1 X-2.2715 Y20.4225
G1 X-2.2561 Y20.4655
G3 X-2.1487 Y20.8138 I-3.7623 J1.3506
G1 X-2.1245 Y20.9152
G3 X-2.0847 Y21.1903 I-1.6083 J0.3732
G3 X-2.0948 Y21.3496 I-0.5943 J0.0423
G3 X-2.1285 Y21.4297 I-0.1962 J-0.0354
G3 X-2.2272 Y21.4695 I-0.0803 J-0.0569
G3 X-2.2889 Y21.4495 I0.0298 J-0.1967
G3 X-2.3191 Y21.4329 I0.069 J-0.1616
G3 X-2.4489 Y21.3267 I0.4173 J-0.6426
G3 X-2.6743 Y21.0505 I1.573 J-1.5134
G3 X-3.0048 Y20.4993 I4.6064 J-3.1372
G1 X-3.1603 Y20.2144
G1 X-3.3166 Y19.9299
G1 X-3.6327 Y19.3628
G2 X-3.8463 Y18.9865 I-25.7524 J14.369
G2 X-4.7326 Y17.4994 I-44.2235 J25.349
G1 X-4.9971 Y17.0814
G2 X-5.3066 Y16.6083 I-22.5676 J14.4235
G2 X-5.4749 Y16.3582 I-11.0376 J7.2465
G2 X-5.518 Y16.2949 I-0.7146 J0.4408
G2 X-5.5621 Y16.2307 I-0.7146 J0.4426
G2 X-5.6069 Y16.1655 I-0.7146 J0.4444
G2 X-5.6527 Y16.0995 I-0.7143 J0.4461
G1 X-6.471 Y16.8099
G2 X-5.2158 Y19.8804 I68.7935 J-26.3291
G1 X-5.0265 Y20.3148
G2 X-3.4593 Y23.7667 I161.8984 J-71.4252
G1 X-2.3937 Y26.0583
G3 X-1.0008 Y29.1263 I-165.8894 J77.1638
G1 X-0.642 Y29.9502
G3 X0.1469 Y31.8465 I-66.6691 J28.8467
G1 X0.2433 Y32.0889
G3 X0.4395 Y32.5903 I-31.547 J12.6295
G3 X1.2768 Y34.9057 I-50.8181 J19.6873
G3 X1.6763 Y36.1571 I-38.5373 J12.9921
G3 X2.4361 Y39.0637 I-36.3507 J11.0546
G3 X2.9835 Y42.4589 I-30.2399 J6.6166
G3 X3.0984 Y46.399 I-26.5558 J2.7461
G1 X1.9788
G2 X0.5421 Y41.6817 I-137.0817 J39.1712
G2 X-1.0632 Y37.0191 I-112.3844 J36.087
G1 X-1.1176 Y36.8723
G1 X-1.2308 Y36.5695
G1 X-1.2887 Y36.4158
G1 X-1.5393 Y35.7616
G1 X-1.671 Y35.4249
G1 X-1.7045 Y35.3401
G2 X-1.9946 Y34.6188 I-68.1288 J26.9865
G1 X-2.0698 Y34.4362
G2 X-2.7887 Y32.7802 I-42.5973 J17.5098
G2 X-3.7108 Y30.9333 I-25.3762 J11.5163
G1 X-3.8392 Y30.7047
G2 X-4.4325 Y29.7547 I-11.3302 J6.4154
G2 X-4.7791 Y29.2908 I-6.6804 J4.6289
G2 X-4.9709 Y29.0671 I-2.8773 J2.2726
G2 X-5.1805 Y28.8523 I-2.7841 J2.5074
G3 X-5.5066 Y28.3874 I1.8978 J-1.678
G3 X-5.7298 Y27.8651 I2.6799 J-1.4542
G3 X-5.9156 Y26.7508 I3.7955 J-1.2055
G3 X-5.8618 Y25.9993 I3.9812 J-0.0926
G3 X-5.756 Y25.5813 I2.9137 J0.5148
G3 X-5.5351 Y25.138 I1.5733 J0.5074
G3 X-5.3478 Y24.9454 I0.7435 J0.5355
G1 X-5.8262 Y23.9696
G3 X-5.985 Y23.644 I18.9856 J-9.4605
G3 X-6.0757 Y23.4578 I12.0298 J-5.9728
G3 X-6.1792 Y23.2451 I11.5919 J-5.7707
G3 X-6.2974 Y23.0019 I11.2546 J-5.6206
G1 X-7.2431 Y21.0564
G1 X-7.8784 Y19.7618
G1 X-8.2451 Y19.0239
G1 X-8.6685 Y18.1827
G2 X-8.7227 Y18.0761 I-3.2498 J1.584
G2 X-8.7779 Y17.9678 I-3.2363 J1.5798
G2 X-8.834 Y17.8579 I-3.2226 J1.5755
G2 X-8.8911 Y17.7462 I-3.2083 J1.5711
G2 X-8.9492 Y17.6329 I-3.1938 J1.5666
G2 X-9.0084 Y17.5178 I-3.1788 J1.562
G2 X-9.0687 Y17.4009 I-3.1635 J1.5574
G2 X-9.1301 Y17.2822 I-3.1478 J1.5526
G1 X-9.3934 Y16.777
G2 X-9.6773 Y16.2397 I-70.8156 J37.0832
G2 X-9.75 Y16.1035 I-2.9845 J1.505
G2 X-9.8241 Y15.9653 I-2.9649 J1.4995
G2 X-10.5128 Y14.708 I-76.8168 J41.2617
G1 X-10.8896 Y14.0426
G1 X-11.0868 Y13.7007
G1 X-11.2925 Y13.3491
G2 X-13.6364 Y9.689 I-47.9705 J28.1389
G1 X-13.9607 Y9.2312
G1 X-14.3012 Y8.7628
G2 X-14.6588 Y8.2836 I-18.7965 J13.6559
G2 X-18.8815 Y3.4992 I-33.016 J24.884
G1 X-21.1241
G3 X-17.2134 Y8.4564 I-46.4345 J40.6533
G3 X-13.8165 Y13.7789 I-53.1254 J37.65
G3 X-12.9399 Y15.3563 I-53.3759 J30.6945
G1 X-12.7204 Y15.767
G3 X-10.5428 Y20.2303 I-65.1103 J34.5284
G1 X-10.4144 Y20.5183
G3 X-7.9351 Y26.768 I-79.631 J35.2075
G1 X-7.7934 Y27.1708
G1 X-7.6512 Y27.5806
G3 X-6.4312 Y31.3523 I-104.6303 J35.9274
G3 X-6.1382 Y32.3324 I-106.5668 J32.3906
G3 X-5.5406 Y34.4308 I-111.8337 J32.984
G3 X-4.2992 Y39.2575 I-143.6277 J39.5143
G1 X-4.226 Y39.5628
G1 X-4.1529 Y39.8707
G3 X-4.0059 Y40.4965 I-41.641 J10.1091
G1 X-3.8588 Y41.1327
G1 X-3.7116 Y41.7793
G1 X-3.5641 Y42.4366
G1 X-3.4164 Y43.1048
G1 X-3.2684 Y43.7841
G1 X-3.12 Y44.4744
G1 X-5.463 Y42.7283
G2 X-5.745 Y42.9369 I0.3629 J0.7853
G2 X-5.9567 Y43.2165 I1.2786 J1.1879
G2 X-6.2706 Y43.8359 I3.6673 J2.2478
G1 X-6.3455 Y44.0193
G1 X-6.4259 Y44.2306
G1 X-6.5127 Y44.4734
G2 X-6.5344 Y44.5363 I0.7494 J0.2936
G1 X-6.6306 Y44.8241
G1 X-6.6804 Y44.978
G1 X-6.7925 Y45.3293
G1 X-6.9219 Y45.7297
G1 X-6.9943 Y45.9419
G3 X-7.0777 Y46.166 I-4.564 J-1.5711
G3 X-7.1813 Y46.399 I-2.0314 J-0.7635
G1 X-7.2758 Y45.9454
G1 X-7.3732 Y45.4925
G2 X-7.5799 Y44.5893 I-72.2597 J16.0606
G2 X-8.0601 Y42.7995 I-31.9847 J7.6211
G1 X-8.1327 Y42.5633
G2 X-8.5638 Y41.3177 I-20.687 J6.4628
G2 X-9.2798 Y39.712 I-15.0011 J5.726
G2 X-9.7794 Y38.839 I-10.2456 J5.284
G2 X-10.4466 Y37.9009 I-8.5828 J5.3982
G2 X-10.4565 Y37.9545 I0.4466 J0.11
G2 X-10.4659 Y38.0083 I0.4411 J0.1047
G1 X-10.4831 Y38.116
G2 X-10.5118 Y38.3323 I4.3024 J0.6814
G1 X-10.5269 Y38.4769
G1 X-10.5423 Y38.6702
G2 X-10.5565 Y39.4453 I9.1402 J0.5556
G2 X-10.5487 Y39.6667 I6.2788 J-0.11
G2 X-10.5075 Y40.2558 I10.8365 J-0.4625
G2 X-10.4922 Y40.4126 I2.9008 J-0.2044
G2 X-10.4741 Y40.5797 I3.4815 J-0.2922
G2 X-10.3537 Y41.4667 I26.1525 J-3.0991
G2 X-10.1554 Y42.6422 I43.6028 J-6.7508
G1 X-10.1285 Y42.7937
G1 X-10.0714 Y43.1168
G3 X-9.9457 Y43.8556 I-120.4374 J20.8739
G1 X-9.9306 Y43.9496
G3 X-9.8091 Y44.8107 I-20.789 J3.3733
G1 X-9.8027 Y44.8651
G3 X-9.7566 Y45.3303 I-16.3905 J1.8603
G3 X-9.7289 Y46.399 I-8.9621 J0.7672
G1 X-10.8521
G1 X-11.0458 Y45.4592
G1 X-11.2348 Y44.5182
G1 X-11.3588 Y43.8905
G1 X-11.847 Y41.3783
G1 X-12.1743 Y39.7037
G1 X-12.3653 Y38.7477
G2 X-12.9007 Y36.2036 I-169.6737 J34.384
G1 X-12.9735 Y35.8761
G1 X-13.0498 Y35.5383
G2 X-13.9473 Y31.9549 I-78.2419 J17.6933
G1 X-14.0766 Y31.496
G1 X-14.2138 Y31.0234
G1 X-14.3597 Y30.5367
G2 X-15.0865 Y28.3305 I-50.1442 J15.2957
G2 X-16.0546 Y25.8571 I-40.2838 J14.3416
G2 X-17.3699 Y23.1184 I-32.014 J13.6899
G2 X-17.7486 Y22.4313 I-40.83 J22.0584
G2 X-19.6996 Y19.4158 I-26.1436 J14.7751
G2 X-22.3694 Y16.2836 I-22.8595 J16.7809
G1 X-22.5523 Y16.0995
G1 X-23.6643 Y18.9892
G1 X-23.9019 Y19.1145
G1 X-24.1421 Y19.235
G1 X-24.3036 Y19.3125
G3 X-24.9609 Y19.5978 I-4.5658 J-9.6212
G3 X-26.329 Y20.0219 I-3.331 J-8.3251
G3 X-27.2741 Y20.1661 I-1.5057 J-6.7024
G3 X-28.5498 Y20.1438 I-0.5289 J-6.2386
G3 X-30.1975 Y19.7102 I0.7787 J-6.3077
G3 X-31.0762 Y19.2858 I2.8278 J-6.9769
G3 X-32.0169 Y18.6906 I4.9656 J-8.8884
G1 X-32.2499 Y18.5228
G1 X-32.4866 Y18.3448
G1 X-32.7273 Y18.1567
G1 X-32.9721 Y17.9587
G1 X-33.2213 Y17.7508
G3 X-33.7429 Y17.299 I18.5707 J-21.9668
G1 X-34.0083 Y17.0625
G1 X-34.568 Y16.5551
G1 X-34.8554 Y16.2929
G2 X-36.17 Y15.1234 I-37.5992 J40.9388
G1 X-36.5172 Y14.8326
G2 X-37.2737 Y14.2397 I-11.7091 J14.1614
G1 X-37.4707 Y14.0958
G1 X-37.6728 Y13.9531
G1 X-37.8804 Y13.8118
G2 X-38.7925 Y13.2588 I-6.5811 J9.8266
G2 X-38.911 Y13.1953 I-0.9633 J1.6559
G2 X-39.9521 Y12.7221 I-4.3334 J8.1521
G2 X-41.1201 Y12.3699 I-2.9918 J7.8069
G1 X-41.2705 Y12.3378
G3 X-41.755 Y12.2011 I1.3702 J-5.7849
G3 X-42.2273 Y12.0269 I2.2505 J-6.8276
G3 X-43.109 Y11.5426 I1.7329 J-4.1997
G3 X-44.3576 Y9.9763 I2.0566 J-2.9204
G3 X-44.5448 Y9.4279 I4.1133 J-1.7098
G3 X-44.6172 Y9.1274 I5.0753 J-1.3812
G3 X-44.7237 Y8.4316 I6.3409 J-1.327
G3 X-44.7714 Y7.6334 I10.2071 J-1.0099
G1 X-44.7734 Y7.5319
G3 X-44.7685 Y6.6128 I31.7429 J-0.2887
G1 X-44.7594 Y6.1253
G2 X-44.7566 Y5.8744 I-26.1355 J-0.4165
G1 X-44.757 Y5.6162
G1 X-44.7627 Y5.3504
G2 X-44.8052 Y4.7882 I-6.6254 J0.2184
G2 X-44.9338 Y4.2023 I-3.0183 J0.3552
G3 X-43.3438 Y3.9154 I2.2856 J8.1183
G3 X-41.7282 Y3.8968 I0.9379 J11.2686
G3 X-40.6561 Y3.9996 I-0.8334 J14.3414
G3 X-39.2435 Y4.2499 I-2.1203 J16.0735
G3 X-39.1993 Y4.2596 I-0.0828 J0.4808
G3 X-39.1548 Y4.2696 I-0.0847 J0.4847
G3 X-39.11 Y4.2797 I-0.0866 J0.4886
G3 X-39.0648 Y4.29 I-0.0886 J0.4926
G3 X-39.0194 Y4.3004 I-0.0905 J0.4967
G3 X-38.9735 Y4.3111 I-0.0926 J0.5009
G3 X-38.9274 Y4.322 I-0.0946 J0.505
G3 X-38.8809 Y4.3331 I-0.0967 J0.5093
G3 X-38.8341 Y4.3443 I-0.0989 J0.5137
G3 X-38.787 Y4.3558 I-0.1011 J0.5182
G3 X-38.7395 Y4.3675 I-0.1033 J0.5227
G3 X-38.6916 Y4.3793 I-0.1056 J0.5273
G3 X-38.6435 Y4.3914 I-0.1079 J0.532
G3 X-38.5949 Y4.4037 I-0.1103 J0.5368
G3 X-36.5589 Y5.0284 I-5.588 J21.8439
G1 X-36.3006 Y5.1221
G3 X-35.1339 Y5.5842 I-9.5292 J25.7643
G3 X-33.8291 Y6.1752 I-11.1941 J26.4488
G3 X-30.5156 Y8.046 I-13.0724 J27.0241
G3 X-28.7468 Y9.3075 I-14.5966 J22.3363
G1 X-28.6931 Y9.3496
G3 X-27.7978 Y10.0918 I-14.1065 J17.9266
G3 X-27.688 Y10.1889 I-3.9895 J4.6229
G1 X-27.4673 Y10.3887
G1 X-27.2465 Y10.5954
G1 X-27.1366 Y10.7011
G3 X-26.6936 Y11.1484 I-9.2512 J9.6031
G3 X-25.8221 Y12.1722 I-8.1617 J7.8307
G3 X-25.428 Y12.7455 I-6.7984 J5.0954
G1 X-25.405 Y12.7826
G3 X-25.2275 Y13.0899 I-5.4623 J3.3606
G3 X-24.9251 Y13.7621 I-4.274 J2.3267
G1 X-24.8244 Y14.0432
G1 X-24.7889 Y14.1362
G2 X-24.6274 Y14.5001 I4.288 J-1.6846
G2 X-24.4911 Y14.7281 I1.8286 J-0.9387
G2 X-24.245 Y14.9849 I0.8543 J-0.5727
G2 X-23.7792 Y15.1195 I0.4239 J-0.5933
G2 X-23.4994 Y15.0694 I-0.0768 J-1.2354
G2 X-23.1996 Y14.9483 I-0.4943 J-1.6555
G2 X-22.8845 Y14.7672 I-1.7794 J-3.4594
G2 X-22.5523 Y14.532 I-2.6511 J-4.0967
G2 X-24.4714 Y11.0058 I-19.3869 J8.266
G2 X-27.0297 Y7.9118 I-17.5163 J11.8788
G2 X-29.031 Y6.1319 I-15.9934 J15.9673
G2 X-31.976 Y4.1187 I-16.2026 J20.5417
G1 X-32.3745 Y3.8877
G2 X-34.2376 Y2.9113 I-14.7296 J25.8405
G2 X-36.4357 Y1.9452 I-15.3795 J32.0094
G2 X-39.0135 Y1.0177 I-15.2149 J38.2414
G1 X-39.345 Y0.9123
G2 X-42.4026 Y0.0659 I-14.225 J45.4451
G2 X-45.942 Y-0.6706 I-13.0073 J53.6321
G2 X-46.0538 Y-0.6902 I-0.333 J1.571
G2 X-47.9624 Y-0.9937 I-11.9211 J68.8121
G2 X-48.0824 Y-1.0109 I-0.318 J1.7912
G2 X-48.203 Y-1.028 I-0.3171 J1.8062
G2 X-48.324 Y-1.0449 I-0.3163 J1.8217
G2 X-48.4455 Y-1.0617 I-0.3154 J1.8374
G2 X-48.5676 Y-1.0783 I-0.3146 J1.8535
G2 X-53.0267 Y-1.5476 I-10.5063 J78.4052
G2 X-58.121 Y-1.8002 I-7.2604 J94.939
G2 X-60.8348 Y-1.831 I-2.508 J101.2267
G2 X-62.2339 Y-1.822 I0.5244 J188.5318
G2 X-64.6556 Y-1.7689 I1.7894 J136.8509
G0 Z5.0
G0 X-44.5284 Y14.2754
G1 Z0.0
G1 X-41.5754 Y15.2275
G1 X-41.0483 Y15.4598
G3 X-40.9731 Y15.4933 I-0.5329 J1.2995
G3 X-40.373 Y15.7643 I-31.9512 J71.543
G3 X-39.1861 Y16.335 I-12.1928 J26.879
G3 X-38.4114 Y16.7482 I-9.7498 J19.2127
G3 X-37.9777 Y17.0007 I-5.8877 J10.6091
G3 X-36.8712 Y17.7543 I-5.8571 J9.7904
G3 X-36.2902 Y18.2537 I-4.4088 J5.7158
G1 X-36.1493 Y18.3926
G3 X-35.8642 Y18.7047 I-3.5455 J3.5251
G3 X-35.3181 Y19.5072 I-3.3009 J2.8337
G3 X-34.9591 Y20.5718 I-3.0919 J1.6352
G2 X-36.8649 Y19.0217 I-9.4538 J9.676
G2 X-37.5553 Y18.5795 I-8.4971 J12.5066
G2 X-38.5052 Y18.0394 I-10.1918 J16.8186
G2 X-39.8077 Y17.3884 I-13.6709 J25.7223
G2 X-39.9778 Y17.3087 I-3.3718 J6.9755
G2 X-40.1538 Y17.2272 I-2.9367 J6.1108
G2 X-40.3358 Y17.1438 I-2.7016 J5.6571
G2 X-40.524 Y17.0584 I-2.568 J5.4117
G2 X-40.7185 Y16.971 I-2.4965 J5.2933
G1 X-41.6096 Y16.5768
G1 X-42.6276 Y16.1274
G3 X-42.7566 Y16.0696 I1.8683 J-4.3449
G3 X-42.8875 Y16.0107 I1.8543 J-4.2932
G3 X-43.0203 Y15.9505 I1.8295 J-4.2151
G3 X-43.155 Y15.8891 I1.794 J-4.1114
G3 X-44.3758 Y15.305 I13.0756 J-28.897
G3 X-44.4519 Y15.2665 I0.891 J-1.8556
G3 X-44.5284 Y15.2275 I0.8705 J-1.8017
G1 Y14.2754
G0 Z5.0
G0 X-29.1611 Y22.4109
G1 Z0.0
G3 X-28.152 Y22.2743 I1.2783 J5.6489
G3 X-27.1339 Y22.2928 I0.3673 J7.8289
G1 X-26.844 Y22.3187
G1 X-26.6897 Y22.3353
G1 X-26.3379 Y22.3793
G1 X-26.1506 Y22.4054
G1 X-25.7236 Y22.4699
G1 X-25.2363 Y22.5466
G1 X-25.1743 Y22.5562
G1 X-24.9102 Y22.5964
G2 X-24.6281 Y22.6365 I1.3284 J-8.3314
G2 X-24.3268 Y22.6744 I1.2893 J-9.0329
G2 X-24.0044 Y22.7071 I1.0877 J-9.1292
G1 X-23.9224 Y22.7138
G2 X-23.5718 Y22.7335 I0.5686 J-6.9774
G2 X-23.3906 Y22.7372 I0.2382 J-7.2941
G2 X-22.5628 Y22.6789 I0.0489 J-5.21
G2 X-21.6458 Y22.41 I-0.5453 J-3.5579
G2 X-20.7188 Y21.8009 I-1.4838 J-3.2681
G3 X-20.3447 Y22.1947 I-1.3348 J1.6426
G3 X-20.1127 Y22.6858 I-1.1544 J0.8454
G3 X-20.0937 Y23.0506 I-0.9317 J0.2315
G3 X-20.2981 Y23.499 I-0.8898 J-0.1348
G3 X-20.5064 Y23.694 I-0.8725 J-0.7235
G3 X-20.7845 Y23.8605 I-1.0221 J-1.3911
G3 X-21.1241 Y23.9934 I-1.1398 J-2.4126
G3 X-21.8926 Y24.1278 I-1.0186 J-3.5609
G3 X-22.6728 Y24.1249 I-0.3687 J-5.7667
G3 X-23.19 Y24.0708 I0.801 J-10.1628
G3 X-23.8723 Y23.9536 I1.7389 J-12.1665
G3 X-24.2586 Y23.8692 I3.7369 J-18.0191
G1 X-24.3579 Y23.8457
G3 X-25.4061 Y23.5636 I4.5946 J-19.1598
G1 X-25.6834 Y23.4808
G3 X-25.7537 Y23.4594 I0.3568 J-1.2988
G3 X-25.8987 Y23.4148 I0.7836 J-2.8074
G1 X-26.5588 Y23.206
G1 X-27.3106 Y22.9627
G2 X-28.1704 Y22.6905 I-13.3443 J40.6616
G2 X-29.1611 Y22.4109 I-6.445 J20.9366
G0 Z5.0
G0 X-23.8104 Y36.5293
G1 Z0.0
G3 X-23.1945 Y36.3521 I1.3859 J3.6568
G3 X-22.3874 Y36.267 I0.8587 J4.2771
G3 X-21.8465 Y36.2839 I0.0724 J6.3706
G3 X-21.5389 Y36.3139 I-0.4135 J5.8179
G3 X-20.727 Y36.4441 I-1.1927 J10.0369
G3 X-20.512 Y36.4869 I-1.7977 J9.5831
G1 X-19.3735 Y36.7284
G2 X-18.7208 Y36.8484 I4.1985 J-21.0098
G1 X-18.5515 Y36.874
G2 X-17.7732 Y36.9488 I1.1393 J-7.7659
G3 X-16.8256 Y39.3059 I-26.3857 J11.9765
G1 X-16.7703 Y39.4661
G1 X-16.7124 Y39.6373
G3 X-15.972 Y42.431 I-21.0165 J7.0653
G3 X-15.6972 Y44.3394 I-19.0706 J3.7202
G3 X-15.6273 Y45.4395 I-20.9465 J1.8824
G3 X-16.1142 Y45.5831 I-1.2364 J-3.2953
G3 X-16.612 Y45.6819 I-1.9789 J-8.6651
G1 X-16.9452 Y45.7397
G1 X-17.3893 Y45.8181
G2 X-17.9765 Y45.9463 I1.3172 J7.4427
G1 X-18.1307 Y45.9902
G2 X-18.4736 Y46.1214 I0.7126 J2.3776
G2 X-18.6435 Y46.2205 I0.6175 J1.2536
G1 X-18.6705 Y46.122
G1 X-18.6951 Y46.0229
G3 X-18.739 Y45.8234 I7.4374 J-1.74
G1 X-18.7653 Y45.6899
G3 X-18.7796 Y45.6133 I2.835 J-0.5694
G1 X-18.8157 Y45.4091
G3 X-18.9462 Y44.59 I47.9822 J-8.0676
G1 X-19.0343 Y44.0442
G1 X-19.0886 Y43.7329
G2 X-19.1562 Y43.3782 I-9.1125 J1.5535
G1 X-19.1954 Y43.1897
G1 X-19.2165 Y43.0926
G2 X-19.4998 Y42.0705 I-8.8459 J1.9008
G2 X-19.7318 Y41.5094 I-4.6223 J1.583
G2 X-20.1048 Y40.92 I-2.6548 J1.2676
G2 X-20.3712 Y40.6552 I-1.3817 J1.1232
G2 X-20.7188 Y40.4429 I-0.9751 J1.2059
G2 X-20.8193 Y41.1936 I2.8668 J0.766
G2 X-20.7684 Y41.9493 I4.918 J0.0481
G2 X-20.737 Y42.1634 I7.8572 J-1.0422
G1 X-20.6956 Y42.4071
G2 X-20.57 Y43.0529 I23.7039 J-4.2748
G1 X-20.4973 Y43.4214
G3 X-20.3469 Y44.4093 I-10.5565 J2.1128
G3 X-20.4441 Y44.8252 I-0.6047 J0.078
G3 X-20.8018 Y45.0586 I-0.478 J-0.3415
G3 X-21.5281 Y44.7408 I-0.1466 J-0.6538
G3 X-21.6189 Y44.5208 I0.6982 J-0.4168
G3 X-21.7538 Y43.9515 I21.7109 J-5.4462
G3 X-21.7951 Y43.7608 I4.3147 J-1.034
G3 X-21.8479 Y43.5061 I7.4734 J-1.6825
G3 X-21.9151 Y43.166 I18.8685 J-3.9075
G1 X-22.001 Y42.7117
G1 X-22.1127 Y42.1055
G2 X-22.2651 Y41.2979 I-48.9001 J8.8106
G2 X-22.3582 Y40.8375 I-21.1399 J4.034
G2 X-22.3833 Y40.7189 I-2.0359 J0.3686
G2 X-22.4097 Y40.5966 I-2.4848 J0.4728
G2 X-22.4376 Y40.4705 I-3.3831 J0.6819
G1 X-22.4994 Y40.2019
G1 X-22.5691 Y39.9164
G2 X-23.0311 Y38.4178 I-13.2953 J3.2787
G2 X-23.3858 Y37.5934 I-9.1491 J3.4482
G2 X-23.8961 Y36.7012 I-7.0603 J3.4457
G2 X-23.9323 Y36.6474 I-0.7233 J0.4482
G2 X-23.9693 Y36.5936 I-0.6861 J0.4319
G3 X-23.8104 Y36.5293 I1.5448 J3.5925
G0 Z5.0
G0 X-33.9839 Y41.6229
G1 Z0.0
G3 X-33.9365 Y41.8208 I-0.4007 J0.2006
G3 X-33.969 Y41.9847 I-0.4217 J0.0016
G3 X-34.0546 Y42.1283 I-0.5568 J-0.2349
G3 X-34.3069 Y42.3399 I-0.706 J-0.5854
G3 X-34.9082 Y42.5526 I-0.888 J-1.5542
G3 X-35.3274 Y42.5888 I-0.4351 J-2.5918
G3 X-35.8152 Y42.5398 I-0.0068 J-2.3862
G3 X-36.2784 Y42.3793 I0.3757 J-1.8322
G3 X-36.5452 Y42.188 I0.487 J-0.9607
G3 X-36.6589 Y42.0361 I0.4604 J-0.4633
G3 X-36.7146 Y41.8208 I0.3998 J-0.2183
G3 X-36.675 Y41.6386 I0.448 J0.002
G3 X-36.5726 Y41.4829 I0.5361 J0.2409
G3 X-36.2795 Y41.2629 I0.7628 J0.7111
G3 X-36.056 Y41.1675 I0.7928 J1.5481
G3 X-35.7461 Y41.0885 I0.6233 J1.7979
G3 X-35.3274 Y41.0529 I0.401 J2.2308
G3 X-34.8391 Y41.1024 I-0.0111 J2.5375
G3 X-34.3755 Y41.2634 I-0.3774 J1.8353
G3 X-34.1078 Y41.4542 I-0.4621 J0.9317
G3 X-33.9931 Y41.6055 I-0.4213 J0.4385
G3 X-33.9839 Y41.6229 I-0.3915 J0.218
G0 Z5.0
G0 X-41.2356 Y38.2201
G1 Z0.0
G3 X-41.3181 Y38.3638 I-0.9098 J-0.4269
G3 X-41.7571 Y38.7641 I-1.0784 J-0.7417
G3 X-42.1218 Y38.9185 I-0.8581 J-1.5194
G3 X-42.6392 Y38.9906 I-0.5201 J-1.8388
G3 X-43.2228 Y38.8975 I-0.0104 J-1.8103
G3 X-43.7394 Y38.6106 I0.4802 J-1.4737
G3 X-43.9971 Y38.3094 I0.7585 J-0.9096
G3 X-44.1417 Y37.7968 I0.8508 J-0.5166
G3 X-43.9631 Y37.2277 I1.0195 J0.0075
G3 X-43.5237 Y36.8244 I1.1084 J0.7664
G3 X-43.1585 Y36.6675 I0.8769 J1.538
G3 X-42.6392 Y36.5936 I0.517 J1.7709
G3 X-42.0545 Y36.6879 I0.0074 J1.8138
G3 X-41.5385 Y36.9787 I-0.4758 J1.4474
G3 X-41.2829 Y37.2828 I-0.8183 J0.9473
G3 X-41.1404 Y37.7968 I-0.8672 J0.5172
G3 X-41.2356 Y38.2201 I-1.005 J-0.0036
G0 Z5.0
G0 X13.3667 Y10.1508
G1 Z0.0
G2 X11.4195 Y6.2553 I-102.6256 J48.8643
G2 X11.3543 Y6.1308 I-3.5962 J1.8046
G1 X11.0544 Y5.5629
G2 X8.5489 Y1.0776 I-106.8334 J56.7365
G2 X3.0149 Y-7.5773 I-116.8132 J68.5942
G1 X2.6359 Y-8.1212
G2 X0.8726 Y-10.5857 I-115.1372 J80.5202
G1 X0.4094 Y-11.2158
G1 X-0.072 Y-11.8638
G1 X-0.5725 Y-12.5301
G3 X2.6018 Y-11.2479 I-61.4069 J156.5943
G3 X5.7472 Y-9.8964 I-53.4729 J128.791
G1 X6.6393 Y-9.4952
G3 X9.0011 Y-8.3882 I-44.1815 J97.3343
G3 X9.3039 Y-8.2412 I-9.0713 J19.0641
G3 X9.6159 Y-8.0883 I-8.219 J17.1741
G3 X9.9375 Y-7.9294 I-7.5558 J15.6925
G3 X10.2688 Y-7.7641 I-7.0209 J14.488
G3 X13.7599 Y-5.9182 I-40.9665 J81.7013
G3 X13.8684 Y-5.8575 I-2.2951 J4.2298
G3 X15.8366 Y-4.7171 I-36.3585 J65.0181
G3 X15.9594 Y-4.6433 I-2.031 J3.5213
G3 X16.0831 Y-4.5687 I-2.0191 J3.4875
G1 X16.5922 Y-4.2582
G1 X17.1151 Y-3.9333
G3 X22.5031 Y-0.179 I-35.2206 J56.2907
G1 X22.8319 Y0.0777
G2 X24.5405 Y2.6477 I15.7213 J-8.5994
G2 X26.632 Y4.9171 I16.8235 J-13.406
G2 X27.284 Y5.5116 I15.6182 J-16.4711
G2 X28.0528 Y6.1638 I22.3166 J-25.5292
G1 X28.2549 Y6.3276
G1 X28.4651 Y6.4948
G1 X28.6835 Y6.6654
G2 X31.0934 Y8.3712 I22.4772 J-29.1987
G2 X32.5222 Y9.2667 I28.8996 J-44.5278
G2 X32.6133 Y9.3215 I0.8968 J-1.386
G2 X32.7051 Y9.3766 I0.9048 J-1.4048
G2 X32.7978 Y9.4319 I0.9132 J-1.4243
G2 X33.1813 Y9.6584 I10.8631 J-17.9551
G1 X33.5788 Y9.8892
G2 X34.4316 Y10.3722 I27.092 J-46.8344
G1 X34.8741 Y10.6172
G1 X35.3322 Y10.8671
G2 X35.4479 Y10.9297 I1.4184 J-2.4835
G2 X35.5645 Y10.9926 I1.4679 J-2.5823
G2 X35.6822 Y11.0559 I1.5235 J-2.693
G2 X37.8419 Y12.1885 I64.7993 J-120.9358
G1 X38.9988 Y12.781
G1 X39.2928 Y12.931
G1 X39.8997 Y13.2402
G1 X41.1925 Y13.901
G1 X41.8581 Y14.2445
G1 X42.5434 Y14.6018
G1 X43.2485 Y14.9748
G1 X43.4257 Y15.0696
G1 X43.6041 Y15.1655
G3 X45.1155 Y16.0006 I-40.0627 J74.2923
G3 X45.496 Y16.2186 I-12.6007 J22.4347
G3 X45.8066 Y16.4461 I-0.7499 J1.3494
G3 X45.8858 Y16.5479 I-0.3426 J0.3484
G3 X45.907 Y16.6199 I-0.137 J0.0794
G3 X45.8512 Y16.7006 I-0.087 J-0.0005
G3 X45.7947 Y16.7179 I-0.0917 J-0.1979
G3 X45.6557 Y16.7208 I-0.0797 J-0.4926
G3 X45.5197 Y16.699 I0.0963 J-1.0361
G3 X45.2357 Y16.6127 I0.5283 J-2.2488
G1 X44.7574 Y16.4363
G3 X44.5981 Y16.3771 I1.2216 J-3.5357
G1 X43.9615 Y16.1389
G3 X42.6916 Y15.6537 I32.9502 J-88.1307
G3 X42.5226 Y15.588 I2.9405 J-7.8157
G3 X42.3425 Y15.5177 I3.6501 J-9.6164
G3 X42.1505 Y15.4424 I5.1215 J-13.341
G3 X39.0979 Y14.1896 I37.7264 J-96.2727
G1 X38.6941 Y14.015
G3 X36.5557 Y13.0486 I31.5676 J-72.6968
G1 X36.2819 Y12.9193
G1 X35.9998 Y12.7846
G1 X35.4 Y12.4932
G3 X32.2536 Y10.8354 I26.8008 J-54.6819
G3 X31.8551 Y10.6076 I8.9313 J-16.0863
G3 X30.0597 Y9.5212 I23.8448 J-41.4338
G1 X29.6041 Y9.2283
G3 X27.5684 Y7.8179 I24.1762 J-37.07
G3 X26.5188 Y7.0153 I20.5186 J-27.9187
G3 X24.2335 Y5.0377 I21.2289 J-26.8411
G1 X23.9564 Y4.7719
G1 X23.6781 Y4.4984
G3 X21.3033 Y1.8312 I20.7869 J-20.8986
G2 X21.0589 Y2.4002 I4.8568 J2.4233
G2 X20.8958 Y2.9976 I3.684 J1.3267
G2 X20.8772 Y4.233 I3.4343 J0.6696
G2 X21.1002 Y5.0289 I3.7944 J-0.6337
G2 X21.6191 Y5.9971 I4.7433 J-1.9191
G2 X21.9917 Y6.5006 I5.8413 J-3.9334
G2 X22.4598 Y7.0372 I8.7865 J-7.1917
G2 X22.4905 Y7.0699 I0.2709 J-0.2237
G2 X22.5216 Y7.1028 I0.2729 J-0.2273
G2 X22.5531 Y7.1357 I0.275 J-0.2309
G2 X22.684 Y7.2703 I3.4955 J-3.2682
G1 X22.8208 Y7.4071
G2 X23.4618 Y8.0059 I13.7766 J-14.1015
G2 X24.2142 Y8.6538 I27.136 J-30.7546
G1 X24.62 Y8.9902
G1 X24.8298 Y9.1625
G1 X25.046 Y9.3396
G3 X26.0182 Y10.1465 I-58.8668 J71.9215
G1 X26.0788 Y10.1981
G1 X26.1396 Y10.2504
G1 X26.3885 Y10.4671
G1 X26.5136 Y10.5785
G1 X26.7681 Y10.811
G3 X27.2906 Y11.3242 I-7.5203 J8.1798
G3 X27.3542 Y11.3911 I-0.7475 J0.7738
G3 X27.8655 Y11.9861 I-5.8336 J5.5296
G3 X28.3249 Y12.6855 I-3.9673 J3.1071
G2 X23.0331 Y11.7841 I-120.7447 J692.8942
G1 X17.7382 Y10.9011
G1 X16.226 Y10.6454
G3 X16.034 Y10.6127 I1.3198 J-8.3271
G3 X15.8389 Y10.5794 I1.3197 J-8.3198
G3 X15.6408 Y10.5455 I1.3196 J-8.3118
G3 X15.4395 Y10.511 I1.3196 J-8.3034
G3 X13.6002 Y10.1919 I43.9507 J-258.7621
G3 X13.3667 Y10.1508 I1.3199 J-8.1871
G0 Z5.0
G0 X15.7142 Y14.4169
G1 Z0.0
G1 X16.6171 Y13.9201
G1 X17.609 Y14.1412
G1 X18.5997 Y14.3672
G1 X19.2596 Y14.5203
G1 X20.1388 Y14.7273
G3 X23.6497 Y15.5801 I-76.6793 J323.3475
G3 X23.876 Y15.6361 I-4.0756 J16.9455
G3 X24.1096 Y15.694 I-3.9239 J16.3218
G3 X24.3507 Y15.7539 I-3.7936 J15.7883
G1 X26.9211 Y16.3961
G2 X30.3486 Y17.2507 I690.1592 J-2760.8626
G2 X30.5664 Y17.3044 I2.1301 J-8.162
G2 X30.7877 Y17.3589 I2.1173 J-8.1183
G2 X31.0125 Y17.4142 I2.1044 J-8.0745
G1 X31.9718 Y17.6486
G2 X37.1013 Y18.8447 I62.1743 J-255.0438
G2 X37.2633 Y18.8804 I1.1621 J-4.8865
G2 X37.4267 Y18.9163 I1.1536 J-4.8656
G2 X37.5914 Y18.9523 I1.145 J-4.8445
G2 X37.7574 Y18.9884 I1.1362 J-4.8233
G1 X38.4431 Y19.1358
G1 X39.1515 Y19.2849
G1 X39.8835 Y19.4354
G1 X40.6399 Y19.5869
G2 X44.1087 Y20.224 I26.2458 J-133.1392
G3 X43.5295 Y23.4045 I-26.0789 J-3.1059
G3 X42.6052 Y26.5023 I-31.6049 J-7.7431
G3 X41.8375 Y28.5161 I-41.2687 J-14.5799
G3 X40.6697 Y31.1403 I-48.3307 J-19.9355
G1 X40.5909 Y31.3049
G1 X40.5105 Y31.4718
G3 X40.162 Y32.1813 I-35.6738 J-17.0811
G1 X39.9791 Y32.5459
G3 X39.1207 Y34.2005 I-71.7884 J-36.1931
G1 X39.0656 Y34.3042
G1 X39.0099 Y34.4086
G1 X38.954 Y34.2867
G1 X38.9362 Y34.2456
G1 X38.8689 Y34.0798
G1 X38.8508 Y34.032
G1 X38.8047 Y33.9036
G3 X38.646 Y33.3822 I9.536 J-3.1866
G1 X38.6058 Y33.2317
G1 X38.5849 Y33.1513
G1 X38.4744 Y32.7225
G1 X38.444 Y32.6084
G2 X38.2584 Y32.0069 I-6.7614 J1.757
G2 X37.8943 Y31.2493 I-3.6983 J1.3114
G2 X37.1994 Y30.2713 I-7.3095 J4.4575
G1 X37.0887 Y30.1403
G2 X36.091 Y29.2007 I-4.8605 J4.1614
G2 X35.3148 Y28.7151 I-3.0857 J4.07
G2 X35.0941 Y28.6099 I-2.3536 J4.6506
G2 X33.8399 Y28.2508 I-1.8681 J4.1545
G2 X32.0988 Y28.3482 I-0.6126 J4.6598
G2 X31.1528 Y28.6762 I1.3532 J5.431
G2 X30.161 Y29.2425 I2.6046 J5.7125
G2 X29.1683 Y30.0787 I4.1327 J5.9138
G2 X28.2281 Y31.2071 I5.864 J5.8421
G2 X27.404 Y32.6407 I7.8449 J5.4633
G1 X27.3171 Y32.8317
G1 X27.133 Y32.338
G1 X26.9482 Y31.8445
G1 X26.5752 Y30.8587
G1 X26.3234 Y30.2027
G1 X26.2906 Y30.1181
G1 X25.9377 Y29.2176
G2 X24.4269 Y25.6565 I-68.4798 J26.9519
G2 X24.2098 Y25.1886 I-35.7754 J16.3163
G2 X22.9742 Y22.7302 I-46.1006 J21.6304
G2 X22.2059 Y21.3581 I-36.0521 J19.2861
G2 X22.0002 Y21.0083 I-16.6377 J9.5485
G2 X19.626 Y17.3882 I-42.1849 J25.0781
G2 X19.6612 Y18.6745 I15.0223 J0.2325
G2 X19.8013 Y19.9536 I16.2725 J-1.1357
G2 X19.9434 Y20.7996 I19.3218 J-2.8087
G2 X20.0392 Y21.2803 I17.9385 J-3.327
G2 X20.0655 Y21.4041 I1.9133 J-0.3419
G2 X20.3797 Y22.7158 I28.4423 J-6.1183
G1 X20.4722 Y23.0633
G2 X21.0053 Y24.9043 I57.1293 J-15.5464
G1 X21.3252 Y25.9513
G1 X21.4079 Y26.2215
G1 X21.583 Y26.798
G3 X21.9686 Y28.1195 I-57.4871 J17.4921
G3 X22.3612 Y29.6424 I-37.5783 J10.499
G3 X22.538 Y30.4624 I-26.9732 J6.2431
G1 X22.5783 Y30.6716
G3 X22.726 Y31.5688 I-16.6213 J3.1971
G3 X22.8799 Y33.6445 I-14.9521 J2.1521
G3 X22.8319 Y34.7564 I-12.4854 J0.0181
G3 X22.1098 Y33.0613 I43.7086 J-19.6195
G3 X21.4447 Y31.3433 I51.7314 J-21.0167
G3 X21.0272 Y30.1882 I67.1951 J-24.9395
G1 X20.7963 Y29.5254
G1 X20.5382 Y28.7659
G3 X19.8728 Y26.7333 I119.9946 J-40.4119
G3 X19.7886 Y26.4704 I12.8141 J-4.2497
G1 X18.8975 Y23.6653
G2 X18.3812 Y22.0648 I-206.2364 J65.6501
G2 X18.3146 Y21.8618 I-8.316 J2.6171
G2 X18.2466 Y21.6558 I-8.1633 J2.5784
G2 X17.6076 Y19.778 I-84.419 J27.678
G2 X17.5661 Y19.6602 I-4.5021 J1.5196
G2 X17.5241 Y19.5415 I-4.4297 J1.5009
G2 X17.4816 Y19.4219 I-4.3578 J1.4823
G2 X17.1108 Y18.4043 I-67.2742 J23.9386
G2 X17.063 Y18.2765 I-3.722 J1.3191
G2 X17.0145 Y18.1477 I-3.6572 J1.3026
G1 X16.8116 Y17.6173
G1 X16.5972 Y17.0718
G2 X15.5406 Y14.6083 I-48.6597 J19.4117
G2 X15.5052 Y14.532 I-1.6382 J0.7129
G1 X15.7142 Y14.4169
G0 Z5.0
G0 X-51.8551 Y-36.773
G1 Z0.0
G1 X-52.5444 Y-36.7876
G1 X-53.2339 Y-36.7999
G1 X-53.431 Y-36.803
G1 X-53.9563 Y-36.8102
G2 X-54.6568 Y-36.8178 I-2.1711 J168.9613
G2 X-57.459 Y-36.8226 I-1.7482 J202.0367
G2 X-63.0619 Y-36.7032 I0.962 J176.6098
G2 X-74.2402 Y-35.8991 I5.8317 J159.1709
G1 X-84.8173 Y-40.6278
G2 X-86.2865 Y-44.4611 I-67.7541 J23.7703
G2 X-87.9984 Y-48.1924 I-53.8609 J22.453
G2 X-89.2945 Y-50.6034 I-46.116 J23.2354
G2 X-91.2312 Y-53.6972 I-40.3324 J23.0947
G2 X-91.2635 Y-53.7445 I-0.9239 J0.597
G1 X-91.5328 Y-54.1333
G1 X-91.8151 Y-54.5317
G2 X-95.097 Y-58.5743 I-35.1673 J25.1969
G3 X-94.6294 Y-58.4185 I-8.4315 J26.0853
G3 X-94.1623 Y-58.2609 I-10.7182 J32.5309
G3 X-93.2301 Y-57.9403 I-33.9134 J100.1445
G3 X-93.1059 Y-57.897 I-0.8932 J2.7616
G3 X-92.9735 Y-57.8507 I-0.9255 J2.8583
G3 X-92.8324 Y-57.8012 I-0.9592 J2.9584
G1 X-92.0807 Y-57.5343
G3 X-91.0809 Y-57.1716 I-33.9502 J95.1321
G3 X-87.1103 Y-55.6449 I-51.1024 J138.8397
G3 X-79.3052 Y-52.2612 I-58.7845 J146.2869
G1 X-78.2781 Y-51.7797
G3 X-72.853 Y-49.103 I-81.7549 J172.5365
G3 X-72.6835 Y-49.0158 I-4.573 J9.0996
G3 X-72.5128 Y-48.9278 I-4.7848 J9.4901
G3 X-72.3408 Y-48.8389 I-5.0253 J9.934
G3 X-72.1676 Y-48.7492 I-5.3016 J10.4448
G3 X-71.816 Y-48.5663 I-8.1615 J16.1239
G3 X-71.4591 Y-48.3798 I-9.4901 J18.5935
G3 X-71.097 Y-48.1896 I-11.6832 J22.6835
G3 X-70.7295 Y-47.9956 I-16.4714 J31.6476
G3 X-62.9858 Y-43.6846 I-101.5003 J191.4281
G1 X-62.5002 Y-43.4003
G1 X-61.4998 Y-42.8096
G3 X-56.9643 Y-40.0472 I-127.466 J214.3883
G3 X-51.8551 Y-36.773 I-141.5114 J226.4413
G0 Z5.0
G0 X-86.6734 Y-39.2813
G1 Z0.0
G3 X-86.7028 Y-39.1575 I-0.3967 J-0.0286
G3 X-86.9845 Y-38.8651 I-0.4935 J-0.1935
G3 X-87.2608 Y-38.8742 I-0.1286 J-0.2933
G3 X-89.0018 Y-39.8458 I24.8586 J-46.5887
G3 X-89.0574 Y-39.8782 I0.4728 J-0.8761
G3 X-89.1148 Y-39.9116 I0.4833 J-0.8942
G3 X-89.174 Y-39.9463 I0.4942 J-0.9128
G1 X-89.8028 Y-40.319
G3 X-92.2871 Y-41.8611 I54.7629 J-90.9919
G3 X-93.9267 Y-42.9154 I167.4376 J-262.1998
G3 X-94.0306 Y-42.9826 I2.6198 J-4.1644
G1 X-94.9807 Y-43.5973
G2 X-97.5245 Y-45.2195 I-107.8569 J166.3182
G1 X-97.8551 Y-45.4251
G1 X-98.5631 Y-45.8593
G1 X-98.9302 Y-46.0807
G1 X-99.1171 Y-46.1925
G1 X-99.3074 Y-46.3054
G2 X-101.065 Y-47.3061 I-29.0828 J49.0368
G2 X-102.0182 Y-47.8113 I-16.7915 J30.5298
G2 X-106.211 Y-50.0857 I-69.8467 J123.7594
G2 X-110.4647 Y-52.2441 I-101.5199 J194.7987
G2 X-110.7406 Y-52.3805 I-6.1575 J12.1048
G2 X-111.0255 Y-52.5211 I-6.6364 J13.0947
G2 X-111.3198 Y-52.6659 I-7.2428 J14.3475
G2 X-111.6237 Y-52.8151 I-8.0467 J16.0075
G2 X-111.9375 Y-52.9688 I-9.1871 J18.3609
G2 X-112.2616 Y-53.1271 I-10.997 J22.0929
G2 X-112.5963 Y-53.2903 I-14.5836 J29.4822
G2 X-112.9419 Y-53.4585 I-29.7171 J60.626
G1 X-114.5231 Y-54.2245
G1 X-118.743 Y-56.2595
G1 X-119.2872 Y-56.523
G1 X-119.8485 Y-56.7956
G1 X-121.0449 Y-57.3795
G1 X-122.3187 Y-58.007
G1 X-122.6418 Y-58.1673
G1 X-122.9698 Y-58.3305
G1 X-123.3028 Y-58.4968
G1 X-123.6408 Y-58.6663
G1 X-123.9838 Y-58.839
G1 X-124.3321 Y-59.0149
G1 X-124.6855 Y-59.1944
G1 X-125.0442 Y-59.3774
G3 X-125.7836 Y-59.7574 I97.3487 J-190.3047
G3 X-127.3549 Y-60.5795 I106.1619 J-204.8039
G1 X-128.1624 Y-61.0107
G3 X-131.8155 Y-63.0521 I59.0628 J-109.9831
G1 X-132.2741 Y-63.3207
G1 X-132.7387 Y-63.5959
G1 X-133.209 Y-63.8781
G1 X-133.6853 Y-64.1674
G3 X-135.6976 Y-65.4342 I52.207 J-85.1648
G1 X-136.2031 Y-65.7646
G1 X-136.7141 Y-66.1042
G1 X-137.2306 Y-66.4533
G3 X-134.626 Y-66.0005 I-4.8842 J35.8146
G3 X-132.0555 Y-65.3831 I-9.1818 J43.8892
G3 X-130.3612 Y-64.8978 I-15.0416 J55.7115
G1 X-129.912 Y-64.7597
G3 X-128.8892 Y-64.4314 I-14.9949 J48.4769
G1 X-128.346 Y-64.2495
G3 X-125.4745 Y-63.2078 I-24.341 J71.5737
G3 X-121.7094 Y-61.6588 I-33.5224 J86.8322
G3 X-116.7917 Y-59.3669 I-45.7345 J104.5532
G1 X-116.1649 Y-59.055
G3 X-109.5853 Y-55.5365 I-64.0616 J127.7066
G1 X-109.381 Y-55.4204
G1 X-109.1752 Y-55.303
G3 X-100.5674 Y-50.0282 I-82.9023 J144.9448
G3 X-99.4807 Y-49.3098 I-76.5685 J117.0188
G3 X-94.5932 Y-45.9119 I-81.8319 J122.9195
G3 X-92.0494 Y-44.0128 I-64.7003 J89.3184
G3 X-89.4032 Y-41.9002 I-55.1272 J71.7628
G3 X-88.7464 Y-41.3451 I-31.9917 J38.5181
G1 X-88.4184 Y-41.0617
G3 X-87.7594 Y-40.4773 I-30.8622 J35.4671
G3 X-87.1024 Y-39.8696 I-33.6499 J37.0354
G1 X-86.7774 Y-39.5567
G3 X-86.6768 Y-39.3689 I-0.2299 J0.244
G3 X-86.6734 Y-39.2813 I-0.3933 J0.059
G0 Z5.0
M5
M30
