( Made using CamBam - http://www.cambam.co.uk )
( _2014_1_20_car 1/20/2014 11:49:08 PM )
( T0 : 0.0 )
G21 G90 G64 G40
G0 Z5.0
( T0 : 0.0 )
T0 M6
( 13-19 )
G17
M3 S1000
G0 X-189.2273 Y43.857
G1 F1.0 Z0.0
G2 X-187.6557 Y45.3177 I8.4508 J-7.5169
G2 X-185.8641 Y46.4985 I9.096 J-11.8512
G1 X-185.6138 Y46.6375
G1 X-185.3446 Y46.7814
G2 X-183.8765 Y47.4822 I10.3945 J-19.8882
G1 X-183.6837 Y47.5654
G2 X-181.5987 Y48.3711 I13.936 J-32.9626
G2 X-181.0356 Y48.5662 I13.8991 J-39.2035
G1 X-180.4331 Y48.7676
G1 X-180.1214 Y48.8693
G1 X-179.4556 Y49.0821
G1 X-179.2862 Y49.1355
G1 X-178.5636 Y49.3607
G1 X-176.9131 Y49.8717
G1 X-176.8092 Y49.9043
G2 X-175.8613 Y50.332 I78.5733 J-172.8849
G2 X-174.9133 Y50.7595 I77.5866 J-170.7879
G2 X-174.2812 Y51.0444 I62.6398 J-138.1249
G2 X-173.4384 Y51.4241 I71.6923 J-157.9921
G2 X-172.3146 Y51.9302 I81.8199 J-180.194
G2 X-171.6723 Y52.2192 I61.0909 J-134.872
G2 X-170.9383 Y52.5495 I64.7811 J-143.0035
G2 X-170.0993 Y52.9268 I68.6226 J-151.4689
G2 X-169.1404 Y53.3578 I72.608 J-160.2521
G2 X-168.0443 Y53.8502 I76.7267 J-169.3309
G2 X-167.4598 Y54.1127 I55.405 J-122.6106
G2 X-166.8362 Y54.3926 I56.8403 J-125.7985
G2 X-166.1709 Y54.6911 I58.2913 J-129.0229
G2 X-165.4613 Y55.0094 I59.7562 J-132.2805
G2 X-164.7044 Y55.3487 I61.2333 J-135.5676
G2 X-163.8969 Y55.7106 I62.7207 J-138.88
G2 X-163.0355 Y56.0964 I64.2162 J-142.2135
G2 X-162.1165 Y56.5078 I65.7176 J-145.5635
G2 X-161.1363 Y56.9464 I67.2226 J-148.9251
G2 X-160.0905 Y57.414 I68.7286 J-152.2931
G2 X-159.5508 Y57.6553 I48.8909 J-108.6596
G2 X-158.9936 Y57.9043 I49.4063 J-109.8244
G2 X-158.4184 Y58.1612 I49.9207 J-110.9883
G2 X-157.8246 Y58.4263 I50.4338 J-112.1506
G2 X-157.2116 Y58.7 I50.9456 J-113.3111
G2 X-156.5788 Y58.9823 I51.4556 J-114.469
G2 X-155.9255 Y59.2737 I51.9636 J-115.624
G2 X-134.9991 Y68.5472 I1941.4442 J-4352.7649
G2 X-134.334 Y68.84 I43.7474 J-98.4751
G2 X-133.6583 Y69.1373 I43.8784 J-98.8
G2 X-132.9719 Y69.4392 I44.0076 J-99.1215
G2 X-88.9377 Y88.5263 I1791.6422 J-4073.0112
G2 X-88.2425 Y88.8231 I33.5669 J-77.6709
G2 X-58.5343 Y101.3656 I1623.6764 J-3804.3805
G2 X-58.0675 Y101.5605 I23.6203 J-55.9255
G2 X-57.5988 Y101.7561 I23.6164 J-55.9336
G2 X-17.5131 Y118.2183 I1458.3023 J-3493.9501
G2 X-16.8828 Y118.4729 I23.0227 J-56.0968
G2 X-16.2499 Y118.7283 I23.0106 J-56.0933
G2 X-15.6146 Y118.9846 I22.9983 J-56.0895
G2 X-14.9767 Y119.2419 I22.986 J-56.0856
G2 X-14.3362 Y119.5 I22.9735 J-56.0815
G2 X-13.6932 Y119.759 I22.9609 J-56.0772
G2 X-13.0476 Y120.0188 I22.9482 J-56.0729
G2 X-12.3994 Y120.2796 I22.9353 J-56.0683
G2 X-11.7487 Y120.5413 I22.9224 J-56.0637
G2 X-11.4226 Y120.6724 I16.1273 J-39.6512
G2 X44.4082 Y142.5607 I1291.1483 J-3211.2007
G2 X44.8467 Y142.7282 I15.1826 J-39.1006
G2 X45.2862 Y142.8959 I15.1745 J-39.0949
G2 X45.7265 Y143.0639 I15.1664 J-39.0892
G1 X46.2192 Y143.2525
G1 X46.7114 Y143.4422
G1 X47.6943 Y143.8259
G1 X48.3479 Y144.086
G1 X48.7205 Y144.237
G3 X49.7067 Y144.657 I-9.8726 J24.5502
G3 X49.9628 Y144.7841 I-1.1462 J2.6301
G3 X50.0216 Y144.8273 I-0.1184 J0.2233
G3 X50.0146 Y144.8384 I-0.0056 J0.0042
G3 X50.004 Y144.8392 I-0.0083 J-0.0398
G3 X49.979 Y144.8372 I-0.0058 J-0.0882
G1 X49.9076 Y144.824
G3 X49.6705 Y144.7613 I0.6426 J-2.9113
G1 X49.5378 Y144.722
G1 X49.4762 Y144.7033
G1 X49.3405 Y144.661
G1 X49.2534 Y144.6334
G3 X48.8975 Y144.5176 I4.9345 J-15.7687
G3 X48.8584 Y144.5046 I0.0943 J-0.3502
G1 X48.7927 Y144.4828
G1 X48.5914 Y144.4153
G1 X48.3822 Y144.3444
G3 X48.3259 Y144.3252 I0.1546 J-0.5453
G1 X47.8913 Y144.1755
G1 X47.5906 Y144.0706
G1 X46.9653 Y143.8501
G1 X46.3306 Y143.6234
G1 X46.0406 Y143.519
G1 X45.6891 Y143.3919
G1 X45.4843 Y143.3176
G3 X45.4042 Y143.2885 I0.2931 J-0.931
G3 X45.3286 Y143.261 I0.5101 J-1.5195
G1 X43.8527 Y142.7249
G1 X42.3772 Y142.1873
G1 X41.3939 Y141.8281
G1 X37.4621 Y140.3873
G1 X34.8419 Y139.4238
G3 X34.5038 Y139.2993 I12.3734 J-34.1289
G1 X30.8987 Y137.9702
G1 X28.8391 Y137.2095
G1 X26.4855 Y136.3393
G1 X20.2107 Y134.0152
G1 X16.6258 Y132.6852
G1 X7.0682 Y129.133
G1 X4.5199 Y128.1846
G1 X-1.3042 Y126.0154
G1 X-2.0438 Y125.7398
G1 X-8.8046 Y123.2186
G1 X-12.41 Y121.8731
G1 X-14.2708 Y121.1783
G1 X-18.2402 Y119.6956
G1 X-19.2483 Y119.3188
G1 X-23.549 Y117.7108
G1 X-118.914 Y79.1456
G1 X-120.7339 Y78.386
G1 X-122.5536 Y77.6258
G1 X-126.1918 Y76.1026
G1 X-128.6161 Y75.0842
G1 X-131.8464 Y73.7217
G1 X-133.6911 Y72.9402
G1 X-135.7981 Y72.044
G1 X-138.2041 Y71.0154
G1 X-140.9511 Y69.8334
G3 X-141.2997 Y69.6828 I10.6656 J-25.1609
G3 X-141.6538 Y69.5296 I10.948 J-25.7961
G3 X-142.0134 Y69.3739 I11.2469 J-26.4677
G3 X-142.3787 Y69.2155 I11.5641 J-27.1792
G3 X-142.7497 Y69.0545 I11.9013 J-27.9346
G3 X-143.1266 Y68.8908 I12.2607 J-28.7387
G3 X-143.5093 Y68.7244 I12.645 J-29.5971
G3 X-143.8981 Y68.5551 I13.0569 J-30.5161
G3 X-144.2929 Y68.3829 I13.5 J-31.5034
G3 X-144.694 Y68.2079 I13.9784 J-32.568
G3 X-145.1013 Y68.0298 I14.4969 J-33.7207
G3 X-148.821 Y66.3925 I425.3315 J-971.3161
G3 X-149.2928 Y66.1833 I23.4377 J-53.4874
G3 X-149.7719 Y65.9704 I25.3221 J-57.6446
G3 X-150.2585 Y65.7539 I27.6504 J-62.7814
G3 X-150.7527 Y65.5335 I30.633 J-69.3632
G3 X-151.7724 Y65.0775 I52.474 J-118.7018
G3 X-153.9454 Y64.0994 I192.5537 J-430.6969
G1 X-155.0656 Y63.5917
G1 X-156.221 Y63.0654
G1 X-157.4126 Y62.5199
G1 X-158.6414 Y61.9541
G1 X-159.2627 Y61.6631
G1 X-159.8811 Y61.3661
G1 X-160.2919 Y61.1652
G1 X-160.8382 Y60.8943
G1 X-161.5643 Y60.5286
G1 X-161.9783 Y60.3175
G1 X-162.1988 Y60.2044
G3 X-162.4338 Y60.0833 I4.6402 J-9.2973
G1 X-162.9702 Y59.8053
G1 X-163.582 Y59.4854
G1 X-164.28 Y59.1173
G1 X-165.0763 Y58.6939
G3 X-167.1934 Y57.5536 I131.5892 J-246.8436
G1 X-168.4002 Y56.8964
G1 X-168.7113 Y56.7263
G1 X-170.1325 Y55.9466
G1 X-170.499 Y55.7449
G1 X-174.405 Y53.588
G1 X-174.909 Y53.3095
G1 X-175.9844 Y52.716
G1 X-177.1321 Y52.0841
G1 X-177.7248 Y51.7587
G2 X-180.4398 Y50.2811 I-241.4266 J440.3653
G1 X-181.1425 Y49.9036
G1 X-181.4999 Y49.7126
G1 X-182.2387 Y49.3203
G1 X-183.0032 Y48.9188
G2 X-184.6423 Y48.078 I-64.8462 J124.3875
G1 X-184.8499 Y47.974
G3 X-187.0141 Y48.4155 I-15.5886 J-70.8863
G3 X-187.1589 Y48.4427 I-0.59 J-2.7504
G3 X-187.9318 Y48.582 I-8.3499 J-44.0992
G3 X-187.9809 Y48.5906 I-0.1121 J-0.499
G3 X-191.1381 Y49.0553 I-10.0296 J-57.1777
G1 X-191.3427 Y49.0793
G3 X-191.5539 Y49.1032 I-1.3887 J-11.3138
G1 X-192.0048 Y49.1514
G3 X-194.4161 Y49.3367 I-4.7753 J-46.354
G3 X-194.5696 Y49.3441 I-0.4267 J-7.2941
G3 X-197.8459 Y49.3527 I-1.731 J-35.4399
G3 X-199.7138 Y49.2073 I1.1765 J-27.1971
G3 X-201.8302 Y48.8713 I2.4206 J-22.0816
G3 X-204.1931 Y48.209 I3.5131 J-17.0791
G3 X-205.406 Y47.7081 I4.5339 J-12.6981
G3 X-206.0124 Y47.4039 I5.0542 J-10.8304
G1 X-206.1626 Y47.3221
G3 X-207.397 Y46.5335 I5.4608 J-9.9081
G3 X-208.5901 Y45.5098 I6.0647 J-8.2751
G3 X-208.6595 Y45.4395 I0.7698 J-0.8302
G1 X-208.316 Y45.4127
G1 X-207.9723 Y45.3875
G1 X-207.7431 Y45.3717
G3 X-206.8259 Y45.3146 I3.4979 J48.8313
G1 X-206.2141 Y45.2817
G1 X-205.398 Y45.2432
G1 X-204.3097 Y45.1994
G1 X-203.6877 Y45.1771
G1 X-203.3559 Y45.1659
G1 X-201.5866 Y45.1087
G1 X-200.5755 Y45.0749
G1 X-199.4201 Y45.0313
G2 X-199.122 Y45.0187 I-0.4118 J-13.3393
G2 X-195.9451 Y44.8323 I-3.802 J-91.9491
G2 X-195.8451 Y44.8244 I-0.1683 J-2.7682
G2 X-195.7444 Y44.8163 I-0.1691 J-2.7319
G2 X-195.6429 Y44.808 I-0.17 J-2.6964
G2 X-193.7896 Y44.6255 I-4.6314 J-56.5351
G2 X-192.804 Y44.5017 I-5.7973 J-50.1454
G2 X-190.5624 Y44.1371 I-5.3584 J-40.0169
G2 X-189.376 Y43.8907 I-5.7752 J-30.7921
G2 X-189.3018 Y43.874 I-0.2076 J-1.0922
G2 X-189.2273 Y43.857 I-0.2087 J-1.0872
G0 Z5.0
G0 X-189.6326 Y42.0254
G1 Z0.0
G3 X-190.4704 Y41.921 I0.0093 J-3.4888
G3 X-191.2633 Y41.631 I1.0314 J-4.0498
G3 X-192.6155 Y40.6378 I2.1367 J-4.3259
G3 X-193.2923 Y39.7455 I3.4787 J-3.3413
G1 X-189.9376 Y40.4429
G1 X-189.2273 Y41.6702
G1 X-189.6326 Y42.0254
G0 Z5.0
G0 X-188.7079 Y39.076
G1 Z0.0
G3 X-188.8539 Y39.0188 I0.3374 J-1.0761
G3 X-189.0601 Y38.8654 I0.2967 J-0.6139
G3 X-189.2197 Y38.5577 I0.5471 J-0.4791
G3 X-189.2396 Y38.4666 I0.7856 J-0.2197
G3 X-189.2592 Y37.9815 I2.238 J-0.3331
G3 X-189.2518 Y37.8531 I1.64 J0.0294
G1 X-189.2421 Y37.7175
G1 X-189.2313 Y37.5744
G2 X-189.2139 Y37.2556 I-4.6178 J-0.4121
G1 X-189.2126 Y37.1738
G2 X-189.2381 Y36.8113 I-2.057 J-0.0375
G2 X-189.3692 Y36.4253 I-1.1127 J0.1625
G2 X-189.7039 Y36.0914 I-0.7966 J0.464
G2 X-189.9376 Y35.9837 I-0.6543 J1.1115
G1 X-190.0026 Y35.9771
G1 X-190.0677 Y35.9728
G1 X-190.0864 Y35.9719
G2 X-190.2358 Y35.9728 I-0.0594 J2.8282
G2 X-190.5301 Y36.0226 I0.0473 J1.1726
G2 X-191.0203 Y36.3577 I0.2851 J0.9431
G2 X-191.2267 Y36.6989 I1.2501 J0.9892
G2 X-191.4112 Y37.1874 I4.3609 J1.9261
G3 X-191.5079 Y37.4658 I-6.5703 J-2.1265
G3 X-191.6513 Y37.7658 I-1.5618 J-0.5628
G3 X-191.7675 Y37.9009 I-0.5634 J-0.3668
G3 X-192.1047 Y37.5455 I1.0208 J-1.3059
G3 X-192.3501 Y37.1215 I2.2835 J-1.6053
G3 X-192.4801 Y36.8222 I5.4098 J-2.5268
G1 X-192.5478 Y36.6487
G2 X-192.7237 Y36.186 I-17.3359 J6.3289
G2 X-192.7476 Y36.1267 I-0.6271 J0.218
G1 X-192.8006 Y36.0012
G1 X-192.8612 Y35.8693
G1 X-192.8775 Y35.8362
G1 X-192.8945 Y35.8027
G2 X-193.0731 Y35.5103 I-1.874 J0.944
G2 X-193.35 Y35.2292 I-1.0909 J0.798
G2 X-193.7706 Y35.0389 I-0.673 J0.9272
G2 X-194.3113 Y35.0112 I-0.3575 J1.6859
G3 X-194.2729 Y34.4582 I4.8411 J0.0584
G1 X-194.2681 Y34.4215
G3 X-194.1491 Y33.8423 I4.3999 J0.6021
G3 X-193.6446 Y32.7756 I3.3349 J0.9247
G3 X-193.1198 Y32.1857 I2.9866 J2.1283
G3 X-192.2633 Y31.5779 I3.1011 J3.4628
G3 X-191.7274 Y31.31 I2.9161 J5.1636
G3 X-191.0939 Y31.0586 I3.2221 J7.1966
G1 X-190.9277 Y31.0014
G3 X-190.164 Y30.7729 I3.613 J10.6844
G3 X-189.2861 Y30.5605 I4.4758 J16.579
G3 X-188.2849 Y30.3576 I7.8197 J36.0092
G1 X-188.0264 Y30.3093
G1 X-186.8567 Y30.0986
G1 X-186.2364 Y29.9858
G1 X-185.9174 Y29.9258
G2 X-185.242 Y29.7912 I-5.0681 J-27.1831
G2 X-183.7279 Y29.425 I-4.3987 J-21.4998
G2 X-182.9384 Y29.1765 I-3.8388 J-13.5791
G2 X-182.1199 Y28.8529 I-3.6167 J-10.3432
G2 X-181.2873 Y28.4206 I-2.97 J-6.7383
G2 X-180.4726 Y27.8351 I-3.1589 J-5.2549
G2 X-180.5245 Y27.4456 I-2.1457 J0.0877
G2 X-180.6559 Y27.0753 I-1.6844 J0.3892
G2 X-181.1735 Y26.4895 I-1.3885 J0.7054
G2 X-181.6345 Y26.2425 I-1.4267 J2.1096
G2 X-182.2891 Y26.0305 I-1.7614 J4.3222
G1 X-182.4667 Y25.9867
G1 X-182.5584 Y25.9654
G1 X-182.975 Y25.875
G1 X-183.4461 Y25.7744
G1 X-183.695 Y25.7165
G3 X-184.2504 Y25.5577 I1.3778 J-5.868
G3 X-184.8499 Y25.2931 I1.062 J-3.2175
G1 X-184.2384 Y25.066
G1 X-183.6262 Y24.841
G1 X-182.4009 Y24.3933
G1 X-181.5845 Y24.0935
G2 X-180.4983 Y23.688 I-41.4273 J-112.6387
G1 X-179.8793 Y23.4517
G1 X-179.1739 Y23.1761
G2 X-177.3082 Y22.4032 I-24.6837 J-62.2238
G2 X-177.1907 Y22.3519 I-1.7519 J-4.1719
G2 X-176.1228 Y21.8678 I-19.8209 J-45.1454
G2 X-173.3523 Y20.417 I-14.2315 J-30.5463
G2 X-172.6397 Y19.9829 I-18.4959 J-31.1688
G2 X-171.8952 Y19.4946 I-11.4955 J-18.3372
G2 X-170.2668 Y18.2707 I-12.3805 J-18.1675
G2 X-168.5674 Y16.673 I-11.575 J-14.0146
G2 X-168.3669 Y16.4547 I-7.8824 J-7.4426
G3 X-168.1065 Y16.796 I-2.1441 J1.9057
G3 X-167.8932 Y17.1684 I-3.4716 J2.2359
G3 X-167.578 Y17.965 I-4.7654 J2.3462
G3 X-167.5443 Y18.0743 I-1.8185 J0.6203
G3 X-167.4726 Y18.3254 I-4.6249 J1.456
G3 X-167.3052 Y18.9998 I-25.7353 J6.7446
G1 X-167.2147 Y19.386
G1 X-167.1647 Y19.5914
G2 X-167.0364 Y20.0567 I7.3246 J-1.7692
G2 X-166.8383 Y20.5718 I3.4186 J-1.0187
G1 X-166.9596 Y20.6309
G1 X-167.0814 Y20.6891
G2 X-167.3242 Y20.8071 I2.9824 J6.4507
G2 X-167.8017 Y21.0588 I4.5103 J9.1339
G2 X-167.8642 Y21.0946 I0.3011 J0.5973
G1 X-168.0055 Y21.1789
G2 X-168.37 Y21.4234 I2.9077 J4.7286
G2 X-168.8108 Y21.8093 I1.8975 J2.6123
G2 X-169.0204 Y22.072 I1.592 J1.4859
G2 X-169.1909 Y22.4195 I1.1397 J0.7745
G2 X-169.2393 Y22.8687 I1.0314 J0.3385
G2 X-169.0735 Y23.3759 I1.3181 J-0.1503
G2 X-168.7351 Y23.7679 I1.4017 J-0.8681
G2 X-168.296 Y24.0426 I1.2005 J-1.4304
G2 X-167.9742 Y24.1678 I1.2049 J-2.6203
G2 X-167.5347 Y24.2977 I2.9786 J-9.2703
G1 X-167.2836 Y24.3693
G3 X-167.0011 Y24.4623 I-1.3557 J4.5974
G3 X-166.6901 Y24.5981 I-0.7773 J2.2024
G3 X-166.5334 Y24.6888 I-1.0274 J1.9585
G3 X-166.459 Y25.1697 I-1.4001 J0.4627
G3 X-166.5417 Y25.6492 I-1.5765 J-0.025
G3 X-166.6619 Y25.9506 I-2.2658 J-0.7291
G3 X-166.8588 Y26.3333 I-6.8205 J-3.2678
G2 X-167.1208 Y26.838 I7.4938 J4.2102
G2 X-167.2437 Y27.1378 I3.6928 J1.6891
G1 X-170.5017 Y25.2931
G2 X-172.0034 Y25.0855 I-4.4156 J26.4044
G2 X-172.0521 Y25.0803 I-0.0736 J0.463
G2 X-172.5716 Y25.0316 I-1.7243 J15.5801
G2 X-174.6568 Y24.9597 I-1.7686 J21.0161
G1 X-174.9351 Y24.9669
G2 X-176.4144 Y25.0896 I0.4119 J13.9466
G2 X-176.8059 Y25.1503 I1.9138 J13.6362
G2 X-177.6908 Y25.3449 I1.5992 J9.3823
G2 X-178.6705 Y25.687 I1.9263 J7.0907
G2 X-179.1665 Y25.9363 I2.1599 J4.9161
G2 X-179.6617 Y26.2656 I2.2549 J3.9273
G2 X-178.2033 Y26.5353 I2.0415 J-6.9617
G2 X-177.709 Y26.5637 I0.6958 J-7.7932
G2 X-177.0493 Y26.5683 I0.4284 J-14.3461
G2 X-176.1707 Y26.5437 I-1.6226 J-73.6457
G1 X-175.6688 Y26.5302
G3 X-175.4011 Y26.5273 I0.4749 J31.5927
G1 X-175.1157 Y26.5295
G3 X-174.8114 Y26.5397 I-1.2639 J42.2732
G3 X-174.1183 Y26.6031 I-0.3188 J7.3109
G3 X-172.3351 Y27.1378 I-0.7873 J5.8667
G2 X-172.5268 Y27.4597 I0.9315 J0.7728
G2 X-172.5771 Y27.831 I0.7181 J0.2863
G2 X-172.5083 Y28.0734 I0.79 J-0.0932
G2 X-172.333 Y28.3575 I1.2902 J-0.5999
G2 X-172.039 Y28.6787 I2.5332 J-2.0235
G2 X-171.9986 Y28.7177 I0.8576 J-0.8476
G1 X-171.9122 Y28.7992
G2 X-171.7155 Y28.9802 I7.3136 J-7.7528
G1 X-171.496 Y29.1853
G3 X-171.2609 Y29.4279 I-3.8747 J3.9908
G3 X-171.0309 Y29.7316 I-1.7175 J1.54
G3 X-170.8683 Y30.135 I-0.9923 J0.6345
G3 X-170.9108 Y30.6449 I-0.9715 J0.1757
G1 X-172.7368 Y30.2972
G2 X-173.1666 Y30.6621 I0.757 J1.327
G2 X-173.4202 Y31.1657 I1.0884 J0.8639
G2 X-173.4813 Y31.5376 I1.7351 J0.4757
G2 X-173.4685 Y32.0362 I3.1392 J0.169
G2 X-173.3618 Y32.6826 I6.7152 J-0.7766
G1 X-173.3442 Y32.7651
G1 X-173.2618 Y33.1386
G1 X-173.2195 Y33.3373
G3 X-173.1459 Y33.7913 I-3.965 J0.8755
G1 X-175.2844 Y32.5695
G2 X-175.5319 Y32.7236 I0.8611 J1.6592
G2 X-175.7503 Y32.9168 I0.7681 J1.0881
G2 X-176.0165 Y33.4333 I0.7759 J0.7268
G2 X-176.0346 Y33.8238 I1.3987 J0.2604
G2 X-175.938 Y34.3298 I2.8191 J-0.2759
G2 X-175.9012 Y34.4618 I2.8218 J-0.7171
G1 X-175.8133 Y34.7582
G3 X-175.7228 Y35.0947 I-4.9645 J1.5162
G3 X-175.6873 Y35.2759 I-2.5309 J0.5893
G3 X-175.6792 Y35.6938 I-1.3355 J0.2352
G3 X-175.8924 Y36.1338 I-0.8072 J-0.1195
G3 X-176.1002 Y36.3065 I-0.7959 J-0.7461
G3 X-176.3588 Y36.4437 I-0.9498 J-1.4774
G3 X-176.6536 Y36.5504 I-1.1178 J-2.6295
G1 X-176.8092 Y36.5936
G1 X-178.6427 Y34.7564
G2 X-179.0935 Y34.9564 I1.0573 J2.9902
G2 X-179.4841 Y35.2575 I0.7119 J1.3276
G2 X-179.6583 Y35.5395 I0.6991 J0.6267
G2 X-179.7158 Y35.9821 I0.9685 J0.3507
G2 X-179.6781 Y36.2353 I2.1387 J-0.189
G1 X-179.6462 Y36.3676
G1 X-179.6068 Y36.5066
G1 X-179.508 Y36.8166
G3 X-179.4953 Y36.8559 I-0.6311 J0.2264
G1 X-179.4694 Y36.9367
G1 X-179.4436 Y37.02
G3 X-179.3484 Y37.3984 I-3.5561 J1.096
G3 X-179.3246 Y37.8352 I-1.4894 J0.2999
G3 X-179.4897 Y38.3079 I-1.0523 J-0.1023
G3 X-179.6617 Y38.5182 I-0.9617 J-0.611
G3 X-180.1604 Y38.8129 I-2.0224 J-2.8525
G1 X-180.236 Y38.8468
G3 X-180.4449 Y38.9192 I-0.6314 J-1.4838
G3 X-180.7395 Y38.9472 I-0.2227 J-0.779
G3 X-181.0993 Y38.7607 I0.058 J-0.5521
G3 X-181.2371 Y38.5665 I0.7359 J-0.6684
G3 X-181.3529 Y38.3239 I1.7646 J-0.9915
G3 X-181.3594 Y38.3082 I0.0791 J-0.0419
G3 X-181.4117 Y38.1753 I2.3027 J-0.9829
G1 X-181.523 Y37.8766
G1 X-181.5844 Y37.7202
G2 X-181.6551 Y37.5585 I-3.052 J1.2393
G2 X-181.8516 Y37.225 I-1.6319 J0.7366
G2 X-182.1731 Y36.9417 I-0.7995 J0.5833
G2 X-182.651 Y36.8263 I-0.4721 J0.9079
G2 X-182.9145 Y36.8463 I-0.0138 J1.5608
G2 X-183.1878 Y36.9066 I0.4036 J2.4785
G2 X-183.3251 Y36.9488 I0.4014 J1.552
G2 X-183.695 Y37.6017 I1.2575 J1.1437
G2 X-183.781 Y38.3472 I2.0578 J0.6152
G2 X-183.3251 Y39.7455 I2.9201 J-0.1786
G3 X-183.7549 Y39.8346 I-1.1154 J-4.3031
G3 X-184.1928 Y39.8656 I-0.4103 J-2.6812
G3 X-184.4845 Y39.8363 I0.0064 J-1.5276
G3 X-184.8545 Y39.7059 I0.2195 J-1.2126
G3 X-185.2496 Y39.3567 I0.6092 J-1.0876
G3 X-185.413 Y39.1015 I1.505 J-1.1433
G3 X-185.5632 Y38.792 I4.6081 J-2.4277
G3 X-185.5985 Y38.7106 I6.3163 J-2.7845
G1 X-185.753 Y38.3419
G2 X-185.773 Y38.2953 I-0.6239 J0.2402
G2 X-185.9719 Y37.885 I-4.4196 J1.889
G2 X-186.2704 Y37.4678 I-1.8999 J1.0439
G2 X-186.7411 Y37.1222 I-1.1383 J1.0571
G2 X-187.3901 Y36.9488 I-0.8289 J1.8005
G2 X-187.6772 Y37.0506 I0.5368 J1.9688
G2 X-187.9383 Y37.2075 I0.397 J0.9564
G2 X-188.0696 Y37.3645 I0.3315 J0.4105
G2 X-188.1221 Y37.6374 I0.4199 J0.2223
G2 X-188.091 Y37.7955 I0.7035 J-0.0563
G2 X-188.0278 Y37.9667 I1.2201 J-0.3529
G1 X-188.0088 Y38.0096
G1 X-187.9173 Y38.1993
G3 X-187.8682 Y38.2991 I-3.0214 J1.5463
G1 X-187.8192 Y38.4054
G3 X-187.7402 Y38.6526 I-0.9744 J0.4478
G3 X-187.804 Y38.9439 I-0.3538 J0.0751
G3 X-187.9337 Y39.056 I-0.3607 J-0.2865
G3 X-188.1041 Y39.1356 I-0.4508 J-0.7424
G3 X-188.486 Y39.1217 I-0.1055 J-2.3503
G3 X-188.7079 Y39.076 I0.1154 J-1.1218
G0 Z5.0
G0 X-199.094 Y36.5936
G1 Z0.0
G3 X-199.8805 Y35.8316 I1.1111 J-1.9335
G3 X-200.0632 Y35.5123 I3.7119 J-2.3366
G2 X-200.1652 Y35.3288 I-7.2753 J3.9237
G1 X-200.1927 Y35.2821
G2 X-200.3305 Y35.0767 I-1.5347 J0.8807
G2 X-200.8363 Y34.6499 I-1.1977 J0.9062
G2 X-201.189 Y34.5026 I-1.1317 J2.2143
G2 X-201.6118 Y34.3956 I-1.2093 J3.8886
G2 X-201.5938 Y35.7562 I5.8916 J0.6025
G2 X-201.2977 Y37.0843 I7.7777 J-1.0373
G1 X-201.2425 Y37.2573
G1 X-201.1804 Y37.4407
G2 X-201.111 Y37.6353 I3.69 J-1.2069
G2 X-201.0929 Y37.6845 I0.5339 J-0.1686
G2 X-201.0743 Y37.7345 I0.5358 J-0.1711
G2 X-201.0552 Y37.7852 I0.5378 J-0.1737
G2 X-201.0356 Y37.8366 I0.5403 J-0.1765
G2 X-200.5841 Y38.9162 I19.3641 J-7.464
G1 X-200.4566 Y39.2009
G1 X-200.3195 Y39.5039
G1 X-200.0075 Y40.1958
G1 X-199.845 Y40.5663
G1 X-199.6774 Y40.9635
G1 X-199.5938 Y41.1697
G1 X-199.5101 Y41.3834
G1 X-199.4267 Y41.6052
G3 X-199.094 Y42.6353 I-12.658 J4.6562
G1 X-200.2134
G2 X-200.6412 Y41.7387 I-9.8595 J4.1542
G2 X-200.6722 Y41.6801 I-0.9243 J0.4503
G2 X-200.7053 Y41.6177 I-1.0008 J0.492
G2 X-200.7409 Y41.5513 I-1.0976 J0.5447
G1 X-200.9325 Y41.1979
G1 X-201.0423 Y40.9962
G1 X-201.1667 Y40.7649
G1 X-201.232 Y40.6412
G3 X-201.5602 Y39.9706 I11.8426 J-6.211
G3 X-201.8995 Y39.0338 I5.8148 J-2.6362
G3 X-201.9612 Y38.7748 I4.1802 J-1.1316
G3 X-202.0434 Y38.1706 I3.924 J-0.8415
G2 X-202.3719 Y38.1955 I-0.0567 J1.4311
G2 X-202.6885 Y38.287 I0.3352 J1.7523
G2 X-203.2694 Y38.5908 I1.1144 J2.8385
G1 X-203.4241 Y38.6964
G2 X-203.8157 Y39.0036 I3.5936 J4.9852
G2 X-204.0282 Y39.1919 I3.5563 J4.2279
G2 X-204.5616 Y39.7236 I6.1827 J6.7343
G2 X-204.5942 Y39.7587 I0.3808 J0.3868
G1 X-204.7314 Y39.9093
G2 X-206.641 Y42.4789 I14.7232 J12.9359
G2 X-206.748 Y42.6557 I3.1393 J2.0204
G3 X-206.8308 Y42.7184 I-0.1403 J-0.0994
G3 X-206.9301 Y42.7491 I-0.1973 J-0.4619
G3 X-207.1326 Y42.7782 I-0.3462 J-1.6884
G3 X-207.2681 Y42.7866 I-0.1697 J-1.6433
G3 X-207.4482 Y42.7903 I-0.1582 J-3.3535
G3 X-207.6874 Y42.7865 I-0.0486 J-4.5196
G3 X-208.6336 Y42.7205 I0.492 J-13.8589
G3 X-208.7594 Y42.7077 I0.129 J-1.9025
G1 X-209.0465 Y42.676
G3 X-209.3736 Y42.6353 I1.6936 J-14.9287
G3 X-208.918 Y41.267 I6.9921 J1.5685
G3 X-208.2346 Y39.9971 I9.2358 J4.1512
G3 X-207.7011 Y39.1975 I14.7683 J9.2751
G3 X-207.5527 Y38.9885 I9.0049 J6.2418
G3 X-207.3925 Y38.7671 I8.2476 J5.7972
G1 X-206.5294 Y37.5961
G1 X-206.3028 Y37.2815
G2 X-205.8038 Y36.5498 I-15.5479 J-11.1396
G2 X-205.743 Y36.4552 I-1.583 J-1.0845
G2 X-205.6819 Y36.3587 I-1.5187 J-1.028
G2 X-205.6207 Y36.2601 I-1.4512 J-0.97
G2 X-205.1048 Y35.3329 I-9.4556 J-5.8682
G2 X-204.6425 Y34.2098 I-7.8484 J-3.8868
G2 X-204.3303 Y32.8514 I-7.2932 J-2.3916
G2 X-204.2821 Y31.2493 I-7.9231 J-1.0401
G1 X-204.3179 Y30.5852
G1 X-204.3491 Y29.9209
G1 X-204.3667 Y29.4778
G3 X-204.4054 Y27.7047 I57.1114 J-2.1352
G3 X-204.4053 Y27.198 I18.9657 J-0.2495
G1 X-204.398 Y26.6189
G1 X-204.3908 Y26.3101
G3 X-204.3072 Y24.6648 I32.8889 J0.8455
G3 X-204.0546 Y22.4824 I27.2029 J2.043
G1 X-204.0082 Y22.2026
G3 X-203.7506 Y20.9317 I21.5925 J3.7151
G1 X-203.6713 Y20.6064
G1 X-203.5835 Y20.2722
G3 X-203.1023 Y18.7663 I17.1371 J4.6467
G3 X-203.0674 Y18.6729 I2.0926 J0.7289
G3 X-203.0316 Y18.579 I1.9846 J0.7016
G3 X-202.9951 Y18.4847 I1.8889 J0.6778
G3 X-202.6589 Y17.6886 I12.9138 J4.9835
G3 X-200.1204 Y13.8292 I13.4234 J6.0646
G3 X-199.7157 Y13.4018 I21.2841 J19.7487
G3 X-199.2983 Y12.9869 I11.2543 J10.9063
G3 X-198.4333 Y12.1887 I17.4861 J18.0807
G3 X-198.4053 Y12.1639 I0.1919 J0.1891
G3 X-198.3767 Y12.1388 I0.194 J0.1916
G3 X-198.3477 Y12.1133 I0.1961 J0.194
G3 X-198.0813 Y11.8823 I7.6564 J8.5635
G1 X-197.9381 Y11.7603
G3 X-197.1637 Y11.1232 I18.8054 J22.0676
G3 X-196.106 Y10.3054 I31.6343 J39.8173
G1 X-195.8197 Y10.0929
G3 X-194.2671 Y8.9962 I27.7532 J37.6471
G1 X-193.8462 Y8.7136
G3 X-191.5602 Y7.2724 I32.5125 J49.0353
G3 X-188.4153 Y5.517 I29.9857 J50.0281
G3 X-188.0021 Y5.3043 I28.4164 J54.7032
G1 X-187.5738 Y5.0882
G3 X-182.9019 Y3.0087 I25.1329 J50.1777
G3 X-182.2855 Y2.7728 I9.9536 J25.0895
G3 X-179.4285 Y1.8029 I16.4804 J43.8499
G3 X-176.0873 Y0.9466 I11.2224 J36.8424
G3 X-174.2748 Y0.6235 I6.4169 J30.7552
G1 X-173.8116 Y0.5587
G3 X-171.8232 Y0.3702 I3.4513 J25.8346
G3 X-171.3161 Y0.3473 I1.1611 J20.0622
G3 X-170.1541 Y0.4988 I0.1467 J3.4059
G3 X-169.0965 Y1.0032 I-1.2942 J4.0751
G3 X-168.4717 Y1.4722 I-3.2663 J5.0019
G3 X-167.7303 Y2.197 I-5.4821 J6.3485
G1 X-167.641 Y2.2967
G3 X-166.7669 Y3.4107 I-9.8396 J8.6214
G3 X-166.5526 Y3.721 I-16.6283 J11.7107
G1 X-166.4446 Y3.8827
G1 X-166.3349 Y4.0505
G1 X-166.2234 Y4.2248
G3 X-165.1254 Y6.1103 I-28.9076 J18.0974
G1 X-165.0591 Y6.2319
G3 X-164.9234 Y6.4832 I-8.2038 J4.5958
G1 X-164.7842 Y6.7427
G1 X-164.1542 Y7.9245
G1 X-163.9895 Y8.2279
G3 X-164.3032 Y8.2621 I-0.3858 J-2.0849
G3 X-164.6186 Y8.2637 I-0.1778 J-3.9738
G1 X-164.8287 Y8.2562
G2 X-165.1087 Y8.2456 I-1.097 J25.4255
G2 X-165.1834 Y8.2441 I-0.0581 J1.0373
G1 X-165.3541 Y8.2451
G2 X-165.8062 Y8.3032 I0.0314 J2.0323
G2 X-166.3349 Y8.6207 I0.2492 J1.0136
G2 X-166.5334 Y8.9235 I0.9706 J0.8528
G2 X-166.0511 Y9.4786 I4.735 J-3.6261
G2 X-165.8764 Y9.6507 I4.3826 J-4.2737
G2 X-165.1279 Y10.2834 I6.232 J-6.6136
G1 X-164.903 Y10.4504
G2 X-164.2879 Y10.8734 I11.0421 J-15.3992
G1 X-163.9294 Y11.1041
G2 X-163.516 Y11.3617 I35.0117 J-55.7365
G2 X-163.0415 Y11.6519 I37.0364 J-60.0121
G1 X-162.7884 Y11.8066
G1 X-162.5191 Y11.9726
G1 X-162.2333 Y12.1517
G1 X-161.9309 Y12.3464
G1 X-161.7761 Y12.4488
G1 X-161.6174 Y12.5562
G3 X-160.9124 Y13.0755 I-6.6731 J9.7974
G3 X-160.5556 Y13.3772 I-5.3608 J6.7032
G3 X-159.8209 Y14.1559 I-4.0235 J4.5322
G3 X-159.2068 Y15.2275 I-3.3164 J2.6124
G1 X-166.1242 Y11.1159
G1 X-166.2392 Y10.9367
G1 X-166.353 Y10.7566
G1 X-166.5778 Y10.3949
G1 X-166.7261 Y10.1528
G1 X-166.9227 Y9.8292
G2 X-167.71 Y8.5358 I-109.7595 J65.9259
G1 X-167.9394 Y8.169
G2 X-168.5718 Y7.2039 I-24.1174 J15.1128
G2 X-168.747 Y6.951 I-7.6629 J5.1229
G2 X-169.7475 Y5.6497 I-14.5015 J10.1139
G2 X-170.0368 Y5.3208 I-13.3394 J11.4435
G1 X-170.1905 Y5.1549
G2 X-170.9342 Y4.4357 I-7.6125 J7.1273
G2 X-171.8745 Y3.7146 I-5.7488 J6.5237
G2 X-173.0711 Y3.0681 I-4.0487 J6.0624
G2 X-174.5703 Y2.6196 I-2.7165 J6.3512
G2 X-174.9588 Y2.6281 I-0.1347 J2.7265
G1 X-175.0877 Y2.6403
G2 X-175.6004 Y2.7123 I0.8315 J7.7846
G2 X-175.94 Y2.7737 I1.5328 J9.4464
G1 X-176.0303 Y2.7914
G1 X-176.1266 Y2.8107
G1 X-176.2291 Y2.8319
G2 X-177.8549 Y3.2237 I6.8871 J32.149
G1 X-178.316 Y3.3489
G2 X-181.9578 Y4.4885 I16.5704 J59.3442
G2 X-184.34 Y5.3792 I16.2 J46.9576
G1 X-184.6434 Y5.5041
G1 X-184.7972 Y5.5687
G2 X-186.1815 Y6.2071 I8.2902 J19.7983
G2 X-186.8899 Y6.6079 I3.8283 J7.5914
G2 X-187.2324 Y6.8531 I1.8385 J2.9307
G2 X-187.3901 Y6.9989 I1.119 J1.3677
G2 X-187.6789 Y7.4391 I1.2265 J1.1194
G2 X-187.8226 Y7.9457 I1.8696 J0.8042
G2 X-187.8589 Y8.2947 I3.6622 J0.5569
G1 X-187.8847 Y8.7593
G1 X-187.8963 Y8.8828
G3 X-187.9502 Y9.1606 I-1.8304 J-0.2109
G3 X-188.0994 Y9.4512 I-0.7899 J-0.2219
G3 X-188.4136 Y9.678 I-0.6164 J-0.5227
G3 X-188.6143 Y9.744 I-0.4548 J-1.0458
G3 X-189.095 Y9.806 I-0.5576 J-2.4293
G3 X-189.6326 Y9.7958 I-0.1791 J-4.7532
G2 X-191.8949 Y9.6804 I-1.3395 J4.025
G2 X-192.6255 Y9.9 I1.0865 J4.9386
G2 X-193.5411 Y10.3364 I2.3093 J6.0237
G2 X-194.0345 Y10.6389 I3.7137 J6.613
G1 X-194.1588 Y10.7217
G2 X-196.11 Y12.1892 I13.4949 J19.9751
G2 X-197.8871 Y13.8633 I12.9318 J15.507
G2 X-197.9944 Y13.9788 I1.9045 J1.8776
G2 X-199.0745 Y15.2669 I13.1208 J12.0984
G2 X-199.6338 Y16.0484 I13.1434 J9.9978
G1 X-199.7016 Y16.1499
G2 X-200.9612 Y18.4279 I13.5118 J8.9586
G2 X-202.0585 Y21.7207 I15.7525 J7.0787
G1 X-202.1061 Y21.9362
G2 X-202.4283 Y23.9268 I19.8493 J4.2348
G2 X-202.5723 Y26.2241 I23.2667 J2.6116
G1 X-202.5755 Y26.5163
G1 Y26.8132
G2 X-202.441 Y29.5159 I31.9112 J-0.2339
G2 X-202.0434 Y32.5695 I40.3008 J-3.6947
G1 X-201.6379
G1 X-201.6401 Y32.314
G1 X-201.6425 Y32.0584
G1 X-201.6472 Y31.5473
G1 X-201.6537 Y30.525
G1 X-201.654 Y30.2329
G3 X-201.6088 Y27.8966 I52.8326 J-0.1455
G3 X-201.5732 Y27.2298 I37.1035 J1.6487
G1 X-201.5487 Y26.8746
G3 X-201.3403 Y24.9865 I24.6007 J1.7594
G3 X-200.7976 Y22.5104 I17.909 J2.6284
G3 X-200.7507 Y22.3563 I2.5957 J0.7039
G3 X-200.2449 Y20.9715 I14.2093 J4.4055
G3 X-200.0908 Y20.6232 I9.8333 J4.1434
G1 X-200.0087 Y20.448
G3 X-197.6408 Y17.0535 I11.3798 J5.4151
G3 X-195.8399 Y15.497 I10.2767 J10.0705
G2 X-198.3668 Y19.5803 I17.5245 J13.6686
G2 X-199.9761 Y24.1046 I20.4637 J9.8271
G2 X-200.4959 Y27.2669 I21.6298 J5.1797
G2 X-200.4362 Y31.5383 I20.3912 J1.8511
G2 X-199.9887 Y33.9427 I18.5649 J-2.2115
G2 X-199.094 Y36.5936 I17.666 J-4.486
G0 Z5.0
G0 X-197.6696 Y29.6799
G1 Z0.0
G3 X-197.7512 Y29.2987 I2.2592 J-0.683
G3 X-197.7858 Y28.9104 I3.4938 J-0.5068
G3 X-197.7693 Y28.1325 I7.0638 J-0.2398
G3 X-197.7157 Y27.6167 I8.1708 J0.5891
G3 X-197.6063 Y26.9349 I13.5428 J1.8226
G3 X-197.4081 Y26.0374 I17.2714 J3.3437
G3 X-197.401 Y26.0092 I0.2002 J0.0355
G3 X-197.3938 Y25.9809 I0.2018 J0.0362
G3 X-197.3865 Y25.9523 I0.2034 J0.0368
G3 X-197.3791 Y25.9236 I0.205 J0.0375
G3 X-197.3715 Y25.8946 I0.2066 J0.0382
G3 X-197.3639 Y25.8654 I0.2082 J0.0388
G3 X-196.9961 Y24.6371 I18.9755 J5.0125
G3 X-196.9832 Y24.5988 I0.2818 J0.0734
G3 X-196.9702 Y24.5601 I0.2841 J0.0746
G3 X-196.3486 Y22.9427 I21.4151 J7.3017
G3 X-196.1623 Y22.5199 I20.1888 J8.6436
G3 X-195.0352 Y20.3361 I22.3231 J10.1384
G3 X-193.193 Y17.6355 I19.5945 J11.3878
G3 X-191.9668 Y16.2263 I16.4722 J13.0944
G3 X-190.4111 Y14.7655 I13.6408 J12.9675
G3 X-188.4364 Y13.3327 I11.2618 J13.4451
G3 X-182.3278 Y11.1016 I8.3302 J13.3289
G3 X-178.5833 Y10.9858 I2.4034 J17.118
G2 X-177.823 Y10.9944 I0.4454 J-5.7201
G2 X-177.0733 Y10.8674 I-0.1646 J-3.2469
G2 X-176.6073 Y10.6632 I-0.5705 J-1.9363
G2 X-176.1248 Y10.1771 I-0.6806 J-1.158
G2 X-175.9984 Y9.7958 I-0.8618 J-0.4972
G2 X-176.0101 Y9.2548 I-1.1716 J-0.2454
G2 X-176.2655 Y8.7776 I-1.1775 J0.3233
G2 X-176.5269 Y8.5283 I-1.4409 J1.2494
G2 X-176.928 Y8.2709 I-1.5724 J2.0088
G2 X-177.5007 Y8.0224 I-1.9998 J3.8246
G2 X-178.2831 Y7.7994 I-2.318 J6.6487
G2 X-179.3268 Y7.6239 I-2.2291 J10.0661
G2 X-180.7032 Y7.5407 I-1.3982 J11.7047
G2 X-181.4841 Y7.5682 I-0.0159 J10.6304
G2 X-181.8969 Y7.6163 I0.3472 J4.7771
G1 X-180.8367 Y7.2954
G1 X-180.4831 Y7.1888
G3 X-179.0626 Y6.7845 I11.7981 J38.7612
G3 X-178.1057 Y6.5521 I7.1538 J27.3658
G1 X-177.8488 Y6.4974
G1 X-177.5739 Y6.4431
G3 X-176.0931 Y6.2399 I2.6058 J13.4911
G3 X-175.2387 Y6.2056 I0.8951 J11.6431
G1 X-175.018 Y6.2084
G3 X-174.5472 Y6.2318 I-0.17 J8.16
G3 X-174.0469 Y6.2848 I-0.9371 J11.2541
G3 X-173.5172 Y6.375 I-1.265 J9.022
G3 X-173.4508 Y6.389 I-0.104 J0.6596
G1 X-174.5703 Y7.6163
G2 X-173.7942 Y8.2809 I4.9975 J-5.0512
G2 X-172.9483 Y8.8539 I7.319 J-9.8937
G2 X-172.3643 Y9.2042 I9.111 J-14.5279
G1 X-172.027 Y9.398
G1 X-171.9397 Y9.4477
G3 X-171.0104 Y9.9783 I-48.2057 J85.4983
G3 X-170.4876 Y10.2952 I-12.5725 J21.3321
G3 X-170.3547 Y10.3804 I-3.6685 J5.8707
G3 X-169.7654 Y10.7965 I-4.4743 J6.9621
G3 X-169.6202 Y10.9131 I-1.782 J2.3685
G3 X-169.324 Y11.1787 I-3.2757 J3.9493
G3 X-169.0368 Y11.4927 I-2.5072 J2.5822
G3 X-168.9046 Y11.6689 I-2.2813 J1.8489
G3 X-168.6719 Y12.0811 I-2.0388 J1.4227
G2 X-170.1595 Y11.1997 I-8.7719 J13.1082
G2 X-171.7481 Y10.5169 I-5.7862 J11.2732
G2 X-172.848 Y10.1703 I-6.4277 J18.4785
G1 X-173.1442 Y10.0878
G1 X-173.2973 Y10.0462
G1 X-173.4556 Y10.004
G1 X-173.7936 Y9.9156
G1 X-174.567 Y9.7183
G1 X-174.9795 Y9.6135
G2 X-174.6483 Y10.6897 I4.4881 J-0.7917
G2 X-174.4749 Y11.0237 I3.3241 J-1.5147
G2 X-174.3589 Y11.2049 I2.5793 J-1.5225
G1 X-174.2916 Y11.2979
G2 X-173.8599 Y11.7334 I1.7988 J-1.3512
G3 X-173.8479 Y14.0424 I-4.3208 J1.1771
G3 X-174.1006 Y14.7774 I-5.0311 J-1.3187
G3 X-174.5904 Y15.688 I-5.4925 J-2.3676
G3 X-175.4349 Y16.7692 I-6.7766 J-4.4227
G3 X-176.7656 Y18.0005 I-8.7169 J-8.0858
G3 X-177.592 Y18.6175 I-9.445 J-11.7894
G3 X-178.0465 Y18.9247 I-10.765 J-15.4334
G3 X-179.1092 Y19.5747 I-12.4671 J-19.1895
G3 X-180.3559 Y20.241 I-11.8397 J-20.6561
G1 X-180.6829 Y20.4015
G3 X-181.022 Y20.5624 I-5.6626 J-11.493
G1 X-181.3736 Y20.7236
G3 X-181.5529 Y20.8037 I-1.9764 J-4.1842
G3 X-185.4107 Y22.2249 I-13.3044 J-30.1679
G3 X-187.669 Y22.8107 I-8.8491 J-29.4707
G1 X-187.9149 Y22.8657
G1 X-188.1608 Y22.9213
G1 X-188.3246 Y22.9589
G2 X-188.9784 Y23.1152 I5.8156 J25.7557
G2 X-190.2719 Y23.4812 I4.8009 J19.4368
G2 X-191.113 Y23.7922 I3.7265 J11.3725
G2 X-192.1765 Y24.3411 I2.6515 J6.4424
G2 X-191.442 Y25.0102 I2.4952 J-2.0013
G2 X-190.5576 Y25.4631 I2.5446 J-3.8791
G2 X-189.931 Y25.6767 I2.5117 J-6.3405
G2 X-189.567 Y25.7779 I2.756 J-9.2123
G1 X-189.3718 Y25.8274
G1 X-189.1632 Y25.8776
G2 X-189.0553 Y25.9027 I0.3941 J-1.4488
G1 X-188.5623 Y26.013
G1 X-188.2994 Y26.0708
G1 X-188.0196 Y26.1336
G1 X-187.7221 Y26.2036
G1 X-187.4066 Y26.284
G3 X-186.6974 Y26.5056 I-2.2089 J8.3161
G3 X-185.9294 Y26.87 I-1.4401 J4.0266
G3 X-185.5603 Y27.1378 I-1.5785 J2.5644
G3 X-187.2238 Y27.2872 I-6.2711 J-60.4748
G3 X-187.3348 Y27.2959 I-0.2003 J-1.8482
G1 X-187.9269 Y27.341
G1 X-188.7166 Y27.4006
G1 X-189.1677 Y27.4359
G2 X-190.3695 Y27.5421 I6.4237 J79.5586
G2 X-190.6897 Y27.5749 I0.8955 J10.3266
G1 X-191.0308 Y27.6126
G2 X-192.8423 Y27.8781 I3.0783 J27.3107
G2 X-193.8662 Y28.0956 I3.2586 J17.8645
G2 X-195.0179 Y28.4225 I3.7248 J15.3123
G2 X-196.2943 Y28.921 I3.9963 J12.1158
G2 X-197.6696 Y29.6799 I4.1729 J9.1883
G0 Z5.0
G0 X-164.771 Y23.5193
G1 Z0.0
G3 X-164.7825 Y23.4412 I1.0061 J-0.1884
G3 X-164.7798 Y23.0696 I1.4182 J-0.1753
G3 X-164.651 Y22.5995 I1.7424 J0.2247
G3 X-164.3 Y22.0696 I1.5055 J0.6159
G3 X-164.0028 Y21.8596 I0.7655 J0.7681
G3 X-163.5804 Y21.8009 I0.3035 J0.6343
G3 X-163.2413 Y22.0227 I-0.4216 J1.0146
G3 X-162.9952 Y22.3448 I-1.0052 J1.0229
G3 X-162.8798 Y22.5891 I-1.8293 J1.014
G3 X-162.7688 Y22.9297 I-2.983 J1.1601
G1 X-162.7569 Y22.9744
G1 X-162.7064 Y23.1788
G3 X-162.7115 Y23.368 I-0.4177 J0.0834
G3 X-162.7815 Y23.5438 I-0.7243 J-0.1865
G3 X-163.0109 Y23.8375 I-1.1038 J-0.6254
G3 X-163.6308 Y24.2148 I-1.1445 J-1.1827
G3 X-164.1123 Y24.2685 I-0.3619 J-1.0603
G3 X-164.5742 Y23.9576 I0.2838 J-0.9204
G3 X-164.771 Y23.5193 I0.8093 J-0.6268
G0 Z5.0
G0 X86.9379 Y175.2861
G1 Z0.0
G1 X100.5832 Y178.7783
G3 X100.3401 Y184.8672 I-303.2356 J-9.0599
G3 X100.2953 Y185.7366 I-217.9804 J-10.7724
G1 X100.2705 Y186.2003
G1 X100.2431 Y186.6948
G1 X100.213 Y187.2222
G1 X100.1406 Y188.4275
G3 X99.3792 Y198.0567 I-284.4901 J-17.6499
G1 X99.319 Y198.6771
G3 X98.5985 Y205.2853 I-311.8418 J-30.659
G1 X98.5481 Y205.7044
G3 X97.356 Y214.6287 I-372.4117 J-45.203
G1 X97.1877 Y215.7782
G1 X97.101 Y216.3619
G1 X96.9199 Y217.5666
G3 X96.3108 Y217.5453 I-0.1345 J-4.8714
G3 X95.7064 Y217.4674 I0.7423 J-8.1415
G3 X94.5155 Y217.2135 I2.2633 J-13.5342
G1 X94.1793 Y217.1239
G3 X91.5549 Y216.2185 I6.3065 J-22.5365
G3 X89.8725 Y215.4492 I8.9631 J-21.8269
G1 X89.8205 Y215.4226
G1 X89.7683 Y215.3957
G3 X88.8302 Y214.8728 I7.1018 J-13.8439
G3 X87.8139 Y214.183 I5.4611 J-9.139
G3 X87.3172 Y213.7536 I4.0708 J-5.2108
G3 X86.8646 Y213.2133 I2.1403 J-2.2525
G3 X86.7011 Y212.8827 I1.2871 J-0.8424
G3 X86.6479 Y212.4919 I0.8779 J-0.3185
G1 X88.4627 Y212.8397
G2 X88.8167 Y213.4455 I2.2727 J-0.9217
G2 X89.3075 Y213.9467 I2.724 J-2.176
G2 X89.6812 Y214.2278 I2.907 J-3.4763
G2 X90.2141 Y214.5481 I3.7596 J-5.6513
G2 X90.249 Y214.5667 I0.1624 J-0.263
G2 X90.3988 Y214.6436 I1.6931 J-3.1106
G2 X91.2179 Y215.0013 I4.3753 J-8.903
G2 X91.4411 Y215.0842 I1.6771 J-4.1752
G2 X92.6469 Y215.4572 I4.9024 J-13.7116
G1 X92.9724 Y215.5411
G1 X93.3205 Y215.6248
G1 X93.6926 Y215.7085
G1 X93.7873 Y215.729
G2 X93.9828 Y215.7703 I1.107 J-4.7489
G1 X94.3996 Y215.8556
G1 X94.8436 Y215.9461
G3 X95.0716 Y215.9972 I-0.966 J4.8498
G1 X96.0943 Y215.3798
G1 X97.6228 Y203.3894
G1 X96.5072 Y202.4188
G3 X96.0461 Y204.7063 I-49.3394 J-8.7549
G1 X95.9733 Y205.0317
G1 X95.7761 Y205.8986
G1 X95.514 Y207.0546
G2 X95.4809 Y207.204 I4.7571 J1.1333
G2 X95.447 Y207.3582 I4.0894 J0.9802
G2 X95.1108 Y209.0084 I57.8315 J12.6386
G2 X95.0916 Y209.1136 I1.5238 J0.3333
G2 X94.7687 Y211.3724 I26.9723 J5.0081
G2 X94.6792 Y212.6741 I20.3176 J2.0515
G1 X94.6736 Y212.8397
G1 X94.5486 Y212.8561
G3 X94.423 Y212.8658 I-0.1952 J-1.7111
G3 X94.3391 Y212.8693 I-0.0986 J-1.3525
G3 X94.0033 Y212.8659 I-0.1318 J-3.4741
G3 X93.3352 Y212.8037 I0.4525 J-8.4815
G1 X93.1455 Y212.7765
G3 X91.6497 Y212.4575 I2.106 J-13.5422
G3 X91.2291 Y212.339 I3.8396 J-14.4321
G3 X90.125 Y211.9701 I4.8946 J-16.4849
G3 X88.7024 Y211.3532 I4.9392 J-13.3385
G1 X88.5243 Y211.2619
G3 X87.7317 Y210.8046 I5.3795 J-10.2381
G1 X87.5344 Y210.6747
G3 X86.6861 Y210.0037 I3.73 J-5.5876
G3 X86.2877 Y209.5838 I3.134 J-3.3716
G3 X85.93 Y209.076 I2.5744 J-2.1934
G1 X85.9186 Y208.0573
G1 X85.9149 Y207.7177
G1 X85.9007 Y206.3594
G1 X85.877 Y203.6428
G1 X85.8666 Y201.8317
G3 X85.8971 Y194.5871 I391.477 J-1.9706
G1 X85.9126 Y193.6212
G3 X85.9603 Y191.4139 I191.2742 J3.0287
G3 X86.1812 Y185.5301 I251.9002 J6.5093
G3 X86.1858 Y185.4378 I1.3054 J0.0194
G3 X86.1905 Y185.3452 I1.3054 J0.0197
G3 X86.1953 Y185.2522 I1.3054 J0.0201
G3 X86.2001 Y185.1588 I1.3054 J0.0204
G1 X86.2413 Y184.3882
G1 X86.2866 Y183.5928
G1 X86.3107 Y183.1889
G3 X86.5666 Y179.4981 I197.4356 J11.8308
G3 X86.9379 Y175.2861 I223.8422 J17.6095
G0 Z5.0
M5
M30
