( Made using CamBam - http://www.cambam.co.uk )
( _2014_1_20_car 1/20/2014 11:46:01 PM )
( T0 : 0.0 )
G21 G90 G64 G40
G0 Z5.0
( T0 : 0.0 )
T0 M6
( 176-187 )
G17
M3 S1000
G0 X-210.084 Y194.5454
G1 F1.0 Z0.0
G3 X-209.9477 Y199.2105 I-58.3083 J4.0383
G3 X-209.9614 Y199.8772 I-49.6788 J-0.688
G3 X-210.0587 Y201.6529 I-32.9793 J-0.9161
G3 X-210.0794 Y201.8816 I-6.1798 J-0.4461
G3 X-210.1319 Y202.3685 I-22.9602 J-2.2294
G3 X-210.3068 Y203.4746 I-14.5729 J-1.7373
G3 X-210.4459 Y204.0562 I-8.2746 J-1.6712
G3 X-210.6534 Y204.6609 I-4.5499 J-1.223
G3 X-210.7981 Y204.959 I-2.5421 J-1.0501
G3 X-211.035 Y204.6129 I2.294 J-1.8247
G3 X-211.2279 Y204.2405 I3.1949 J-1.8912
G3 X-211.5085 Y203.4516 I4.7084 J-2.119
G3 X-211.5372 Y203.3436 I3.0636 J-0.8708
G3 X-211.6612 Y202.7616 I6.6552 J-1.7225
G3 X-211.7621 Y201.976 I9.5345 J-1.6236
G1 X-211.7704 Y201.8742
G3 X-211.8021 Y200.7875 I11.1066 J-0.8675
G1 X-211.7943 Y200.4978
G3 X-211.6493 Y198.9646 I13.5316 J0.5059
G3 X-211.6345 Y198.8679 I1.6419 J0.2029
G3 X-211.1576 Y196.8455 I13.4222 J2.0975
G3 X-210.7348 Y195.7364 I10.2931 J3.2887
G3 X-210.084 Y194.5454 I7.3184 J3.2257
G0 Z5.0
G0 X-208.11 Y194.4109
G1 Z0.0
G1 X-208.2504 Y192.3511
G1 X-207.1347 Y191.3861
G3 X-206.6512 Y193.3841 I-19.5165 J5.7806
G3 X-206.6387 Y193.4492 I-1.3156 J0.2859
G3 X-206.3179 Y195.5468 I-29.9249 J5.6501
G1 X-206.2487 Y196.1492
G3 X-206.232 Y196.3049 I-3.5857 J0.4624
G3 X-206.2153 Y196.4655 I-4.068 J0.5046
G3 X-206.1985 Y196.6314 I-4.8115 J0.5709
G3 X-206.1816 Y196.8027 I-6.1893 J0.6961
G1 X-206.1095 Y197.586
G1 X-206.0341 Y198.4818
G1 X-206.0153 Y198.713
G1 X-205.9753 Y199.2061
G1 X-205.8809 Y200.333
G1 X-205.8261 Y200.9335
G1 X-205.8115 Y201.086
G2 X-205.7445 Y201.7359 I31.351 J-2.904
G2 X-205.7066 Y202.0711 I18.6235 J-1.9359
G3 X-206.6567 Y202.8091 I-1.6621 J-1.1592
G3 X-207.0548 Y202.8945 I-0.4825 J-1.2774
G3 X-207.2888 Y202.8777 I-0.0482 J-0.9646
G3 X-207.5402 Y202.7721 I0.1337 J-0.6702
G1 X-208.11 Y194.4109
G0 Z5.0
G0 X-210.0047 Y191.7289
G1 Z0.0
G2 X-210.672 Y192.2151 I16.2129 J22.9496
G2 X-210.766 Y192.2866 I2.0224 J2.7575
G2 X-212.3088 Y193.5884 I11.9039 J15.6731
G2 X-213.0455 Y194.3281 I11.0182 J11.7093
G2 X-213.7472 Y195.1498 I8.6959 J8.1374
G3 X-214.1407 Y194.4665 I1.365 J-1.2411
G3 X-214.2285 Y193.6829 I1.9932 J-0.6201
G3 X-214.1429 Y193.1638 I2.824 J0.1991
G3 X-213.9045 Y192.5097 I3.8161 J1.0206
G3 X-213.4396 Y191.7192 I4.8109 J2.2974
G3 X-213.4228 Y191.6956 I0.1823 J0.1122
G3 X-212.6278 Y190.7817 I5.4698 J3.9551
G3 X-210.9707 Y189.3074 I15.2907 J15.5179
G3 X-209.1798 Y187.9988 I15.2715 J19.0204
G3 X-207.9285 Y187.2106 I15.4473 J23.1363
G3 X-206.2041 Y186.2554 I15.8499 J26.5782
G3 X-205.195 Y185.7551 I16.176 J31.3654
G3 X-205.1309 Y185.7247 I0.673 J1.3333
G3 X-202.3496 Y184.5356 I16.8507 J35.5664
G3 X-201.5941 Y184.2529 I10.3898 J26.6196
G3 X-197.4935 Y182.9713 I16.3606 J45.1448
G1 X-197.3625 Y182.9368
G3 X-191.7122 Y181.7986 I12.7673 J48.7876
G3 X-188.4362 Y181.4627 I5.8544 J40.9545
G3 X-186.6804 Y181.4024 I1.9642 J31.56
G3 X-186.2341 Y181.4036 I0.1728 J17.4675
G3 X-184.3314 Y181.5103 I-0.1574 J19.8396
G3 X-184.2125 Y181.5238 I-0.2563 J2.7758
G3 X-183.7305 Y181.59 I-1.6849 J14.0607
G3 X-182.9816 Y181.6734 I0.1503 J2.0535
G3 X-182.324 Y182.0413 I-0.5043 J1.6732
G3 X-182.0154 Y182.4427 I-0.921 J1.0276
G3 X-181.9066 Y183.1159 I-0.9927 J0.5058
G3 X-182.0341 Y183.4941 I-1.2319 J-0.2047
G3 X-182.306 Y183.8623 I-1.441 J-0.7797
G2 X-182.7215 Y183.6832 I-1.114 J2.0125
G2 X-183.1582 Y183.5646 I-1.4162 J4.3501
G2 X-184.0518 Y183.4369 I-1.4255 J6.788
G2 X-184.6521 Y183.404 I-1.0705 J14.0158
G1 X-184.8124 Y183.4003
G1 X-184.9833 Y183.3985
G1 X-185.1656 Y183.3987
G1 X-185.36 Y183.4013
G2 X-186.3932 Y183.4488 I0.3049 J17.8594
G2 X-187.7631 Y183.5815 I1.7878 J25.5998
G1 X-187.9393 Y183.6033
G1 X-188.1211 Y183.6267
G1 X-188.3085 Y183.6519
G1 X-188.7077 Y183.7089
G1 X-189.1326 Y183.7744
G1 X-189.5849 Y183.8491
G2 X-191.9774 Y184.3222 I7.9641 J46.564
G2 X-192.0147 Y184.3305 I0.0714 J0.408
G2 X-192.0523 Y184.3389 I0.0721 J0.4102
G1 X-192.6907 Y184.4861
G2 X-196.0581 Y185.3868 I14.4375 J60.7199
G2 X-196.9468 Y185.6583 I15.639 J52.7823
G1 X-197.1719 Y185.7293
G2 X-197.4002 Y185.8022 I1.9157 J6.3907
G2 X-202.1897 Y187.559 I19.0558 J59.3586
G2 X-202.7961 Y187.8152 I10.8697 J26.5752
G2 X-205.5238 Y189.0817 I20.6531 J48.0518
G1 X-205.8643 Y189.2547
G2 X-207.299 Y190.0267 I20.3697 J39.5706
G2 X-207.4775 Y190.1281 I2.6278 J4.8315
G1 X-207.8383 Y190.3373
G1 X-208.2024 Y190.554
G1 X-208.3848 Y190.6649
G2 X-209.1305 Y191.1356 I12.5718 J20.742
G2 X-210.0047 Y191.7289 I15.3387 J23.5429
G0 Z5.0
G0 X-213.0521 Y188.2847
G1 Z0.0
G2 X-213.639 Y188.829 I11.3263 J12.8013
G2 X-215.0827 Y190.4924 I8.7828 J9.0807
G2 X-215.6972 Y191.4574 I8.3235 J5.9789
G2 X-216.2049 Y192.5345 I7.1965 J4.0505
G2 X-216.4029 Y193.1098 I8.8327 J3.3605
G2 X-216.7002 Y195.7671 I7.0658 J2.1358
G2 X-216.6429 Y196.2689 I1.2538 J0.1109
G2 X-216.3773 Y196.6985 I1.0937 J-0.3791
G2 X-216.1217 Y196.9185 I1.2063 J-1.1431
G2 X-215.7413 Y197.15 I2.0714 J-2.975
G2 X-215.2164 Y197.4048 I4.4186 J-8.437
G1 X-214.9178 Y197.5465
G3 X-214.5871 Y197.7222 I-1.903 J3.9814
G1 X-214.5463 Y197.7465
G1 X-214.5051 Y197.7718
G3 X-214.1564 Y198.0377 I-1.1129 J1.8211
G2 X-214.3687 Y199.0748 I6.9761 J1.9685
G2 X-214.4114 Y199.4254 I13.13 J1.7774
G2 X-214.4315 Y199.6262 I7.0226 J0.8052
G2 X-214.4516 Y199.856 I7.7468 J0.7908
G1 X-214.4715 Y200.1188
G2 X-214.5171 Y200.8196 I47.8805 J3.472
G3 X-214.523 Y200.9101 I-3.5097 J-0.1812
G1 X-214.5359 Y201.103
G1 X-214.5508 Y201.3087
G3 X-214.5917 Y201.778 I-22.6752 J-1.7413
G1 X-214.6044 Y201.899
G1 X-214.6187 Y202.0237
G3 X-214.7019 Y202.5916 I-11.0661 J-1.3315
G3 X-214.8448 Y203.2322 I-7.1832 J-1.2664
G3 X-215.0919 Y203.9422 I-5.4583 J-1.5012
G3 X-216.2912 Y205.5707 I-4.07 J-1.7414
G3 X-217.4499 Y206.2722 I-5.3763 J-7.5729
G3 X-218.7033 Y206.7857 I-3.8303 J-7.5629
G3 X-221.3828 Y207.1246 I-2.2463 J-6.9987
G3 X-223.1569 Y206.7719 I0.4123 J-6.712
G3 X-225.2588 Y205.5874 I2.1971 J-6.3562
G3 X-226.233 Y204.6032 I4.6961 J-5.6222
G3 X-227.1024 Y203.2829 I6.2406 J-5.0562
G3 X-227.7751 Y201.6143 I8.0412 J-4.2117
G3 X-228.1661 Y199.6146 I10.7636 J-3.1426
G3 X-228.2113 Y197.3217 I14.0312 J-1.4233
G3 X-228.0956 Y196.1149 I15.801 J0.9064
G3 X-227.9757 Y195.552 I5.749 J0.9298
G1 X-227.9247 Y195.367
G3 X-227.8513 Y195.1219 I25.3303 J7.4473
G1 X-227.7472 Y194.7971
G3 X-227.7334 Y194.7553 I0.4972 J0.1407
G3 X-227.7192 Y194.7121 I0.5885 J0.1709
G1 X-227.5655 Y194.2527
G2 X-227.3696 Y193.6374 I-14.3824 J-4.9182
G1 X-227.3224 Y193.4717
G1 X-227.2761 Y193.2939
G2 X-227.1942 Y192.8817 I-4.1452 J-1.0372
G2 X-227.18 Y192.3995 I-1.8212 J-0.2951
G2 X-227.246 Y192.1469 I-0.8662 J0.0914
G2 X-227.4202 Y191.9152 I-0.5648 J0.2435
G2 X-227.721 Y191.7722 I-0.4639 J0.5877
G2 X-228.0956 Y191.7338 I-0.3355 J1.4256
G2 X-229.6195 Y193.8861 I8.3297 J7.5132
G2 X-230.6261 Y196.3237 I11.0797 J6.0021
G2 X-231.0256 Y198.0367 I14.1718 J4.2085
G2 X-231.2634 Y200.3658 I16.881 J2.9001
G2 X-231.2761 Y200.9901 I19.2232 J0.704
G2 X-231.0342 Y204.2975 I22.1606 J0.0417
G2 X-230.0194 Y208.5757 I25.2523 J-3.7302
G2 X-229.1146 Y210.9151 I23.1279 J-7.6012
G3 X-230.8205 Y211.1524 I-3.5951 J-19.5958
G3 X-232.5415 Y211.2196 I-1.488 J-16.0315
G3 X-233.6881 Y211.148 I0.2085 J-12.5581
G3 X-234.3385 Y211.0563 I1.2362 J-11.12
G3 X-235.0728 Y210.8987 I1.6326 J-9.3925
G3 X-235.892 Y210.6389 I1.9195 J-7.4764
G1 X-236.0982 Y210.5567
G3 X-237.0024 Y210.0911 I2.3326 J-5.6415
G1 X-237.1112 Y210.0211
G3 X-237.5569 Y209.6934 I3.1723 J-4.7809
G3 X-238.2579 Y207.8054 I14.9736 J-6.6338
G3 X-238.7441 Y205.851 I18.9094 J-5.7414
G3 X-238.9577 Y204.5253 I20.539 J-3.9903
G3 X-238.9951 Y199.1708 I22.2821 J-2.8331
G3 X-238.3041 Y195.665 I21.3489 J2.387
G3 X-237.6337 Y193.7342 I18.2909 J5.2692
G1 X-237.5843 Y193.6152
G1 X-237.5336 Y193.4956
G3 X-236.4412 Y191.3861 I14.4941 J6.1679
G3 X-232.9284 Y189.5899 I60.2197 J113.442
G3 X-229.3614 Y187.9036 I61.7148 J125.9258
G3 X-229.1296 Y187.7984 I3.9813 J8.4583
G3 X-221.6264 Y184.6314 I67.5478 J149.564
G3 X-216.5498 Y182.7058 I77.0417 J195.452
G3 X-209.7194 Y180.3099 I102.0009 J279.8565
G3 X-209.5034 Y180.2369 I2.9785 J8.46
G3 X-205.5475 Y178.9228 I136.2356 J403.5046
G3 X-205.2979 Y178.8411 I3.8681 J11.3973
G3 X-205.0463 Y178.7589 I3.9496 J11.6605
G3 X-204.7927 Y178.6761 I4.037 J11.9423
G1 X-202.6278 Y177.9742
G1 X-200.3166 Y177.2315
G1 X-195.0315 Y175.544
G1 X-192.2141 Y174.6409
G1 X-191.4989 Y174.4104
G1 X-190.7726 Y174.1756
G1 X-190.035 Y173.9363
G1 X-188.5132 Y173.4396
G1 X-187.8443 Y173.2238
G1 X-187.6207 Y173.1538
G3 X-186.7191 Y172.8979 I5.4547 J17.4978
G3 X-186.4587 Y172.8354 I1.6835 J6.4402
G3 X-185.7563 Y172.7051 I1.9607 J8.615
G1 X-185.5672 Y172.6821
G3 X-185.3646 Y172.6645 I1.1924 J12.5507
G1 X-185.2598 Y172.6586
G3 X-185.1514 Y172.6549 I0.1314 J2.288
G3 X-184.6554 Y172.6761 I0.0939 J3.6156
G3 X-184.0987 Y172.7998 I-0.2795 J2.5727
G3 X-183.5181 Y173.1151 I-0.6262 J1.8449
G3 X-183.0164 Y173.7036 I-1.291 J1.6088
G2 X-184.4557 Y173.7709 I-0.166 J11.8762
G1 X-184.5513 Y173.7811
G1 X-184.6532 Y173.7925
G1 X-184.8858 Y173.8211
G1 X-185.1511 Y173.8576
G2 X-187.2513 Y174.2697 I3.3863 J22.8166
G2 X-188.6305 Y174.6341 I8.2845 J34.1453
G1 X-188.7176 Y174.6592
G1 X-189.0883 Y174.7684
G1 X-189.4825 Y174.8888
G2 X-190.3786 Y175.1781 I10.2973 J33.4292
G1 X-190.854 Y175.3399
G1 X-191.3592 Y175.5178
G1 X-191.8958 Y175.7133
G2 X-194.7166 Y176.8556 I16.7574 J45.4363
G1 X-193.9686 Y176.9082
G1 X-193.2208 Y176.9634
G1 X-192.7225 Y177.0028
G1 X-192.4378 Y177.0266
G3 X-190.1647 Y177.2623 I-4.4516 J53.9947
G3 X-188.6573 Y177.4839 I-4.3223 J34.6492
G1 X-188.2572 Y177.5546
G1 X-187.8314 Y177.6365
G3 X-185.5914 Y178.2115 I-3.8218 J19.5392
G3 X-184.3536 Y178.6799 I-4.2424 J13.0802
G3 X-183.0164 Y179.3957 I-3.7256 J8.567
G1 X-183.4896 Y179.3934
G1 X-183.9628 Y179.3965
G1 X-184.2782 Y179.4014
G2 X-184.319 Y179.4021 I-0.0123 J0.4121
G2 X-184.361 Y179.403 I-0.0125 J0.4199
G1 X-184.8091 Y179.4146
G2 X-186.5997 Y179.5017 I1.6218 J51.7454
G2 X-186.6566 Y179.5055 I0.0097 J0.5744
G2 X-186.7143 Y179.5094 I0.0103 J0.5812
G2 X-190.3956 Y179.8789 I4.1432 J59.811
G2 X-197.6619 Y181.2521 I8.5061 J64.9177
G2 X-202.3952 Y182.6353 I14.2087 J57.4143
G2 X-203.6349 Y183.0749 I13.5971 J40.3154
G1 X-203.7903 Y183.1326
G1 X-203.9467 Y183.1913
G2 X-206.7663 Y184.367 I15.536 J41.2268
G2 X-208.2311 Y185.0823 I13.5771 J29.6611
G2 X-209.7533 Y185.9247 I14.0665 J27.2157
G1 X-210.1318 Y186.1531
G1 X-210.3211 Y186.2706
G2 X-210.5109 Y186.3907 I4.1945 J6.84
G2 X-212.0839 Y187.4893 I12.2473 J19.2098
G2 X-213.0521 Y188.2847 I10.3581 J13.5966
G0 Z5.0
G0 X-204.5872 Y190.4284
G1 Z0.0
G1 X-202.7573 Y189.1992
G3 X-202.2985 Y191.4198 I-29.6896 J7.2914
G1 X-202.2453 Y191.7394
G3 X-201.907 Y194.3086 I-44.5297 J7.1702
G3 X-201.6142 Y199.48 I-55.7337 J5.7499
G1 X-201.6119 Y199.8143
G1 X-201.6118 Y200.1594
G3 X-201.6648 Y200.2833 I-0.2086 J-0.016
G3 X-201.7607 Y200.3778 I-0.5175 J-0.4292
G3 X-201.98 Y200.5254 I-1.0421 J-1.3125
G3 X-202.4458 Y200.7546 I-2.4242 J-4.3367
G3 X-202.7645 Y200.8852 I-4.6884 J-10.9957
G3 X-203.194 Y201.0422 I-4.9449 J-12.8553
G1 X-203.4417 Y201.1245
G1 X-204.5872 Y190.4284
G0 Z5.0
G0 X-199.9807 Y189.6863
G1 Z0.0
G1 X-200.2134 Y188.2416
G1 X-198.38 Y187.8938
G1 X-198.2459 Y188.4269
G1 X-198.2018 Y188.6048
G1 X-198.0288 Y189.3171
G3 X-197.7033 Y190.7464 I-67.1445 J16.0423
G3 X-197.5054 Y191.7035 I-41.4776 J9.074
G3 X-196.9197 Y195.5681 I-41.5457 J8.2737
G3 X-196.9134 Y195.6294 I-0.5814 J0.0905
G3 X-196.7318 Y198.2504 I-40.2995 J4.109
G3 X-196.7101 Y198.9507 I-28.51 J1.2322
G1 X-198.38 Y199.622
G1 X-199.9807 Y189.6863
G0 Z5.0
G0 X-195.1424 Y188.9749
G1 Z0.0
G1 X-195.4307 Y187.0143
G1 X-193.2923 Y186.6591
G3 X-192.928 Y188.2984 I-20.9755 J5.5213
G3 X-192.6676 Y189.9575 I-36.7962 J6.6246
G1 X-192.6065 Y190.4334
G3 X-192.5758 Y190.6875 I-14.509 J1.8815
G3 X-192.4306 Y192.0443 I-58.823 J6.9801
G3 X-192.4223 Y192.1306 I-2.3321 J0.269
G3 X-192.4053 Y192.3087 I-5.1725 J0.5819
G1 X-192.3703 Y192.6886
G1 X-192.3345 Y193.0941
G1 X-192.257 Y194.021
G1 X-192.2475 Y194.1388
G1 X-192.1619 Y195.2151
G1 X-192.116 Y195.7892
G1 X-192.0656 Y196.4013
G1 X-192.0087 Y197.0539
G1 X-191.9422 Y197.7495
G3 X-191.9616 Y197.869 I-0.2221 J0.0253
G3 X-192.0343 Y197.966 I-0.2752 J-0.1306
G3 X-192.2338 Y198.0907 I-0.4903 J-0.5626
G3 X-192.663 Y198.2225 I-0.856 J-2.0219
G1 X-192.788 Y198.2474
G3 X-193.7645 Y198.3464 I-1.2047 J-7.0159
G1 X-195.1424 Y188.9749
G0 Z5.0
G0 X-190.1947 Y188.5518
G1 Z0.0
G3 X-190.343 Y186.3114 I58.2583 J-4.9815
G1 X-188.5132
G1 X-188.511 Y186.5965
G1 X-188.5092 Y186.6915
G1 X-188.4975 Y187.0716
G1 X-188.4928 Y187.1802
G1 X-188.4773 Y187.4695
G2 X-188.3769 Y188.6238 I21.5251 J-1.2908
G1 X-188.3593 Y188.7773
G2 X-188.2512 Y189.5942 I32.2904 J-3.8592
G1 X-188.1799 Y190.0597
G1 X-188.0917 Y190.5905
G1 X-188.068 Y190.7274
G1 X-188.043 Y190.8686
G1 X-188.017 Y191.0143
G1 X-187.8939 Y191.6794
G1 X-187.7486 Y192.4384
G1 X-187.5827 Y193.3058
G1 X-187.4968 Y193.7688
G1 X-187.4089 Y194.2634
G1 X-187.3874 Y194.3892
G3 X-187.3 Y194.9263 I-27.5263 J4.7518
G3 X-187.2166 Y195.5008 I-17.2618 J2.8002
G1 X-187.1783 Y195.798
G3 X-187.0555 Y197.1626 I-18.7972 J2.3787
G3 X-187.0334 Y197.8935 I-13.4593 J0.7734
G3 X-187.0331 Y197.9857 I-2.004 J0.0525
G1 X-188.8553 Y197.8685
G1 X-188.9303 Y197.4312
G3 X-189.0053 Y196.9938 I314.2471 J-54.1485
G3 X-189.1549 Y196.119 I95.9929 J-16.865
G1 X-189.1748 Y196.0022
G1 X-189.2799 Y195.3799
G1 X-189.2933 Y195.2995
G3 X-189.7015 Y192.7257 I118.3268 J-20.0856
G3 X-189.9362 Y191.0041 I80.1508 J-11.8001
G3 X-190.0516 Y190.0179 I48.5138 J-6.1795
G1 X-190.107 Y189.4913
G1 X-190.1338 Y189.2193
G3 X-190.1947 Y188.5518 I58.1974 J-5.649
G0 Z5.0
G0 X-185.6451 Y188.1645
G1 Z0.0
G3 X-185.7314 Y187.02 I59.2446 J-5.0442
G3 X-185.7723 Y186.2853 I45.4911 J-2.8956
G1 X-183.9498 Y186.5271
G1 X-183.8512 Y187.3062
G1 X-183.8371 Y187.4175
G1 X-183.7246 Y188.308
G1 X-183.5014 Y190.0892
G1 X-183.3552 Y191.277
G1 X-183.3167 Y191.5938
G1 X-183.2759 Y191.9318
G1 X-183.2327 Y192.2923
G1 X-183.187 Y192.677
G1 X-183.0843 Y193.5563
G1 X-182.9703 Y194.5616
G3 X-182.9111 Y195.098 I-35.6432 J4.2052
G1 X-182.7806 Y196.3244
G1 X-182.7139 Y196.9789
G1 X-182.6453 Y197.6771
G1 X-182.611 Y198.0377
G1 X-184.5115 Y197.9857
G1 X-184.5409 Y197.6071
G2 X-184.5733 Y197.2288 I-14.3691 J1.0405
G1 X-184.5965 Y196.9767
G1 X-184.6293 Y196.6407
G1 X-184.6761 Y196.1932
G2 X-184.8906 Y194.406 I-85.1232 J9.3075
G1 X-185.0479 Y193.2164
G1 X-185.2593 Y191.6305
G1 X-185.2858 Y191.4257
G1 X-185.3414 Y190.9888
G1 X-185.3695 Y190.7632
G1 X-185.4276 Y190.2817
G1 X-185.4867 Y189.7679
G3 X-185.6451 Y188.1645 I59.0861 J-6.6476
G0 Z5.0
G0 X-184.3391 Y176.8541
G1 Z0.0
G3 X-184.6494 Y176.7955 I0.2525 J-2.1863
G3 X-185.1783 Y176.5626 I0.4521 J-1.7435
G3 X-185.465 Y176.3022 I0.6452 J-0.9986
G3 X-185.6458 Y175.8105 I0.6142 J-0.505
G3 X-185.5852 Y175.5206 I0.7467 J0.0047
G3 X-185.4242 Y175.272 I0.869 J0.3864
G3 X-184.9482 Y174.9366 I1.0355 J0.9643
G3 X-184.5813 Y174.8153 I0.8041 J1.8173
G3 X-184.0763 Y174.7599 I0.5078 J2.2971
G3 X-183.5742 Y174.8151 I0.0048 J2.2662
G3 X-183.1002 Y174.9892 I-0.404 J1.8325
G3 X-182.8226 Y175.1814 I-0.6259 J1.2006
G3 X-182.5592 Y175.5502 I-0.627 J0.7263
G3 X-182.5106 Y175.8105 I-0.6717 J0.26
G3 X-182.5709 Y176.1005 I-0.7282 J-0.0002
G3 X-182.7308 Y176.3497 I-0.8907 J-0.3956
G3 X-183.2047 Y176.6884 I-1.0418 J-0.9568
G3 X-183.571 Y176.8118 I-0.8192 J-1.8255
G3 X-184.0763 Y176.8686 I-0.5027 J-2.1979
G3 X-184.3391 Y176.8541 I-0.0104 J-2.2008
G0 Z5.0
G0 X-187.0375 Y201.2949
G1 Z0.0
G3 X-186.9185 Y201.3123 I-0.1897 J1.7184
G3 X-186.744 Y201.3628 I-0.1641 J0.8934
G3 X-186.6548 Y201.4175 I-0.1198 J0.2952
G3 X-186.6115 Y201.539 I-0.0734 J0.0946
G3 X-186.6503 Y201.6098 I-0.1699 J-0.047
G3 X-186.8084 Y201.7295 I-0.4226 J-0.3937
G3 X-187.0038 Y201.8158 I-0.8024 J-1.554
G3 X-187.4347 Y201.9315 I-1.0551 J-3.0675
G1 X-188.1057 Y202.0599
G1 X-188.7773 Y202.1842
G3 X-188.867 Y202.2005 I-0.283 J-1.2992
G3 X-189.3451 Y202.2869 I-10.4048 J-56.2627
G1 X-191.2585 Y202.6257
G1 X-192.5335 Y202.8544
G1 X-193.2613 Y202.9893
G2 X-194.092 Y203.1492 I10.6401 J57.5115
G2 X-196.2984 Y203.6201 I11.6927 J60.1908
G1 X-196.5818 Y203.6869
G2 X-197.8718 Y204.0147 I8.5911 J36.5113
G2 X-199.3321 Y204.4419 I9.8818 J36.4894
G1 X-199.5162 Y204.5007
G2 X-201.181 Y205.0936 I8.7773 J27.2814
G1 X-201.3896 Y205.1765
G2 X-202.2713 Y205.5514 I9.2364 J22.9436
G2 X-204.2235 Y206.5494 I8.834 J19.6898
G2 X-206.3054 Y207.9547 I8.9354 J15.4816
G2 X-206.3421 Y208.0201 I0.0548 J0.0737
G2 X-206.33 Y208.0943 I0.1693 J0.0105
G2 X-206.2541 Y208.2141 I0.3913 J-0.1639
G2 X-206.0491 Y208.381 I0.5838 J-0.5079
G2 X-205.8853 Y208.4396 I0.2318 J-0.3894
G2 X-205.7847 Y208.4269 I0.0282 J-0.1828
G1 X-205.6459 Y208.3661
G3 X-205.5995 Y208.346 I0.2402 J0.4913
G3 X-205.4135 Y208.2668 I1.8167 J4.0058
G3 X-205.3602 Y208.2444 I0.2588 J0.5426
G3 X-205.2992 Y208.219 I0.2789 J0.5841
G3 X-204.809 Y208.0223 I18.0092 J44.1531
G1 X-204.4799 Y207.8969
G1 X-204.2911 Y207.8273
G3 X-202.764 Y207.319 I10.723 J29.6644
G3 X-199.6474 Y206.5202 I11.0872 J36.7789
G1 X-199.4443 Y206.4771
G1 X-199.0103 Y206.3884
G3 X-196.6842 Y205.9814 I9.4131 J46.9529
G1 X-196.0611 Y205.8905
G3 X-194.6334 Y205.7088 I8.9589 J64.702
G3 X-194.2643 Y205.6677 I3.4222 J29.0399
G1 X-194.0768 Y205.6477
G3 X-193.6893 Y205.6084 I2.3665 J21.3652
G1 X-193.4924 Y205.5893
G1 X-193.2923 Y205.5707
G1 X-210.0282 Y211.3817
G1 X-213.0332 Y210.9151
G3 X-210.1099 Y208.2588 I17.3923 J16.204
G3 X-206.8032 Y206.0986 I16.0108 J20.897
G3 X-206.3398 Y205.8473 I17.1162 J31.0113
G3 X-205.2646 Y205.3043 I12.5139 J23.4419
G3 X-202.3069 Y204.0589 I14.1052 J29.3646
G3 X-198.2195 Y202.8113 I13.7808 J37.8289
G3 X-195.8365 Y202.283 I11.8719 J47.9066
G3 X-195.7613 Y202.2683 I0.3621 J1.6617
G3 X-195.6858 Y202.2538 I0.3619 J1.6735
G3 X-195.6099 Y202.2393 I0.3616 J1.6856
G3 X-194.9832 Y202.124 I6.9742 J36.1474
G3 X-192.106 Y201.692 I9.4408 J53.0869
G3 X-191.3605 Y201.6043 I5.4184 J42.8149
G3 X-191.1725 Y201.5836 I0.6071 J4.6572
G3 X-190.9829 Y201.5633 I0.6224 J4.9299
G3 X-190.7919 Y201.5435 I0.6418 J5.2564
G3 X-189.1604 Y201.3977 I5.8125 J55.843
G1 X-188.7456 Y201.3671
G1 X-188.3241 Y201.3386
G1 X-187.8958 Y201.3122
G1 X-187.4606 Y201.2881
G3 X-187.1889 Y201.2849 I0.1695 J2.8577
G3 X-187.0375 Y201.2949 I-0.0384 J1.7284
G0 Z5.0
G0 X-214.1564 Y207.7631
G1 Z0.0
G2 X-215.3222 Y209.406 I34.3658 J25.6226
G2 X-216.3986 Y211.1088 I24.349 J16.5836
G1 X-216.5319 Y211.3421
G1 X-216.6701 Y211.5932
G2 X-216.7396 Y211.7238 I17.6752 J9.4915
G2 X-217.0365 Y212.3316 I8.8358 J4.692
G1 X-217.1056 Y212.4919
G3 X-217.5628 Y212.0219 I2.0659 J-2.4662
G3 X-217.8944 Y211.4562 I1.8384 J-1.4577
G3 X-217.9706 Y210.1566 I1.827 J-0.7592
G3 X-217.5742 Y209.3726 I2.2639 J0.6524
G3 X-217.2389 Y208.9989 I2.6221 J2.0153
G3 X-216.7955 Y208.6424 I2.6872 J2.8891
G3 X-216.2397 Y208.321 I2.595 J3.845
G3 X-215.9291 Y208.1828 I2.4078 J4.9967
G3 X-215.2058 Y207.9461 I2.1185 J5.2487
G3 X-214.3726 Y207.7877 I1.6276 J6.2912
G1 X-214.1564 Y207.7631
G0 Z5.0
M5
M30
