( Made using CamBam - http://www.cambam.co.uk )
( _2014_1_20_car 1/20/2014 11:49:26 PM )
( T0 : 0.0 )
G21 G90 G64 G40
G0 Z5.0
( T0 : 0.0 )
T0 M6
( 143-148 )
G17
M3 S1000
G0 X-396.645 Y109.1997
G1 F1.0 Z0.0
G2 X-395.8454 Y109.6927 I2.4676 J-3.1069
G2 X-394.9665 Y110.024 I2.5964 J-5.5562
G2 X-394.7078 Y110.0963 I1.2956 J-4.1374
G2 X-394.0098 Y110.2508 I2.2359 J-8.446
G2 X-393.0682 Y110.388 I2.4015 J-13.1848
G1 X-392.8159 Y110.4139
G2 X-391.4692 Y110.4925 I1.8651 J-20.3798
G1 X-391.2952 Y110.4964
G1 X-391.1156 Y110.4993
G2 X-389.2071 Y110.4627 I0.307 J-33.7961
G1 X-388.6991 Y110.4364
G1 X-388.158 Y110.4028
G3 X-394.1288 Y114.1771 I-116.4585 J-177.6225
G3 X-400.2405 Y117.7189 I-82.0473 J-134.5385
G1 X-400.4373 Y117.8265
G1 X-401.279 Y118.2817
G2 X-401.8666 Y116.4075 I-52.4223 J15.4066
G1 X-401.9575 Y116.142
G2 X-402.7749 Y114.0512 I-24.7716 J8.4796
G1 X-402.8341 Y113.919
G2 X-403.5243 Y112.5362 I-17.1412 J7.6922
G2 X-403.5719 Y112.4503 I-1.3922 J0.7162
G2 X-404.7025 Y110.6874 I-14.7205 J8.1958
G2 X-406.5352 Y108.578 I-13.7645 J10.1085
G2 X-407.7204 Y107.5056 I-13.4555 J13.6792
G1 X-407.1582 Y107.5745
G1 X-406.971 Y107.5988
G3 X-406.864 Y107.6129 I-0.2783 J2.5164
G1 X-406.5789 Y107.6517
G1 X-406.1991 Y107.7056
G3 X-404.6837 Y107.9464 I-8.2863 J57.0496
G3 X-404.2517 Y108.0217 I-9.5671 J56.1528
G1 X-403.7587 Y108.1105
G1 X-403.1957 Y108.2147
G1 X-401.695 Y108.4963
G2 X-399.6886 Y108.84 I11.9016 J-63.4372
G2 X-396.994 Y109.1693 I6.4188 J-41.3346
G1 X-396.645 Y109.1997
G0 Z5.0
G0 X-394.1167 Y106.8518
G1 Z0.0
G3 X-394.755 Y105.9463 I3.0285 J-2.8124
G3 X-395.0991 Y104.8649 I2.9251 J-1.5262
G3 X-395.1009 Y104.2112 I2.5446 J-0.3342
G3 X-394.8858 Y103.4879 I2.2743 J0.2829
G3 X-394.3651 Y102.7842 I2.2237 J1.1007
G1 X-393.9524 Y104.3611
G2 X-393.3031 Y105.1131 I3.596 J-2.4487
G2 X-392.4948 Y105.6909 I2.79 J-3.0486
G2 X-390.5783 Y106.1598 I1.855 J-3.4303
G2 X-389.2737 Y105.9436 I-0.0639 J-4.4282
G2 X-388.4439 Y105.5849 I-3.1153 J-8.3483
G2 X-387.6617 Y105.1316 I-3.1679 J-6.3663
G1 X-387.5621 Y105.0635
G2 X-386.1671 Y103.7375 I-3.5502 J-5.1315
G2 X-385.4771 Y102.6522 I-5.719 J-4.398
G2 X-385.1637 Y101.9875 I-9.4956 J-4.884
G2 X-385.1275 Y101.9014 I-1.0499 J-0.4925
G2 X-384.8283 Y101.1043 I-10.524 J-4.4039
G2 X-384.5399 Y100.1782 I-22.6515 J-7.564
G1 X-384.4004 Y99.6811
G1 X-384.0951 Y98.5471
G3 X-383.9274 Y97.9453 I117.1159 J32.3016
G1 X-383.8832 Y97.793
G3 X-383.789 Y97.48 I31.1145 J9.1896
G1 X-383.6869 Y97.1589
G3 X-383.1284 Y95.7316 I11.8448 J3.8115
G3 X-382.7456 Y95.0097 I7.9487 J3.7526
G3 X-382.2558 Y94.288 I6.1648 J3.6575
G3 X-381.8689 Y94.1308 I1.2462 J2.5125
G3 X-381.4586 Y94.0542 I0.5032 J1.558
G3 X-381.18 Y94.0782 I0.0441 J1.114
G3 X-380.8389 Y94.2343 I-0.2139 J0.9184
G3 X-380.4996 Y94.6033 I-0.8564 J1.1279
G3 X-380.3555 Y94.8496 I-2.1102 J1.3998
G3 X-380.2881 Y94.9852 I-3.2603 J1.7075
G1 X-380.2212 Y95.131
G1 X-380.1883 Y95.2067
G3 X-380.0466 Y95.5487 I-10.2489 J4.4441
G2 X-380.0242 Y95.5957 I0.5387 J-0.2282
G1 X-379.9983 Y95.6407
G1 X-379.98 Y95.6702
G1 X-379.9016 Y95.7845
G1 X-379.8468 Y95.8588
G1 X-379.7717 Y95.9563
G2 X-379.46 Y96.3366 I8.4618 J-6.6171
G1 X-379.3689 Y96.4436
G2 X-378.6262 Y97.2852 I30.6245 J-26.2764
G1 X-378.1236 Y97.8394
G1 X-377.8352 Y98.155
G1 X-377.0654 Y98.9954
G1 X-376.6277 Y99.4776
G1 X-376.3969 Y99.7369
G1 X-376.3387 Y99.8034
G3 X-376.2713 Y100.044 I-0.2034 J0.1868
G3 X-376.3884 Y100.2647 I-0.4861 J-0.1165
G3 X-376.7584 Y100.5446 I-0.9185 J-0.8295
G3 X-377.041 Y100.6503 I-0.5368 J-1.0054
G3 X-377.2122 Y100.6647 I-0.1347 J-0.5779
G3 X-377.3019 Y100.6383 I0.0151 J-0.2171
G1 X-377.6194 Y100.458
G1 X-377.9386 Y100.2806
G1 X-378.1507 Y100.1611
G1 X-378.4313 Y99.9978
G1 X-378.5898 Y99.9016
G3 X-379.7952 Y99.0364 I5.7495 J-9.2827
G3 X-380.1172 Y98.7602 I8.1224 J-9.794
G1 X-380.8313 Y99.3701
G3 X-380.5967 Y99.9308 I-2.5186 J1.3832
G3 X-380.4784 Y100.527 I-3.2745 J0.9594
G3 X-380.5333 Y101.7354 I-4.2469 J0.4126
G1 X-380.5649 Y101.894
G3 X-380.8108 Y102.7172 I-5.2974 J-1.1342
G3 X-380.8962 Y102.9297 I-3.0981 J-1.1209
G3 X-381.4662 Y104.0015 I-6.5993 J-2.8222
G3 X-382.4684 Y105.2561 I-6.7051 J-4.3288
G3 X-384.1147 Y106.5894 I-6.5 J-6.3431
G3 X-386.657 Y107.7315 I-5.3166 J-8.4336
G3 X-388.2077 Y108.064 I-3.1019 J-10.683
G1 X-388.3067 Y108.0776
G3 X-390.1152 Y108.179 I-1.6063 J-12.4692
G3 X-392.156 Y107.9928 I0.2773 J-14.3189
G3 X-392.9634 Y107.7171 I0.6364 J-3.1837
G3 X-393.6819 Y107.2571 I1.7257 J-3.4871
G3 X-394.1167 Y106.8518 I2.5938 J-3.2178
G0 Z5.0
G0 X-391.1072 Y103.4816
G1 Z0.0
G3 X-391.7536 Y101.778 I20.6854 J-8.8235
G3 X-391.9357 Y101.1985 I16.7272 J-5.5765
G3 X-392.4682 Y98.8289 I16.6026 J-4.9755
G1 X-392.5128 Y98.5079
G3 X-392.5889 Y97.771 I15.8788 J-2.013
G3 X-392.6032 Y95.7954 I14.0203 J-1.0893
G3 X-392.1576 Y93.1972 I12.5669 J0.8184
G3 X-390.7422 Y89.9767 I12.4692 J3.5587
G3 X-389.5786 Y88.3319 I13.1292 J8.0536
G3 X-389.1157 Y87.9556 I1.2673 J1.0862
G3 X-388.5578 Y87.7446 I1.0097 J1.8266
G3 X-387.3802 Y87.7273 I0.6311 J2.8751
G3 X-386.6337 Y87.9686 I-0.5058 J2.8406
G3 X-386.2531 Y88.2076 I-0.9089 J1.8693
G3 X-385.9154 Y88.6015 I-0.8029 J1.03
G1 X-388.158 Y90.1764
G3 X-388.2986 Y90.4778 I-10.875 J-4.889
G1 X-388.444 Y90.7769
G1 X-388.7393 Y91.3728
G1 X-388.9328 Y91.7717
G1 X-389.0399 Y92.0013
G2 X-389.1578 Y92.2657 I17.6635 J8.0366
G2 X-389.4372 Y92.9857 I8.1789 J3.587
G2 X-389.6746 Y93.9894 I4.7937 J1.664
G2 X-389.6968 Y94.5812 I3.2452 J0.4177
G2 X-389.5786 Y95.253 I2.7074 J-0.1297
G2 X-389.1151 Y95.3847 I1.2079 J-3.3709
G2 X-388.6361 Y95.4364 I0.4602 J-2.0173
G2 X-388.3173 Y95.3867 I-0.018 J-1.1631
G2 X-387.9511 Y95.1509 I-0.2458 J-0.7837
G2 X-387.8068 Y94.9425 I-0.8 J-0.7082
G2 X-387.6938 Y94.6761 I-1.682 J-0.8711
G2 X-387.6074 Y94.3606 I-2.4706 J-0.8461
G1 X-387.5719 Y94.1912
G1 X-387.5553 Y94.1037
G1 X-387.4866 Y93.7113
G1 X-387.4495 Y93.5047
G3 X-387.4396 Y93.4525 I0.8459 J0.1342
G1 X-387.4181 Y93.3457
G1 X-387.3945 Y93.2367
G1 X-387.3679 Y93.1255
G1 X-387.3535 Y93.0694
G3 X-387.1848 Y92.5875 I2.9769 J0.7712
G3 X-386.8695 Y92.1126 I1.5708 J0.7008
G3 X-386.3244 Y91.7534 I1.0686 J1.0283
G3 X-385.62 Y91.5521 I2.1214 J6.0926
G1 X-385.5178 Y91.5296
G3 X-384.6891 Y91.4109 I1.3125 J6.2125
G3 X-384.1305 Y91.4078 I0.3007 J3.8494
G3 X-383.398 Y91.5512 I-0.1353 J2.6345
G3 X-383.0144 Y91.7467 I-0.5657 J1.584
G3 X-382.6612 Y92.1011 I-0.7711 J1.1218
G2 X-383.7553 Y92.7977 I2.4745 J5.0937
G2 X-384.6482 Y93.7386 I3.335 J4.059
G2 X-385.112 Y94.4697 I4.9269 J3.6379
G2 X-385.5893 Y95.5177 I7.8534 J4.2095
G2 X-385.8107 Y96.1363 I15.8149 J6.0104
G1 X-385.9193 Y96.469
G1 X-386.0307 Y96.8248
G1 X-386.147 Y97.2044
G1 X-386.2717 Y97.6083
G1 X-386.3374 Y97.8162
G3 X-386.6666 Y98.7527 I-14.325 J-4.5091
G3 X-386.8916 Y99.2748 I-8.9613 J-3.5525
G3 X-387.1664 Y99.7724 I-3.5411 J-1.6309
G3 X-387.4063 Y100.0668 I-1.4239 J-0.9151
G3 X-387.5869 Y100.1912 I-0.4716 J-0.4914
G3 X-387.8522 Y100.1958 I-0.1377 J-0.2898
G3 X-387.9793 Y100.108 I0.1839 J-0.4022
G3 X-388.0882 Y99.9754 I0.5248 J-0.5421
G3 X-388.1798 Y99.8139 I1.005 J-0.677
G3 X-388.2577 Y99.6318 I2.6459 J-1.2383
G3 X-388.3764 Y99.2398 I3.1516 J-1.1682
G3 X-388.46 Y98.8077 I5.8177 J-1.35
G3 X-388.489 Y98.5761 I3.6879 J-0.5799
G1 X-388.5381 Y98.0792
G2 X-388.606 Y97.5846 I-6.265 J0.6075
G2 X-388.68 Y97.26 I-3.241 J0.5687
G2 X-388.7062 Y97.1751 I-1.321 J0.3608
G2 X-388.9203 Y96.7504 I-1.3656 J0.4222
G2 X-389.4784 Y96.4149 I-0.6992 J0.5312
G2 X-389.863 Y96.4017 I-0.2436 J1.4903
G2 X-390.2927 Y96.4804 I0.2807 J2.7484
G2 X-390.5971 Y97.4582 I4.0893 J1.809
G2 X-390.6957 Y98.4774 I5.639 J1.0601
G2 X-390.6739 Y99.1598 I8.9156 J0.0567
G2 X-390.6671 Y99.2476 I1.2059 J-0.0492
G2 X-390.5518 Y100.178 I12.8118 J-1.1154
G1 X-390.5323 Y100.2975
G1 X-390.5114 Y100.4206
G2 X-390.4075 Y100.9809 I26.6898 J-4.6582
G1 X-390.3484 Y101.2789
G1 X-390.3332 Y101.3545
G1 X-390.3017 Y101.5105
G1 X-390.2347 Y101.8431
G3 X-390.0938 Y102.6041 I-22.8387 J4.6242
G3 X-389.9915 Y103.4816 I-7.8559 J1.3606
G1 X-391.1072
G0 Z5.0
G0 X-377.1308 Y95.8321
G1 Z0.0
G3 X-377.473 Y94.9053 I2.9562 J-1.618
G1 X-376.0915 Y95.0966
G1 X-374.7094 Y95.2841
G2 X-374.5251 Y95.3089 I0.7501 J-4.8671
G1 X-373.5421 Y95.4413
G1 X-372.9804 Y95.5171
G1 X-371.4828 Y95.721
G1 X-370.6274 Y95.8399
G1 X-370.1713 Y95.9043
G1 X-369.1294 Y96.0552
G3 X-367.9398 Y96.2365 I-12.6765 J87.1428
G3 X-367.7889 Y96.2605 I-0.4375 J3.2458
G1 X-367.4775 Y96.3107
G3 X-367.1562 Y96.3638 I-6.7118 J41.595
G1 X-366.8248 Y96.4202
G1 X-366.4831 Y96.4804
G1 X-366.5566 Y96.5205
G2 X-366.5811 Y96.5341 I0.0904 J0.1913
G2 X-366.6783 Y96.5894 I0.7256 J1.389
G1 X-366.8703 Y96.7039
G2 X-367.2466 Y96.9453 I4.8524 J7.9767
G1 X-367.4931 Y97.1129
G2 X-367.5247 Y97.1348 I0.2227 J0.3552
G1 X-367.86 Y97.3711
G1 X-368.3048 Y97.6893
G1 X-368.5598 Y97.87
G1 X-368.6259 Y97.9162
G3 X-369.3445 Y98.3889 I-7.655 J-10.8565
G1 X-369.5424 Y98.505
G3 X-370.0098 Y98.7438 I-2.8013 J-4.9039
G3 X-370.5759 Y98.947 I-1.5822 J-3.5183
G3 X-371.2658 Y99.0223 I-0.5866 J-2.175
G3 X-373.9426 Y98.3212 I1.6172 J-11.6346
G1 X-374.1137 Y98.2513
G3 X-375.0016 Y97.8224 I3.5811 J-8.5468
G3 X-376.0883 Y97.0804 I3.2162 J-5.8765
G3 X-376.6269 Y96.552 I3.1154 J-3.7144
G3 X-377.1248 Y95.8431 I3.0126 J-2.6454
G3 X-377.1308 Y95.8321 I2.9502 J-1.6289
G0 Z5.0
G0 X-367.4187 Y90.6453
G1 Z0.0
G3 X-367.447 Y90.5895 I1.404 J-0.7498
G3 X-367.6153 Y89.9392 I1.6483 J-0.7735
G3 X-367.5566 Y89.1656 I2.8006 J-0.1766
G3 X-367.2975 Y88.3319 I4.8253 J1.0429
G3 X-365.6279 Y86.2771 I29.4769 J22.2448
G1 X-365.5118 Y86.1441
G3 X-363.5896 Y84.0753 I40.4906 J35.6932
G1 X-363.4619 Y83.9452
G3 X-362.8737 Y83.3555 I56.9434 J56.216
G1 X-362.557 Y83.0441
G1 X-362.217 Y82.7141
G1 X-361.852 Y82.3645
G1 X-361.4602 Y81.9943
G3 X-359.3339 Y80.06 I61.5769 J65.5573
G3 X-359.266 Y80.0001 I0.9645 J1.0235
G3 X-359.1975 Y79.9397 I0.9763 J1.038
G3 X-358.9144 Y79.691 I11.0839 J12.3329
G1 X-358.6214 Y79.4353
G1 X-357.9938 Y78.8928
G1 X-357.6686 Y78.6142
G1 X-356.9722 Y78.0231
G1 X-356.226 Y77.3969
G3 X-354.5095 Y75.9791 I108.7995 J129.9733
G3 X-353.5893 Y75.2288 I120.0475 J146.2952
G1 X-353.3552 Y75.0388
G1 X-352.8716 Y74.6469
G1 X-350.6573 Y72.861
G1 X-350.3759 Y72.6343
G1 X-350.2342 Y72.52
G2 X-347.6498 Y70.4235 I-339.5693 J-421.2229
G1 X-346.9865 Y69.878
G1 X-346.3043 Y69.312
G2 X-346.1329 Y69.1688 I-3.9136 J-4.8599
G1 X-345.7852 Y68.8771
G1 X-345.433 Y68.5797
G3 X-344.8134 Y68.4 I0.5203 J0.6359
G3 X-344.6045 Y68.4732 I-0.0551 J0.4916
G3 X-344.5152 Y68.5675 I-0.1427 J0.2247
G3 X-344.4886 Y68.723 I-0.2141 J0.1166
G3 X-344.5575 Y68.9007 I-0.4815 J-0.0844
G3 X-344.6891 Y69.0683 I-0.8676 J-0.5462
G1 X-344.7673 Y69.145
G1 X-347.6949 Y71.8341
G1 X-348.6681 Y72.7333
G1 X-349.2228 Y73.2485
G1 X-349.8553 Y73.8391
G2 X-351.5317 Y75.4248 I117.1712 J125.5473
G2 X-353.7347 Y77.5728 I98.039 J102.7556
G1 X-353.8729 Y77.7108
G2 X-355.1257 Y78.9838 I64.3951 J64.6247
G1 X-355.2039 Y79.0648
G1 X-355.5256 Y79.4
G1 X-355.6884 Y79.5709
G1 X-356.0227 Y79.9252
G2 X-357.5201 Y81.5742 I52.7027 J49.3598
G2 X-357.5613 Y81.6637 I0.1314 J0.1149
G2 X-357.5491 Y81.7614 I0.2092 J0.0234
G2 X-357.4438 Y81.9188 I0.4209 J-0.1677
G2 X-357.1454 Y82.1072 I0.5776 J-0.584
G2 X-356.9158 Y82.1405 I0.1884 J-0.4917
G2 X-356.7875 Y82.1005 I-0.0282 J-0.3163
G2 X-354.0634 Y80.3673 I-33.0868 J-55.0105
G1 X-353.6807 Y80.1097
G2 X-350.6599 Y77.9905 I-69.3777 J-102.1092
G2 X-350.5648 Y77.922 I-1.0465 J-1.5513
G2 X-350.4683 Y77.8523 I-1.0688 J-1.5821
G1 X-350.057 Y77.5545
G1 X-349.1189 Y76.8712
G1 X-348.0487 Y76.0878
G1 X-347.4781 Y75.6697
G1 X-346.1723 Y74.7165
G3 X-344.6735 Y73.6361 I86.2917 J118.132
G1 X-344.4824 Y73.4999
G1 X-343.6647 Y72.9225
G3 X-341.7769 Y71.6296 I65.6914 J93.889
G1 X-341.5349 Y71.4687
G1 X-341.0335 Y71.1393
G3 X-338.7051 Y69.6898 I33.2975 J50.8943
G3 X-338.087 Y69.6705 I0.4363 J4.0717
G3 X-337.4733 Y69.7474 I-0.1216 J3.457
G3 X-337.0792 Y69.8705 I-0.4509 J2.1373
G3 X-336.8677 Y69.9768 I-0.6447 J1.5463
G3 X-336.6507 Y70.1405 I-0.6411 J1.0754
G3 X-336.4625 Y70.3928 I-0.6217 J0.6601
G2 X-339.6376 Y72.2618 I35.9741 J64.7449
G2 X-340.084 Y72.5409 I12.9505 J21.2096
G2 X-343.5956 Y74.8644 I49.4945 J78.6193
G2 X-343.6501 Y74.9022 I0.7349 J1.1189
G2 X-343.7051 Y74.9403 I0.7418 J1.1279
G2 X-343.7605 Y74.9787 I0.7488 J1.1369
G2 X-346.0992 Y76.649 I63.2651 J91.0609
G2 X-346.7161 Y77.1038 I38.275 J52.5564
G1 X-347.371 Y77.593
G2 X-350.8147 Y80.2659 I83.8907 J111.6367
G2 X-355.2913 Y83.9717 I110.1773 J137.6481
G2 X-356.4655 Y84.983 I110.0099 J128.9163
G2 X-362.6088 Y90.5078 I162.6206 J187.0063
G1 X-363.3888 Y91.2346
G3 X-363.5107 Y91.3276 I-0.5096 J-0.5411
G3 X-363.645 Y91.4019 I-0.5837 J-0.8976
G3 X-363.9299 Y91.5139 I-0.9378 J-1.9668
G3 X-364.5244 Y91.6459 I-1.0828 J-3.471
G3 X-365.7323 Y91.6476 I-0.6101 J-4.3959
G3 X-366.5103 Y91.4365 I0.4019 J-3.0195
G3 X-366.7047 Y91.3424 I0.765 J-1.8274
G3 X-367.1071 Y91.0531 I0.9396 J-1.7316
G3 X-367.4187 Y90.6453 I1.0924 J-1.1576
G0 Z5.0
G0 X-354.7196 Y86.9985
G1 Z0.0
G3 X-354.6394 Y86.674 I1.6625 J0.239
G3 X-354.511 Y86.3654 I2.8692 J1.0122
G3 X-354.4916 Y86.3252 I0.3794 J0.159
G3 X-354.1349 Y85.7103 I5.5277 J2.7949
G3 X-353.865 Y85.3213 I7.4118 J4.8544
G3 X-353.7032 Y85.1048 I4.211 J2.9802
G3 X-353.2514 Y84.5448 I12.3858 J9.5286
G3 X-353.2368 Y84.5275 I0.1318 J0.0967
G3 X-353.2219 Y84.51 I0.1329 J0.0978
G3 X-353.095 Y84.3623 I6.4873 J5.4477
G3 X-352.7992 Y84.0297 I13.0052 J11.2687
G1 X-352.6386 Y83.8551
G3 X-352.2651 Y83.4628 I17.9995 J16.7611
G3 X-352.1673 Y83.3629 I5.0562 J4.8545
G3 X-351.0941 Y82.3325 I20.9988 J20.7965
G1 X-350.7989 Y82.0674
G1 X-350.6452 Y81.9323
G3 X-349.9314 Y81.3287 I15.7807 J17.9386
G3 X-349.8393 Y81.2537 I1.3806 J1.5999
G3 X-347.8044 Y79.7555 I16.2293 J19.9135
G3 X-347.5307 Y79.5782 I7.7383 J11.643
G3 X-346.9372 Y79.2151 I8.0552 J12.5014
G1 X-346.6255 Y79.0369
G3 X-346.2995 Y78.8604 I5.6564 J10.0591
G3 X-345.5884 Y78.514 I6.2161 J11.8574
G1 X-345.4971 Y78.4738
G1 X-345.4048 Y78.4341
G3 X-344.599 Y78.1374 I3.3371 J7.8209
G3 X-344.1701 Y78.022 I1.8435 J5.9996
G3 X-343.9489 Y77.9766 I0.7353 J3.0162
G3 X-343.4842 Y77.9183 I0.7238 J3.8901
G1 X-354.7196 Y86.9985
G0 Z5.0
M5
M30
