( Made using CamBam - http://www.cambam.co.uk )
( _2014_1_20_car 1/20/2014 11:52:23 PM )
( T0 : 0.0 )
G21 G90 G64 G40
G0 Z5.0
( T0 : 0.0 )
T0 M6
( 43 )
G17
M3 S1000
G0 X48.8842 Y238.0552
G1 F1.0 Z0.0
G1 X51.8294 Y237.4434
G1 X50.3047 Y236.7423
G3 X51.7586 Y236.199 I48.0427 J126.3505
G1 X51.9666 Y236.1221
G1 X52.5215 Y235.9177
G1 X54.742 Y235.1029
G1 X56.2208 Y234.5556
G1 X56.6146 Y234.4083
G1 X57.0344 Y234.2502
G1 X57.9923 Y233.8851
G2 X58.1138 Y233.8383 I-0.9758 J-2.7129
G1 X58.6317 Y233.6372
G2 X61.3762 Y232.5217 I-36.2716 J-93.17
G1 X62.1017 Y232.209
G1 X62.475 Y232.0447
G1 X62.8593 Y231.8728
G1 X63.0541 Y231.7846
G2 X64.8208 Y230.9472 I-24.1392 J-53.2104
G2 X66.8014 Y229.9117 I-22.6373 J-45.7098
G2 X67.8364 Y229.3196 I-19.2093 J-34.7814
G1 X67.9656 Y229.2429
G1 X68.0955 Y229.165
G1 X68.2261 Y229.086
G2 X70.5535 Y227.5429 I-17.1754 J-28.4302
G2 X73.0293 Y225.521 I-16.0122 J-22.1334
G1 X73.1768 Y225.3836
G2 X74.3878 Y224.1597 I-16.3986 J-17.4371
G2 X75.5726 Y222.7515 I-15.0124 J-13.8337
G2 X77.7777 Y219.1436 I-15.4507 J-11.9207
G1 X80.4182 Y220.9826
G2 X81.8665 Y221.522 I6.6893 J-15.745
G1 X82.0766 Y221.5899
G1 X82.3175 Y221.6654
G1 X82.5935 Y221.7492
G1 X82.9098 Y221.8422
G2 X83.7558 Y222.0801 I15.6668 J-54.0882
G1 X84.8862 Y222.3883
G1 X85.5312 Y222.5679
G3 X87.2354 Y223.0984 I-8.1077 J29.0483
G1 X87.4525 Y223.1757
G1 X87.6755 Y223.2583
G3 X88.1472 Y223.4455 I-3.9869 J10.7388
G3 X89.1971 Y223.941 I-4.5278 J10.9519
G3 X90.3186 Y224.6568 I-4.0186 J7.5332
G3 X91.4231 Y225.717 I-3.9186 J5.1877
G2 X104.2172 Y229.5209 I192.4721 J-623.9486
G1 X106.0514 Y230.0423
G2 X120.7824 Y234.0033 I158.7771 J-561.1234
G2 X130.6597 Y236.4248 I140.3885 J-551.3076
G1 X131.9374 Y236.7237
G1 X133.2571 Y237.0291
G1 X134.6202 Y237.3407
G1 X136.028 Y237.6585
G1 X137.4823 Y237.9826
G1 X138.9844 Y238.3126
G2 X145.8639 Y239.7636 I114.3995 J-525.375
G2 X153.7508 Y241.3016 I96.0798 J-471.6975
G2 X162.7949 Y242.8952 I84.3403 J-452.2138
G2 X173.1686 Y244.4908 I72.0504 J-433.8947
G2 X173.4947 Y244.5368 I3.8725 J-26.2551
G2 X173.822 Y244.5828 I3.8913 J-26.5316
G2 X174.1507 Y244.6287 I3.9104 J-26.8138
G1 X174.5777 Y244.6794
G2 X175.0048 Y244.7293 I3.2105 J-25.6145
G1 X175.8594 Y244.8267
G2 X177.5696 Y245.0114 I26.7951 J-240.157
G2 X180.9943 Y245.3377 I19.5675 J-187.2118
G2 X181.1032 Y245.3471 I0.3408 J-3.3194
G2 X188.0774 Y245.8082 I14.6448 J-168.5366
G2 X188.2991 Y245.818 I0.7469 J-14.3009
G2 X188.7568 Y245.8374 I1.3006 J-25.3363
G2 X193.6419 Y245.9563 I5.8636 J-140.5059
G1 X194.2725 Y245.9594
G1 X194.9234
G2 X197.8987 Y245.9181 I-0.507 J-143.5901
G1 X198.2765 Y245.9078
G2 X206.3211 Y245.3888 I-3.0198 J-109.4143
G1 X206.5737 Y245.3625
G2 X207.0867 Y245.307 I-3.6131 J-35.7972
G2 X211.7618 Y244.6684 I-10.127 J-91.578
G1 X212.3528 Y244.5696
G1 X212.9526 Y244.465
G2 X218.3968 Y243.2974 I-13.6689 J-77.0095
G2 X219.7867 Y242.9309 I-17.8357 J-70.4706
G2 X221.2136 Y242.5229 I-15.3822 J-56.4946
G1 X221.5718 Y242.4152
G2 X228.006 Y240.0803 I-18.1655 J-60.0894
G1 X228.4021 Y239.9092
G2 X231.7296 Y238.3266 I-22.9454 J-52.5347
G2 X233.4046 Y237.423 I-23.4285 J-45.4303
G2 X236.8671 Y235.2922 I-25.1559 J-44.7574
G2 X240.3652 Y232.715 I-27.5259 J-41.0245
G1 X240.7895 Y232.3687
G1 X240.7567 Y232.4316
G3 X240.7456 Y232.4526 I-0.12 J-0.0502
G3 X240.7005 Y232.5359 I-1.1228 J-0.5539
G1 X240.6071 Y232.7008
G3 X240.5426 Y232.8095 I-4.8286 J-2.7916
G3 X240.2699 Y233.2347 I-7.4505 J-4.4783
G3 X240.0769 Y233.5107 I-10.5363 J-7.1609
G3 X240.0643 Y233.5281 I-0.1297 J-0.0804
G3 X239.2127 Y234.5982 I-12.5658 J-9.1271
G3 X238.6025 Y235.2754 I-14.2458 J-12.2238
G3 X237.7516 Y236.1424 I-18.7337 J-17.5322
G1 X237.5188 Y236.3676
G3 X236.2432 Y237.5308 I-26.9029 J-28.2203
G1 X236.0749 Y237.6767
G3 X235.2961 Y238.332 I-21.5118 J-24.7754
G3 X235.2465 Y238.3727 I-0.3925 J-0.4277
G3 X235.1965 Y238.4136 I-0.3963 J-0.4331
G3 X228.4151 Y243.0867 I-32.465 J-39.8553
G3 X226.3437 Y244.2059 I-22.4168 J-39.0115
G1 X226.2777 Y244.2391
G3 X223.8191 Y245.3575 I-15.0411 J-29.8031
G3 X223.0954 Y245.6397 I-11.3606 J-28.0661
G1 X222.8526 Y245.7296
G1 X222.5278 Y245.8465
G1 X222.0929 Y245.9976
G3 X220.3381 Y246.5545 I-15.4918 J-45.7712
G1 X219.8331 Y246.7017
G3 X219.5632 Y246.7782 I-8.3537 J-28.9277
G1 X218.945 Y246.9486
G1 X218.7852 Y246.9915
G1 X218.6201 Y247.0355
G1 X218.2675 Y247.1277
G1 X217.891 Y247.2242
G1 X217.4888 Y247.3248
G3 X215.3356 Y247.8263 I-22.2003 J-90.4496
G1 X215.0569 Y247.887
G1 X214.7689 Y247.9488
G1 X214.1541 Y248.0777
G1 X213.4975 Y248.2109
G1 X212.7962 Y248.3483
G3 X209.0429 Y249.0062 I-21.8213 J-113.4412
G3 X193.9028 Y250.5643 I-21.98 J-139.245
G1 X193.0746 Y250.6014
G1 X192.2461 Y250.6336
G1 X191.6937 Y250.6524
G1 X190.957 Y250.6742
G1 X189.9746 Y250.6973
G3 X186.0443 Y250.7251 I-3.0365 J-151.8321
G3 X178.1877 Y250.4862 I1.0137 J-162.6849
G3 X172.9597 Y250.1268 I10.0972 J-185.0919
G3 X172.6281 Y250.099 I1.0133 J-14.0574
G3 X172.2913 Y250.0701 I1.0394 J-14.1019
G3 X165.1205 Y249.3184 I17.5649 J-202.128
G3 X164.8951 Y249.2907 I1.2888 J-11.4233
G3 X164.6679 Y249.2625 I1.3086 J-11.4932
G3 X155.0058 Y247.8565 I29.8384 J-238.9495
G3 X154.7024 Y247.8062 I2.8492 J-18.1146
G3 X149.1651 Y246.8285 I48.117 J-288.6708
G1 X147.7392 Y246.5595
G3 X141.2367 Y245.2538 I63.9295 J-335.2228
G1 X140.4127 Y245.0798
G1 X139.576 Y244.9013
G1 X138.7263 Y244.7183
G1 X137.8636 Y244.5306
G1 X136.0838 Y244.1378
G1 X134.2482 Y243.7254
G1 X133.3165 Y243.5134
G1 X132.3703 Y243.2963
G1 X131.8936 Y243.1862
G1 X131.4133 Y243.075
G3 X130.4378 Y242.8476 I25.4514 J-111.431
G1 X128.4251 Y242.3735
G3 X124.1364 Y241.3432 I155.7645 J-657.7773
G1 X121.9252 Y240.803
G1 X119.6439 Y240.2409
G1 X117.2901 Y239.6567
G1 X114.8613 Y239.0509
G1 X109.6817 Y237.7547
G1 X107.0084 Y237.0869
G1 X105.6503 Y236.7489
G1 X104.2704 Y236.4066
G1 X102.8683 Y236.0602
G2 X99.9726 Y235.3509 I-256.3068 J1040.0554
G1 X98.501 Y234.9941
G2 X92.2148 Y233.5082 I-152.698 J631.9281
G1 X91.8197 Y233.4172
G1 X91.4231 Y233.3263
G1 X93.2568 Y231.7512
G2 X93.1142 Y230.1113 I-2.2387 J-0.6316
G2 X92.8305 Y229.6299 I-2.6491 J1.2372
G2 X92.7419 Y229.5101 I-1.3621 J0.9141
G2 X92.212 Y228.9264 I-4.2236 J3.3019
G2 X91.4231 Y228.2516 I-6.8341 J7.1913
G2 X91.2938 Y228.3624 I0.7187 J0.9688
G1 X91.2534 Y228.4025
G2 X91.1134 Y228.5812 I0.706 J0.6975
G2 X91.0268 Y229.025 I0.5328 J0.3343
G2 X91.1217 Y229.3156 I1.1795 J-0.2246
G2 X91.1987 Y229.471 I7.131 J-3.4344
G1 X91.242 Y229.5523
G1 X91.3388 Y229.7357
G3 X91.3626 Y229.7834 I-0.565 J0.3115
G1 X91.4101 Y229.8859
G3 X91.493 Y230.1259 I-1.6189 J0.6939
G3 X91.4231 Y230.7862 I-0.9079 J0.2377
G3 X87.7099 Y230.8595 I-2.3307 J-23.9809
G3 X84.0299 Y230.3588 I1.2325 J-22.8324
G3 X81.6502 Y229.6665 I4.1088 J-18.5595
G3 X81.0339 Y229.4264 I5.5602 J-15.1879
G3 X79.666 Y228.78 I5.7186 J-13.872
G3 X78.1985 Y227.8607 I5.9898 J-11.1922
G3 X77.4728 Y227.2865 I6.4133 J-8.8506
G3 X77.3652 Y226.9549 I0.6281 J-0.3873
G3 X77.45 Y226.6167 I0.5855 J-0.0329
G3 X77.5953 Y226.4337 I0.7965 J0.4832
G3 X77.8374 Y226.2457 I0.9899 J1.025
G3 X78.1905 Y226.0648 I1.1706 J1.8498
G3 X80.167 Y225.3999 I4.0341 J8.7221
G3 X82.2387 Y225.1622 I2.2016 J10.0391
G3 X83.6283 Y225.2247 I0.1538 J12.0442
G3 X85.4516 Y225.551 I-1.3642 J12.8819
G3 X87.7797 Y226.3569 I-3.6092 J14.1911
G3 X90.616 Y227.9875 I-6.2786 J14.2033
G2 X90.8017 Y227.3681 I-1.1222 J-0.674
G2 X90.6883 Y226.7314 I-1.5892 J-0.0454
G2 X90.4959 Y226.3458 I-2.119 J0.8167
G2 X90.1559 Y225.89 I-2.6829 J1.6463
G2 X89.6183 Y225.3719 I-3.7878 J3.3926
G2 X88.8228 Y224.806 I-4.1722 J5.0235
G2 X87.6917 Y224.2201 I-4.6537 J7.5997
G2 X86.1231 Y223.6715 I-4.6026 J10.6432
G2 X85.2061 Y223.4583 I-3.1907 J11.6451
G2 X82.7599 Y223.2139 I-2.5402 J13.0578
G2 X79.5625 Y223.5596 I-0.1276 J13.7795
G2 X75.643 Y225.0997 I3.1621 J13.8046
G3 X74.4195 Y227.9912 I-7.2964 J-1.3828
G3 X73.7636 Y228.8154 I-6.6356 J-4.6082
G3 X72.7551 Y229.7897 I-7.7624 J-7.0255
G3 X71.2535 Y230.8936 I-9.1933 J-10.9318
G3 X71.2041 Y230.9254 I-0.3419 J-0.4774
G3 X71.1541 Y230.9573 I-0.3427 J-0.4818
G1 X71.0141 Y231.0465
G1 X70.8742 Y231.136
G1 X70.7811 Y231.1959
G1 X70.4091 Y231.4363
G2 X70.1615 Y231.5971 I25.6369 J39.729
G1 X70.0201 Y231.6892
G1 X68.889 Y232.4256
G1 X68.738 Y232.5234
G1 X67.9306 Y233.0425
G1 X67.4676 Y233.3364
G1 X66.9364 Y233.6692
G1 X66.3264 Y234.045
G3 X64.6819 Y235.0172 I-33.686 J-55.0999
G1 X64.4676 Y235.139
G3 X62.1454 Y236.373 I-23.8295 J-42.0432
G3 X60.7853 Y237.0129 I-17.3503 J-35.1102
G3 X59.1972 Y237.6692 I-12.3543 J-27.6446
G1 X58.9929 Y237.7458
G1 X58.5689 Y237.8988
G3 X56.5947 Y238.4935 I-7.3801 J-20.9253
G3 X55.5187 Y238.7264 I-4.5357 J-18.3503
G3 X54.3547 Y238.8946 I-2.822 J-15.4152
G3 X53.0992 Y238.9647 I-1.3518 J-12.93
G3 X51.7549 Y238.8902 I-0.09 J-10.542
G3 X50.3374 Y238.6102 I1.0777 J-9.1822
G3 X48.8842 Y238.0552 I2.3109 J-8.2313
G0 Z5.0
M5
M30
