( Made using CamBam - http://www.cambam.co.uk )
( _2014_1_20_car 1/20/2014 11:49:33 PM )
( T0 : 0.0 )
G21 G90 G64 G40
G0 Z5.0
( T0 : 0.0 )
T0 M6
( 141-160-161 )
G17
M3 S1000
G0 X-229.9254 Y-48.7708
G1 F1.0 Z0.0
G1 X-230.5084 Y-48.7447
G2 X-230.5917 Y-48.7407 I0.0566 J2.0696
G2 X-230.687 Y-48.7361 I0.0637 J2.3071
G2 X-231.4482 Y-48.6961 I2.0375 J46.0223
G2 X-231.6657 Y-48.6835 I0.4494 J9.6217
G1 X-232.2454 Y-48.6468
G1 X-232.5765 Y-48.6237
G2 X-235.2192 Y-48.3646 I3.3171 J47.4361
G1 X-235.5701 Y-48.3178
G1 X-235.9439 Y-48.264
G2 X-237.9256 Y-47.901 I4.033 J27.6072
G2 X-240.5107 Y-47.1659 I4.4992 J20.7338
G2 X-241.9343 Y-46.5839 I5.7277 J16.0435
G2 X-241.578 Y-46.4323 I0.8893 J-1.5961
G2 X-241.2039 Y-46.3324 I1.1463 J-3.5392
G2 X-241.0958 Y-46.309 I0.6666 J-2.8263
G2 X-240.2245 Y-46.1691 I2.0978 J-10.2825
G2 X-238.4728 Y-46.005 I4.0445 J-33.7373
G1 X-237.9714 Y-45.9709
G2 X-237.3983 Y-45.9355 I2.2359 J-31.5433
G1 X-236.7436 Y-45.8982
G1 X-236.5746 Y-45.8889
G1 X-236.2141 Y-45.8695
G1 X-234.2932 Y-45.7664
G1 X-233.1962 Y-45.7017
G1 X-232.9131 Y-45.6836
G1 X-232.3096 Y-45.6426
G3 X-230.9317 Y-45.5325 I-5.8806 J82.257
G3 X-230.1979 Y-45.4613 I-3.0808 J35.606
G1 X-229.8195 Y-45.4203
G1 X-229.6275 Y-45.3982
G1 X-229.2314 Y-45.3495
G1 X-228.8232 Y-45.2945
G3 X-227.955 Y-45.1575 I-3.0217 J21.9684
G3 X-227.0355 Y-44.9723 I-2.9105 J16.8257
G3 X-226.5655 Y-44.855 I-2.2742 J10.1126
G3 X-225.5826 Y-44.5289 I-2.1873 J8.2375
G3 X-225.3413 Y-44.4227 I-1.6798 J4.1414
G3 X-224.864 Y-44.1561 I-1.5835 J3.3962
G3 X-224.4322 Y-43.7799 I-1.1247 J1.7266
G2 X-225.2246 Y-43.7979 I-0.5425 J6.4323
G2 X-226.0079 Y-43.6779 I0.1205 J3.4027
G2 X-226.4958 Y-43.4696 I0.5259 J1.9076
G2 X-227.0118 Y-42.9776 I0.8159 J1.3724
G2 X-227.2027 Y-42.6121 I1.7754 J1.1598
G2 X-227.2405 Y-42.5125 I1.814 J0.7454
G2 X-227.3678 Y-42.044 I3.0151 J1.0706
G2 X-227.4531 Y-41.5011 I6.2146 J1.255
G1 X-227.4856 Y-41.2117
G3 X-227.8657 Y-39.6819 I-5.4373 J-0.539
G3 X-228.6654 Y-38.3235 I-5.1768 J-2.1332
G3 X-229.3863 Y-37.557 I-4.8128 J-3.8036
G3 X-230.5077 Y-36.7203 I-5.1434 J-5.7241
G3 X-232.1751 Y-35.9079 I-5.1247 J-8.4001
G3 X-234.539 Y-35.2712 I-4.5347 J-12.1297
G3 X-235.9203 Y-35.0954 I-2.5983 J-14.9013
G3 X-239.5659 Y-35.1744 I-1.4344 J-17.9605
G1 X-239.7958 Y-35.2036
G3 X-240.37 Y-35.3139 I0.907 J-6.2728
G3 X-240.9305 Y-35.4807 I1.3466 J-5.5506
G3 X-241.2925 Y-35.626 I1.5827 J-4.4667
G3 X-242.5857 Y-36.4899 I1.8663 J-4.1934
G3 X-243.2575 Y-37.2838 I3.3902 J-3.5503
G3 X-243.9016 Y-38.5074 I5.3071 J-3.5749
G3 X-243.934 Y-38.5892 I0.9679 J-0.4303
G3 X-244.1895 Y-39.3483 I8.2616 J-3.2033
G3 X-244.2449 Y-39.5473 I25.2545 J-7.1478
G3 X-244.4529 Y-40.463 I11.8437 J-3.1715
G3 X-244.6209 Y-41.5151 I19.5752 J-3.665
G1 X-244.6559 Y-41.7874
G3 X-244.6894 Y-42.0681 I8.3416 J-1.1393
G1 X-244.722 Y-42.3575
G1 X-244.7543 Y-42.6559
G1 X-244.823 Y-43.2892
G1 X-244.8619 Y-43.6149
G1 X-244.8836 Y-43.7799
G3 X-244.8499 Y-44.7067 I6.9258 J-0.2119
G1 X-244.8343 Y-44.8383
G3 X-244.605 Y-45.8729 I5.6409 J0.7076
G3 X-243.575 Y-47.716 I5.1244 J1.6545
G3 X-242.5398 Y-48.6771 I4.7318 J4.0585
G3 X-241.8652 Y-49.1206 I4.6901 J6.399
G3 X-241.0455 Y-49.5388 I4.3961 J7.6032
G3 X-240.0666 Y-49.9117 I4.0578 J9.1824
G3 X-238.9158 Y-50.216 I3.4686 J10.7864
G3 X-237.5812 Y-50.4242 I2.5739 J12.1185
G3 X-234.0649 Y-50.3507 I1.4638 J14.1132
G3 X-232.1228 Y-49.9002 I-1.6665 J11.5952
G1 X-231.8833 Y-49.818
G3 X-230.8939 Y-49.392 I-2.7269 J7.6944
G3 X-229.9254 Y-48.7708 I-2.5558 J5.0507
G0 Z5.0
G0 X-225.6101 Y-51.9896
G1 Z0.0
G1 X-225.8255 Y-52.2783
G1 X-226.0137 Y-52.5349
G1 X-226.0611 Y-52.6003
G1 X-226.262 Y-52.8803
G3 X-224.8929 Y-52.6783 I-0.6655 J9.2497
G3 X-223.5641 Y-52.292 I-2.4114 J10.7737
G3 X-221.0787 Y-51.089 I-4.4679 J12.3994
G3 X-219.5865 Y-50.0095 I-6.4521 J10.4898
G3 X-218.8161 Y-49.2911 I-6.4628 J7.7035
G3 X-218.0428 Y-48.3667 I-5.6494 J5.5115
G3 X-217.6987 Y-47.8216 I-4.6773 J3.3341
G3 X-217.4106 Y-47.1939 I-3.8429 J2.1435
G3 X-218.5904 Y-47.4901 I15.881 J-65.7644
G3 X-219.7678 Y-47.7959 I47.158 J-183.9773
G1 X-220.5535 Y-47.9963
G1 X-221.0035 Y-48.1071
G1 X-221.519 Y-48.2284
G2 X-222.9037 Y-48.5067 I-5.6106 J24.3333
G1 X-223.6488 Y-49.4456
G1 X-224.3877 Y-50.3894
G1 X-224.5976 Y-50.66
G1 X-225.1538 Y-51.3842
G1 X-225.4689 Y-51.8003
G1 X-225.6101 Y-51.9896
G0 Z5.0
G0 X-218.1246 Y-54.1152
G1 Z0.0
G3 X-216.9687 Y-54.3299 I3.415 J15.1685
G3 X-215.8015 Y-54.4711 I3.1973 J21.5292
G3 X-213.4553 Y-54.6076 I3.0947 J32.9573
G1 X-213.142 Y-54.6138
G3 X-208.1397 Y-54.3827 I0.6335 J40.537
G3 X-204.8402 Y-53.871 I-3.6413 J34.3705
G1 X-204.4187 Y-53.7808
G3 X-203.5244 Y-53.5674 I-6.8064 J30.506
G3 X-201.5122 Y-52.9577 I-5.8423 J22.9063
G3 X-200.4661 Y-52.5507 I-5.6888 J16.1709
G3 X-199.3817 Y-52.0402 I-6.5311 J15.2816
G1 X-199.315 Y-52.0052
G3 X-198.2094 Y-51.347 I-5.9836 J11.3073
G3 X-197.6696 Y-50.9576 I-4.9616 J7.4474
G3 X-199.3123 Y-51.1452 I1.6544 J-21.7726
G3 X-200.9402 Y-51.4343 I4.2786 J-28.8227
G1 X-201.4026 Y-51.531
G3 X-202.6308 Y-51.8104 I12.0085 J-55.6214
G3 X-204.2618 Y-52.2098 I61.3429 J-254.085
G1 X-204.6964 Y-52.3172
G2 X-207.022 Y-52.8559 I-15.9291 J63.4742
G2 X-208.3625 Y-53.1089 I-7.499 J36.0561
G2 X-208.4473 Y-53.1228 I-0.3519 J1.8742
G1 X-208.798 Y-53.1776
G2 X-209.5486 Y-53.2776 I-4.3376 J29.6749
G2 X-209.6434 Y-53.2885 I-0.2014 J1.3384
G1 X-210.0354 Y-53.329
G2 X-211.8361 Y-53.4131 I-1.7444 J18.0177
G1 X-212.0651 Y-53.4109
G2 X-214.1564 Y-53.2412 I0.2652 J16.239
G2 X-214.1407 Y-52.9779 I0.7857 J0.0852
G2 X-214.1204 Y-52.8921 I0.8638 J-0.1589
G2 X-214.0034 Y-52.5611 I2.6926 J-0.7653
G1 X-213.963 Y-52.4694
G2 X-213.5836 Y-51.7701 I6.1793 J-2.9003
G3 X-213.5081 Y-51.6192 I-0.6812 J0.4352
G3 X-213.4747 Y-51.4539 I-0.4829 J0.1837
G3 X-213.644 Y-51.1655 I-0.3046 J0.015
G3 X-213.8718 Y-51.1204 I-0.1975 J-0.3995
G3 X-214.1564 Y-51.1992 I0.0406 J-0.6991
G3 X-214.6872 Y-51.5003 I3.1793 J-6.2256
G1 X-214.859 Y-51.6091
G1 X-215.0847 Y-51.7594
G3 X-215.9571 Y-52.4033 I9.9184 J-14.3504
G1 X-216.1998 Y-52.5958
G3 X-216.475 Y-52.8186 I7.9287 J-10.077
G1 X-216.7877 Y-53.0752
G2 X-217.6253 Y-53.7541 I-26.2278 J31.5006
G2 X-218.1246 Y-54.1152 I-4.6607 J5.9199
G0 Z5.0
M5
M30
