( Made using CamBam - http://www.cambam.co.uk )
( _2014_1_20_car 1/20/2014 11:50:53 PM )
( T0 : 0.0 )
G21 G90 G64 G40
G0 Z5.0
( T0 : 0.0 )
T0 M6
( 165-166 )
G17
M3 S1000
G0 X15.7471 Y86.8014
G1 F1.0 Z0.0
G3 X14.1751 Y86.0284 I31.2113 J-65.4538
G3 X13.6576 Y85.7578 I8.8876 J-17.6276
G3 X12.9793 Y85.3753 I6.8859 J-13.0035
G1 X12.8037 Y85.2645
G1 X12.7599 Y85.235
G1 X12.6712 Y85.1715
G1 X12.6278 Y85.1371
G3 X12.5493 Y85.0528 I0.2109 J-0.2751
G3 X12.5508 Y85.0207 I0.0225 J-0.0151
G3 X12.6091 Y85.0083 I0.0466 J0.0758
G3 X12.6846 Y85.0163 I-0.0088 J0.4425
G3 X12.852 Y85.0539 I-0.3421 J1.913
G3 X13.1464 Y85.1429 I-1.3896 J5.1299
G3 X13.4628 Y85.2524 I-2.7887 J8.5691
G3 X13.6137 Y85.3076 I-1.8452 J5.2766
G1 X13.956 Y85.4378
G3 X14.2407 Y85.5502 I-4.6326 J12.1582
G3 X14.4477 Y85.6336 I-2.5218 J6.5503
G1 X14.8945 Y85.8181
G1 X15.0615 Y85.8884
G1 X15.3036 Y85.9913
G1 X15.811 Y86.2107
G1 X16.3546 Y86.4505
G3 X16.4201 Y86.4797 I-0.3338 J0.8371
G2 X18.8813 Y87.5581 I88.7025 J-199.0847
G1 X19.7038 Y87.9129
G2 X22.9995 Y89.3182 I214.4661 J-498.3911
G1 X23.1043 Y89.3626
G1 X25.3401 Y90.3054
G1 X28.3243 Y91.5553
G1 X29.1205 Y91.8875
G1 X29.9701 Y92.2414
G1 X30.8765 Y92.6184
G1 X32.9488 Y93.4785
G1 X33.4837 Y93.7002
G1 X34.036 Y93.9288
G1 X36.5611 Y94.9725
G1 X39.4482 Y96.1625
G1 X42.7489 Y97.5193
G1 X44.5098 Y98.2418
G2 X72.7133 Y109.7285 I2829.8617 J-6907.8161
G1 X80.7783 Y112.9934
G1 X89.9981 Y116.7183
G1 X90.1425 Y116.7766
G1 X100.7028 Y121.0348
G1 X102.0441 Y121.575
G1 X107.767 Y123.8788
G1 X110.721 Y125.0672
G1 X111.4654 Y125.3666
G1 X111.9461 Y125.5593
G1 X112.0149 Y125.5868
G1 X112.5649 Y125.806
G1 X112.7221 Y125.8685
G1 X113.9804 Y126.3663
G2 X114.3402 Y126.5081 I8.9066 J-22.0749
G1 X115.2998 Y126.8853
G1 X115.5558 Y126.9857
G1 X116.141 Y127.215
G1 X117.7021 Y127.8248
G1 X119.7845 Y128.6353
G1 X120.9749 Y129.0973
G2 X130.5056 Y132.7733 I1101.2117 J-2840.9579
G2 X133.2307 Y133.8183 I2531.2124 J-6596.4245
G1 X134.6845 Y134.3749
G1 X136.2353 Y134.9679
G1 X137.0359 Y135.2738
G1 X140.6963 Y136.6698
G1 X144.8811 Y138.2612
G1 X145.9613 Y138.6711
G1 X150.9011 Y140.5412
G1 X152.1763 Y141.0227
G1 X152.4976 Y141.1439
G1 X153.1506 Y141.3902
G1 X155.9368 Y142.4394
G1 X157.3753 Y142.9799
G2 X172.7387 Y148.692 I777.7214 J-2068.2849
G1 X174.7248 Y149.419
G1 X175.7341 Y149.787
G1 X176.2429 Y149.972
G1 X178.3446 Y150.7332
G1 X178.8745 Y150.9241
G1 X179.9516 Y151.3109
G1 X180.4946 Y151.5051
G1 X181.0421 Y151.7003
G1 X182.155 Y152.0952
G1 X182.2247 Y152.1198
G1 X184.874 Y153.0533
G1 X187.5249 Y153.982
G2 X187.8786 Y154.1054 I7.9753 J-22.2752
G2 X188.2558 Y154.237 I8.2342 J-22.9977
G2 X188.6582 Y154.3773 I8.5008 J-23.7427
G2 X189.0875 Y154.5268 I8.7756 J-24.5113
G2 X189.3091 Y154.6039 I6.2557 J-17.6218
G2 X189.5378 Y154.6834 I6.3533 J-17.9001
G2 X189.774 Y154.7655 I6.4522 J-18.1824
G2 X190.0178 Y154.8502 I6.5524 J-18.4687
G2 X190.2694 Y154.9376 I6.6542 J-18.7598
G1 X192.9545 Y155.8666
G2 X203.7133 Y159.5293 I469.4397 J-1361.2939
G2 X210.9027 Y161.9212 I385.3059 J-1146.1101
G2 X211.1293 Y161.9959 I5.8043 J-17.2395
G2 X211.3578 Y162.0711 I5.8214 J-17.2991
G2 X211.5881 Y162.1469 I5.8384 J-17.3587
G2 X211.8202 Y162.2232 I5.8554 J-17.4186
G2 X212.0542 Y162.3001 I5.8724 J-17.4786
G2 X212.29 Y162.3775 I5.8895 J-17.5387
G2 X212.5277 Y162.4555 I5.9065 J-17.599
G1 X214.5565 Y163.1191
G1 X216.7216 Y163.8232
G2 X221.6755 Y165.4176 I363.5753 J-1121.145
G2 X234.9193 Y169.5639 I358.6422 J-1122.3117
G2 X235.1275 Y169.6277 I4.8588 J-15.4855
G2 X252.9345 Y174.9178 I316.0645 J-1031.3007
G2 X253.2146 Y174.9983 I4.997 J-16.855
G2 X253.4958 Y175.079 I4.997 J-16.8709
G2 X253.7781 Y175.16 I4.997 J-16.8866
G2 X254.0616 Y175.2412 I4.9968 J-16.9023
G2 X258.9023 Y176.6148 I368.5191 J-1289.5341
G2 X259.2063 Y176.7002 I4.9846 J-17.1605
G2 X259.5115 Y176.7858 I4.9833 J-17.1745
G2 X259.8179 Y176.8717 I4.982 J-17.1883
G2 X260.1256 Y176.9578 I4.9806 J-17.2021
G2 X260.4345 Y177.0442 I4.9791 J-17.2156
G2 X260.7446 Y177.1308 I4.9776 J-17.2292
G2 X261.056 Y177.2176 I4.976 J-17.2426
G2 X261.3686 Y177.3047 I4.9743 J-17.2559
G2 X261.6825 Y177.392 I4.9726 J-17.269
G2 X261.9977 Y177.4795 I4.9708 J-17.2821
G2 X262.3141 Y177.5673 I4.9689 J-17.2951
G2 X262.6317 Y177.6553 I4.9669 J-17.3078
G2 X262.9507 Y177.7436 I4.9649 J-17.3206
G1 X265.5855 Y178.4684
G2 X293.8162 Y185.7256 I245.7534 J-897.439
G1 X294.7827 Y185.9605
G1 X295.1045 Y186.0406
G1 X295.5332 Y186.149
G1 X295.7779 Y186.2118
G1 X295.809 Y186.2199
G1 X296.4707 Y186.3946
G1 X296.8479 Y186.4978
G1 X297.0487 Y186.5542
G1 X297.5064 Y186.6874
G1 X297.7495 Y186.7618
G3 X298.2998 Y186.9495 I-2.5412 J8.3539
G1 X298.4386 Y187.0068
G3 X298.5744 Y187.0824 I-0.2714 J0.6473
G3 X298.5953 Y187.1178 I-0.0223 J0.037
G3 X298.567 Y187.1378 I-0.035 J-0.0196
G3 X298.5216 Y187.1458 I-0.0543 J-0.1745
G3 X298.4614 Y187.1489 I-0.0756 J-0.9074
G3 X298.4046 Y187.1483 I-0.0254 J-0.3287
G1 X298.3456 Y187.1459
G3 X298.1454 Y187.1294 I0.0964 J-2.4034
G1 X298.1217 Y187.127
G1 X297.9845 Y187.1111
G3 X297.7259 Y187.0763 I0.6546 J-5.8375
G3 X297.1029 Y186.977 I3.3172 J-22.8177
G1 X296.7077 Y186.9072
G1 X296.0859 Y186.7904
G1 X295.553 Y186.6853
G1 X295.0729 Y186.5876
G1 X294.5389 Y186.4759
G1 X294.3503 Y186.4359
G1 X293.5858 Y186.2705
G3 X278.6648 Y182.8124 I133.1648 J-608.5099
G1 X276.5403 Y182.289
G1 X275.4079 Y182.0069
G1 X274.2005 Y181.7039
G1 X272.9133 Y181.3783
G1 X271.541 Y181.0281
G1 X270.078 Y180.6516
G1 X268.5183 Y180.2464
G3 X260.2158 Y178.0266 I177.5094 J-680.568
G1 X258.0062 Y177.4185
G1 X255.6512 Y176.7626
G1 X254.4365 Y176.4213
G1 X253.1833 Y176.0669
G3 X239.8501 Y172.1659 I231.9514 J-817.5145
G3 X232.2587 Y169.8448 I271.3932 J-901.2047
G1 X230.3027 Y169.2358
G1 X228.2849 Y168.6031
G3 X206.8375 Y161.6216 I363.3604 J-1152.6781
G1 X205.4799 Y161.1654
G1 X204.1013 Y160.7007
G1 X202.7012 Y160.2272
G1 X201.2794 Y159.7448
G1 X199.8356 Y159.2534
G1 X198.3693 Y158.7527
G1 X195.3437 Y157.7147
G1 X192.2226 Y156.6374
G1 X189.0027 Y155.5195
G1 X188.1917 Y155.2369
G1 X187.3744 Y154.9517
G1 X186.5508 Y154.664
G1 X185.7209 Y154.3736
G1 X184.8845 Y154.0806
G1 X181.4326 Y152.8674
G3 X171.8636 Y149.4609 I553.7737 J-1570.7208
G1 X170.4983 Y148.9697
G1 X166.8592 Y147.6546
G1 X164.781 Y146.8997
G3 X148.1838 Y140.7822 I737.834 J-2027.3349
G3 X148.0538 Y140.7336 I1.3281 J-3.7579
G3 X147.9233 Y140.6849 I1.3355 J-3.7778
G3 X147.7922 Y140.636 I1.343 J-3.798
G3 X147.6607 Y140.5869 I1.3506 J-3.8184
G3 X147.5286 Y140.5376 I1.3583 J-3.8391
G1 X145.2759 Y139.6951
G3 X109.3401 Y125.9314 I944.2287 J-2519.088
G1 X107.0283 Y125.0262
G1 X106.7382 Y124.9124
G1 X104.3434 Y123.972
G1 X101.8722 Y122.999
G1 X101.5621 Y122.8767
G1 X100.3024 Y122.3795
G1 X99.023 Y121.8738
G1 X96.3823 Y120.8277
G3 X90.7524 Y118.5873 I783.1122 J-1976.055
G1 X87.8485 Y117.4262
G1 X84.8524 Y116.2241
G1 X81.7611 Y114.9794
G1 X78.5718 Y113.6906
G1 X78.3721 Y113.6097
G1 X78.172 Y113.5287
G1 X74.8689 Y112.188
G1 X74.0369 Y111.8494
G1 X70.6029 Y110.4484
G3 X54.9341 Y103.9726 I832.3057 J-2036.0598
G1 X52.9482 Y103.1411
G1 X52.824 Y103.089
G1 X52.6996 Y103.0368
G1 X51.6973 Y102.616
G1 X50.6873 Y102.1912
G1 X49.6697 Y101.7624
G1 X47.603 Y100.8892
G3 X38.7993 Y97.1302 I587.1936 J-1387.4092
G1 X36.5676 Y96.1658
G1 X34.3025 Y95.1813
G1 X32.0038 Y94.176
G1 X30.8463 Y93.6672
G1 X28.4967 Y92.6286
G1 X28.2026 Y92.4981
G1 X27.0176 Y91.9705
G1 X25.8242 Y91.4368
G1 X24.6223 Y90.8967
G1 X24.0194 Y90.6247
G1 X23.4144 Y90.3511
G1 X22.1958 Y89.7975
G1 X22.1196 Y89.7628
G1 X21.5081 Y89.4836
G1 X20.2766 Y88.9186
G1 X19.037 Y88.3457
G1 X17.7893 Y87.7644
G1 X17.6333 Y87.6914
G1 X16.3769 Y87.1001
G1 X15.7471 Y86.8014
G0 Z5.0
G0 X311.9172 Y174.0513
G1 Z0.0
G1 X312.4965 Y174.322
G1 X313.0774 Y174.5894
G2 X313.115 Y174.6066 I0.2039 J-0.3958
G2 X313.5153 Y174.7894 I16.5167 J-35.6377
G1 X315.1165 Y175.5208
G3 X316.1799 Y176.0171 I-42.747 J92.991
G1 X316.7847 Y176.3068
G3 X317.4723 Y176.6453 I-33.8697 J69.672
G3 X317.8372 Y176.8296 I-9.5929 J19.4403
G1 X318.2247 Y177.0296
G3 X320.2526 Y178.1685 I-16.6303 J31.986
G1 X320.3785 Y178.2457
G1 X320.506 Y178.3248
G3 X321.6493 Y179.0839 I-11.651 J18.7884
G1 X321.7198 Y179.1341
G1 X321.7906 Y179.1849
G1 X321.8618 Y179.2365
G1 X321.9332 Y179.2887
G1 X322.2259 Y179.5079
G1 X322.5234 Y179.7403
G1 X322.5976 Y179.7998
G3 X323.8897 Y180.9677 I-9.2843 J11.5703
G3 X325.1601 Y182.5095 I-7.916 J7.8163
G3 X325.7098 Y183.4279 I-7.6494 J5.2029
G3 X326.1724 Y184.4779 I-7.5251 J3.9419
G1 X326.0499 Y184.4119
G1 X325.9275 Y184.3457
G1 X325.683 Y184.2125
G1 X325.1953 Y183.9442
G3 X325.1303 Y183.9083 I0.3486 J-0.7071
G1 X324.0919 Y183.3321
G1 X323.3984 Y182.9504
G2 X322.4684 Y182.4511 I-23.2427 J42.1808
G1 X321.9327 Y182.1738
G1 X321.7938 Y182.1034
G2 X321.1551 Y181.7895 I-17.3724 J34.532
G2 X320.4163 Y181.4492 I-11.2309 J23.4147
G2 X319.5579 Y181.0916 I-8.6374 J19.5228
G2 X318.5558 Y180.7365 I-5.7392 J14.6049
G2 X318.3243 Y180.7221 I-0.1411 J0.4017
G2 X318.1272 Y180.8442 I0.0866 J0.3601
G2 X318.0388 Y181.2772 I0.3611 J0.2992
G2 X318.236 Y181.5044 I0.3522 J-0.1064
G3 X320.5044 Y182.7443 I-10.5048 J21.9151
G3 X322.6311 Y184.214 I-12.6552 J20.5852
G3 X323.9456 Y185.3297 I-11.4459 J14.818
G1 X323.9853 Y185.3669
G1 X324.0251 Y185.4046
G3 X324.7281 Y186.1179 I-10.328 J10.8804
G3 X325.4559 Y187.0028 I-7.3591 J6.795
G3 X325.7963 Y187.5116 I-5.8334 J4.2699
G1 X325.8756 Y187.6455
G3 X326.1724 Y188.2416 I-4.5783 J2.6514
G1 X317.1535 Y184.4779
G1 X311.9172 Y174.0513
G0 Z5.0
M5
M30
