( Made using CamBam - http://www.cambam.co.uk )
( _2014_1_20_car 1/20/2014 11:48:09 PM )
( T0 : 0.0 )
G21 G90 G64 G40
G0 Z5.0
( T0 : 0.0 )
T0 M6
( 142-149-150-159 )
G17
M3 S1000
G0 X-366.8922 Y42.9049
G1 F1.0 Z0.0
G2 X-367.0854 Y43.0697 I26.2412 J30.9609
G1 X-367.1495 Y43.125
G2 X-367.2348 Y43.1991 I1.3079 J1.5919
G1 X-367.5731 Y43.4981
G1 X-367.7965 Y43.6999
G2 X-368.6745 Y44.5238 I26.2908 J28.898
G2 X-370.3697 Y46.2337 I37.5197 J38.8951
G2 X-370.3959 Y46.2612 I0.2626 J0.2762
G2 X-373.6307 Y49.8772 I61.3094 J58.1009
G2 X-375.6832 Y52.3768 I88.4262 J74.7026
G1 X-376.2181 Y53.0534
G2 X-376.2852 Y53.1389 I1.2387 J1.0398
G1 X-376.8538 Y53.8713
G1 X-377.1451 Y54.2511
G1 X-377.444 Y54.6444
G2 X-377.5191 Y54.7437 I2.8969 J2.2682
G2 X-377.5947 Y54.8438 I3.2883 J2.5591
G2 X-377.7479 Y55.0476 I6.1201 J4.7604
G1 X-378.0626 Y55.4693
G2 X-381.2943 Y60.0558 I87.6788 J65.2108
G1 X-381.6931 Y60.6601
G2 X-382.0997 Y61.2873 I43.0021 J28.3291
G2 X-383.8848 Y64.2004 I64.4288 J41.482
G1 X-382.2558 Y64.6988
G2 X-380.0395 Y61.8072 I-165.9311 J-129.472
G2 X-377.8674 Y58.8821 I-198.629 J-149.7624
G2 X-377.5808 Y58.4898 I-94.4009 J-69.2687
G1 X-376.9284 Y57.5914
G1 X-376.1869 Y56.5617
G1 X-375.7931 Y56.0112
G1 X-375.3745 Y55.423
G1 X-375.159 Y55.119
G2 X-368.4381 Y45.2718 I-288.293 J-203.9799
G1 X-367.5666 Y43.9423
G1 X-367.119 Y43.2546
G2 X-366.8922 Y42.9049 I-21.1853 J-13.9863
G0 Z5.0
G0 X-363.1506 Y46.4115
G1 Z0.0
G2 X-365.3407 Y48.7824 I163.677 J153.3956
G1 X-366.1582 Y49.6865
G1 X-366.9962 Y50.6249
G1 X-367.4196 Y51.1035
G1 X-367.8481 Y51.5912
G1 X-368.2817 Y52.0881
G1 X-368.7204 Y52.5945
G2 X-372.6439 Y57.299 I135.4488 J116.9507
G1 X-372.8854 Y57.6
G1 X-373.1282 Y57.9039
G2 X-375.1695 Y60.5212 I121.6639 J96.9942
G1 X-375.4227 Y60.854
G2 X-379.8845 Y67.0662 I115.2458 J87.4826
G2 X-382.1193 Y70.4801 I103.5193 J70.2031
G2 X-384.3778 Y74.2022 I104.7053 J66.0769
G2 X-386.6294 Y78.2661 I92.8419 J54.096
G2 X-386.8509 Y78.7413 I4.8982 J2.5725
G1 X-386.9154 Y78.9039
G2 X-387.1346 Y79.5678 I7.8011 J2.9437
G1 X-387.188 Y79.7603
G2 X-387.2453 Y79.9813 I8.8723 J2.421
G2 X-387.3074 Y80.2346 I18.0985 J4.5686
G1 X-387.4685 Y80.9107
G1 X-387.4792 Y80.9535
G3 X-387.5856 Y81.3426 I-7.8668 J-1.9418
G3 X-387.7416 Y81.7767 I-3.5517 J-1.0316
G3 X-388.0134 Y82.232 I-1.6986 J-0.7054
G3 X-388.531 Y82.5831 I-0.8591 J-0.7095
G3 X-388.872 Y82.6453 I-0.4093 J-1.2782
G1 X-388.854 Y82.3398
G1 X-388.8306 Y82.0346
G1 X-388.823 Y81.9474
G3 X-388.7468 Y81.2519 I18.4141 J1.6659
G3 X-388.6812 Y80.79 I25.4667 J3.381
G3 X-388.3067 Y78.9629 I19.6782 J3.0813
G3 X-387.9655 Y77.7671 I20.274 J5.1387
G3 X-387.4123 Y76.2046 I23.3393 J7.3834
G3 X-387.0528 Y75.3283 I23.1114 J8.9699
G3 X-386.6094 Y74.3413 I26.4719 J11.2999
G3 X-386.5508 Y74.217 I2.3814 J1.0456
G3 X-386.4909 Y74.0909 I2.3813 J1.0553
G3 X-386.4295 Y73.9631 I2.3845 J1.0665
G3 X-385.848 Y72.8051 I43.4769 J21.1091
G3 X-385.1463 Y71.502 I59.0176 J30.9392
G3 X-384.311 Y70.0329 I79.5113 J44.2347
G1 X-383.8564 Y69.255
G1 X-382.8103 Y67.4838
G1 X-382.2558 Y66.5379
G2 X-382.7811 Y66.0288 I-2.0461 J1.586
G2 X-383.4186 Y65.6704 I-1.8905 J2.6163
G2 X-383.875 Y65.499 I-1.9404 J4.4738
G2 X-384.4946 Y65.3106 I-5.4593 J16.8459
G2 X-384.8943 Y65.6563 I6.7438 J8.1995
G1 X-385.0232 Y65.7765
G2 X-385.5183 Y66.2777 I7.3299 J7.7355
G2 X-385.8314 Y66.6279 I7.2687 J6.8135
G1 X-385.9128 Y66.7233
G1 X-386.0954 Y66.9437
G2 X-387.4137 Y68.8124 I14.2572 J11.4572
G1 X-387.573 Y69.0725
G2 X-388.3691 Y70.4897 I24.1635 J14.5054
G2 X-388.7885 Y71.3181 I24.3547 J12.8523
G2 X-389.8037 Y73.5723 I38.1671 J18.5431
G1 X-389.9252 Y73.8672
G2 X-391.1113 Y77.0491 I53.488 J21.7507
G1 X-391.2516 Y77.4642
G2 X-391.8603 Y79.3702 I71.2807 J23.8143
G1 X-392.0095 Y79.8645
G2 X-392.0466 Y79.9892 I3.8257 J1.2064
G2 X-392.0838 Y80.1149 I4.5811 J1.424
G2 X-392.1211 Y80.2416 I6.0632 J1.8531
G2 X-393.5457 Y85.6801 I96.7721 J28.2548
G2 X-395.0198 Y93.0092 I119.0487 J27.7584
G2 X-395.334 Y94.9771 I99.7869 J16.94
G1 X-395.3708 Y95.2255
G1 X-395.4434 Y95.7304
G1 X-395.4788 Y95.985
G1 X-395.548 Y96.5024
G1 X-395.6141 Y97.0286
G2 X-395.7317 Y98.1171 I42.7914 J5.1769
G1 X-395.7552 Y98.392
G1 X-395.7605 Y98.461
G2 X-395.7858 Y99.0223 I8.0831 J0.646
G3 X-398.9164 Y99.1506 I-1.9638 J-9.6653
G3 X-399.3615 Y99.0893 I0.9746 J-8.7225
G1 X-399.4761 Y99.0708
G3 X-400.6867 Y98.8227 I2.9119 J-17.2917
G1 X-401.0072 Y98.7462
G1 X-401.3484 Y98.6624
G1 X-401.7119 Y98.5724
G1 X-401.8996 Y98.5261
G1 X-402.3002 Y98.4291
G1 X-402.4021 Y98.405
G1 X-400.7211 Y99.9224
G3 X-400.9126 Y100.1452 I-1.808 J-1.3603
G3 X-401.1336 Y100.3389 I-1.2493 J-1.2024
G3 X-401.3093 Y100.4276 I-0.3635 J-0.5012
G3 X-401.424 Y100.4337 I-0.0705 J-0.2462
G3 X-402.2451 Y100.2501 I4.7955 J-23.3751
G1 X-402.2997 Y100.2369
G3 X-403.1674 Y100.0079 I5.1383 J-21.2339
G1 X-403.4136 Y99.9362
G1 X-403.4771 Y99.9172
G3 X-405.4686 Y99.1991 I5.3257 J-17.8893
G3 X-406.7385 Y98.5816 I5.5613 J-13.0524
G3 X-406.835 Y98.5186 I0.4637 J-0.8158
G3 X-406.9185 Y98.4393 I0.3246 J-0.4252
G3 X-406.9538 Y98.3705 I0.1424 J-0.1165
G3 X-406.9364 Y98.2654 I0.1307 J-0.0324
G3 X-406.8361 Y98.1638 I0.3059 J0.2018
G3 X-406.6817 Y98.073 I0.5712 J0.7945
G3 X-406.491 Y97.9872 I0.9939 J1.9536
G1 X-406.262 Y97.8971
G1 X-405.9796 Y97.7888
G2 X-405.6279 Y97.6344 I-1.5372 J-3.9801
G1 X-405.5386 Y97.5855
G2 X-405.355 Y97.4454 I-0.3743 J-0.681
G3 X-406.1475 Y97.0124 I2.983 J-6.4014
G3 X-406.8908 Y96.4994 I5.506 J-8.7719
G3 X-408.2136 Y95.2732 I5.4659 J-7.2231
G3 X-408.9428 Y94.3154 I5.9029 J-5.2508
G3 X-409.6709 Y92.8845 I6.4255 J-4.1702
G3 X-410.1343 Y90.7936 I6.9886 J-2.6457
G3 X-410.1378 Y89.5665 I8.5084 J-0.6373
G3 X-409.4846 Y86.8671 I60.224 J13.1443
G1 X-409.3814 Y86.484
G1 X-409.2605 Y86.0469
G3 X-408.1822 Y82.5834 I61.7641 J17.3284
G3 X-407.3584 Y80.3097 I65.1562 J22.3218
G3 X-406.138 Y77.3253 I67.0653 J25.6837
G3 X-406.0974 Y77.2322 I3.1251 J1.3075
G3 X-404.2505 Y73.3133 I69.0622 J30.1522
G3 X-401.4725 Y68.2508 I76.8359 J38.8705
G1 X-401.0905 Y67.6109
G1 X-400.6911 Y66.9535
G1 X-400.2733 Y66.2783
G1 X-399.8366 Y65.5847
G1 X-399.38 Y64.8726
G3 X-397.2228 Y61.6643 I95.8732 J62.1316
G3 X-397.1534 Y61.5648 I2.1517 J1.4282
G3 X-397.0835 Y61.465 I2.1548 J1.4334
G3 X-397.0133 Y61.3649 I2.158 J1.4386
G3 X-394.3808 Y57.7539 I102.8809 J72.2388
G3 X-394.2962 Y57.642 I2.2995 J1.6512
G3 X-394.2112 Y57.5298 I2.3046 J1.6583
G3 X-391.0307 Y53.4864 I117.0436 J88.7914
G3 X-390.9287 Y53.3612 I2.5292 J1.9556
G3 X-390.8776 Y53.2986 I1.7816 J1.4009
G3 X-390.8264 Y53.2358 I1.7845 J1.4045
G3 X-390.775 Y53.1729 I1.7873 J1.4081
G3 X-390.7235 Y53.1099 I1.7902 J1.4118
G3 X-390.6718 Y53.0469 I1.7931 J1.4155
G3 X-390.6201 Y52.9837 I1.796 J1.4192
G1 X-390.2694 Y52.5569
G1 X-390.1523 Y52.4148
G1 X-389.6829 Y51.8472
G1 X-388.7396 Y50.716
G3 X-388.7095 Y50.6801 I0.5796 J0.4555
G3 X-388.6789 Y50.6437 I0.5849 J0.4596
G1 X-388.0262 Y49.8685
G3 X-385.3894 Y46.7895 I248.669 J210.2883
G3 X-385.3475 Y46.7412 I0.753 J0.611
G3 X-385.3053 Y46.6926 I0.757 J0.6144
G3 X-385.2628 Y46.6436 I0.761 J0.6178
G3 X-385.2199 Y46.5943 I0.765 J0.6212
G3 X-379.6593 Y40.344 I280.5739 J244.0152
G3 X-379.6151 Y40.2954 I0.9057 J0.7796
G3 X-375.8185 Y36.1801 I334.316 J304.6091
G1 X-374.797 Y35.0912
G1 X-373.7032 Y33.9335
G3 X-355.669 Y15.9375 I336.7789 J319.4613
G3 X-350.3338 Y10.9842 I283.2399 J299.7244
G1 X-349.9949 Y10.6753
G1 X-349.8246 Y10.5203
G3 X-346.9054 Y7.8912 I244.5247 J268.5702
G3 X-340.1306 Y1.9973 I244.7424 J274.4816
G3 X-338.3574 Y0.5053 I141.2458 J166.0708
G1 X-338.246 Y0.4123
G1 X-338.1343 Y0.3191
G1 X-337.2251 Y-0.4358
G1 X-336.7658 Y-0.8149
G3 X-332.8142 Y-4.0105 I168.9648 J204.8921
G1 X-331.801 Y-4.8101
G1 X-331.546 Y-5.0099
G3 X-327.9969 Y-7.6854 I79.0807 J101.2119
G3 X-327.9398 Y-7.7269 I0.443 J0.5482
G3 X-327.8818 Y-7.7692 I0.4475 J0.554
G1 X-327.3511 Y-8.1534
G1 X-326.7425 Y-8.5899
G1 X-326.0445 Y-9.0854
G1 X-325.2439 Y-9.6473
G1 X-324.3251 Y-10.2842
G3 X-316.8538 Y-15.1973 I124.4529 J181.1186
G3 X-316.7944 Y-15.2346 I0.5998 J0.8866
G3 X-316.7348 Y-15.2722 I0.602 J0.8905
G3 X-316.6749 Y-15.3098 I0.6043 J0.8944
G3 X-315.6521 Y-15.9495 I94.7468 J150.3646
G1 X-314.5577 Y-16.6264
G3 X-296.6385 Y-26.7479 I146.9477 J239.2354
G3 X-291.3853 Y-29.3921 I123.9909 J239.7918
G1 X-291.0524 Y-29.5547
G1 X-290.7166 Y-29.718
G1 X-290.3779 Y-29.8821
G1 X-290.0364 Y-30.047
G1 X-289.3416 Y-30.3804
G1 X-288.6347 Y-30.7167
G3 X-287.1717 Y-31.4038 I161.5949 J342.1743
G1 X-286.9878 Y-31.4893
G3 X-285.4661 Y-32.1891 I79.8122 J171.5555
G1 X-285.2747 Y-32.2761
G1 X-285.0826 Y-32.3633
G1 X-284.8895 Y-32.4506
G3 X-283.2924 Y-33.1644 I104.274 J231.1761
G3 X-275.9115 Y-36.2435 I74.2206 J167.5278
G3 X-271.9162 Y-37.7393 I53.0887 J135.7173
G1 X-271.7904 Y-37.7842
G1 X-271.6643 Y-37.829
G3 X-269.5745 Y-38.5505 I49.9861 J141.398
G1 X-269.046 Y-38.7262
G1 X-268.9134 Y-38.7699
G1 X-268.7805 Y-38.8134
G1 X-268.6473 Y-38.8569
G3 X-266.4391 Y-39.5497 I28.2993 J86.3301
G1 X-265.8803 Y-39.7163
G1 X-265.5993 Y-39.7986
G3 X-260.7593 Y-41.0502 I21.8242 J74.41
G1 X-260.6829 Y-41.0672
G1 X-260.6064 Y-41.084
G3 X-258.0672 Y-41.5833 I12.3491 J56.096
G3 X-257.4237 Y-41.6896 I5.7117 J32.5934
G3 X-256.7734 Y-41.7876 I6.388 J40.1643
G1 X-256.6103 Y-41.8107
G1 X-256.2825 Y-41.855
G1 X-256.0535 Y-41.8746
G1 X-255.8243 Y-41.8932
G1 X-255.3659 Y-41.9275
G1 X-255.06 Y-41.9476
G1 X-254.6519 Y-41.9704
G3 X-253.0174 Y-41.9944 I1.1257 J21.0
G1 X-252.7995 Y-41.9867
G3 X-252.302 Y-41.9563 I-0.3719 J10.178
G3 X-250.9862 Y-41.7642 I-0.6941 J9.358
G1 X-250.819 Y-41.7249
G1 X-250.6474 Y-41.6802
G1 X-250.4714 Y-41.6295
G1 X-250.2912 Y-41.572
G3 X-249.492 Y-41.237 I-1.7479 J5.2902
G3 X-247.726 Y-39.717 I-2.2715 J4.425
G3 X-247.0557 Y-38.5466 I-5.2127 J3.7623
G3 X-246.5503 Y-37.0908 I-8.66 J3.822
G3 X-246.5019 Y-36.9011 I-4.0685 J1.1394
G3 X-246.4558 Y-36.7078 I-4.1514 J1.0912
G3 X-246.4121 Y-36.5108 I-4.4805 J1.098
G2 X-250.545 Y-35.3565 I41.9663 J158.2337
G1 X-251.1327 Y-35.182
G1 X-251.8033 Y-34.9794
G2 X-253.5863 Y-34.4215 I35.3827 J116.2184
G1 X-254.0604 Y-34.2683
G1 X-254.5654 Y-34.1026
G2 X-257.2451 Y-33.1793 I36.4614 J110.1765
G2 X-260.7768 Y-31.8343 I32.7852 J91.3963
G1 X-261.2284 Y-31.6505
G1 X-261.6936 Y-31.4582
G1 X-262.1726 Y-31.2568
G2 X-264.3464 Y-30.2986 I28.7182 J68.0942
G2 X-269.9873 Y-27.4143 I29.7304 J65.1027
G1 X-270.3363 Y-27.2138
G2 X-271.8107 Y-26.3338 I34.5019 J59.4833
G2 X-275.0845 Y-24.1668 I30.7848 J50.065
G2 X-275.2858 Y-24.0229 I4.8552 J7.0015
G2 X-275.4879 Y-23.8769 I4.569 J6.542
G2 X-275.6435 Y-23.668 I0.2067 J0.3162
G2 X-275.5868 Y-23.4139 I0.2944 J0.0677
G2 X-275.4544 Y-23.2986 I0.3361 J-0.252
G2 X-275.2377 Y-23.2351 I0.2442 J-0.4324
G2 X-274.9599 Y-23.2913 I0.0295 J-0.5687
G1 X-274.7316 Y-23.3995
G1 X-274.5034 Y-23.5076
G2 X-274.0469 Y-23.7239 I-16.7178 J-35.8709
G3 X-273.1338 Y-24.1563 I75.8025 J158.8833
G1 X-271.3062 Y-25.0181
G3 X-267.6364 Y-26.7104 I123.0304 J261.9639
G1 X-266.5822 Y-27.1814
G1 X-266.3096 Y-27.3018
G1 X-266.0279 Y-27.4255
G1 X-265.7369 Y-27.5527
G1 X-265.4362 Y-27.6832
G1 X-265.1255 Y-27.8172
G1 X-264.8045 Y-27.9548
G1 X-264.4727 Y-28.0958
G3 X-262.9506 Y-28.7279 I38.2911 J90.052
G1 X-262.5563 Y-28.8874
G1 X-262.1486 Y-29.0504
G1 X-261.727 Y-29.2167
G1 X-261.5126 Y-29.3004
G3 X-256.8851 Y-30.9469 I29.2987 J75.0178
G1 X-256.2805 Y-31.137
G1 X-255.6544 Y-31.3273
G3 X-254.3122 Y-31.7116 I17.1957 J57.5271
G1 X-253.9699 Y-31.8042
G3 X-252.5031 Y-32.1762 I13.524 J50.2519
G3 X-252.3176 Y-32.2203 I1.4356 J5.6311
G3 X-252.1304 Y-32.2641 I1.3476 J5.3406
G3 X-251.9417 Y-32.3075 I1.2704 J5.0888
G3 X-251.7513 Y-32.3506 I1.202 J4.8687
G3 X-248.2419 Y-33.0111 I11.0664 J49.1416
G1 Y-32.3937
G2 X-259.4153 Y-28.5598 I38.2412 J129.6488
G2 X-270.2197 Y-23.7835 I51.2966 J130.6465
G2 X-271.6292 Y-23.0796 I62.8576 J127.6296
G2 X-271.8062 Y-22.9899 I3.6177 J7.3552
G2 X-271.9846 Y-22.8991 I3.5783 J7.2549
G2 X-275.2231 Y-21.1984 I63.5251 J124.8972
G2 X-283.6513 Y-16.2919 I74.1485 J137.0619
G2 X-283.9136 Y-15.6919 I0.273 J0.4767
G2 X-283.4686 Y-15.2116 I0.6414 J-0.1481
G2 X-283.0293 Y-15.2094 I0.2234 J-0.7444
G2 X-282.7998 Y-15.3007 I-0.346 J-1.2042
G1 X-281.2941 Y-16.0852
G1 X-279.7857 Y-16.8643
G1 X-278.7783 Y-17.3802
G1 X-278.5094 Y-17.5172
G1 X-277.8942 Y-17.8295
G3 X-272.9447 Y-20.2711 I112.8284 J222.488
G1 X-272.7866 Y-20.3466
G1 X-272.6259 Y-20.4232
G1 X-272.4626 Y-20.5009
G1 X-272.2966 Y-20.5797
G1 X-272.1279 Y-20.6595
G1 X-271.9565 Y-20.7404
G1 X-271.7822 Y-20.8225
G3 X-270.1852 Y-21.5638 I67.5464 J143.4175
G3 X-269.3303 Y-21.9525 I51.3308 J111.7778
G1 X-269.1128 Y-22.0504
G1 X-268.8917 Y-22.1495
G3 X-264.1369 Y-24.1763 I56.9338 J126.9736
G3 X-263.9859 Y-24.2372 I2.0483 J4.8617
G1 X-263.3616 Y-24.4866
G3 X-256.6195 Y-26.929 I42.9249 J107.9689
G3 X-247.4157 Y-29.5256 I35.8896 J109.6025
G1 X-247.1225 Y-29.5951
G2 X-246.668 Y-29.6864 I-1.7461 J-9.8767
G1 X-246.6034 Y-29.701
G2 X-246.088 Y-29.8243 I-5.4155 J-23.7792
G3 X-245.7439 Y-29.9041 I2.0384 J8.0088
G3 X-245.2808 Y-29.99 I1.2523 J5.4608
G3 X-245.2205 Y-29.9982 I0.1401 J0.8066
G3 X-244.5712 Y-30.0139 I0.3927 J2.7992
G3 X-243.7493 Y-29.7088 I-0.1581 J1.6852
G3 X-243.3743 Y-29.3618 I-1.1525 J1.6221
G3 X-243.0395 Y-28.8809 I-2.5146 J2.1071
G3 X-242.7487 Y-28.2824 I-4.5605 J2.5857
G2 X-245.4034 Y-27.6807 I28.0113 J129.7539
G1 X-245.7816 Y-27.5899
G1 X-246.2134 Y-27.4846
G2 X-247.3628 Y-27.1962 I21.1425 J86.7026
G1 X-248.0184 Y-27.0264
G2 X-249.762 Y-26.5563 I37.5569 J142.7639
G2 X-256.6653 Y-24.4323 I34.8759 J125.6286
G2 X-256.8825 Y-24.3587 I2.5761 J7.9653
G2 X-261.4864 Y-22.7056 I46.5511 J136.8813
G2 X-261.6305 Y-22.651 I1.5485 J4.3038
G2 X-261.7757 Y-22.5958 I1.5461 J4.2857
G3 X-261.9222 Y-21.9635 I-1.3594 J0.0182
G3 X-262.3509 Y-21.4763 I-1.2182 J-0.6396
G3 X-262.7308 Y-21.2673 I-1.039 J-1.439
G3 X-263.2818 Y-21.1144 I-0.9273 J-2.2725
G3 X-264.0299 Y-21.0892 I-0.4744 J-2.9649
G3 X-264.9739 Y-21.334 I0.2306 J-2.8316
G3 X-265.0299 Y-21.3611 I0.2274 J-0.5421
G2 X-266.714 Y-20.6103 I19.6361 J46.3074
G1 X-266.9526 Y-20.4986
G1 X-267.2249 Y-20.3702
G2 X-267.2951 Y-20.3369 I0.6846 J1.5339
G2 X-267.3675 Y-20.3024 I0.6021 J1.3602
G1 X-268.1386 Y-19.9318
G1 X-268.578 Y-19.7176
G2 X-272.0723 Y-17.9625 I85.6627 J174.8953
G1 X-273.0656 Y-17.4513
G1 X-274.1989 Y-16.8632
G1 X-274.8026 Y-16.548
G1 X-276.1805 Y-15.8244
G2 X-276.5358 Y-15.6369 I8.9726 J17.432
G1 X-278.1579 Y-14.7765
G1 X-279.0219 Y-14.3156
G1 X-280.9942 Y-13.2574
G1 X-281.5026 Y-12.9832
G2 X-282.5866 Y-12.3972 I118.676 J220.8042
G1 X-283.7417 Y-11.7703
G1 X-284.9729 Y-11.0996
G1 X-286.285 Y-10.3821
G1 X-286.6181 Y-10.1995
G1 X-287.3054 Y-9.8222
G1 X-288.7707 Y-9.0154
G1 X-289.5265 Y-8.598
G1 X-290.3062 Y-8.1666
G1 X-291.9685 Y-7.2439
G2 X-300.8059 Y-2.2744 I540.4058 J971.3732
G2 X-312.5122 Y4.4858 I473.4444 J833.347
G1 X-314.0148 Y5.3716
G1 X-314.1089 Y5.4272
G1 X-315.6605 Y6.3476
G1 X-317.2594 Y7.3025
G1 X-318.9063 Y8.2939
G1 X-319.7414 Y8.8
G1 X-320.5885 Y9.316
G1 X-321.4478 Y9.8423
G1 X-321.5015 Y9.8753
G1 X-321.5553 Y9.9084
G2 X-325.209 Y12.1905 I137.8501 J224.7614
G1 X-326.1305 Y12.7806
G1 X-327.0627 Y13.3859
G1 X-327.5307 Y13.6937
G1 X-327.6478 Y13.7711
G1 X-327.8825 Y13.927
G1 X-328.3544 Y14.2429
G2 X-328.4723 Y14.3225 I3.6397 J5.5216
G1 X-328.9464 Y14.6452
G2 X-329.0056 Y14.6858 I0.432 J0.693
G2 X-329.0648 Y14.7265 I0.4657 J0.7407
G1 X-329.5406 Y15.0569
G1 X-329.6593 Y15.1403
G1 X-329.7781 Y15.2242
G2 X-330.7333 Y15.9199 I22.3123 J31.643
G1 X-330.9694 Y16.0995
G3 X-332.8146 Y16.5365 I-1.667 J-2.9248
G3 X-333.4488 Y16.455 I0.2114 J-4.1551
G3 X-334.2683 Y16.2315 I1.4186 J-6.8133
G3 X-334.7041 Y16.0503 I1.4532 J-4.1111
G3 X-334.8467 Y15.9836 I1.9276 J-4.3057
G3 X-335.0357 Y15.8927 I3.5922 J-7.7168
G3 X-335.2868 Y15.7694 I3.3534 J-7.1401
G3 X-335.6203 Y15.6026 I8.3252 J-17.0655
G3 X-336.9504 Y14.9284 I109.0427 J-216.771
G2 X-336.9714 Y14.9178 I-0.0873 J0.1464
G2 X-339.6705 Y13.5959 I-42.5854 J83.5367
G2 X-340.4512 Y13.2381 I-25.7359 J55.1265
G2 X-341.3508 Y12.8455 I-25.3548 J56.874
G2 X-342.3906 Y12.4246 I-11.8846 J27.8654
G2 X-343.5988 Y11.9944 I-9.0434 J23.4861
G1 X-343.7541 Y11.9449
G2 X-345.1981 Y11.5746 I-3.8089 J11.8528
G1 X-345.2442 Y11.5662
G1 X-345.4319 Y11.5347
G2 X-346.2431 Y11.4641 I-0.8749 J5.3556
G2 X-346.665 Y11.4877 I-0.0037 J3.7241
G2 X-346.7176 Y11.4948 I0.0444 J0.5264
G2 X-347.1475 Y11.6031 I0.2771 J2.0065
G2 X-346.9074 Y12.5132 I6.3388 J-1.186
G2 X-346.8629 Y12.6403 I1.7567 J-0.5436
G2 X-346.734 Y12.9751 I5.3616 J-1.8721
G2 X-346.0975 Y14.2589 I10.0157 J-4.1657
G1 X-346.0009 Y14.4239
G2 X-345.4506 Y15.2811 I12.493 J-7.4149
G2 X-344.6438 Y16.3713 I17.5685 J-12.158
G1 X-344.4173 Y16.6533
G1 X-344.1713 Y16.9502
G2 X-344.0427 Y17.102 I3.3181 J-2.6815
G2 X-343.7647 Y17.4226 I112.5454 J-97.2983
G2 X-342.2148 Y19.0645 I26.0978 J-23.0823
G2 X-342.0075 Y19.2692 I6.4895 J-6.3665
G1 X-341.7921 Y19.4788
G2 X-340.7896 Y20.4165 I28.8343 J-29.8196
G2 X-337.991 Y22.7586 I29.7042 J-32.6504
G1 X-338.9138 Y23.5465
G1 X-339.8345 Y24.3369
G1 X-340.4472 Y24.8652
G1 X-341.2625 Y25.5714
G1 X-341.7275 Y25.9759
G1 X-342.9647 Y27.0579
G1 X-343.6697 Y27.6785
G2 X-345.5422 Y29.3418 I172.7285 J196.3418
G1 X-346.0397 Y29.7875
G1 X-346.5694 Y30.2639
G1 X-347.7765 Y31.3567
G1 X-348.0872 Y31.6397
G1 X-348.4075 Y31.9322
G1 X-348.7379 Y32.2346
G1 X-349.0784 Y32.5472
G2 X-350.6293 Y33.9823 I220.3627 J239.7074
G2 X-352.3899 Y35.6351 I183.9403 J197.7035
G2 X-357.0173 Y40.1136 I192.1126 J203.1295
G1 X-357.6066 Y40.6994
G1 X-358.2129 Y41.306
G1 X-358.8366 Y41.9344
G2 X-363.1506 Y46.4115 I159.363 J157.8727
G0 Z5.0
G0 X-360.8213 Y48.494
G1 Z0.0
G3 X-351.4057 Y38.5644 I174.0111 J155.5732
G1 X-350.8684 Y38.0319
G3 X-345.8751 Y33.2462 I158.0949 J159.9568
G3 X-331.8658 Y21.256 I151.7549 J163.1307
G1 X-332.1042 Y21.1632
G1 X-332.3427 Y21.0701
G1 X-332.5015 Y21.0079
G3 X-333.1364 Y20.7573 I21.2322 J-54.7038
G1 X-333.5585 Y20.5877
G3 X-335.2327 Y19.8743 I18.1145 J-44.8323
G3 X-336.328 Y19.3521 I13.339 J-29.3851
G1 X-336.6159 Y19.2045
G1 X-336.9209 Y19.0428
G3 X-338.4989 Y18.0935 I9.3566 J-17.339
G3 X-338.5957 Y18.0278 I0.9411 J-1.492
G3 X-340.535 Y16.4547 I8.2868 J-12.1977
G1 X-330.1847 Y19.9227
G1 X-328.3265 Y18.705
G1 X-326.4701 Y17.4842
G1 X-322.7611 Y15.0372
G1 X-320.2894 Y13.4043
G1 X-316.9927 Y11.2287
G3 X-315.1074 Y9.9878 I313.9321 J474.9199
G3 X-314.9886 Y9.9097 I2.2375 J3.275
G3 X-314.8688 Y9.831 I2.2531 J3.2985
G1 X-313.8465 Y9.16
G1 X-312.7555 Y8.4452
G1 X-311.5908 Y7.6842
G1 X-310.3474 Y6.874
G1 X-309.0196 Y6.0121
G1 X-307.6016 Y5.0954
G1 X-306.0868 Y4.1211
G1 X-305.304 Y3.6198
G3 X-296.9035 Y-1.6483 I284.7045 J444.6623
G3 X-296.6372 Y-1.8114 I8.007 J12.77
G3 X-296.3686 Y-1.9757 I8.3194 J13.2992
G3 X-296.0978 Y-2.1411 I8.6685 J13.8907
G3 X-295.8248 Y-2.3075 I9.0626 J14.5584
G3 X-295.5495 Y-2.4751 I9.5127 J15.3208
G3 X-295.2719 Y-2.6437 I10.0332 J16.2023
G3 X-294.992 Y-2.8135 I10.6456 J17.2388
G3 X-294.7097 Y-2.9843 I11.3803 J18.4818
G3 X-294.4251 Y-3.1563 I12.2861 J20.013
G3 X-294.138 Y-3.3294 I13.4411 J21.9639
G3 X-293.8486 Y-3.5036 I14.9883 J24.5746
G3 X-293.5568 Y-3.6789 I17.2181 J28.3326
G3 X-293.2625 Y-3.8553 I20.8534 J34.4512
G1 X-292.0455 Y-4.581
G3 X-289.4399 Y-6.1132 I214.1735 J361.256
G1 X-288.0897 Y-6.8949
G3 X-281.8674 Y-10.3808 I142.2453 J246.6146
G1 X-281.071 Y-10.8122
G1 X-280.2605 Y-11.2476
G1 X-279.4355 Y-11.6871
G1 X-279.0191 Y-11.9074
G3 X-271.3287 Y-15.7893 I105.5089 J199.4642
G1 X-270.8392 Y-16.0238
G3 X-268.8116 Y-16.9782 I84.4561 J176.7845
G1 X-268.299 Y-17.2152
G1 X-267.7817 Y-17.4525
G1 X-267.2597 Y-17.6901
G3 X-262.7747 Y-19.6528 I75.0562 J165.3999
G3 X-257.9312 Y-21.6081 I66.8749 J158.6852
G1 X-257.3166 Y-21.8435
G1 X-256.6962 Y-22.0782
G1 X-256.0699 Y-22.3122
G1 X-255.4376 Y-22.5452
G3 X-249.9989 Y-24.4183 I50.8023 J138.6756
G1 X-249.3084 Y-24.6389
G1 X-248.6114 Y-24.8576
G1 X-247.9076 Y-25.0743
G3 X-241.8525 Y-26.7649 I39.0046 J128.0158
G1 X-240.9153 Y-25.4855
G2 X-243.2452 Y-25.0546 I5.4363 J35.9073
G1 X-243.5758 Y-24.9815
G2 X-246.2004 Y-24.3162 I11.7573 J51.8921
G2 X-246.9443 Y-24.1035 I14.0747 J50.6287
G2 X-246.9911 Y-24.0898 I0.125 J0.5138
G2 X-247.0383 Y-24.0759 I0.1261 J0.5171
G2 X-247.0858 Y-24.0619 I0.1273 J0.5202
G1 X-247.4906 Y-23.9413
G2 X-249.6377 Y-23.2597 I23.972 J79.2367
G1 X-250.2071 Y-23.0682
G1 X-250.813 Y-22.8598
G1 X-251.4577 Y-22.6331
G1 X-252.1437 Y-22.3866
G2 X-255.7745 Y-20.9998 I43.2798 J118.7548
G1 X-256.2399 Y-20.8129
G2 X-261.1644 Y-18.7298 I62.117 J153.7043
G1 X-261.7951 Y-18.4503
G2 X-261.8742 Y-18.415 I0.985 J2.3172
G2 X-268.5672 Y-15.2963 I95.4176 J213.5168
G1 X-269.4239 Y-14.8794
G1 X-269.8585 Y-14.6665
G1 X-270.7544 Y-14.2246
G1 X-271.2089 Y-13.999
G1 X-271.6703 Y-13.769
G1 X-272.6213 Y-13.2917
G1 X-272.7405 Y-13.2316
G1 X-272.8603 Y-13.1711
G1 X-273.8474 Y-12.6703
G2 X-284.2671 Y-7.134 I160.2981 J314.2678
G2 X-290.1367 Y-3.8198 I174.7386 J316.3172
G1 X-290.5041 Y-3.6069
G1 X-291.2495 Y-3.1727
G2 X-291.3887 Y-3.091 I1.6305 J2.934
G2 X-291.5279 Y-3.0091 I1.6362 J2.941
G2 X-291.6207 Y-2.9545 I1.3504 J2.4002
G2 X-291.7443 Y-2.8816 I1.5549 J2.781
G2 X-292.2388 Y-2.5897 I19.4655 J33.5398
G2 X-293.2264 Y-2.0038 I181.4114 J306.8961
G2 X-293.3579 Y-1.9255 I1.6684 J2.9511
G2 X-295.4584 Y-0.665 I147.0948 J247.4977
G1 X-296.8544 Y0.1828
G2 X-296.9429 Y0.2368 I1.5164 J2.5839
G2 X-297.0328 Y0.2917 I1.5317 J2.6089
G2 X-302.7546 Y3.8569 I188.0494 J308.1829
G2 X-314.001 Y11.2934 I198.9489 J313.0938
G2 X-314.1759 Y11.4139 I4.0522 J6.0714
G2 X-314.3521 Y11.5354 I4.1095 J6.1483
G2 X-314.5296 Y11.658 I4.1687 J6.2276
G2 X-322.0314 Y16.9886 I197.9499 J286.5173
G2 X-322.2653 Y17.1598 I11.4981 J15.9597
G2 X-322.501 Y17.3325 I12.3522 J17.0979
G2 X-322.7383 Y17.5068 I13.411 J18.5102
G2 X-322.9774 Y17.6827 I14.7738 J20.3302
G2 X-323.2181 Y17.8601 I16.6234 J22.8035
G2 X-327.5919 Y21.1439 I187.8062 J254.7003
G2 X-332.5206 Y24.9881 I181.8607 J238.2516
G1 X-333.1409 Y25.4833
G1 X-333.7696 Y25.9881
G1 X-334.407 Y26.5027
G1 X-335.0531 Y27.0272
G2 X-340.8896 Y31.908 I175.3153 J215.5713
G1 X-341.2529 Y32.2207
G2 X-342.7469 Y33.5186 I306.7948 J354.6731
G1 X-343.1218 Y33.8473
G2 X-349.8666 Y39.9838 I165.8214 J189.0334
G2 X-353.3707 Y43.3567 I165.0037 J174.9279
G2 X-357.0299 Y47.0349 I149.329 J152.2202
G2 X-358.8847 Y48.9667 I127.0836 J123.8677
G1 X-359.3482 Y49.4571
G2 X-361.2453 Y51.498 I136.3887 J128.685
G1 X-361.719 Y52.0163
G1 X-362.1945 Y52.5403
G1 X-362.6719 Y53.0702
G1 X-363.1512 Y53.606
G1 X-363.6323 Y54.1478
G2 X-365.5971 Y56.4042 I132.4967 J117.3616
G1 X-365.8412 Y56.6896
G1 X-366.0856 Y56.9766
G1 X-366.3305 Y57.2652
G1 X-366.5756 Y57.5554
G1 X-366.8212 Y57.8473
G1 X-367.0671 Y58.1408
G1 X-367.3133 Y58.436
G1 X-367.5599 Y58.733
G1 X-367.8068 Y59.0316
G2 X-371.9183 Y64.2128 I134.1785 J110.6981
G1 X-372.1695 Y64.5432
G2 X-373.1814 Y65.8927 I116.688 J88.5556
G1 X-373.6859 Y66.5767
G2 X-377.8363 Y72.5294 I119.4866 J87.7341
G1 X-378.3381 Y73.2938
G1 X-378.8388 Y74.0676
G1 X-379.3382 Y74.8509
G2 X-383.3753 Y81.6802 I109.4305 J69.2958
G3 X-383.339 Y80.3124 I8.8314 J-0.4501
G3 X-383.1135 Y78.9628 I10.3041 J1.0281
G3 X-383.0176 Y78.5835 I6.8516 J1.53
G3 X-381.7747 Y75.7248 I10.2691 J2.7652
G3 X-381.5454 Y75.3763 I6.1128 J3.7724
G3 X-374.7272 Y65.6067 I190.6781 J125.8088
G3 X-367.4157 Y56.2006 I185.6892 J136.7952
G3 X-360.8213 Y48.494 I180.6055 J147.8666
G0 Z5.0
G0 X-358.0901 Y50.9222
G1 Z0.0
G3 X-357.9482 Y50.763 I51.3255 J45.6304
G1 X-357.6753 Y50.4598
G3 X-356.1939 Y48.8672 I65.4367 J59.383
G1 X-355.7919 Y48.449
G1 X-355.5834 Y48.2342
G1 X-355.3674 Y48.0131
G1 X-355.1438 Y47.7857
G3 X-352.7149 Y45.4036 I72.6933 J71.6912
G3 X-351.2963 Y44.0746 I107.0951 J112.8922
G1 X-350.5319 Y43.3741
G1 X-350.1355 Y43.0147
G1 X-349.7249 Y42.6452
G3 X-348.8451 Y41.8616 I75.0275 J83.3595
G1 X-348.3889 Y41.4596
G1 X-348.1567 Y41.2559
G1 X-347.9204 Y41.0494
G1 X-347.68 Y40.84
G1 X-347.1828 Y40.409
G1 X-346.6681 Y39.9657
G1 X-346.5382 Y39.8543
G1 X-346.4072 Y39.7421
G1 X-345.8655 Y39.2798
G1 X-345.7288 Y39.1636
G3 X-345.4507 Y38.9277 I12.1709 J14.0653
G1 X-344.8758 Y38.442
G1 X-344.281 Y37.9423
G1 X-343.9783 Y37.6891
G1 X-343.3527 Y37.1674
G1 X-342.7056 Y36.6303
G1 X-341.3222 Y35.4886
G3 X-339.8435 Y34.2751 I229.1951 J277.7734
G1 X-338.265 Y32.9823
G2 X-336.5837 Y31.6011 I-451.7431 J-551.6204
G1 X-336.1576 Y31.2493
G3 X-336.6587 Y32.0346 I-20.5488 J-12.5615
G3 X-336.6931 Y32.0864 I-0.5867 J-0.3512
G1 X-336.8777 Y32.3615
G1 X-336.9845 Y32.5178
G3 X-337.8695 Y33.7465 I-28.4904 J-19.5864
G3 X-339.7717 Y36.1021 I-36.6814 J-27.6765
G3 X-341.1122 Y37.6111 I-43.9774 J-37.7179
G1 X-341.4771 Y38.0067
G1 X-341.8693 Y38.426
G3 X-342.7757 Y39.3746 I-48.7849 J-45.7032
G3 X-345.2425 Y41.8537 I-101.6327 J-98.6652
G1 X-345.5646 Y42.1698
G1 X-346.2534 Y42.8423
G1 X-346.99 Y43.5574
G1 X-348.6763 Y45.1884
G1 X-349.5743 Y46.0593
G1 X-349.8021 Y46.2809
G2 X-351.8699 Y48.3197 I179.8299 J184.4585
G1 X-351.9991 Y48.4493
G1 X-352.5307 Y48.9858
G1 X-352.6642 Y49.1215
G1 X-353.2129 Y49.6839
G1 X-353.4901 Y49.9711
G1 X-354.0588 Y50.5673
G2 X-355.2528 Y51.8572 I56.8932 J53.8675
G2 X-355.4012 Y52.0216 I5.6921 J5.2846
G2 X-355.701 Y52.3571 I29.7524 J26.8862
G1 X-356.0032 Y52.7
G1 X-356.3077 Y53.0506
G2 X-357.0534 Y54.0701 I11.2874 J9.0388
G2 X-357.6986 Y55.156 I9.4329 J6.3397
G2 X-358.0492 Y55.9222 I8.1936 J4.2122
G2 X-358.3682 Y57.0007 I5.4542 J2.1995
G2 X-358.4417 Y57.6414 I4.2742 J0.8148
G2 X-358.3928 Y58.3805 I3.646 J0.1299
G2 X-358.128 Y59.1932 I3.0392 J-0.5406
G2 X-357.5584 Y60.0038 I2.936 J-1.4579
G2 X-357.1667 Y60.3649 I3.1348 J-3.007
G2 X-356.7036 Y60.6967 I2.9483 J-3.6262
G1 X-356.5804 Y60.7728
G2 X-356.0368 Y61.0638 I3.188 J-5.3022
G2 X-355.4349 Y61.3215 I3.397 J-7.1028
G2 X-354.779 Y61.5469 I3.6591 J-9.5794
G3 X-356.2143 Y62.9727 I-57.0354 J-55.978
G3 X-356.3112 Y63.0667 I-3.5722 J-3.5843
G3 X-356.4146 Y63.1667 I-3.8164 J-3.84
G3 X-356.525 Y63.2733 I-4.1018 J-4.1399
G3 X-356.643 Y63.3868 I-4.4426 J-4.499
G3 X-356.769 Y63.5077 I-4.8617 J-4.9418
G3 X-356.9036 Y63.6365 I-5.3972 J-5.5091
G3 X-357.0475 Y63.7736 I-6.1202 J-6.2768
G3 X-357.2011 Y63.9195 I-7.1834 J-7.4076
G3 X-358.0243 Y64.6939 I-471.6043 J-500.5294
G1 X-358.4972 Y65.1337
G1 X-359.0395 Y65.6345
G1 X-359.3293 Y65.9009
G1 X-359.6389 Y66.1846
G1 X-360.3476 Y66.8319
G1 X-362.2392 Y68.5557
G1 X-362.7425 Y69.0167
G1 X-363.2781 Y69.5098
G1 X-363.4139 Y69.6353
G1 X-363.5518 Y69.7629
G1 X-363.6916 Y69.8928
G1 X-363.8336 Y70.0248
G1 X-364.4373 Y70.5899
G2 X-365.8034 Y71.8965 I72.8941 J77.5782
G1 X-366.152 Y72.2378
G2 X-367.7187 Y73.8251 I49.9425 J50.8583
G1 X-367.8157 Y73.9268
G1 X-367.9132 Y74.0296
G2 X-369.6495 Y75.9513 I36.0831 J34.3468
G2 X-370.5321 Y77.0144 I38.842 J33.1476
G2 X-371.4326 Y78.182 I27.7078 J22.3002
G2 X-373.2928 Y80.9977 I24.4039 J18.144
G3 X-373.3637 Y81.1171 I-3.8709 J-2.2173
G1 X-373.4365 Y81.2353
G3 X-373.5884 Y81.4676 I-12.0289 J-7.7002
G3 X-373.6334 Y81.5329 I-1.1809 J-0.766
G3 X-374.0225 Y82.0339 I-5.1859 J-3.6258
G1 X-374.1441 Y82.1684
G3 X-374.4951 Y82.5012 I-3.0285 J-2.8429
G3 X-375.0342 Y82.8573 I-1.7169 J-2.0131
G3 X-375.3825 Y82.9863 I-0.7886 J-1.5935
G3 X-375.8101 Y83.0246 I-0.3252 J-1.2257
G3 X-376.2897 Y82.8655 I0.0839 J-1.0555
G3 X-376.7036 Y82.4257 I0.6934 J-1.0672
G3 X-376.8422 Y82.1273 I1.7362 J-0.9877
G3 X-376.984 Y81.3913 I2.5019 J-0.8638
G1 X-376.9882 Y81.2962
G1 X-376.9897 Y81.1999
G3 X-376.9071 Y80.3601 I4.4126 J0.0104
G1 X-376.8969 Y80.308
G3 X-376.6474 Y79.4209 I5.8935 J1.1794
G3 X-375.4904 Y76.7202 I23.7599 J8.5799
G3 X-374.0626 Y74.1523 I29.995 J14.9968
G3 X-373.0007 Y72.5063 I34.9198 J21.3638
G3 X-372.9661 Y72.4552 I1.0752 J0.6904
G3 X-372.9312 Y72.4037 I1.0804 J0.6955
G3 X-371.3917 Y70.2446 I54.3675 J37.1365
G1 X-371.1871 Y69.9703
G1 X-370.9748 Y69.688
G1 X-370.7545 Y69.3974
G1 X-370.5261 Y69.0984
G3 X-370.4684 Y69.0231 I1.6979 J1.2425
G1 X-369.9739 Y68.3831
G3 X-368.8332 Y66.929 I205.1189 J159.7454
G1 X-368.222 Y66.156
G1 X-367.5706 Y65.3313
G1 X-366.8787 Y64.4496
G1 X-366.5237 Y63.993
G1 X-366.1592 Y63.5203
G2 X-365.3903 Y62.5055 I-123.6443 J-94.4818
G1 X-364.9991 Y61.9775
G1 X-364.6002 Y61.4289
G2 X-363.7692 Y60.2447 I-44.3229 J-31.9861
G1 X-363.6667 Y60.094
G2 X-361.9034 Y57.2654 I-33.5576 J-22.8835
G1 X-361.8007 Y57.0821
G1 Y55.5126
G3 X-359.9363 Y53.0876 I42.5034 J30.7472
G3 X-358.0901 Y50.9222 I53.1717 J43.465
G0 Z5.0
G0 X-330.6645 Y27.1378
G1 Z0.0
G3 X-329.7278 Y26.2724 I28.7423 J30.171
G3 X-329.6972 Y26.2449 I0.2217 J0.2161
G1 X-329.5569 Y26.1195
G1 X-329.1809 Y25.7877
G3 X-328.6751 Y25.3504 I32.2223 J36.7548
G1 X-328.384 Y25.1029
G3 X-326.0126 Y23.1749 I58.2333 J69.2078
G1 X-325.8574 Y23.0533
G3 X-324.1891 Y21.7722 I61.828 J78.7891
G1 X-323.7407 Y21.4353
G1 X-323.261 Y21.0779
G3 X-320.6803 Y19.2023 I107.063 J144.5926
G1 X-320.3449 Y18.9636
G3 X-316.7406 Y16.4569 I129.3792 J182.1903
G3 X-311.8741 Y13.2058 I184.1234 J270.3398
G1 X-310.567 Y12.3531
G3 X-303.5454 Y7.8874 I246.8057 J380.3069
G3 X-294.0788 Y2.1061 I309.5625 J496.2543
G1 X-293.9295 Y2.0167
G1 X-292.6957 Y1.2803
G1 X-291.4206 Y0.5228
G1 X-290.7723 Y0.1391
G3 X-276.8496 Y-7.8797 I351.6846 J594.5217
G1 X-275.9591 Y-8.3774
G3 X-272.1493 Y-10.4818 I282.2917 J506.5563
G1 X-271.6679 Y-10.7444
G1 X-271.1824 Y-11.0084
G1 X-270.1948 Y-11.5425
G1 X-269.6963 Y-11.8103
G1 X-268.6821 Y-12.3516
G3 X-262.2332 Y-15.6049 I81.922 J154.3717
G1 X-261.3008 Y-16.047
G3 X-260.2315 Y-16.5445 I40.2854 J85.1933
G3 X-259.9549 Y-16.6715 I11.6697 J25.0588
G3 X-256.9865 Y-17.9862 I54.5377 J119.1292
G1 X-256.1891 Y-18.3233
G3 X-251.8877 Y-20.0022 I34.6417 J82.401
G1 X-251.3261 Y-20.2014
G1 X-251.0402 Y-20.3008
G1 X-250.4485 Y-20.5018
G3 X-247.7166 Y-21.3393 I16.6339 J49.3886
G3 X-247.3663 Y-21.4343 I3.8033 J13.3262
G1 X-247.0097 Y-21.5277
G1 X-246.8295 Y-21.5736
G3 X-245.2833 Y-21.9275 I8.1159 J31.908
G1 X-245.0873 Y-21.9667
G3 X-243.4024 Y-22.241 I4.7592 J23.9267
G3 X-243.1887 Y-22.2666 I0.6468 J4.4899
G3 X-242.3031 Y-22.3464 I1.9664 J16.8759
G3 X-241.8516 Y-22.3686 I0.8524 J12.7182
G3 X-241.6238 Y-22.3744 I0.3184 J7.9524
G3 X-240.6811 Y-22.3543 I0.1961 J12.9227
G3 X-239.7104 Y-22.24 I-0.5381 J8.7462
G3 X-239.2233 Y-22.1349 I-1.2358 J6.9096
G3 X-238.7365 Y-21.9877 I-1.3595 J5.3745
G3 X-238.6164 Y-21.9436 I-0.5616 J1.7146
G3 X-238.4968 Y-21.8962 I-0.5227 J1.4921
G3 X-237.5569 Y-21.3611 I-1.502 J3.7314
G2 X-239.8376 Y-21.307 I-0.6242 J21.7797
G2 X-242.0937 Y-20.969 I1.2054 J15.7454
G2 X-243.5543 Y-20.5395 I2.7289 J11.9796
G2 X-245.3832 Y-19.6538 I3.3335 J9.214
G2 X-247.4274 Y-17.8614 I4.4013 J7.0819
G2 X-247.9024 Y-17.0188 I8.2574 J5.2097
G2 X-248.047 Y-16.7304 I12.4898 J6.4418
G2 X-248.2336 Y-16.343 I22.6284 J11.1355
G2 X-248.4741 Y-15.8226 I30.669 J14.4938
G1 X-248.6083 Y-15.5238
G2 X-248.6252 Y-15.4857 I0.2986 J0.1555
G1 X-248.7783 Y-15.1377
G1 X-248.9506 Y-14.7387
G1 X-249.0416 Y-14.5255
G1 X-249.1378 Y-14.2978
G1 X-249.3554 Y-13.7764
G2 X-249.9233 Y-12.3812 I94.8426 J39.4196
G1 X-250.2432 Y-11.5822
G1 X-250.4151 Y-11.1565
G1 X-250.4597 Y-11.0488
G3 X-250.5069 Y-10.9401 I-4.5037 J-1.8897
G1 X-250.7054 Y-10.5113
G3 X-250.9042 Y-10.0824 I-19.7524 J-8.8993
G3 X-251.3253 Y-9.236 I-16.6237 J-7.7423
G3 X-252.3605 Y-7.6542 I-9.1373 J-4.8498
G3 X-253.2069 Y-6.718 I-8.4928 J-6.8276
G3 X-253.735 Y-6.2263 I-7.7842 J-7.8309
G3 X-259.0369 Y-2.7219 I-79.2945 J-114.2037
G3 X-264.483 Y0.5539 I-88.4995 J-140.9713
G1 X-265.2183 Y0.9751
G3 X-266.9062 Y1.9254 I-68.408 J-119.5373
G1 X-267.8103 Y2.4253
G1 X-268.7774 Y2.9535
G1 X-269.8119 Y3.5114
G1 X-270.9186 Y4.1006
G1 X-272.1023 Y4.7225
G3 X-272.7146 Y5.041 I-26.6543 J-50.4911
G3 X-275.5238 Y6.4772 I-148.9705 J-287.9295
G3 X-275.8817 Y6.6574 I-9.4542 J-18.328
G3 X-276.2454 Y6.84 I-9.1902 J-17.8538
G3 X-279.5807 Y8.4895 I-162.2969 J-323.9566
G3 X-279.7913 Y8.5924 I-5.4775 J-10.953
G3 X-280.0036 Y8.6959 I-5.4486 J-10.907
G3 X-280.2177 Y8.8001 I-5.4213 J-10.8639
G3 X-280.4335 Y8.905 I-5.3955 J-10.8237
G3 X-280.6511 Y9.0106 I-5.3712 J-10.7861
G3 X-280.8704 Y9.117 I-5.3482 J-10.751
G3 X-281.0916 Y9.2241 I-5.3267 J-10.7185
G3 X-281.3145 Y9.3319 I-5.3064 J-10.6883
G3 X-283.2186 Y10.2474 I-367.439 J-761.732
G3 X-283.4588 Y10.3623 I-5.1712 J-10.5032
G3 X-283.7008 Y10.478 I-5.1615 J-10.4918
G3 X-283.9449 Y10.5945 I-5.1527 J-10.482
G3 X-284.1909 Y10.7118 I-5.1446 J-10.4734
G3 X-284.4389 Y10.8299 I-5.1374 J-10.4663
G3 X-284.6889 Y10.9488 I-5.131 J-10.4604
G3 X-284.9409 Y11.0686 I-5.1252 J-10.4557
G3 X-285.1949 Y11.1893 I-5.1202 J-10.452
G3 X-285.451 Y11.3108 I-5.1159 J-10.4496
G3 X-285.7091 Y11.4332 I-5.1122 J-10.4482
G3 X-285.9693 Y11.5565 I-5.1092 J-10.4477
G3 X-286.2316 Y11.6807 I-5.1068 J-10.4483
G3 X-286.496 Y11.8057 I-5.1051 J-10.4497
G3 X-286.7625 Y11.9317 I-5.1039 J-10.452
G3 X-287.0312 Y12.0586 I-5.1033 J-10.4552
G1 X-289.324 Y13.1391
G1 X-290.5079 Y13.6958
G1 X-291.73 Y14.2702
G1 X-294.3364 Y15.497
G3 X-296.2201 Y16.1252 I-2.9508 J-5.7103
G3 X-296.8784 Y16.2126 I-1.4276 J-8.2323
G3 X-297.0548 Y16.2281 I-0.4851 J-4.4861
G3 X-297.1459 Y16.2352 I-0.1496 J-1.3489
G3 X-297.2401 Y16.2417 I-0.1241 J-1.1008
G3 X-297.2879 Y16.2448 I-0.0693 J-0.7003
G3 X-297.7252 Y16.267 I-1.4375 J-24.0341
G1 X-298.8892 Y16.3067
G2 X-299.0393 Y16.3133 I0.0391 J2.5755
G1 X-299.3593 Y16.3309
G1 X-299.4405 Y16.3363
G1 X-299.7864 Y16.3637
G1 X-299.8741 Y16.3719
G1 X-299.9632 Y16.3809
G1 X-300.1468 Y16.4015
G2 X-302.0721 Y16.8099 I1.232 J10.5496
G2 X-304.8331 Y17.9801 I59.7602 J144.8529
G2 X-304.9219 Y18.0186 I1.0856 J2.617
G1 X-305.8671 Y18.4327
G1 X-306.4064 Y18.671
G1 X-307.0223 Y18.9445
G1 X-308.6628 Y19.6779
G1 X-310.8497 Y20.6568
G1 X-312.1012 Y21.212
G1 X-312.7698 Y21.5057
G1 X-313.4839 Y21.8166
G3 X-317.3187 Y23.4138 I-52.3733 J-120.3414
G1 X-317.8176 Y23.61
G3 X-320.1128 Y24.4689 I-29.8462 J-76.2634
G1 X-320.4061 Y24.573
G1 X-320.7045 Y24.6774
G1 X-321.0082 Y24.7822
G1 X-321.3171 Y24.8871
G3 X-322.6413 Y25.3179 I-18.3806 J-54.252
G1 X-322.9791 Y25.4226
G1 X-323.3229 Y25.5269
G3 X-326.4976 Y26.3754 I-15.1717 J-50.4044
G3 X-330.1913 Y27.0729 I-10.0584 J-43.1323
G1 X-330.6645 Y27.1378
G0 Z5.0
M5
M30
