( Made using CamBam - http://www.cambam.co.uk )
( _2014_1_20_car 1/20/2014 11:54:36 PM )
( T0 : 0.0 )
G21 G90 G64 G40
G0 Z5.0
( T0 : 0.0 )
T0 M6
( 51-59 )
G17
M3 S1000
G0 X-28.0454 Y212.2279
G1 F1.0 Z0.0
G2 X-28.0124 Y211.6182 I-1.5584 J-0.3901
G2 X-28.1904 Y211.0341 I-2.0132 J0.2943
G1 X-28.4324 Y210.5272
G1 X-28.6764 Y210.0212
G2 X-29.1869 Y209.0205 I-25.699 J12.4784
G2 X-29.3405 Y208.7387 I-21.5005 J11.5416
G2 X-29.7718 Y207.9993 I-16.8842 J9.3521
G1 X-29.8299 Y207.9054
G1 X-29.8906 Y207.8088
G2 X-29.954 Y207.7095 I-2.0087 J1.2121
G2 X-30.6779 Y206.6833 I-11.4953 J7.341
G2 X-31.8022 Y205.4405 I-8.3919 J6.4621
G2 X-32.5369 Y204.8232 I-5.7271 J6.0701
G1 X-32.7378 Y204.6778
G2 X-33.7147 Y204.0989 I-4.3084 J6.1564
G2 X-34.9337 Y203.6374 I-3.0619 J6.2472
G2 X-36.4127 Y203.4007 I-1.8563 J6.8589
G2 X-36.8002 Y203.3894 I-0.385 J6.5819
G1 X-33.5311 Y202.4188
G3 X-31.4302 Y203.3096 I-0.9893 J5.2559
G1 X-31.3058 Y203.399
G3 X-30.6796 Y203.9227 I-4.4353 J5.9392
G3 X-30.3481 Y204.2506 I-5.7399 J6.1354
G3 X-29.5373 Y205.1876 I-9.9197 J9.4034
G1 X-29.3332 Y205.4472
G3 X-29.2819 Y205.5136 I-1.7057 J1.3728
G3 X-29.1765 Y205.6508 I-3.6443 J2.908
G1 X-28.7 Y206.2795
G1 X-28.445 Y206.6134
G1 X-28.1689 Y206.9654
G2 X-27.5051 Y207.7399 I11.0582 J-8.8056
G1 X-27.3229 Y207.9297
G1 X-27.2283 Y208.024
G1 X-27.1306 Y208.1183
G1 X-19.2832 Y209.076
G1 X-19.0197 Y209.1065
G2 X-18.982 Y209.1107 I0.0639 J-0.4086
G1 X-18.6804 Y209.1429
G3 X-18.0779 Y209.2131 I-2.1398 J20.992
G1 X-17.9063 Y209.2376
G3 X-17.4517 Y209.3215 I-1.2521 J8.052
G3 X-16.8628 Y209.5058 I-0.7548 J3.4445
G3 X-16.5506 Y209.6731 I-0.719 J1.7169
G3 X-16.2454 Y209.9449 I-0.7651 J1.1664
G3 X-16.0166 Y210.3635 I-0.9933 J0.8147
G3 X-15.936 Y210.9151 I-1.6872 J0.5281
G3 X-19.461 Y210.8463 I0.3531 J-108.4261
G1 X-20.6355 Y210.8031
G1 X-21.3065 Y210.7754
G3 X-23.0955 Y210.6923 I8.0572 J-192.6758
G1 X-23.5725 Y210.6681
G1 X-24.6624 Y210.6098
G1 X-25.2437 Y210.5772
G1 X-26.572 Y210.498
G1 X-26.9148 Y210.4762
G3 X-27.1666 Y211.1806 I-3.0442 J-0.6911
G3 X-27.5688 Y211.8113 I-2.8406 J-1.3679
G1 X-27.6345 Y211.8868
G3 X-28.0454 Y212.2279 I-1.3119 J-1.1624
G0 Z5.0
G0 X-30.991 Y211.5268
G1 Z0.0
G1 X-39.463 Y209.3325
G3 X-38.7299 Y209.0515 I1.1837 J1.9909
G3 X-37.9462 Y209.0045 I0.5733 J3.0057
G3 X-37.8415 Y209.0121 I-0.0367 J1.2333
G3 X-37.6035 Y209.0388 I-0.2092 J2.9436
G3 X-37.5733 Y209.043 I-0.0147 J0.214
G3 X-36.9396 Y209.1679 I-0.875 J6.1114
G1 X-36.7727 Y209.2099
G3 X-35.8973 Y209.4646 I-4.95 J18.6423
G1 X-35.4013 Y209.6181
G1 X-35.1365 Y209.698
G1 X-34.9996 Y209.7379
G1 X-34.8581 Y209.7781
G1 X-34.5553 Y209.8587
G2 X-33.8565 Y210.0061 I1.9275 J-7.4104
G2 X-33.0436 Y210.0754 I0.8139 J-4.7442
G2 X-32.1141 Y209.9499 I0.0159 J-3.3874
G1 X-32.2551 Y209.8319
G1 X-32.3989 Y209.7175
G2 X-32.6946 Y209.4989 I-3.4542 J4.3634
G2 X-33.3117 Y209.0993 I-5.2596 J7.4455
G2 X-33.3961 Y209.0493 I-1.2359 J1.9936
G2 X-33.5906 Y208.9379 I-2.1855 J3.5886
G2 X-34.1177 Y208.6569 I-5.95 J10.5246
G1 X-34.26 Y208.5853
G2 X-35.0271 Y208.2211 I-9.484 J18.988
G1 X-35.4693 Y208.0214
G3 X-36.6462 Y207.4873 I27.091 J-61.2534
G3 X-37.3065 Y207.1571 I6.9654 J-14.755
G1 X-37.4738 Y207.066
G3 X-37.5582 Y207.0185 I0.5277 J-1.0363
G3 X-37.9121 Y206.8054 I5.1446 J-8.9455
G1 X-37.1329 Y206.3284
G1 X-36.8705 Y206.174
G3 X-36.719 Y206.0884 I36.116 J63.7186
G1 X-36.6376 Y206.0437
G1 X-36.5954 Y206.0209
G3 X-36.1369 Y205.7953 I2.787 J5.0849
G3 X-35.4919 Y205.5725 I1.5276 J3.3784
G3 X-35.1039 Y205.5184 I0.4771 J2.0021
G3 X-34.6542 Y205.5707 I0.0657 J1.3944
G3 X-34.1037 Y205.8171 I-2.1707 J5.5879
G1 X-33.9266 Y205.9126
G3 X-33.2597 Y206.3617 I-2.6122 J4.5983
G3 X-32.1856 Y207.552 I-3.118 J3.8935
G3 X-31.6863 Y208.4992 I-4.9445 J3.2117
G3 X-31.2571 Y209.8547 I-7.5785 J3.1455
G3 X-31.1049 Y210.6509 I-12.3313 J2.7701
G1 X-31.0739 Y210.8576
G3 X-31.0167 Y211.2989 I-60.0859 J8.0081
G1 X-30.991 Y211.5268
G0 Z5.0
G0 X-24.7875 Y212.2279
G1 Z0.0
G1 X-15.2257 Y213.1094
G1 X-15.2108 Y214.3291
G3 X-15.6607 Y214.3072 I0.9656 J-24.4761
G1 X-15.8106 Y214.2983
G1 X-16.0104 Y214.2851
G3 X-16.1245 Y214.2769 I0.1003 J-2.2079
G1 X-16.4286 Y214.2531
G1 X-16.8338 Y214.217
G1 X-17.3733 Y214.1615
G3 X-19.5227 Y213.8714 I5.4212 J-48.2637
G1 X-20.1344 Y213.7718
G3 X-21.7605 Y213.4777 I14.0496 J-82.3201
G1 X-21.9698 Y213.4371
G1 X-22.416 Y213.3485
G3 X-24.7875 Y212.8397 I18.0606 J-89.9532
G1 Y212.2279
G0 Z5.0
G0 X-21.1479 Y202.8131
G1 Z0.0
G3 X-21.3297 Y202.739 I1.9247 J-4.9787
G3 X-21.5985 Y202.6061 I1.0091 J-2.3803
G3 X-21.8585 Y202.4159 I0.579 J-1.0638
G3 X-21.9585 Y202.2786 I0.3505 J-0.3603
G3 X-21.9853 Y202.0923 I0.2721 J-0.1343
G3 X-21.8857 Y201.8903 I0.4401 J0.0915
G3 X-21.6957 Y201.7101 I0.8326 J0.6873
G3 X-21.4583 Y201.5516 I1.482 J1.9644
G3 X-20.8684 Y201.2597 I2.488 J4.2841
G3 X-20.7188 Y201.197 I2.3099 J5.3106
G2 X-18.4153 Y202.6264 I8.8963 J-11.7663
G2 X-15.8983 Y203.6334 I7.3829 J-14.8038
G1 X-15.5517 Y203.7375
G2 X-15.18 Y203.8411 I5.9042 J-20.4663
G2 X-14.3233 Y204.0502 I4.9651 J-18.4855
G2 X-14.2138 Y204.0741 I0.384 J-1.4972
G2 X-11.858 Y204.4504 I4.7039 J-21.882
G1 X-11.5517 Y204.4818
G1 X-11.2352 Y204.5104
G1 X-10.9082 Y204.536
G1 X-10.5704 Y204.5583
G2 X-9.0251 Y204.6104 I1.8116 J-30.7597
G2 X-8.201 Y204.6073 I0.2077 J-53.9109
G2 X-8.0971 Y204.6055 I0.0032 J-2.7861
G2 X-6.203 Y204.5206 I-0.8213 J-39.5136
G2 X-5.1958 Y204.4386 I-3.3278 J-47.0917
G1 X-4.6769 Y204.3872
G2 X-2.3179 Y204.0828 I-5.4398 J-51.4425
G1 X-2.1697 Y204.0601
G1 X-1.5591 Y203.9624
G1 X-0.9301 Y203.8552
G2 X0.4064 Y203.6066 I-10.9556 J-62.623
G1 X1.094 Y203.4687
G2 X4.2141 Y202.7721 I-20.0027 J-96.9328
G3 X3.9068 Y203.6462 I-3.359 J-0.6897
G3 X3.3608 Y204.3949 I-2.7283 J-1.4166
G3 X2.8903 Y204.7969 I-2.8099 J-2.8118
G3 X2.5972 Y204.9943 I-3.6432 J-5.0941
G3 X2.2485 Y205.1967 I-3.7616 J-6.0778
G3 X1.2878 Y205.6586 I-6.3066 J-11.8884
G1 X0.7329 Y205.9026
G1 X0.59 Y205.966
G1 X0.2872 Y206.1032
G1 X-0.0324 Y206.2548
G2 X-0.0724 Y206.2744 I0.1691 J0.3954
G2 X-0.1127 Y206.2943 I0.1715 J0.3975
G2 X-0.1532 Y206.3145 I0.174 J0.3994
G2 X-0.1939 Y206.335 I0.1764 J0.4011
G2 X-0.2349 Y206.3559 I0.1788 J0.4026
G2 X-0.2761 Y206.377 I0.1812 J0.4039
G2 X-0.3176 Y206.3985 I0.1835 J0.4049
G2 X-0.3592 Y206.4203 I0.1858 J0.4057
G2 X-0.4011 Y206.4425 I0.1881 J0.4061
G1 X-0.5725 Y206.5358
G2 X-0.7442 Y207.8841 I4.4123 J1.2469
G2 X-0.537 Y209.2275 I4.9246 J-0.0721
G2 X-0.1812 Y210.0632 I3.8396 J-1.141
G2 X0.1141 Y210.4922 I2.649 J-1.5069
G2 X0.5467 Y210.9054 I1.8594 J-1.5138
G2 X1.1679 Y211.2127 I1.1468 J-1.5365
G2 X1.9788 Y211.2628 I0.5248 J-1.9076
G3 X2.5697 Y211.1889 I0.8389 J4.3073
G3 X3.1652 Y211.1895 I0.2925 J5.3436
G3 X4.3421 Y211.3564 I-0.5001 J7.7582
G3 X4.6734 Y211.4312 I-1.6067 J7.8842
G3 X4.7586 Y211.4518 I-0.4017 J1.85
G1 X5.1467 Y211.5507
G1 X6.1755 Y211.8276
G2 X6.7663 Y211.9721 I5.4224 J-20.8961
G2 X7.4495 Y212.0984 I1.7741 J-7.6867
G2 X7.818 Y212.1387 I0.7635 J-5.2767
G2 X8.2137 Y212.1529 I0.3597 J-4.4883
G1 X8.3143 Y212.151
G1 X8.4164 Y212.1464
G2 X9.3406 Y211.9662 I-0.1733 J-3.3474
G2 X10.2956 Y211.4292 I-1.0867 J-3.0502
G2 X10.7289 Y211.0265 I-2.6956 J-3.3355
G2 X10.8302 Y210.9151 I-1.368 J-1.3458
G3 X10.3693 Y210.033 I3.023 J-2.1412
G3 X10.1454 Y209.0632 I4.0203 J-1.4386
G3 X10.1115 Y208.4003 I5.821 J-0.6307
G3 X10.1758 Y207.5199 I7.454 J0.1024
G3 X10.3979 Y206.3698 I10.1885 J1.3708
G3 X10.4757 Y206.0675 I37.3574 J9.4493
G1 X10.5181 Y205.9122
G3 X10.7275 Y205.2092 I18.4576 J5.1158
G1 X10.847 Y204.8374
G1 X11.1278 Y203.9938
G2 X14.7953 Y206.6475 I15.9071 J-18.1233
G2 X18.8752 Y208.609 I13.7235 J-23.3198
G2 X21.7452 Y209.5456 I10.6531 J-27.7791
G2 X25.682 Y210.3668 I8.852 J-32.5911
G2 X27.9644 Y210.6324 I5.6417 J-38.5364
G2 X34.0745 Y210.6824 I3.3858 J-40.4537
G1 X34.4618 Y210.655
G2 X42.5879 Y209.2583 I-3.2761 J-43.3973
G2 X47.0542 Y207.7631 I-10.5654 J-38.9794
G1 X50.7175 Y210.9151
G2 X48.2013 Y210.4173 I-4.26 J14.9261
G2 X45.638 Y210.323 I-1.8763 J16.1195
G2 X43.9357 Y210.4969 I0.6049 J14.3387
G2 X42.977 Y210.6929 I1.8631 J11.5563
G2 X41.9053 Y211.0149 I2.734 J11.0435
G2 X41.3496 Y211.234 I3.1543 J8.8177
G2 X40.1406 Y211.8745 I3.1887 J7.4798
G2 X40.0243 Y212.1851 I2.175 J0.9915
G2 X39.9578 Y212.51 I1.7077 J0.5187
G2 X40.0398 Y213.1662 I1.3659 J0.1625
G2 X40.2608 Y213.5516 I1.454 J-0.5777
G2 X40.6792 Y213.9654 I1.9478 J-1.5511
G1 X40.8041 Y214.0601
G2 X41.4983 Y214.4875 I3.7071 J-5.2434
G2 X41.5439 Y214.5122 I0.3085 J-0.516
G2 X41.5901 Y214.537 I0.382 J-0.6574
G1 X41.7869 Y214.6402
G1 X41.9963 Y214.7479
G1 X42.218 Y214.8616
G3 X42.7108 Y215.1282 I-4.5255 J8.9525
G3 X42.8344 Y215.2022 I-1.3359 J2.3743
G1 X42.8964 Y215.241
G3 X43.1498 Y215.4191 I-1.4033 J2.2665
G3 X43.391 Y215.6438 I-1.0496 J1.368
G2 X39.7546 Y215.9336 I22.4701 J304.9749
G3 X36.1193 Y216.2368 I-46.4351 J-534.7109
G1 X35.08 Y216.3153
G1 X34.9479 Y216.3248
G3 X32.129 Y216.4875 I-6.9159 J-95.3279
G3 X28.3638 Y216.533 I-2.6167 J-60.6322
G1 X27.8781 Y216.5208
G3 X22.7092 Y216.1087 I1.5448 J-52.002
G2 X22.2954 Y216.1576 I-0.1116 J0.8316
G2 X21.9601 Y216.4048 I0.2795 J0.7302
G2 X21.8469 Y216.6623 I0.4141 J0.3356
G2 X21.8665 Y216.8272 I0.3213 J0.0453
G2 X22.0024 Y216.9778 I0.2839 J-0.1195
G2 X22.2368 Y217.0478 I0.2828 J-0.5186
G1 X24.1845 Y217.2733
G1 X26.1329 Y217.4938
G1 X26.6898 Y217.5553
G1 X27.3263 Y217.6246
G1 X27.6659 Y217.6611
G2 X29.4774 Y217.8487 I18.2024 J-166.9196
G2 X29.9608 Y217.8965 I3.6605 J-34.5419
G2 X32.5403 Y218.1319 I17.9108 J-182.0321
G2 X35.985 Y218.3811 I12.2492 J-145.3684
G1 X36.9047 Y218.4323
G2 X41.8152 Y218.5701 I5.2394 J-99.1585
G2 X44.6226 Y218.5278 I0.1172 J-85.3236
G2 X47.8273 Y218.3512 I-2.4195 J-73.0938
G2 X47.9277 Y218.3433 I-0.2011 J-3.1842
G2 X49.6391 Y218.1841 I-4.9445 J-62.4488
G2 X49.7464 Y218.1726 I-0.2293 J-2.6416
G2 X49.8541 Y218.1609 I-0.2311 J-2.6177
G2 X53.7757 Y217.5996 I-6.6207 J-60.2391
G2 X55.8496 Y217.191 I-9.2124 J-52.2237
G2 X56.9137 Y216.9492 I-10.7164 J-49.6389
G1 Y217.5666
G3 X52.2457 Y218.9854 I-11.3117 J-28.8285
G3 X51.5622 Y219.1259 I-9.1625 J-42.8623
G3 X49.7257 Y219.4231 I-6.193 J-32.4419
G3 X47.257 Y219.6592 I-4.6267 J-35.3485
G1 X46.9375 Y219.678
G1 X46.6076 Y219.695
G1 X46.44 Y219.7027
G1 X46.0938 Y219.7166
G3 X45.3552 Y219.7384 I-1.4718 J-37.3639
G3 X43.6671 Y219.7531 I-1.3998 J-63.9601
G1 X43.2314 Y219.7503
G1 X43.0101 Y219.7479
G1 X42.7853 Y219.745
G1 X42.3214 Y219.7373
G3 X41.8426 Y219.7271 I0.6249 J-40.7174
G1 X41.5994 Y219.7212
G1 X41.3524 Y219.7147
G1 X41.1015 Y219.7076
G1 X40.0317 Y219.673
G1 X38.8911 Y219.6299
G1 X37.6752 Y219.5798
G1 X37.3664 Y219.5667
G1 X34.5462 Y219.4461
G1 X33.8185 Y219.4163
G1 X33.4489 Y219.4016
G1 X33.0734 Y219.387
G1 X31.4722 Y219.3287
G1 X30.6458 Y219.3016
G3 X-8.0111 Y215.4927 I8.8832 J-288.231
G3 X-8.1615 Y215.4676 I0.6378 J-4.2856
G1 X-8.7725 Y215.3649
G1 X-10.033 Y215.1489
G1 X-11.3332 Y214.9204
G1 X-12.6743 Y214.6788
G1 X-12.9794 Y211.8745
G1 X-13.7976
G1 Y211.2628
G2 X-13.3215 Y211.2887 I0.2928 J-0.9912
G2 X-12.8871 Y211.0923 I-0.1662 J-0.9461
G2 X-12.6947 Y210.8344 I-0.3838 J-0.487
G2 X-12.6743 Y210.6454 I-0.3533 J-0.1336
G2 X-12.8397 Y209.8401 I-4.9631 J0.5997
G2 X-13.1222 Y209.068 I-6.0588 J1.7788
G2 X-13.3621 Y208.575 I-6.3213 J2.7712
G2 X-13.7312 Y207.9448 I-7.2584 J3.8279
G2 X-13.7563 Y207.9057 I-0.4079 J0.234
G2 X-14.3253 Y207.0983 I-10.8965 J7.0751
G2 X-14.3634 Y207.0485 I-0.5759 J0.4008
G2 X-14.7199 Y206.6 I-14.7541 J11.3626
G2 X-15.7204 Y205.4518 I-24.5348 J20.3694
G1 X-15.7856 Y205.3803
G2 X-15.9203 Y205.2332 I-7.7298 J6.9413
G1 X-16.5377 Y204.5637
G1 X-16.6967 Y204.3907
G1 X-17.0332 Y204.0198
G2 X-17.462 Y203.8422 I-1.5602 J3.1592
G2 X-17.9047 Y203.7029 I-2.5247 J7.2512
G2 X-18.8015 Y203.4669 I-6.6947 J23.6168
G1 X-19.0587 Y203.4034
G1 X-19.744 Y203.2331
G1 X-20.1344 Y203.131
G1 X-20.3419 Y203.0738
G1 X-20.3945 Y203.0589
G1 X-20.6181 Y202.993
G1 X-20.6463 Y202.9843
G1 X-20.8849 Y202.9077
G1 X-21.0072 Y202.8653
G1 X-21.069 Y202.8429
G3 X-21.1479 Y202.8131 I1.8458 J-5.0085
G0 Z5.0
G0 X1.8169 Y208.1633
G1 Z0.0
G3 X1.8581 Y208.0245 I1.1801 J0.2749
G3 X1.9788 Y207.7631 I1.6652 J0.6107
G2 X2.8104 Y207.3682 I-1.6887 J-4.6281
G2 X3.5587 Y206.8319 I-3.1384 J-5.1701
G2 X4.0121 Y206.418 I-4.8324 J-5.7487
G1 X4.1275 Y206.3021
G1 X4.2483 Y206.1761
G2 X4.5164 Y205.8811 I-7.0141 J-6.6426
G2 X5.1889 Y205.061 I-12.9562 J-11.3102
G1 X5.5569 Y204.5803
G1 X5.9738 Y204.0296
G3 X6.4582 Y203.408 I24.7018 J18.7507
G1 X6.5865 Y203.2503
G3 X6.867 Y202.9198 I12.0919 J9.9786
G1 X6.94 Y202.8374
G3 X7.65 Y202.125 I6.341 J5.6095
G3 X8.5877 Y201.4537 I3.5733 J4.0007
G3 X8.9423 Y202.3565 I-3.1208 J1.7468
G3 X9.0458 Y203.321 I-3.9216 J0.9087
G3 X8.9986 Y203.9662 I-5.5266 J-0.0805
G3 X8.8403 Y204.8113 I-8.787 J-1.2088
G3 X8.5444 Y205.9118 I-21.6926 J-5.2425
G1 X8.3667 Y206.5361
G1 X8.2771 Y206.87
G1 X8.2553 Y206.9551
G2 X8.0857 Y207.7367 I10.3038 J2.6453
G2 X7.993 Y208.645 I5.7612 J1.0472
G2 X7.9942 Y208.8809 I6.3181 J0.0851
G2 X8.1748 Y209.9499 I3.8211 J-0.0959
G1 X8.0397 Y209.9569
G1 X7.9045 Y209.9626
G1 X7.8658 Y209.9641
G1 X7.5567 Y209.9736
G3 X6.9383 Y209.9815 I-0.5734 J-20.7519
G1 X6.526 Y209.9786
G1 X6.4727 Y209.9778
G3 X4.7731 Y209.8805 I0.2429 J-19.1409
G1 X4.5475 Y209.8549
G3 X4.0337 Y209.7811 I1.0674 J-9.2523
G3 X3.4519 Y209.6633 I1.3997 J-8.4121
G3 X3.146 Y209.581 I1.5455 J-6.3487
G3 X2.4713 Y209.3126 I1.0232 J-3.5541
G3 X2.1464 Y209.096 I0.9355 J-1.7555
G3 X1.8766 Y208.7662 I0.6631 J-0.818
G3 X1.7951 Y208.2845 I0.739 J-0.3727
G3 X1.8169 Y208.1633 I1.202 J0.1537
G0 Z5.0
G0 X12.2696 Y200.2564
G1 Z0.0
G3 X12.2511 Y200.2319 I9.4593 J-7.1554
G1 X15.7022 Y199.1348
G2 X17.6277 Y200.627 I26.9296 J-32.7605
G1 X17.6913 Y200.6731
G2 X19.7839 Y202.0674 I18.4908 J-25.4849
G2 X20.4033 Y202.4319 I11.0896 J-18.134
G2 X22.1046 Y203.3145 I11.9287 J-20.9129
G2 X24.4829 Y204.2516 I8.6873 J-18.561
G2 X25.8911 Y204.645 I5.9202 J-18.476
G2 X29.7591 Y205.1445 I4.3125 J-18.1683
G2 X31.991 Y205.081 I0.5261 J-20.7477
G2 X32.2736 Y205.0563 I-0.4782 J-7.1183
G2 X32.4159 Y205.0426 I-0.2933 J-3.778
G2 X34.9971 Y204.6447 I-2.5622 J-25.1931
G2 X35.3281 Y204.5747 I-2.6361 J-13.2938
G2 X35.6588 Y204.5033 I-3.0761 J-15.0489
G1 X36.3203 Y204.3607
G1 X36.7622 Y204.2697
G1 X37.0153 Y204.2205
G1 X37.3051 Y204.1679
G3 X38.0826 Y204.0546 I2.1489 J12.0198
G1 X38.2911 Y204.0333
G3 X39.4099 Y204.0185 I0.6458 J6.5366
G3 X40.0439 Y204.1172 I-0.3525 J4.3498
G3 X41.5574 Y204.959 I-0.6791 J3.0027
G3 X40.3871 Y205.7655 I-5.2377 J-6.3484
G3 X39.1099 Y206.3891 I-5.3687 J-9.3748
G3 X38.732 Y206.5383 I-6.4406 J-15.7639
G3 X37.705 Y206.8808 I-4.9101 J-13.0114
G3 X36.3053 Y207.2275 I-4.8784 J-16.6969
G3 X34.4091 Y207.5259 I-4.2738 J-20.9865
G3 X34.1628 Y207.5524 I-0.9931 J-8.0593
G3 X33.9083 Y207.5771 I-1.0864 J-9.8546
G3 X31.1914 Y207.6864 I-2.4496 J-27.0731
G3 X29.64 Y207.6342 I0.2607 J-30.7833
G3 X29.5914 Y207.6313 I0.0216 J-0.7733
G1 X29.1902 Y207.6046
G3 X24.9602 Y207.0196 I2.3855 J-32.8345
G1 X24.6947 Y206.9642
G3 X22.2946 Y206.357 I6.3736 J-30.2408
G3 X21.0372 Y205.9562 I9.2053 J-31.0476
G3 X18.2466 Y204.8223 I8.4251 J-24.7356
G1 X17.9025 Y204.6548
G3 X16.4684 Y203.8744 I9.4689 J-19.1102
G3 X15.0143 Y202.9135 I8.9909 J-15.1859
G3 X13.5822 Y201.7214 I8.7324 J-11.946
G3 X12.2696 Y200.2564 I8.1466 J-8.6204
G0 Z5.0
G0 X19.1684 Y198.0377
G1 Z0.0
G2 X22.1291 Y197.0791 I-10.424 J-37.2459
G2 X22.5457 Y196.9235 I-10.3705 J-28.4099
G2 X25.8193 Y195.5337 I-16.8366 J-44.2074
G2 X27.947 Y194.4873 I-26.0098 J-55.5696
G2 X30.7295 Y192.9887 I-40.6091 J-78.7372
G1 X31.4639 Y192.5754
G1 X32.2448 Y192.1303
G1 X33.0757 Y191.6521
G1 X33.5039 Y191.4043
G1 X34.4168 Y190.8747
G1 X34.573 Y191.2384
G2 X34.626 Y191.3593 I2.1747 J-0.8827
G2 X34.6566 Y191.4283 I1.6164 J-0.6744
G2 X34.9064 Y191.9774 I19.8164 J-8.6833
G2 X34.9404 Y192.0503 I1.5326 J-0.6714
G1 X35.1249 Y192.4377
G2 X35.9078 Y193.9645 I33.8084 J-16.3731
G2 X35.9607 Y194.0618 I1.5093 J-0.7574
G2 X36.0156 Y194.1621 I1.5246 J-0.7692
G2 X37.909 Y197.2894 I39.3443 J-21.6846
G2 X37.9408 Y197.3375 I0.9552 J-0.5964
G2 X39.3407 Y199.3558 I46.834 J-30.9903
G1 X39.7278 Y199.8843
G3 X38.9342 Y200.339 I-4.9831 J-7.7767
G3 X38.1054 Y200.726 I-5.3825 J-10.4477
G3 X37.5396 Y200.9533 I-7.0053 J-16.6134
G3 X35.2108 Y201.6658 I-6.9257 J-18.476
G3 X30.3979 Y202.3084 I-5.5067 J-22.8973
G3 X27.1629 Y202.1538 I-0.6423 J-20.4857
G3 X25.3413 Y201.8153 I2.1864 J-16.8347
G3 X23.3251 Y201.1581 I3.2597 J-13.4211
G3 X21.1914 Y199.9874 I4.1748 J-10.1389
G3 X19.1684 Y198.0377 I5.2843 J-7.5074
G0 Z5.0
G0 X31.2704 Y188.846
G1 Z0.0
G2 X31.1097 Y187.6902 I-14.6933 J1.4546
G2 X30.8711 Y186.5478 I-17.9866 J3.1602
G1 X30.7912 Y186.2241
G1 X30.6944 Y185.8556
G2 X30.4128 Y184.8794 I-38.8293 J10.6737
G1 X30.2399 Y184.3253
G1 X30.1451 Y184.0306
G1 X29.9239 Y183.3586
G1 X29.6674 Y182.592
G1 X29.3767 Y181.7153
G3 X29.2257 Y181.2464 I229.0906 J-74.0379
G3 X28.9006 Y180.1689 I28.7731 J-9.27
G1 X28.8619 Y180.0312
G3 X28.5476 Y178.7625 I19.5404 J-5.5146
G1 X28.4803 Y178.4319
G1 X28.4179 Y178.0892
G3 X28.3617 Y177.734 I11.2335 J-1.9583
G3 X28.2309 Y176.0922 I12.1722 J-1.7954
G1 X28.2312 Y175.8829
G3 X28.4371 Y173.9715 I9.7585 J0.0843
G3 X29.1357 Y171.8701 I9.7403 J2.0712
G2 X29.1423 Y172.0194 I2.328 J-0.0279
G1 X29.1515 Y172.1687
G1 X29.1766 Y172.4666
G2 X29.246 Y173.0604 I14.5091 J-1.3947
G2 X29.3026 Y173.455 I12.8362 J-1.6398
G2 X29.3875 Y173.9795 I20.5258 J-3.0512
G1 X29.4116 Y174.1192
G1 X29.438 Y174.2681
G1 X29.4668 Y174.4267
G2 X29.9942 Y176.9502 I56.8976 J-10.5751
G1 X30.1618 Y177.6675
G2 X30.36 Y178.4854 I162.0239 J-38.8266
G1 X30.3856 Y178.5892
G2 X30.4961 Y179.0317 I21.0762 J-5.0297
G2 X31.1134 Y181.3833 I128.4897 J-32.4721
G1 X31.2858 Y182.0084
G1 X31.4735 Y182.674
G2 X31.9269 Y184.1881 I47.9122 J-13.522
G2 X31.9586 Y184.2826 I1.3339 J-0.3942
G1 X31.9786 Y184.3447
G1 X31.9985 Y184.4069
G3 X32.0377 Y184.5315 I-4.3806 J1.4453
G1 X32.1129 Y184.7815
G1 X32.1335 Y184.8533
G1 X32.1564 Y184.9355
G3 X32.312 Y185.5997 I-7.615 J2.1344
G3 X32.3778 Y186.05 I-5.7288 J1.0663
G3 X32.396 Y186.657 I-4.1444 J0.4281
G3 X32.2512 Y187.4558 I-3.0179 J-0.1345
G3 X31.7145 Y188.4038 I-2.7155 J-0.9116
G3 X31.2704 Y188.846 I-2.8256 J-2.3935
G0 Z5.0
M5
M30
