( Made using CamBam - http://www.cambam.co.uk )
( _2014_1_20_car 1/20/2014 11:51:44 PM )
( T0 : 0.0 )
G21 G90 G64 G40
G0 Z5.0
( T0 : 0.0 )
T0 M6
( 46-50 )
G17
M3 S1000
G0 X-45.9491 Y242.7821
G1 F1.0 Z0.0
G2 X-45.6063 Y243.8607 I2.979 J-0.353
G2 X-44.8685 Y244.7188 I2.4671 J-1.375
G2 X-44.225 Y245.1165 I2.1429 J-2.7479
G2 X-43.2806 Y245.4506 I2.0556 J-4.3082
G2 X-42.7208 Y245.5606 I1.5906 J-6.6207
G2 X-42.0766 Y245.6277 I1.1745 J-8.1456
G2 X-40.3862 Y245.5672 I0.5221 J-9.063
G2 X-38.246 Y245.0529 I-1.1813 J-9.6257
G2 X-38.1151 Y245.0033 I-0.9606 J-2.7322
G2 X-37.57 Y244.7663 I-3.1364 J-7.9578
G1 X-36.6879 Y244.3286
G1 X-36.3926 Y244.1852
G1 X-36.223 Y244.1049
G1 X-36.0283 Y244.0152
G3 X-35.8042 Y243.9162 I2.2682 J4.831
G1 X-35.5455 Y243.8089
G3 X-34.8381 Y243.5687 I2.3955 J5.8928
G3 X-34.4198 Y243.4795 I1.0526 J3.9106
G3 X-33.9301 Y243.4506 I0.3968 J2.5594
G3 X-33.3749 Y243.5692 I-0.0628 J1.6522
G3 X-32.8329 Y243.9623 I-0.5747 J1.3626
G3 X-32.6185 Y244.2579 I-1.6285 J1.4064
G3 X-32.4427 Y244.6103 I-2.3268 J1.3813
G3 X-32.3038 Y245.008 I-4.1119 J1.6591
G3 X-32.3115 Y245.1461 I-0.2113 J0.0574
G3 X-32.3779 Y245.2674 I-0.5274 J-0.2099
G3 X-32.5635 Y245.4632 I-0.9609 J-0.7248
G3 X-32.9872 Y245.7717 I-2.3467 J-2.7777
G1 X-33.114 Y245.8503
G3 X-34.1466 Y246.3981 I-6.353 J-10.7285
G3 X-34.2146 Y246.4306 I-0.6664 J-1.3052
G3 X-34.2849 Y246.464 I-0.705 J-1.3961
G3 X-34.3576 Y246.4981 I-0.7444 J-1.4901
G3 X-35.1349 Y246.8467 I-10.0404 J-21.3457
G1 X-35.5823 Y247.0366
G3 X-36.7806 Y247.5184 I-21.7747 J-52.4331
G1 X-37.4691 Y247.7817
G1 X-37.6472 Y247.8486
G1 X-37.8312 Y247.9171
G3 X-38.2239 Y248.0618 I-9.6846 J-25.6803
G1 X-38.6434 Y248.2141
G1 X-39.0913 Y248.3744
G1 X-39.5697 Y248.5431
G1 X-40.0805 Y248.7207
G1 X-40.6261 Y248.9078
G1 X-41.2087 Y249.1047
G1 X-41.8308 Y249.3121
G3 X-45.1564 Y250.378 I-56.6781 J-171.1054
G1 X-45.5867 Y250.5115
G3 X-50.1859 Y251.8878 I-85.2862 J-276.6253
G3 X-52.8223 Y252.642 I-82.6209 J-283.8188
G1 X-54.2305 Y253.0361
G1 X-54.9578 Y253.2375
G1 X-55.7089 Y253.4439
G1 X-56.4846 Y253.6555
G1 X-58.1403 Y254.1021
G1 X-59.9081 Y254.5717
G3 X-69.3568 Y256.9702 I-136.0043 J-515.9709
G1 X-69.6551 Y257.0432
G3 X-72.2013 Y257.6597 I-265.2743 J-1089.9695
G1 X-72.5223 Y257.7366
G1 X-72.8458 Y257.814
G3 X-86.6753 Y260.9717 I-170.4271 J-714.5531
G3 X-94.6016 Y262.6616 I-167.6607 J-766.9692
G1 X-95.6092 Y262.8706
G1 X-97.6903 Y263.2985
G1 X-99.8394 Y263.7348
G3 X-104.4275 Y264.6477 I-143.25 J-707.8932
G1 X-106.7972 Y265.1097
G3 X-107.6927 Y265.2187 I-1.1782 J-5.9458
G3 X-108.5926 Y265.1571 I-0.1745 J-4.0535
G3 X-110.1658 Y264.2908 I0.4905 J-2.7523
G3 X-110.4882 Y263.8799 I2.5074 J-2.2996
G3 X-110.7833 Y263.3622 I3.5431 J-2.3626
G3 X-111.0416 Y262.7358 I5.1982 J-2.51
G3 X-111.1526 Y262.3932 I10.9131 J-3.7245
G3 X-111.1784 Y262.3055 I3.1922 J-0.9861
G1 X-109.7502 Y261.6937
G1 X-118.5049 Y242.7821
G3 X-114.601 Y243.0707 I-6.992 J121.1516
G3 X-110.7071 Y243.4737 I-13.7009 J151.3665
G1 X-109.5966 Y243.6071
G1 X-109.0047 Y243.6811
G1 X-108.3737 Y243.7623
G1 X-107.7008 Y243.8512
G1 X-106.9835 Y243.9486
G1 X-106.2187 Y244.0551
G1 X-105.4033 Y244.1717
G1 X-104.534 Y244.299
G3 X-99.9044 Y245.0196 I-47.5616 J320.8175
G1 X-99.3076 Y245.1163
G1 X-98.6916 Y245.2167
G1 X-97.3779 Y245.4322
G1 X-94.3757 Y245.9277
G2 X-90.9435 Y246.4859 I145.4803 J-883.7197
G1 X-90.0572 Y246.6265
G1 X-89.1421 Y246.7695
G2 X-87.1884 Y247.0657 I31.3153 J-199.9238
G2 X-87.0657 Y247.0838 I0.5988 J-3.6259
G2 X-86.9425 Y247.102 I0.5941 J-3.6039
G2 X-86.8188 Y247.1202 I0.5894 J-3.5823
G2 X-86.6947 Y247.1383 I0.5847 J-3.5611
G2 X-86.57 Y247.1565 I0.5801 J-3.5402
G2 X-86.4448 Y247.1747 I0.5755 J-3.5197
G2 X-86.3192 Y247.1929 I0.571 J-3.4995
G2 X-86.193 Y247.2111 I0.5665 J-3.4798
G2 X-86.0664 Y247.2293 I0.5621 J-3.4603
G2 X-85.0203 Y247.377 I16.8421 J-115.5696
G1 X-83.9396 Y247.5239
G3 X-82.1439 Y247.7812 I-15.2425 J112.793
G1 X-81.5461 Y247.8722
G3 X-80.7495 Y247.9962 I-28.1736 J183.6757
G1 X-77.5641 Y248.4996
G2 X-75.4381 Y248.8193 I23.1109 J-146.4936
G1 X-74.8705 Y248.8996
G2 X-74.7262 Y248.9196 I0.5153 J-3.1896
G1 X-74.1105 Y249.0027
G2 X-73.9541 Y249.0232 I1.0457 J-7.3595
G1 X-73.631 Y249.0648
G2 X-72.1521 Y249.2398 I11.2412 J-88.6826
G2 X-70.458 Y249.4027 I7.8354 J-72.5665
G2 X-69.5526 Y249.4701 I3.253 J-37.6276
G1 X-69.3225 Y249.4847
G1 X-69.2065 Y249.4917
G2 X-68.9708 Y249.505 I0.578 J-8.1288
G2 X-66.8126 Y249.5685 I2.3829 J-44.2656
G2 X-64.3449 Y249.4833 I0.0968 J-32.9685
G2 X-63.0336 Y249.351 I-1.8848 J-25.2413
G2 X-61.6439 Y249.1287 I-2.9352 J-22.8116
G1 X-61.5572 Y249.1117
G1 X-61.4702 Y249.0942
G2 X-60.7549 Y248.9345 I-3.1574 J-15.823
G2 X-59.2513 Y248.4947 I-4.1092 J-16.8354
G1 X-59.1584 Y248.4622
G1 X-59.0654 Y248.4291
G2 X-57.5102 Y247.7654 I-4.9815 J-13.8253
G2 X-55.9501 Y246.8405 I-5.6472 J-11.3043
G2 X-55.8568 Y246.7749 I-0.8179 J-1.262
G2 X-55.1093 Y246.1981 I-7.1144 J-9.9934
G2 X-55.0703 Y245.5177 I-1.7336 J-0.4405
G2 X-55.2924 Y244.8735 I-1.8477 J0.2765
G2 X-55.5442 Y244.495 I-2.5957 J1.4539
G2 X-55.9411 Y244.0432 I-4.2647 J3.3463
G2 X-56.5016 Y243.4838 I-26.8374 J26.3294
G1 X-56.6493 Y243.3339
G1 X-56.803 Y243.171
G3 X-56.9605 Y242.9924 I3.9836 J-3.6715
G3 X-57.0384 Y242.8976 I1.0323 J-0.928
G3 X-57.3519 Y242.4343 I2.3782 J-1.9469
G1 X-45.9491 Y242.7821
G0 Z5.0
G0 X-42.7061 Y242.8662
G1 Z0.0
G3 X-42.6987 Y242.7821 I0.6831 J0.0177
G3 X-42.4734 Y242.3393 I0.9631 J0.2112
G3 X-42.0673 Y242.053 I0.8777 J0.8139
G3 X-41.7539 Y241.9467 I0.7997 J1.844
G3 X-41.3236 Y241.8759 I0.6877 J2.8332
G3 X-40.7519 Y241.8612 I0.4052 J4.6431
G3 X-40.4283 Y241.8801 I-0.1407 J5.1796
G3 X-39.5893 Y241.9939 I-0.8017 J9.0595
G3 X-39.1193 Y242.0903 I-1.5529 J8.7677
G3 X-37.9121 Y242.4343 I-2.3719 J10.6131
G3 X-38.487 Y242.8533 I-2.0768 J-2.2459
G3 X-39.1281 Y243.1617 I-2.358 J-4.0819
G3 X-40.495 Y243.5349 I-2.3944 J-6.08
G3 X-41.4375 Y243.6028 I-0.8455 J-5.1613
G3 X-41.9756 Y243.5424 I0.0416 J-2.7979
G3 X-42.2534 Y243.4578 I0.4039 J-1.8267
G3 X-42.5227 Y243.295 I0.3472 J-0.8783
G3 X-42.6991 Y242.9829 I0.3488 J-0.4031
G3 X-42.7061 Y242.8662 I0.6761 J-0.0989
G0 Z5.0
G0 X-40.7261 Y228.1253
G1 Z0.0
G3 X-44.2905 Y227.6217 I35.1346 J-261.5734
G1 X-45.4636 Y227.4453
G1 X-46.6737 Y227.2575
G1 X-47.9218 Y227.0578
G1 X-49.2091 Y226.8452
G3 X-55.0799 Y225.7905 I40.1858 J-240.5376
G3 X-70.5975 Y222.3015 I46.5444 J-243.2627
G1 X-71.5747 Y222.0464
G3 X-92.144 Y215.6438 I61.5962 J-234.1307
G1 X-87.365 Y214.4147
G2 X-71.3307 Y219.4055 I93.2044 J-271.1891
G1 X-70.2519 Y219.705
G1 X-69.0998 Y220.0199
G1 X-67.8695 Y220.3506
G2 X-48.006 Y224.9065 I75.5771 J-283.9331
G2 X-7.5717 Y229.8341 I55.6746 J-288.4874
G1 X-7.2537 Y229.8535
G1 X-6.9361 Y229.8777
G3 X-6.3025 Y229.9453 I-1.0934 J13.246
G3 X-6.1223 Y229.971 I-0.3436 J3.0502
G1 X-6.0264 Y229.9864
G3 X-5.5205 Y230.0983 I-0.6444 J4.1104
G3 X-5.3901 Y230.1449 I-0.3358 J1.1465
G3 X-5.2618 Y230.2205 I-0.144 J0.3912
G3 X-5.2359 Y230.3013 I-0.0428 J0.0582
G3 X-5.2734 Y230.3448 I-0.0951 J-0.0442
G3 X-5.4152 Y230.411 I-0.2787 J-0.4115
G3 X-5.6158 Y230.4614 I-0.5587 J-1.8004
G1 X-5.7132 Y230.479
G3 X-5.8891 Y230.5042 I-0.4278 J-2.3604
G3 X-6.1181 Y230.5283 I-0.6127 J-4.7225
G3 X-6.6683 Y230.5612 I-1.0519 J-12.9606
G1 X-6.874 Y230.5672
G1 X-7.2222 Y230.5716
G1 X-7.3993 Y230.5714
G1 X-7.5297 Y230.5704
G3 X-7.661 Y230.5686 I-0.032 J-2.4758
G3 X-17.9971 Y230.2167 I5.242 J-305.9311
G3 X-28.3142 Y229.4999 I14.3811 J-281.5922
G3 X-35.1746 Y228.8112 I24.0423 J-274.003
G3 X-40.7261 Y228.1253 I29.5832 J-262.2592
G0 Z5.0
G0 X-113.7185 Y262.3055
G1 Z0.0
G1 X-115.061 Y262.8504
G2 X-115.0789 Y263.43 I1.4561 J0.3351
G2 X-114.9006 Y263.9817 I2.0101 J-0.3452
G2 X-114.8244 Y264.1292 I3.8439 J-1.8922
G2 X-114.5861 Y264.4997 I3.6399 J-2.0786
G2 X-114.433 Y264.6988 I8.1693 J-6.1273
G2 X-113.9885 Y265.1926 I4.983 J-4.0378
G2 X-113.7185 Y265.4574 I5.0226 J-4.8523
G3 X-116.4328 Y265.716 I-3.1394 J-18.5754
G3 X-117.3425 Y265.7104 I-0.3648 J-14.4967
G3 X-118.5513 Y265.6087 I0.3939 J-11.9208
G1 X-118.7062 Y265.5858
G3 X-119.4085 Y265.4444 I1.1346 J-7.4503
G3 X-119.4966 Y265.4215 I0.6374 J-2.6378
G1 X-119.6775 Y265.3703
G1 X-119.7688 Y265.342
G3 X-120.5749 Y264.9988 I1.2603 J-4.0786
G3 X-120.9657 Y264.7369 I1.493 J-2.6501
G3 X-121.3252 Y264.3788 I1.3785 J-1.7429
G3 X-121.603 Y263.901 I1.5062 J-1.1954
G1 X-120.7475 Y263.5403
G2 X-121.4273 Y261.9918 I-34.1986 J14.0893
G2 X-122.1673 Y260.4712 I-48.7627 J22.7882
G2 X-122.2696 Y260.2702 I-7.0912 J3.4851
G2 X-122.8273 Y259.2048 I-68.9747 J35.4255
G2 X-122.8633 Y259.1375 I-0.9833 J0.4827
G2 X-122.9 Y259.0691 I-0.9949 J0.4895
G2 X-123.6959 Y257.6184 I-67.3369 J35.9988
G1 X-124.1598 Y256.7946
G1 X-124.6952 Y255.8562
G1 X-125.3104 Y254.7856
G1 X-125.6386 Y254.2147
G1 X-126.3854 Y252.908
G3 X-126.4797 Y252.7417 I4.0297 J-2.3938
G1 X-126.8795 Y252.0311
G3 X-127.0843 Y251.6633 I16.8143 J-9.6028
G1 X-127.5163 Y250.8764
G1 X-127.7365 Y250.4687
G1 X-127.9614 Y250.0466
G1 X-128.1908 Y249.6094
G3 X-128.4244 Y249.1564 I30.2873 J-15.9043
G1 X-128.6617 Y248.6869
G3 X-129.1538 Y247.678 I39.0079 J-19.6526
G1 X-129.2754 Y247.4202
G1 X-129.3974 Y247.1575
G3 X-129.8989 Y246.0279 I37.8181 J-17.4675
G3 X-130.9078 Y243.3874 I32.6897 J-14.0037
G1 X-131.0197 Y243.0462
G3 X-130.4146 Y242.6324 I2.8049 J3.4522
G3 X-129.7532 Y242.316 I2.4467 J4.2658
G3 X-128.3426 Y241.9315 I2.5381 J6.532
G3 X-127.9289 Y241.8714 I2.1574 J13.3826
G3 X-127.8761 Y241.8651 I0.0878 J0.5111
G3 X-126.7486 Y241.795 I1.2098 J10.3597
G3 X-125.249 Y241.8598 I0.1567 J13.7672
G3 X-123.2803 Y242.1647 I-1.5989 J16.8307
G1 X-113.7185 Y262.3055
G0 Z5.0
G0 X-128.2341 Y254.2407
G1 Z0.0
G1 X-128.4573 Y254.4452
G1 X-132.4479 Y249.4207
G1 X-132.8495 Y245.9341
G1 X-128.2341 Y254.2407
G0 Z5.0
M5
M30
