( Made using CamBam - http://www.cambam.co.uk )
( _2014_1_20_car 1/20/2014 11:32:21 PM )
( T0 : 0.0 )
G21 G90 G64 G40
G0 Z5.0
( T0 : 0.0 )
T0 M6
( 224 )
G17
M3 S1000
G0 X172.7151 Y227.9875
G1 F1.0 Z0.0
G3 X172.9311 Y222.4744 I28.2888 J-1.6528
G3 X173.2535 Y220.6609 I24.0935 J3.3489
G1 X173.3057 Y220.429
G1 X173.3622 Y220.1902
G3 X173.659 Y219.1081 I17.2931 J4.1608
G3 X173.8456 Y218.5392 I15.7839 J4.8608
G1 X179.3424 Y227.0225
G1 X172.7151 Y227.9875
G0 Z5.0
M5
M30
