( Made using CamBam - http://www.cambam.co.uk )
( _2014_1_20_car 1/20/2014 11:31:31 PM )
( T0 : 0.0 )
G21 G90 G64 G40
G0 Z5.0
( T0 : 0.0 )
T0 M6
( 119-121 )
G17
M3 S1000
G0 X-431.2771 Y104.6102
G1 F1.0 Z0.0
G2 X-429.7303 Y104.9797 I3.9817 J-13.249
G2 X-428.1519 Y105.1731 I2.5509 J-14.2793
G2 X-427.0918 Y105.2014 I0.8863 J-13.346
G2 X-425.6818 Y105.0927 I-0.1204 J-10.7708
G1 X-425.5015 Y105.064
G1 X-425.522 Y105.2671
G1 X-425.5438 Y105.4702
G1 X-425.591 Y105.8758
G3 X-425.7025 Y106.685 I-27.481 J-3.3756
G3 X-426.0101 Y108.2893 I-20.6284 J-3.1236
G1 X-426.0612 Y108.501
G1 X-426.1187 Y108.7262
G3 X-426.4813 Y109.9114 I-14.5498 J-3.8034
G3 X-427.1345 Y111.4305 I-11.7001 J-4.1312
G3 X-428.3586 Y113.2684 I-8.6245 J-4.4174
G3 X-430.6152 Y115.1763 I-6.8743 J-5.8423
G3 X-430.8964 Y115.3033 I-0.7789 J-1.3496
G3 X-431.1957 Y115.3787 I-0.6366 J-1.8948
G3 X-431.8087 Y115.4258 I-0.56 J-3.2741
G3 X-433.0129 Y115.2349 I0.0642 J-4.2979
G3 X-433.7532 Y114.8979 I0.8635 J-2.8787
G3 X-434.1096 Y114.5941 I0.9021 J-1.4194
G3 X-434.2531 Y114.3859 I0.8549 J-0.7429
G3 X-434.3353 Y113.7843 I0.7653 J-0.411
G3 X-434.2141 Y113.4636 I1.2186 J0.2772
G3 X-434.0024 Y113.1533 I1.673 J0.9141
G1 X-433.94 Y113.0805
G2 X-432.605 Y111.275 I-9.4026 J-8.3486
G2 X-431.6066 Y109.2635 I-10.7033 J-6.5659
G2 X-431.1696 Y107.83 I-9.6474 J-3.7244
G2 X-431.0288 Y106.9839 I-7.7722 J-1.7286
G1 X-431.0082 Y106.7634
G2 X-431.0146 Y105.7486 I-5.8031 J-0.4712
G2 X-431.2771 Y104.6102 I-4.2865 J0.3893
G0 Z5.0
G0 X-430.6275 Y102.5286
G1 Z0.0
G3 X-431.0076 Y102.3824 I0.9408 J-3.0145
G3 X-431.425 Y102.131 I1.0048 J-2.1404
G3 X-431.8099 Y101.7209 I0.9637 J-1.2902
G3 X-431.9892 Y101.0779 I0.9226 J-0.6038
G3 X-431.913 Y100.7117 I1.2171 J0.0624
G3 X-431.7176 Y100.3477 I1.6096 J0.6296
G3 X-431.424 Y100.0071 I2.0312 J1.4541
G3 X-431.4036 Y99.9874 I0.0788 J0.0612
G3 X-429.909 Y99.1468 I7.1203 J10.9115
G3 X-429.8053 Y99.0983 I1.6199 J3.3266
G1 X-429.5666 Y98.9917
G3 X-428.9169 Y98.7383 I3.8225 J8.8411
G3 X-428.0221 Y98.4847 I2.5411 J7.2609
G3 X-426.7883 Y98.3455 I1.2574 J5.6069
G3 X-427.2217 Y98.68 I-4.1621 J-4.9449
G1 X-427.3716 Y98.7842
G3 X-427.5738 Y98.9199 I-5.1764 J-7.4903
G1 X-427.6899 Y98.9964
G1 X-428.0001 Y99.1997
G1 X-428.0826 Y99.2543
G2 X-428.2698 Y99.381 I2.708 J4.2037
G2 X-428.7492 Y99.7465 I3.0404 J4.4842
G2 X-428.9901 Y99.994 I1.3121 J1.5187
G2 X-429.0937 Y100.1476 I0.825 J0.6679
G2 X-429.1647 Y100.3352 I0.623 J0.343
G2 X-429.0844 Y100.5448 I0.5088 J-0.0747
G2 X-428.9388 Y100.7156 I0.7154 J-0.4624
G2 X-428.584 Y100.9799 I1.5412 J-1.6983
G1 X-428.4765 Y101.046
G1 X-428.1877 Y101.2138
G3 X-427.8115 Y101.4464 I-2.4361 J4.3611
G3 X-427.6182 Y101.6094 I-0.7117 J1.0404
G3 X-427.5388 Y101.72 I-0.3209 J0.3142
G3 X-427.5097 Y101.8687 I-0.2333 J0.1228
G3 X-427.5859 Y102.0328 I-0.3208 J-0.0492
G3 X-427.7403 Y102.1743 I-0.6531 J-0.5579
G3 X-430.1964 Y102.6305 I-1.8606 J-3.1772
G3 X-430.6275 Y102.5286 I0.5097 J-3.1165
G0 Z5.0
G0 X-433.7853 Y102.34
G1 Z0.0
G3 X-433.9976 Y102.9562 I-1.2104 J-0.0723
G3 X-434.3259 Y103.3165 I-1.5181 J-1.0535
G3 X-434.8556 Y103.6751 I-2.0309 J-2.4297
G3 X-435.6063 Y104.0239 I-3.1636 J-5.8263
G3 X-436.6067 Y104.3792 I-6.2067 J-15.8905
G1 X-437.9056 Y104.7928
G1 X-437.9878 Y104.8198
G1 X-438.1565 Y104.8761
G2 X-438.9099 Y105.1517 I5.4021 J15.9348
G2 X-439.1006 Y105.231 I1.7386 J4.4469
G1 X-439.2947 Y105.3178
G2 X-439.3923 Y105.3642 I1.2086 J2.669
G2 X-439.7957 Y105.5827 I1.7771 J3.7622
G1 X-439.8203 Y105.5978
G2 X-440.2166 Y105.8884 I1.5431 J2.5201
G2 X-440.5601 Y106.2913 I1.1291 J1.3102
G2 X-440.1132 Y106.3444 I0.8492 J-5.2475
G2 X-439.6636 Y106.3628 I0.4785 J-6.1899
G1 X-439.535 Y106.3625
G2 X-438.5096 Y106.2947 I-0.1577 J-10.1687
G2 X-437.8305 Y106.2074 I-2.0924 J-18.9681
G2 X-437.7874 Y106.2013 I-0.0398 J-0.4329
G2 X-437.7436 Y106.195 I-0.0408 J-0.439
G2 X-437.6991 Y106.1885 I-0.0418 J-0.4453
G1 X-437.2934 Y106.1284
G3 X-436.2117 Y105.9764 I8.2419 J54.7086
G3 X-436.1428 Y105.968 I0.1191 J0.6951
G3 X-436.0727 Y105.9598 I0.1184 J0.7056
G3 X-436.0015 Y105.9517 I0.1173 J0.7155
G3 X-435.9292 Y105.9438 I0.116 J0.7249
G3 X-435.8556 Y105.9361 I0.1143 J0.7337
G1 X-435.5419 Y105.9071
G3 X-435.2066 Y105.8844 I2.6216 J36.2231
G3 X-434.4383 Y105.8718 I0.532 J8.9645
G3 X-434.3899 Y105.8731 I0.011 J0.4923
G3 X-433.9771 Y105.8956 I-0.273 J8.8049
G3 X-433.5384 Y105.9436 I-0.4978 J6.5761
G3 X-433.6038 Y107.388 I-6.094 J0.4475
G3 X-434.0009 Y108.7782 I-6.4051 J-1.0773
G3 X-435.6262 Y111.1462 I-6.3255 J-2.5999
G3 X-437.2017 Y112.2474 I-4.4131 J-4.6361
G2 X-437.9491 Y111.4244 I-10.4399 J8.7304
G2 X-438.2106 Y111.1616 I-7.5489 J7.2503
G2 X-438.2447 Y111.128 I-0.373 J0.3435
G1 X-438.6106 Y110.7725
G1 X-438.8213 Y110.571
G1 X-439.3841 Y110.0349
G3 X-439.7032 Y109.726 I24.0743 J-25.1958
G1 X-439.785 Y109.6457
G3 X-440.6294 Y108.7616 I13.3865 J-13.6316
G3 X-441.0753 Y108.2233 I7.0222 J-6.2695
G1 X-441.1291 Y108.1526
G3 X-441.5831 Y107.4785 I6.0132 J-4.5393
G3 X-441.9882 Y106.639 I4.4342 J-2.6574
G3 X-441.6586 Y105.9494 I4.1742 J1.5716
G3 X-441.2299 Y105.3166 I4.78 J2.7763
G3 X-440.902 Y104.9266 I4.8459 J3.7424
G3 X-440.4238 Y104.4445 I6.0087 J5.4805
G3 X-439.7302 Y103.8645 I5.8803 J6.3282
G3 X-438.732 Y103.1931 I6.5593 J8.6738
G3 X-437.3089 Y102.4636 I6.4931 J10.913
G1 X-437.2156 Y102.4234
G3 X-435.1649 Y101.7529 I4.7977 J11.2039
G3 X-433.9474 Y101.5569 I2.1397 J9.4118
G3 X-433.829 Y101.9017 I-1.9575 J0.8651
G3 X-433.7832 Y102.2633 I-1.587 J0.3847
G3 X-433.7853 Y102.34 I-1.2126 J0.0044
G0 Z5.0
M5
M30
