( Made using CamBam - http://www.cambam.co.uk )
( _2014_1_20_car 1/20/2014 11:53:41 PM )
( T0 : 0.0 )
G21 G90 G64 G40
G0 Z5.0
( T0 : 0.0 )
T0 M6
( 208-215 )
G17
M3 S1000
G0 X64.9068 Y182.8985
G1 F1.0 Z0.0
G3 X65.0996 Y183.4085 I-55.4167 J21.2362
G1 X65.1924 Y183.6549
G1 X65.5529 Y184.6092
G2 X65.5927 Y184.7136 I1.5199 J-0.5204
G1 X65.6714 Y184.9187
G1 X65.8252 Y185.3157
G1 X65.8981 Y185.5015
G2 X66.4837 Y186.933 I48.9738 J-19.1983
G1 X66.5985 Y187.1993
G1 X66.653 Y187.3239
G1 X66.8684 Y187.8049
G1 X66.9649 Y188.0144
G2 X67.1498 Y188.4052 I19.7767 J-9.1171
G1 X67.3162 Y188.7449
G2 X67.938 Y189.9137 I21.9004 J-10.901
G2 X68.0206 Y190.0571 I6.0181 J-3.373
G2 X68.6363 Y191.0384 I13.3305 J-7.6804
G2 X68.7328 Y190.0182 I-9.4887 J-1.4118
G2 X68.7429 Y189.5696 I-9.9177 J-0.4482
G2 X68.7192 Y188.7285 I-14.4886 J-0.0134
G2 X68.6644 Y187.993 I-18.9437 J1.0422
G1 X68.6495 Y187.832
G1 X68.5241 Y186.5846
G1 X68.5132 Y186.4669
G1 X68.5031 Y186.3528
G3 X68.4513 Y185.4669 I13.999 J-1.2633
G3 X68.4638 Y184.7994 I8.2394 J-0.1785
G1 X68.4735 Y184.6744
G3 X68.6456 Y183.7508 I4.4724 J0.3558
G3 X69.0342 Y182.8954 I3.4331 J1.0435
G1 X69.3802 Y184.1025
G1 X69.678 Y185.1601
G3 X69.9351 Y186.0866 I-184.7903 J51.7714
G3 X70.8022 Y189.3382 I-190.9669 J52.6677
G1 X71.0078 Y190.154
G3 X71.0173 Y190.1924 I-0.2927 J0.0928
G1 X71.1644 Y190.7959
G3 X71.2183 Y191.0225 I-8.4919 J2.1411
G1 X71.2649 Y191.2209
G1 X71.3447 Y191.5685
G3 X71.5669 Y192.6152 I-34.9365 J7.9624
G1 Y180.3553
G1 X71.1512 Y180.5256
G3 X70.9558 Y180.6042 I-4.4954 J-10.8865
G1 X70.5763 Y180.7541
G1 X70.3979 Y180.8232
G1 X70.3113 Y180.8563
G1 X69.9698 Y180.9849
G1 X69.6484 Y181.1023
G1 X69.4974 Y181.1562
G1 X69.3508 Y181.2077
G1 X69.2085 Y181.257
G3 X66.9702 Y181.9127 I-7.8229 J-22.555
G3 X66.4003 Y182.0377 I-4.0747 J-17.2143
G3 X65.5378 Y182.1878 I-3.1846 J-15.7466
G3 X64.668 Y182.2855 I-1.9485 J-13.4328
G3 X64.9068 Y182.8985 I-55.1778 J21.8492
G0 Z5.0
G0 X64.3848 Y176.9404
G1 Z0.0
G2 X65.7898 Y176.5784 I-0.386 J-4.4056
G2 X66.705 Y176.0514 I-1.9138 J-4.3821
G2 X67.4906 Y175.3456 I-3.1156 J-4.2574
G2 X67.4421 Y174.7513 I-1.8784 J-0.1459
G2 X67.2302 Y174.2554 I-1.6673 J0.4193
G2 X66.9153 Y173.8759 I-1.6355 J1.0362
G2 X66.5542 Y173.5972 I-1.7315 J1.8711
G2 X65.7838 Y173.2427 I-1.8084 J2.9149
G2 X65.0639 Y173.0736 I-1.4716 J4.6496
G2 X63.7729 Y173.0203 I-0.886 J5.7926
G2 X62.8108 Y173.1572 I0.4361 J6.5121
G2 X62.7217 Y173.1777 I0.2583 J1.3272
G2 X62.0441 Y173.3822 I1.505 J6.2108
G2 X61.0926 Y173.8528 I1.6222 J4.4778
G2 X60.6649 Y174.1696 I2.1519 J3.3517
G2 X60.2868 Y174.5441 I2.2187 J2.618
G2 X60.8608 Y175.4629 I4.1908 J-1.9797
G2 X62.3519 Y176.6119 I3.1313 J-2.5215
G2 X63.7221 Y176.9486 I1.6332 J-3.6897
G2 X64.3848 Y176.9404 I0.2767 J-4.4138
G0 Z5.0
G0 X64.3819 Y178.4097
G1 Z0.0
G3 X63.4195 Y178.3674 I0.0225 J-11.4837
G3 X62.1018 Y178.1814 I1.1535 J-12.9353
G3 X60.8793 Y177.7412 I1.8357 J-7.0153
G3 X59.8789 Y177.1314 I2.2369 J-4.7953
G3 X59.4894 Y176.7845 I2.5736 J-3.2815
G3 X58.9116 Y175.9972 I2.2664 J-2.2689
G3 X58.6565 Y175.1901 I2.1701 J-1.1298
G3 X58.9401 Y173.7806 I2.2435 J-0.282
G3 X59.2447 Y173.344 I2.5367 J1.4452
G3 X59.9329 Y172.7239 I2.775 J2.3879
G3 X60.2243 Y172.5357 I2.7424 J3.9266
G3 X60.4898 Y172.3885 I1.8764 J3.0715
G3 X61.4711 Y171.9859 I2.9119 J5.6998
G3 X62.4996 Y171.7269 I2.5618 J8.0036
G3 X63.0835 Y171.6439 I1.2688 J6.8289
G3 X64.1951 Y171.6236 I0.6961 J7.6587
G3 X66.1422 Y171.9461 I-0.4867 J8.9766
G3 X67.5756 Y172.5007 I-2.0694 J7.4779
G3 X68.5718 Y173.1485 I-2.436 J4.8363
G3 X69.1938 Y173.8098 I-2.2013 J2.6937
G3 X69.5142 Y174.4165 I-2.1009 J1.4973
G3 X69.6213 Y175.4338 I-2.0193 J0.727
G3 X69.5005 Y175.933 I-2.4982 J-0.3405
G3 X69.2907 Y176.4018 I-2.9276 J-1.0286
G3 X68.6203 Y177.1244 I-3.2496 J-2.3426
G3 X67.9164 Y177.6128 I-2.8627 J-3.3743
G3 X67.752 Y177.7016 I-2.2735 J-4.0157
G1 X67.5898 Y177.7816
G3 X66.9391 Y178.04 I-2.4334 J-5.18
G3 X65.7481 Y178.3161 I-2.2105 J-6.8277
G3 X64.8357 Y178.4012 I-1.2848 J-8.8489
G1 X64.7499 Y178.4045
G3 X64.3819 Y178.4097 I-0.3454 J-11.4785
G0 Z5.0
G0 X64.353 Y180.3618
G1 Z0.0
G2 X66.3695 Y180.2602 I0.23 J-15.4976
G1 X66.5814 Y180.2332
G2 X68.2016 Y179.8994 I-1.4689 J-11.2305
G2 X69.3742 Y179.483 I-2.6561 J-9.3374
G2 X70.9852 Y178.5421 I-2.9687 J-6.9325
G2 X72.2846 Y177.2033 I-3.9424 J-5.1265
G2 X72.6952 Y176.2142 I-4.0784 J-2.2731
G2 X72.8365 Y175.2449 I-3.5801 J-1.0168
G2 X72.7223 Y174.3575 I-3.3669 J-0.0177
G2 X72.4184 Y173.5933 I-3.493 J0.9468
G2 X72.0009 Y172.9562 I-3.8718 J2.0816
G2 X71.5259 Y172.4291 I-4.242 J3.3456
G2 X71.0278 Y171.9919 I-4.7072 J4.8601
G2 X69.9991 Y171.3005 I-5.181 J6.5973
G1 X69.7622 Y171.1692
G2 X67.8302 Y170.3569 I-5.5043 J10.3873
G2 X64.7523 Y169.7343 I-4.348 J13.5767
G2 X63.1791 Y169.6904 I-1.143 J12.7594
G2 X61.6146 Y169.8618 I0.3091 J10.0513
G2 X59.6617 Y170.3842 I2.4055 J12.9029
G2 X58.8131 Y170.7298 I3.6332 J10.1372
G2 X58.4233 Y170.9218 I3.5522 J7.7026
G2 X58.0543 Y171.1276 I3.0349 J5.8766
G2 X57.3731 Y171.586 I3.5746 J6.0466
G2 X56.7913 Y172.0939 I3.3065 J4.3744
G2 X56.3186 Y172.6414 I3.3934 J3.408
G2 X55.7067 Y173.8393 I3.1743 J2.3768
G2 X55.5568 Y174.9881 I3.3076 J1.0156
G2 X55.7338 Y175.9721 I3.6552 J-0.1496
G2 X56.0875 Y176.7644 I3.8872 J-1.26
G2 X56.5147 Y177.3881 I4.4304 J-2.5763
G2 X57.4512 Y178.3155 I4.7289 J-3.8391
G1 X57.5483 Y178.3919
G2 X58.3409 Y178.9276 I4.7027 J-6.1049
G2 X59.6285 Y179.5578 I4.8007 J-8.1774
G2 X59.9633 Y179.686 I5.1201 J-12.872
G2 X60.9897 Y180.0075 I4.3734 J-12.1635
G2 X62.4882 Y180.2389 I3.6554 J-18.7074
G1 X62.8192 Y180.2743
G2 X64.1074 Y180.3562 I1.8825 J-19.4342
G2 X64.353 Y180.3618 I0.4756 J-15.492
G0 Z5.0
G0 X74.5252 Y181.0539
G1 Z0.0
G3 X73.6711 Y193.064 I-1961.7198 J-133.4764
G3 X73.6633 Y193.1689 I-1.5763 J-0.0648
G1 X73.6009 Y194.0013
G3 X73.1112 Y200.242 I-931.0133 J-69.9228
G1 X72.9802 Y201.8015
G1 X72.8785 Y202.9709
G1 X72.7998 Y203.8477
G1 X72.7697 Y204.1765
G1 X72.6608 Y205.3267
G1 X72.604 Y205.9016
G1 X72.5451 Y206.4764
G2 X72.5311 Y206.8072 I2.7463 J0.2815
G2 X72.5451 Y206.9839 I1.0643 J0.005
G2 X72.5663 Y207.0653 I0.5682 J-0.105
G2 X72.6077 Y207.12 I0.0973 J-0.0306
G2 X72.6563 Y207.1167 I0.0212 J-0.0466
G2 X72.717 Y207.0586 I-0.1078 J-0.1736
G2 X72.7908 Y206.9329 I-0.5682 J-0.4178
G2 X72.9392 Y206.5228 I-2.5696 J-1.1621
G2 X73.72 Y203.1823 I-55.2081 J-14.6663
G2 X74.0009 Y201.7084 I-57.7348 J-11.7665
G2 X74.4398 Y198.9301 I-69.0764 J-12.3364
G2 X74.9679 Y194.0371 I-82.8683 J-11.4177
G2 X75.1926 Y190.3532 I-97.0394 J-7.7689
G1 X75.1999 Y190.1803
G1 X75.2069 Y190.0101
G1 X75.2316 Y189.34
G1 X75.2512 Y188.7116
G2 X75.2665 Y188.1224 I-47.1842 J-1.5149
G1 X75.2726 Y187.8462
G1 X75.2779 Y187.5786
G1 X75.2825 Y187.3194
G1 X75.2864 Y187.0682
G2 X75.1669 Y179.2841 I-134.7678 J-1.8245
G2 X75.1529 Y179.0371 I-6.8889 J0.2655
G1 X75.1491 Y178.9873
G2 X75.1023 Y178.5837 I-4.2574 J0.2895
G2 X75.0409 Y178.3036 I-2.2301 J0.3422
G2 X74.9847 Y178.1648 I-0.6403 J0.1781
G2 X74.9466 Y178.116 I-0.1585 J0.0848
G2 X74.8598 Y178.1257 I-0.0394 J0.0405
G2 X74.7945 Y178.2499 I0.3083 J0.2413
G2 X74.7338 Y178.486 I1.6431 J0.5486
G2 X74.7039 Y178.6662 I2.5301 J0.5119
G2 X74.65 Y179.2116 I6.631 J0.9311
G1 X74.6211 Y179.638
G3 X74.5252 Y181.0539 I-1961.8156 J-132.0605
G0 Z5.0
G0 X71.659 Y170.1699
G1 Z0.0
G2 X71.6981 Y170.1123 I-0.0135 J-0.0513
G2 X71.6619 Y170.0082 I-0.2391 J0.0249
G2 X71.4589 Y169.7502 I-1.1723 J0.7138
G2 X69.3675 Y168.0141 I-9.0466 J8.7703
G2 X67.3004 Y166.8645 I-8.3156 J12.5184
G2 X65.38 Y166.1078 I-7.963 J17.394
G2 X63.6473 Y165.6063 I-7.0902 J21.2533
G1 X63.4558 Y165.5594
G2 X62.6984 Y165.3889 I-6.1658 J25.6173
G2 X59.826 Y164.9234 I-6.6422 J31.8896
G2 X58.7411 Y164.8088 I-4.3757 J36.2373
G2 X56.837 Y164.6715 I-4.8394 J53.8346
G2 X56.7476 Y164.6668 I-0.1173 J1.3809
G2 X55.3394 Y164.6109 I-2.7223 J50.7973
G1 X54.8111 Y164.5979
G2 X54.3488 Y164.5896 I-1.3379 J61.9076
G1 X53.9442 Y164.5846
G1 X53.2361 Y164.5804
G2 X53.1697 Y164.5803 I-0.0344 J0.6812
G2 X51.1118 Y164.5956 I-0.0692 J129.3009
G1 X56.6235 Y168.9823
G3 X58.3898 Y168.3091 I5.1967 J10.9818
G3 X59.189 Y168.0992 I3.7291 J12.5695
G3 X60.7142 Y167.8335 I3.3662 J14.8134
G3 X63.419 Y167.7325 I1.9743 J16.6126
G3 X67.4286 Y168.3534 I-0.7733 J18.2499
G3 X69.3539 Y169.0118 I-3.9661 J14.7424
G3 X70.2765 Y169.4436 I-4.7195 J11.2861
G3 X70.7223 Y169.6901 I-5.0427 J9.6447
G3 X70.9402 Y169.8221 I-3.2943 J5.685
G1 X71.1541 Y169.9604
G1 X71.2393 Y170.0148
G2 X71.4474 Y170.1257 I0.9324 J-1.4988
G2 X71.5562 Y170.1643 I0.3971 J-0.9455
G2 X71.6574 Y170.1703 I0.0627 J-0.2016
G2 X71.659 Y170.1699 I-0.012 J-0.0517
G0 Z5.0
G0 X73.0741 Y168.5031
G1 Z0.0
G3 X74.4162 Y169.7634 I-11.9203 J14.0397
G3 X76.7699 Y172.824 I-12.7759 J12.2602
G3 X76.9429 Y173.4836 I-16.4153 J4.657
G3 X77.2203 Y174.796 I-21.9206 J5.3188
G3 X77.5943 Y177.3657 I-37.6681 J6.7951
G3 X77.8122 Y179.7896 I-56.1559 J6.2691
G3 X77.9314 Y182.0684 I-77.767 J5.2113
G1 X77.9493 Y182.6031
G3 X77.9863 Y184.7094 I-78.6365 J2.4357
G3 X77.9873 Y184.9563 I-24.9854 J0.229
G3 X77.6984 Y192.7906 I-100.981 J0.1979
G3 X77.4343 Y195.7254 I-107.8636 J-8.2275
G1 X77.3648 Y196.3669
G3 X77.0536 Y198.848 I-85.6484 J-9.4825
G3 X77.0153 Y199.1191 I-13.4724 J-1.7641
G3 X77.0057 Y199.1858 I-1.0476 J-0.116
G3 X76.9962 Y199.2523 I-1.0381 J-0.1156
G3 X76.9866 Y199.3185 I-1.0288 J-0.1152
G3 X76.6529 Y201.423 I-76.9557 J-11.1214
G1 X76.5723 Y201.8824
G1 X76.4913 Y202.3271
G1 X76.4511 Y202.5424
G1 X76.4108 Y202.7542
G3 X76.07 Y204.4173 I-71.0808 J-13.7
G1 X76.03 Y204.5988
G3 X75.3197 Y207.4379 I-50.2461 J-11.0627
G3 X74.6681 Y209.537 I-40.134 J-11.3067
G1 X74.6007 Y209.732
G1 X74.5342 Y209.9205
G1 X74.4687 Y210.1028
G1 X74.4041 Y210.2789
G3 X73.8652 Y211.6291 I-25.321 J-9.3242
G3 X73.4089 Y212.6201 I-20.895 J-9.0209
G3 X72.6184 Y214.0532 I-14.2241 J-6.9108
G3 X71.6599 Y215.3798 I-9.4717 J-5.8339
G1 X71.5638 Y215.4916
G3 X71.3672 Y215.714 I-9.5236 J-8.2212
G3 X70.9609 Y216.1438 I-9.4938 J-8.5674
G3 X70.5696 Y216.5107 I-4.9757 J-4.9139
G1 X70.4735 Y216.5921
G3 X70.0682 Y216.8855 I-2.2583 J-2.6927
G3 X69.8656 Y216.993 I-1.028 J-1.6929
G3 X69.6645 Y217.0626 I-0.4173 J-0.8798
G3 X69.4718 Y217.0798 I-0.156 J-0.6601
G3 X69.1721 Y216.9263 I0.0266 J-0.4212
G3 X69.0396 Y216.6827 I0.5853 J-0.4761
G3 X68.9524 Y216.2115 I1.7506 J-0.5678
G3 X68.9441 Y216.0322 I2.5393 J-0.2074
G3 X68.9484 Y215.7184 I3.6358 J-0.1064
G3 X69.0492 Y214.783 I8.7534 J0.4695
G2 X69.3706 Y210.7846 I-28.0904 J-4.2701
G2 X69.3667 Y209.9089 I-23.4567 J-0.335
G2 X69.3389 Y209.0614 I-28.7223 J0.5187
G2 X69.0216 Y205.7939 I-33.7002 J1.6239
G2 X68.5022 Y202.9722 I-39.2338 J5.7622
G2 X67.8951 Y200.5378 I-49.219 J10.9825
G2 X67.2686 Y198.4346 I-52.2446 J14.4167
G1 X67.1955 Y198.206
G1 X67.1227 Y197.9812
G2 X65.885 Y194.4728 I-81.682 J26.8426
G1 X65.7616 Y194.1465
G1 X65.5199 Y193.5156
G1 X65.2902 Y192.9253
G1 X65.0724 Y192.3727
G1 X64.6588 Y191.3388
G2 X63.1799 Y187.7329 I-463.3898 J187.9491
G3 X63.0869 Y187.5078 I20.2623 J-8.4986
G3 X61.7074 Y184.1245 I248.3677 J-103.2449
G2 X61.4182 Y183.4808 I-2.8223 J0.8813
G2 X61.0553 Y182.9866 I-2.7864 J1.6658
G2 X60.8722 Y182.7916 I-2.436 J2.1041
G2 X60.4987 Y182.4581 I-3.3541 J3.3794
G2 X59.779 Y181.9611 I-3.8887 J4.8627
G2 X58.6094 Y181.3696 I-5.0599 J8.5522
G1 X58.4586 Y181.3054
G1 X58.193 Y181.1972
G1 X58.143 Y181.1775
G1 X58.096 Y181.1591
G1 X57.9194 Y181.0916
G2 X57.3859 Y180.9001 I-5.1966 J13.6375
G3 X57.3008 Y180.8704 I0.6284 J-1.9373
G3 X57.2165 Y180.8404 I0.632 J-1.9061
G3 X55.9105 Y180.2809 I3.7268 J-10.5037
G3 X54.8315 Y179.6356 I3.835 J-7.6374
G3 X53.9797 Y178.9278 I3.8757 J-5.531
G3 X53.3472 Y178.1901 I3.7585 J-3.8626
G3 X52.6117 Y176.6637 I3.9253 J-2.8317
G3 X52.4342 Y175.4058 I4.7338 J-1.3094
G3 X52.7477 Y173.5334 I5.5264 J-0.0371
G3 X53.1336 Y172.6622 I5.2308 J1.7955
G3 X53.663 Y171.8701 I4.364 J2.3438
G2 X53.0278 Y171.1881 I-20.2756 J18.2461
G2 X51.7833 Y169.9616 I-23.6476 J22.7518
G2 X46.9817 Y166.1844 I-24.7827 J26.5629
G1 X46.6608 Y165.9761
G2 X44.1784 Y164.5391 I-16.5034 J25.6464
G1 X43.8585 Y164.3767
G2 X41.5574 Y163.3738 I-10.201 J20.264
G3 X46.2732 Y162.9085 I13.3813 J111.4827
G1 X46.4031 Y162.8987
G3 X50.5487 Y162.6879 I6.3077 J83.1919
G1 X51.0047 Y162.6779
G3 X54.5971 Y162.7061 I1.2972 J63.5677
G3 X54.6957 Y162.7098 I-0.0407 J2.4102
G3 X56.2652 Y162.7917 I-1.763 J48.8556
G3 X59.2024 Y163.0756 I-3.0453 J46.8523
G1 X59.5233 Y163.1181
G3 X62.0371 Y163.5416 I-5.2577 J38.877
G3 X64.212 Y164.0567 I-6.7286 J33.2632
G3 X66.0836 Y164.634 I-7.6753 J28.2034
G3 X69.2417 Y165.9708 I-8.0232 J23.3532
G3 X71.4605 Y167.2792 I-9.2777 J18.269
G3 X73.0741 Y168.5031 I-10.3066 J15.2636
G0 Z5.0
M5
M30
