( Made using CamBam - http://www.cambam.co.uk )
( _2014_1_20_car 1/20/2014 11:30:43 PM )
( T0 : 0.0 )
G21 G90 G64 G40
G0 Z5.0
( T0 : 0.0 )
T0 M6
( 100 )
G17
M3 S1000
G0 X-244.8836 Y217.8307
G1 F1.0 Z0.0
G1 X-246.6939 Y217.4838
G1 X-248.5043 Y217.1377
G1 X-252.1256 Y216.4475
G1 X-253.1603 Y216.2507
G1 X-255.9197 Y215.7266
G1 X-266.9586 Y213.6366
G1 X-274.3178 Y212.2431
G1 X-278.5227 Y211.4446
G1 X-283.3276 Y210.5285
G1 X-288.8176 Y209.4754
G1 X-290.2342 Y209.2023
G1 X-293.2557 Y208.6177
G1 X-296.4781 Y207.9907
G1 X-299.9144 Y207.3175
G1 X-300.7871 Y207.1458
G1 X-301.6734 Y206.971
G1 X-302.5739 Y206.793
G1 X-303.4885 Y206.6119
G1 X-307.3897 Y205.8346
G1 X-308.3803 Y205.6359
G1 X-309.3865 Y205.4336
G1 X-310.4085 Y205.2275
G1 X-311.4467 Y205.0175
G1 X-312.5011 Y204.8036
G1 X-313.5723 Y204.5856
G1 X-314.6602 Y204.3635
G1 X-315.7653 Y204.1371
G1 X-316.8878 Y203.9063
G1 X-318.0279 Y203.671
G1 X-319.1859 Y203.4312
G1 X-320.3621 Y203.1866
G1 X-322.7898 Y202.6786
G1 X-325.2948 Y202.1499
G1 X-327.8797 Y201.5991
G1 X-330.5467 Y201.0251
G1 X-333.2984 Y200.4265
G1 X-336.1375 Y199.8018
G1 X-336.8526 Y199.6433
G1 X-337.5733 Y199.483
G1 X-338.2996 Y199.321
G3 X-351.5584 Y196.2682 I225.7322 J-1010.6931
G1 X-352.3922 Y196.0697
G3 X-367.6037 Y192.2959 I198.8006 J-833.8812
G1 X-368.5595 Y192.0484
G1 X-369.5224 Y191.7977
G3 X-373.4949 Y190.7491 I195.8729 J-750.0912
G1 X-374.495 Y190.4814
G1 X-375.5025 Y190.2101
G1 X-376.5176 Y189.9352
G1 X-377.5402 Y189.6566
G1 X-378.5705 Y189.3743
G1 X-379.6085 Y189.0881
G1 X-380.6542 Y188.798
G1 X-381.7076 Y188.504
G1 X-382.7689 Y188.2059
G1 X-383.838 Y187.9036
G1 X-384.9151 Y187.5972
G3 X-389.3566 Y186.3122 I156.2631 J-548.4231
G1 X-390.4743 Y185.9833
G1 X-391.6001 Y185.6496
G3 X-412.0674 Y179.1499 I160.7762 J-541.7451
G1 X-413.3479 Y178.7137
G1 X-414.6374 Y178.2707
G1 X-415.9359 Y177.8207
G3 X-414.6039 Y177.5443 I2.1426 J6.9782
G3 X-413.2442 Y177.4961 I1.0068 J9.2004
G3 X-412.3394 Y177.56 I-0.53 J13.9429
G3 X-412.223 Y177.5724 I-0.268 J3.0746
G3 X-410.9883 Y177.7424 I-3.0416 J26.6518
G1 X-410.6602 Y177.795
G1 X-409.9114 Y177.9164
G1 X-409.5118 Y177.9784
G1 X-409.085 Y178.0394
G1 X-408.8643 Y178.0681
G1 X-408.6362 Y178.095
G2 X-407.5902 Y178.174 I1.5503 J-13.5666
G3 X-404.5629 Y175.4909 I13.0731 J11.7009
G3 X-400.9938 Y173.5873 I9.8646 J14.1974
G3 X-398.4192 Y172.7761 I7.1501 J18.2036
G3 X-396.9086 Y172.4635 I5.199 J21.315
G1 X-396.5157 Y172.3991
G1 X-396.1092 Y172.3393
G1 X-395.6888 Y172.2843
G1 X-395.254 Y172.2347
G3 X-393.2617 Y172.0925 I3.1699 J30.3745
G3 X-390.9835 Y172.0777 I1.3633 J34.4981
G3 X-390.912 Y172.0794 I0.0099 J1.053
G3 X-390.8402 Y172.0813 I0.0081 J1.0572
G3 X-390.7682 Y172.0833 I0.0063 J1.0615
G3 X-388.1457 Y172.2352 I-1.4573 J47.8812
G3 X-385.1716 Y172.56 I-5.3007 J62.3197
G1 X-384.5451 Y172.6464
G1 X-384.3364 Y172.6763
G1 X-384.0582 Y172.717
G1 X-383.6874 Y172.7723
G1 X-383.1933 Y172.8476
G1 X-382.911 Y172.8912
G1 X-382.5885 Y172.9417
G1 X-381.7289 Y173.0784
G1 X-380.5835 Y173.2647
G3 X-376.0067 Y174.0395 I-76.5465 J466.0869
G3 X-375.9708 Y174.0457 I-0.0492 J0.3908
G3 X-375.9347 Y174.0519 I-0.0494 J0.3926
G3 X-375.8985 Y174.0582 I-0.0497 J0.3944
G3 X-372.8143 Y174.5986 I-143.8407 J830.041
G1 X-372.4165 Y174.6691
G1 X-370.5982 Y174.9932
G3 X-368.5209 Y175.3674 I-93.5462 J525.3436
G1 X-366.1475 Y175.7994
G1 X-363.4363 Y176.2987
G3 X-363.2655 Y176.3304 I-1.6649 J9.459
G1 X-361.8085 Y176.6014
G1 X-360.2548 Y176.8924
G1 X-359.8602 Y176.9667
G1 X-359.4594 Y177.0422
G1 X-357.7498 Y177.3661
G1 X-356.8676 Y177.5343
G1 X-355.957 Y177.7087
G3 X-351.7969 Y178.5176 I-247.6389 J1284.7642
G1 X-349.58 Y178.9584
G3 X-349.3008 Y179.0145 I-3.0932 J16.1112
G1 X-348.1483 Y179.2478
G1 X-346.9594 Y179.4918
G1 X-346.3558 Y179.6171
G1 X-345.1105 Y179.8796
G3 X-342.4592 Y180.4659 I-34.2877 J161.3475
G1 X-341.7882 Y180.6249
G1 X-341.0188 Y180.8119
G1 X-340.7623 Y180.8744
G1 X-339.7367 Y181.125
G1 X-337.6858 Y181.628
G1 X-336.3186 Y181.9632
G1 X-335.5371 Y182.1543
G1 X-333.4525 Y182.6602
G1 X-332.8963 Y182.7939
G1 X-332.3028 Y182.9357
G1 X-331.9964 Y183.0087
G1 X-331.68 Y183.0837
G1 X-331.3534 Y183.1608
G1 X-329.8595 Y183.5096
G1 X-329.062 Y183.6926
G1 X-328.2108 Y183.8851
G2 X-326.2627 Y184.3138 I53.1765 J-237.037
G2 X-326.015 Y184.367 I2.5533 J-11.2888
G2 X-325.7633 Y184.4207 I2.3197 J-10.2536
G2 X-325.5075 Y184.4749 I2.141 J-9.4657
G2 X-325.2476 Y184.5297 I1.9982 J-8.8408
G2 X-322.8681 Y185.0128 I42.3489 J-202.4599
G2 X-322.7179 Y185.0422 I0.9149 J-4.2855
G2 X-322.5665 Y185.0716 I0.9001 J-4.2279
G2 X-319.7942 Y185.5826 I31.7625 J-164.5465
G2 X-319.707 Y185.5977 I0.4762 J-2.4782
G2 X-319.6195 Y185.6129 I0.4729 J-2.4676
G2 X-316.4132 Y186.1272 I22.9984 J-133.1333
G1 X-316.0051 Y186.1866
G2 X-312.2644 Y186.6614 I15.6764 J-108.5141
G2 X-307.9709 Y187.0415 I11.2193 J-102.2999
G2 X-303.0474 Y187.2434 I6.3848 J-95.5963
G2 X-302.4216 Y187.2504 I0.8677 J-49.1625
G1 X-302.284 Y186.1663
G2 X-306.2192 Y184.5317 I-67.94 J158.0072
G2 X-310.1873 Y182.9784 I-101.698 J253.9598
G1 X-311.3253 Y182.5458
G1 X-312.6277 Y182.0559
G1 X-313.3229 Y181.7963
G1 X-314.0649 Y181.5205
G1 X-314.8567 Y181.2273
G1 X-315.7017 Y180.9155
G1 X-316.1379 Y180.7548
G1 X-316.5882 Y180.5891
G1 X-318.6471 Y179.8324
G1 X-320.9992 Y178.9654
G1 X-322.2525 Y178.5001
G1 X-323.5882 Y178.0002
G1 X-324.2769 Y177.7404
G1 X-324.9873 Y177.4708
G1 X-325.7199 Y177.1907
G1 X-326.4754 Y176.8995
G3 X-329.9163 Y175.5363 I90.0156 J-232.2371
G1 X-330.8002 Y175.1745
G1 X-331.7106 Y174.7959
G1 X-332.648 Y174.3995
G1 X-333.6129 Y173.9838
G3 X-337.9823 Y171.988 I53.0289 J-121.8794
G3 X-339.0967 Y171.4446 I56.9988 J-118.3026
G3 X-341.4527 Y170.2415 I44.5362 J-90.1173
G1 X-342.0459 Y169.9259
G3 X-343.2634 Y169.261 I34.021 J-63.7433
G1 X-343.878 Y168.9161
G3 X-346.4687 Y167.3881 I44.4657 J-78.3523
G1 X-347.1178 Y166.9851
G3 X-349.3403 Y165.5009 I23.3358 J-37.3524
G3 X-351.4475 Y163.8571 I17.4213 J-24.504
G1 X-351.7163 Y163.6228
G3 X-352.3168 Y163.0719 I12.9225 J-14.6867
G3 X-353.7966 Y161.4794 I11.4844 J-12.1555
G1 X-353.8828 Y161.3715
G3 X-354.6151 Y160.3411 I9.5775 J-7.5813
G3 X-355.2912 Y159.0598 I7.8966 J-4.9857
G3 X-355.5577 Y158.3319 I6.9269 J-2.9491
G3 X-355.8457 Y156.5687 I6.1658 J-1.9122
G3 X-355.5403 Y154.5164 I6.3765 J-0.1002
G3 X-355.1249 Y153.4776 I7.7088 J2.4808
G3 X-354.5339 Y152.4341 I8.3349 J4.0312
G3 X-353.7793 Y151.399 I10.0387 J6.5258
G1 X-353.5718 Y151.1484
G1 X-353.3557 Y150.8986
G1 X-353.1309 Y150.6497
G3 X-352.1272 Y149.6416 I14.52 J13.4532
G3 X-352.0946 Y149.6112 I0.2441 J0.2287
G3 X-350.9596 Y148.6184 I17.1472 J18.4583
G3 X-349.4849 Y147.472 I22.1662 J26.9918
G3 X-349.3848 Y147.3979 I3.4021 J4.4951
G1 X-348.848 Y147.0066
G1 X-348.5395 Y146.7856
G1 X-348.1855 Y146.535
G1 X-347.7792 Y146.2509
G3 X-344.4836 Y144.0464 I70.2876 J101.5148
G3 X-344.3779 Y143.978 I1.2587 J1.8282
G3 X-344.2705 Y143.9086 I1.2785 J1.86
G3 X-344.1613 Y143.8381 I1.2999 J1.8944
G3 X-344.0503 Y143.7666 I1.3222 J1.9305
G3 X-343.9375 Y143.6941 I1.3466 J1.9698
G3 X-343.8229 Y143.6205 I1.3722 J2.0111
G1 X-343.3333 Y143.3075
G1 X-342.8101 Y142.9753
G1 X-342.2509 Y142.6228
G1 X-341.6531 Y142.2487
G3 X-341.5011 Y142.154 I2.3487 J3.6
G3 X-341.3466 Y142.0579 I2.4826 J3.8191
G3 X-338.0348 Y140.0351 I147.9461 J238.51
G1 X-337.1469 Y139.5037
G3 X-335.1107 Y138.3004 I119.8899 J200.5447
G1 X-334.0212 Y137.6648
G1 X-332.8564 Y136.9914
G1 X-331.6111 Y136.2782
G3 X-324.9213 Y132.5621 I171.6769 J301.1768
G1 X-324.4937 Y132.3312
G3 X-320.5688 Y130.2508 I145.5197 J269.8033
G1 X-320.0682 Y129.9908
G1 X-319.5591 Y129.7277
G1 X-318.5064 Y129.1879
G1 X-318.3741 Y129.1204
G1 X-317.2803 Y128.5667
G3 X-312.2417 Y126.1127 I91.9169 J182.3257
G3 X-310.9294 Y125.5046 I45.8364 J97.1898
G1 X-310.2606 Y125.2006
G3 X-307.3864 Y123.9489 I46.5989 J103.078
G1 X-307.0215 Y123.7974
G3 X-305.5073 Y123.1912 I33.1559 J80.6219
G1 X-305.4597 Y123.1728
G1 X-305.0754 Y123.0258
G1 X-305.0272 Y123.0076
G1 X-304.6384 Y122.8624
G1 X-304.4427 Y122.7906
G3 X-302.8144 Y122.232 I15.1381 J41.4797
G1 X-302.6082 Y122.1672
G1 X-302.4007 Y122.1035
G3 X-300.6643 Y121.6527 I5.8656 J19.0204
G3 X-299.7626 Y121.5061 I1.9531 J9.1712
G2 X-296.2466 Y126.2295 I35.8854 J-23.042
G2 X-292.1214 Y130.4312 I33.3839 J-28.6509
G2 X-289.0847 Y132.921 I31.6996 J-35.5648
G2 X-284.7544 Y135.8594 I32.5257 J-43.2722
G2 X-282.1653 Y137.3552 I32.8709 J-53.9089
G1 X-281.8314 Y137.5363
G1 X-281.4913 Y137.7182
G1 X-281.1448 Y137.901
G2 X-277.9323 Y139.481 I33.8083 J-64.6843
G2 X-277.8302 Y139.5281 I0.7509 J-1.4935
G2 X-277.7278 Y139.5752 I0.7496 J-1.4961
G2 X-273.9418 Y141.1998 I35.3468 J-77.1456
G1 X-273.4558 Y141.3935
G1 X-272.9612 Y141.5876
G2 X-268.401 Y143.2438 I41.1507 J-106.1974
G2 X-263.1245 Y144.9178 I47.2412 J-139.755
G1 X-262.7902 Y145.0168
G2 X-256.6594 Y146.7185 I60.2205 J-205.0698
G1 X-256.2716 Y146.8199
G1 X-255.8807 Y146.9216
G1 X-255.4866 Y147.0234
G1 X-255.0893 Y147.1255
G1 X-254.6888 Y147.2278
G1 X-254.2851 Y147.3304
G1 X-253.8781 Y147.4332
G1 X-253.4678 Y147.5363
G1 X-253.0542 Y147.6397
G1 X-252.6373 Y147.7434
G1 X-250.9159 Y148.1664
G1 X-249.1382 Y148.5956
G1 X-248.69 Y148.7027
G1 X-248.2383 Y148.8104
G1 X-247.7831 Y148.9185
G1 X-247.3242 Y149.0271
G1 X-246.8618 Y149.1363
G1 X-246.3956 Y149.2461
G1 X-245.9259 Y149.3564
G1 X-245.4525 Y149.4673
G1 X-243.4985 Y149.9229
G1 X-241.4822 Y150.3908
G1 X-237.1868 Y151.388
G1 X-234.9723 Y151.9069
G3 X-230.2598 Y153.0342 I-162.9039 J691.3907
G3 X-230.1123 Y153.0702 I-0.6446 J2.9641
G3 X-229.9646 Y153.1063 I-0.6476 J2.9731
G3 X-229.8167 Y153.1424 I-0.6507 J2.9822
G3 X-229.6684 Y153.1787 I-0.6538 J2.9914
G3 X-229.5199 Y153.2151 I-0.6569 J3.0006
G1 X-228.2555 Y152.4992
G1 X-228.883 Y152.1663
G1 X-229.5115 Y151.8352
G1 X-230.7707 Y151.1771
G1 X-231.6114 Y150.7408
G1 X-232.7334 Y150.1611
G1 X-233.375 Y149.8306
G1 X-238.5105 Y147.193
G1 X-239.9768 Y146.4377
G1 X-240.7584 Y146.0339
G1 X-241.1617 Y145.8252
G3 X-245.4541 Y143.5818 I267.1226 J-516.317
G1 X-246.0064 Y143.2894
G1 X-247.1832 Y142.6629
G3 X-253.4139 Y139.2365 I126.1906 J-236.8453
G1 X-254.2101 Y138.7806
G3 X-257.8156 Y136.6367 I73.6348 J-127.9399
G1 X-257.8715 Y136.6022
G1 X-257.9275 Y136.5676
G3 X-258.0399 Y136.498 I1.1379 J-1.9625
G1 X-258.4953 Y136.2138
G1 X-258.9565 Y135.9225
G3 X-259.4232 Y135.6238 I15.1457 J-24.1753
G3 X-261.39 Y134.3108 I34.7463 J-54.1778
G3 X-262.3845 Y133.6028 I37.1562 J-53.2453
G1 X-262.5081 Y133.5121
G1 X-262.7561 Y133.328
G3 X-263.7637 Y132.5453 I20.2279 J-27.0831
G1 X-264.0124 Y132.3416
G1 X-264.2607 Y132.1332
G1 X-264.508 Y131.9195
G1 X-264.6309 Y131.8109
G1 X-264.876 Y131.5887
G3 X-265.8368 Y130.6137 I8.8512 J-9.6833
G3 X-266.2744 Y130.0705 I6.3854 J-5.5928
G3 X-266.6546 Y129.4673 I3.8591 J-2.8535
G3 X-266.7336 Y129.306 I2.5998 J-1.3737
G3 X-266.8634 Y128.9648 I2.1223 J-1.0023
G3 X-267.3188 Y126.6072 I2.8725 J-1.7778
G3 X-267.101 Y125.8212 I4.0656 J0.7038
G3 X-266.5994 Y124.8622 I4.64 J1.816
G3 X-266.2299 Y124.3679 I4.8521 J3.242
G3 X-265.0299 Y123.2727 I4.5527 J3.7836
G3 X-255.9826 Y117.0569 I116.9648 J160.5544
G1 X-255.3676 Y116.6601
G3 X-245.3512 Y110.5975 I118.8234 J185.0078
G3 X-238.5099 Y106.8386 I121.3382 J212.7372
G3 X-234.5506 Y104.7843 I114.7239 J216.2651
G3 X-234.3001 Y104.6571 I10.8238 J20.9996
G3 X-234.0475 Y104.5291 I10.2961 J20.0081
G3 X-233.7927 Y104.4003 I9.8425 J19.1582
G3 X-229.1129 Y102.0904 I124.7789 J246.8978
G3 X-228.8168 Y101.9476 I6.3239 J12.7362
G1 X-227.5925 Y101.3613
G3 X-221.9659 Y98.7458 I148.6778 J312.4816
G3 X-221.7886 Y98.6653 I3.5218 J7.5273
G3 X-221.6106 Y98.5847 I3.5088 J7.5086
G3 X-221.4318 Y98.5038 I3.496 J7.4901
G3 X-221.2523 Y98.4227 I3.4834 J7.4723
G3 X-221.072 Y98.3414 I3.4711 J7.4548
G3 X-220.891 Y98.2599 I3.459 J7.4377
G3 X-220.7093 Y98.1781 I3.447 J7.4207
G3 X-220.5267 Y98.0961 I3.4353 J7.4045
G3 X-220.3434 Y98.0139 I3.4238 J7.3886
G3 X-220.1594 Y97.9315 I3.4125 J7.3731
G3 X-219.9746 Y97.8489 I3.4013 J7.3579
G3 X-219.789 Y97.766 I3.3904 J7.3431
G3 X-219.6026 Y97.6829 I3.3797 J7.3287
G3 X-219.4155 Y97.5996 I3.3691 J7.3147
G3 X-219.2276 Y97.516 I3.3587 J7.3008
G3 X-219.0389 Y97.4322 I3.3485 J7.2874
G3 X-218.8494 Y97.3482 I3.3384 J7.2743
G3 X-218.6591 Y97.264 I3.3286 J7.2616
G3 X-218.4681 Y97.1795 I3.3188 J7.249
G3 X-218.2762 Y97.0948 I3.3093 J7.2369
G3 X-218.0835 Y97.0099 I3.2999 J7.225
G3 X-217.8901 Y96.9248 I3.2906 J7.2135
G1 X-216.2912 Y96.2256
G1 X-215.2816 Y95.8448
G1 X-214.9454 Y95.7166
G1 X-214.4975 Y95.545
G1 X-212.7074 Y94.8555
G1 X-211.513 Y94.3984
G1 X-210.8293 Y94.1401
G3 X-210.7424 Y94.1075 I0.9314 J2.3511
G3 X-210.6541 Y94.0745 I0.9439 J2.3866
G3 X-210.5643 Y94.0409 I0.9565 J2.4231
G3 X-210.4731 Y94.0069 I0.9694 J2.4602
G3 X-210.3805 Y93.9724 I0.9824 J2.4983
G1 X-209.5322 Y93.6606
G3 X-207.2563 Y92.8683 I27.2792 J74.6935
G1 X-206.6452 Y92.6694
G1 X-205.9912 Y92.4641
G3 X-202.459 Y91.5175 I13.9536 J45.0039
G3 X-200.4069 Y91.116 I7.9009 J34.9402
G3 X-198.0354 Y90.8102 I5.5005 J33.3094
G3 X-195.3025 Y90.6884 I2.6354 J28.4055
G3 X-192.1765 Y90.8738 I-0.0964 J28.0632
G2 X-190.6116 Y93.1458 I20.4245 J-12.3926
G1 X-190.4985 Y93.291
G1 X-190.3768 Y93.445
G1 X-190.2457 Y93.6084
G1 X-189.9418 Y93.978
G2 X-187.3193 Y96.7622 I26.0142 J-21.8762
G2 X-187.2756 Y96.8038 I0.6571 J-0.6472
G2 X-187.2315 Y96.8456 I0.6621 J-0.6543
G2 X-186.4143 Y97.5974 I36.1806 J-38.5032
G2 X-186.2001 Y97.7878 I26.4252 J-29.5229
G2 X-183.8398 Y99.727 I30.2568 J-34.4221
G2 X-180.5082 Y102.0644 I29.4402 J-38.4182
G2 X-179.5886 Y102.6409 I23.2429 J-36.0536
G2 X-179.3531 Y102.7842 I4.2952 J-6.7961
G3 X-176.864 Y104.458 I-15.7163 J26.0583
G3 X-174.532 Y106.3445 I-23.0923 J30.9296
G3 X-173.0539 Y107.6914 I-30.5617 J35.0239
G1 X-172.6686 Y108.06
G3 X-170.665 Y110.0768 I-48.7306 J50.4171
G1 X-170.4116 Y110.342
G1 X-169.8741 Y110.9105
G3 X-168.6574 Y112.2207 I-96.1751 J90.5317
G1 X-168.3452 Y112.5605
G1 X-168.0235 Y112.9117
G1 X-167.6918 Y113.2744
G1 X-167.3495 Y113.649
G1 X-166.9962 Y114.0356
G1 X-166.6313 Y114.4343
G1 X-165.851 Y115.283
G1 X-165.4466 Y115.7196
G1 X-165.0277 Y116.1686
G1 X-164.5933 Y116.6302
G2 X-163.6583 Y117.6068 I77.8783 J-73.6252
G2 X-161.4639 Y119.7818 I53.0957 J-51.3755
G2 X-160.8815 Y120.3264 I43.5568 J-45.9928
G1 X-160.5828 Y120.5999
G2 X-157.7504 Y122.9867 I31.9405 J-35.0304
G2 X-157.3769 Y123.2727 I15.3584 J-19.6672
G2 X-143.4417 Y128.0545 I58.8754 J-148.8816
G2 X-138.7033 Y129.3507 I39.368 J-134.6001
G2 X-132.3191 Y130.8151 I32.3821 J-126.5253
G1 X-132.1168 Y130.8559
G2 X-131.8597 Y130.8064 I0.0726 J-0.3152
G2 X-131.7083 Y130.5927 I-0.2599 J-0.3447
G2 X-131.7284 Y130.1071 I-0.6311 J-0.2172
G2 X-131.9569 Y129.8778 I-0.409 J0.1792
G1 X-132.2054 Y129.7759
G1 X-132.4554 Y129.6777
G2 X-132.9591 Y129.4907 I-7.1223 J18.4118
G1 X-133.297 Y129.3717
G1 X-133.7492 Y129.2183
G2 X-134.354 Y129.0192 I-55.4453 J167.4573
G1 X-135.1608 Y128.755
G1 X-135.3755 Y128.6833
G1 X-135.6042 Y128.6058
G3 X-136.1248 Y128.4227 I7.3585 J-21.7586
G1 X-136.2586 Y128.3738
G3 X-137.6618 Y127.7903 I5.849 J-16.0441
G3 X-138.4322 Y127.388 I5.0084 J-10.5291
G3 X-138.5276 Y127.3325 I0.9633 J-1.7659
G3 X-139.3691 Y126.7724 I4.7404 J-8.0344
G2 X-139.8018 Y125.9387 I-11.2283 J5.2989
G2 X-140.2693 Y125.1241 I-60.5759 J34.2242
G3 X-140.5767 Y124.5785 I26.8264 J-15.4737
G3 X-140.9533 Y123.8333 I9.4335 J-5.2343
G3 X-141.1355 Y123.3919 I7.3605 J-3.2981
G1 X-141.1562 Y123.3348
G3 X-141.3084 Y122.8007 I4.2887 J-1.5113
G3 X-141.367 Y122.1649 I2.6103 J-0.5613
G3 X-141.1989 Y121.441 I1.8907 J0.0578
G1 X-139.1266 Y122.2111
G1 X-138.4355 Y122.4668
G1 X-135.6698 Y123.4862
G2 X-130.1333 Y125.5113 I626.0641 J-1703.0556
G1 X-126.439 Y126.8524
G1 X-125.9621 Y127.0249
G1 X-123.7817 Y127.8122
G1 X-121.2887 Y128.7092
G1 X-118.4383 Y129.7305
G1 X-116.9174 Y130.2736
G1 X-115.2947 Y130.8516
G1 X-111.584 Y132.1678
G1 X-111.1126 Y132.3345
G1 X-109.1009 Y133.0442
G1 X-106.9543 Y133.7989
G1 X-104.6636 Y134.6012
G1 X-102.2191 Y135.4539
G1 X-100.9569 Y135.8926
G1 X-100.3157 Y136.1152
G2 X-86.6163 Y140.8026 I536.2732 J-1544.9459
G1 X-84.8456 Y141.3984
G1 X-83.0169 Y142.011
G1 X-81.1283 Y142.6408
G1 X-80.1686 Y142.9596
G2 X-78.1867 Y143.6154 I128.6653 J-385.4888
G1 X-76.1397 Y144.289
G2 X-66.7661 Y147.3193 I315.6083 J-960.2764
G1 X-65.5737 Y147.6977
G2 X-54.6462 Y151.0754 I244.1004 J-770.3343
G1 X-53.2549 Y151.4921
G1 X-52.9056 Y151.5962
G1 X-51.4853 Y152.0169
G1 X-50.0414 Y152.4407
G1 X-49.8604 Y152.4935
G1 X-48.3894 Y152.9203
G1 X-46.8937 Y153.3493
G1 X-45.3728 Y153.7802
G2 X-44.9909 Y153.8876 I9.4687 J-32.9653
G1 X-43.4378 Y154.32
G1 X-43.0478 Y154.4276
G1 X-42.2612 Y154.6433
G1 X-41.8661 Y154.751
G1 X-41.0695 Y154.9666
G2 X-34.2489 Y156.7222 I74.9313 J-276.9827
G1 X-32.4798 Y157.1611
G1 X-30.711 Y157.601
G2 X-27.169 Y158.4633 I102.1205 J-411.7269
G1 X-26.1551 Y158.7012
G2 X-24.9946 Y158.9664 I20.7324 J-88.062
G2 X-24.3749 Y159.1044 I8.761 J-37.8643
G2 X-24.2174 Y159.1391 I0.8504 J-3.4888
G2 X-24.0573 Y159.1741 I0.8562 J-3.5278
G2 X-23.8947 Y159.2095 I0.8619 J-3.567
G2 X-23.7295 Y159.2453 I0.8673 J-3.6062
G2 X-23.5616 Y159.2815 I0.8726 J-3.6456
G2 X-23.391 Y159.318 I0.8776 J-3.6849
G2 X-23.2176 Y159.3548 I0.8823 J-3.7243
G2 X-23.1302 Y159.3733 I0.607 J-2.6537
G2 X-23.0421 Y159.3919 I0.6083 J-2.6674
G2 X-22.9533 Y159.4105 I0.6097 J-2.6812
G2 X-22.8638 Y159.4293 I0.6109 J-2.6948
G2 X-22.7735 Y159.4481 I0.6121 J-2.7085
G2 X-22.6826 Y159.467 I0.6132 J-2.7221
G2 X-18.7884 Y160.2027 I21.5616 J-103.458
G2 X-18.6653 Y160.2233 I0.5862 J-3.1177
G1 X-18.1567 Y160.3068
G1 X-17.6312 Y160.3897
G2 X-11.9928 Y161.0448 I11.0542 J-70.5543
G2 X-8.751 Y161.1977 I4.4112 J-59.054
G2 X-7.0194 Y161.2035 I1.0691 J-60.7065
G1 X-6.5797 Y161.1961
G2 X-6.1331 Y161.1848 I-0.2121 J-17.2278
G2 X-6.021 Y161.1814 I0.0029 J-1.7349
G2 X-5.7488 Y161.1077 I-0.04 J-0.6873
G2 X-5.5117 Y160.9549 I-0.5636 J-1.1349
G2 X-5.1332 Y160.5457 I-1.2606 J-1.5454
G2 X-4.9546 Y160.2207 I-1.3114 J-0.9323
G2 X-4.9115 Y160.0114 I-0.4844 J-0.2089
G2 X-4.961 Y159.9002 I-0.1442 J-0.0024
G2 X-5.6599 Y159.38 I-25.11 J33.0095
G1 X-5.8957 Y159.2106
G2 X-6.2123 Y158.9876 I-11.5852 J16.1083
G2 X-6.6378 Y158.6952 I-58.319 J84.4203
G1 X-6.8827 Y158.5306
G2 X-8.8785 Y157.2714 I-28.0925 J42.3166
G1 X-9.459 Y156.9286
G2 X-11.0252 Y156.0459 I-30.8625 J52.9269
G2 X-13.1464 Y154.9301 I-36.3246 J66.4787
G1 X-13.7173 Y154.6426
G2 X-16.7898 Y153.1688 I-53.2314 J107.0327
G2 X-18.5625 Y152.3636 I-64.0922 J138.7433
G1 X-19.5118 Y151.943
G1 X-20.5269 Y151.5003
G1 X-21.6122 Y151.034
G1 X-22.7721 Y150.5426
G1 X-24.0117 Y150.0241
G1 X-24.3268 Y149.8933
G1 X-24.9779 Y149.624
G1 X-25.6503 Y149.3473
G1 X-26.3012 Y149.0857
G1 X-26.3944 Y149.0487
G1 X-27.1402 Y148.7542
G1 X-27.6377 Y148.5587
G1 X-29.629 Y147.78
G1 X-33.6144 Y146.2296
G1 X-41.5888 Y143.1383
G1 X-57.5415 Y136.966
G1 X-68.177 Y132.8521
G1 X-68.8523 Y132.5909
G1 X-83.2566 Y127.0148
G1 X-91.4862 Y123.8247
G1 X-95.8746 Y122.1215
G3 X-105.9025 Y118.2214 I2682.0241 J-6910.79
G1 X-111.2483 Y116.1349
G1 X-111.5836 Y116.0037
G1 X-112.1533 Y115.7875
G1 X-112.7211 Y115.5664
G3 X-113.8461 Y115.0981 I11.4337 J-29.0514
G1 X-113.9939 Y115.0303
G3 X-114.0312 Y115.0127 I0.0889 J-0.2368
G1 X-114.1892 Y114.9349
G3 X-114.3531 Y114.8427 I0.6552 J-1.3569
G3 X-114.4288 Y114.7811 I0.2055 J-0.3297
G3 X-114.4232 Y114.7518 I0.0107 J-0.0132
G3 X-114.3996 Y114.7467 I0.0324 J0.094
G3 X-114.3355 Y114.7483 I0.0244 J0.3112
G3 X-114.2355 Y114.7625 I-0.173 J1.5836
G1 X-114.2095 Y114.7672
G1 X-114.1279 Y114.7837
G1 X-113.9666 Y114.8211
G1 X-113.8214 Y114.8584
G3 X-113.534 Y114.9382 I-1.5117 J6.0028
G3 X-112.9763 Y115.107 I-8.0175 J27.4871
G3 X-112.2032 Y115.3596 I-11.5829 J36.7599
G1 X-112.1391 Y115.3813
G1 X-111.9532 Y115.4446
G1 X-111.7814 Y115.5038
G1 X-111.5965 Y115.5682
G1 X-111.1858 Y115.7136
G1 X-106.3133 Y117.4986
G1 X-104.6889 Y118.0934
G1 X-98.1919 Y120.4731
G1 X-93.8615 Y122.0619
G1 X-88.0895 Y124.1857
G1 X-84.7926 Y125.4028
G1 X-84.3739 Y125.5575
G1 X-80.5477 Y126.9749
G1 X-76.1771 Y128.6007
G1 X-75.0496 Y129.0214
G3 X-74.9081 Y129.0743 I-0.9905 J2.8685
G1 X-72.4941 Y129.9771
G3 X-72.3426 Y130.0338 I-1.1605 J3.3286
G1 X-69.7586 Y131.0035
G1 X-67.0036 Y132.0411
G1 X-64.0664 Y133.1519
G1 X-62.5511 Y133.727
G3 X-62.1693 Y133.8721 I-10.5382 J28.2994
G1 X-58.9132 Y135.1136
G1 X-57.2335 Y135.7568
G1 X-55.5004 Y136.4226
G1 X-54.6204 Y136.7615
G1 X-52.8042 Y137.463
G1 X-50.9303 Y138.1894
G1 X-50.6952 Y138.2808
G1 X-50.4592 Y138.3725
G3 X-49.5004 Y138.7458 I-46.0322 J119.664
G1 X-48.5266 Y139.1257
G1 X-46.5174 Y139.9124
G1 X-46.2652 Y140.0114
G1 X-46.0121 Y140.1108
G1 X-44.9842 Y140.5153
G1 X-43.9403 Y140.9271
G1 X-42.8802 Y141.3465
G1 X-40.6929 Y142.2157
G1 X-39.5827 Y142.659
G3 X-29.4583 Y146.7774 I-332.6429 J832.2591
G1 X-28.1766 Y147.3101
G1 X-27.8551 Y147.4442
G1 X-26.5493 Y147.9907
G1 X-25.8918 Y148.2672
G1 X-24.5567 Y148.8312
G1 X-23.2018 Y149.4075
G1 X-21.827 Y149.9965
G1 X-21.6549 Y150.0705
G1 X-21.4824 Y150.1448
G1 X-20.0824 Y150.7505
G1 X-19.9072 Y150.8267
G1 X-19.7316 Y150.9031
G1 X-18.3062 Y151.5264
G1 X-16.8605 Y152.1647
G1 X-16.1328 Y152.4885
G1 X-15.7677 Y152.6515
G1 X-15.4013 Y152.8156
G1 X-13.9147 Y153.4863
G1 X-13.8217 Y153.5285
G1 X-13.7287 Y153.5708
G1 X-12.9794 Y153.9125
G1 X-12.6709 Y154.0392
G1 X-12.3637 Y154.1691
G3 X-11.7533 Y154.438 I-27.1214 J62.38
G1 X-11.5799 Y154.5171
G3 X-11.1195 Y154.7324 I-39.45 J84.9405
G1 X-10.8577 Y154.8584
G3 X-8.7979 Y155.9323 I-19.356 J39.6395
G1 X-8.5273 Y156.083
G3 X-7.9117 Y156.4327 I-34.6904 J61.7944
G1 X-7.5847 Y156.6217
G1 X-6.8404 Y157.0586
G1 X-5.993 Y157.5631
G1 X-5.0252 Y158.1404
G1 X-4.775 Y158.2887
G1 X-4.5164 Y158.4413
G1 X-3.9632 Y158.764
G2 X-3.8224 Y158.8453 I2.2608 J-3.7556
G2 X-3.679 Y158.9276 I1.8546 J-3.0655
G2 X-2.358 Y159.6599 I26.5619 J-46.3577
G2 X-2.274 Y159.7046 I0.6354 J-1.092
G2 X-2.1892 Y159.7495 I0.6217 J-1.0717
G2 X-1.4615 Y160.1239 I16.6574 J-31.4842
G1 X-1.2753 Y160.2163
G1 X-0.4615 Y159.8407
G1 X0.3536 Y159.4679
G1 X0.8979 Y159.2211
G1 X1.6247 Y158.8947
G1 X2.5962 Y158.4647
G1 X3.1526 Y158.2219
G3 X7.6457 Y156.3792 I45.13 J103.6406
G3 X10.6905 Y155.2776 I30.4799 J79.4844
G3 X10.7871 Y155.2449 I0.9565 J2.6671
G3 X14.9514 Y153.9814 I22.0436 J65.159
G3 X20.6262 Y152.7628 I14.6567 J54.4299
G3 X22.1588 Y152.5401 I8.5572 J53.5182
G2 X22.4239 Y152.4683 I-0.099 J-0.8906
G2 X22.6478 Y152.3095 I-0.26 J-0.604
G2 X22.7336 Y152.1451 I-0.2479 J-0.234
G2 X22.7203 Y152.0349 I-0.1808 J-0.034
G2 X22.6157 Y151.9416 I-0.1754 J0.0912
G2 X22.4488 Y151.9097 I-0.171 J0.4426
G2 X18.8291 Y152.0388 I-0.7849 J28.8156
G2 X15.2503 Y152.596 I3.2685 J32.7657
G1 X15.0216 Y152.6448
G1 X14.7859 Y152.6967
G2 X12.2936 Y153.3356 I9.0357 J40.4298
G2 X11.6354 Y153.5294 I9.3793 J33.0687
G2 X10.1407 Y154.0028 I17.2724 J57.1322
G2 X8.4473 Y154.5863 I26.6086 J79.9752
G2 X8.341 Y154.6243 I0.999 J2.9608
G2 X7.4364 Y154.9533 I23.7667 J66.7473
G2 X7.3226 Y154.9953 I1.0062 J2.8995
G1 X6.3537 Y155.358
G1 X5.323 Y155.751
G2 X4.7917 Y155.9554 I13.1444 J34.9484
G2 X4.6578 Y156.0071 I1.0774 J2.992
G2 X4.523 Y156.0591 I1.0812 J3.0013
G2 X4.387 Y156.1117 I1.085 J3.0109
G2 X4.25 Y156.1646 I1.0887 J3.0207
G2 X4.112 Y156.218 I1.0924 J3.0308
G2 X3.9729 Y156.2718 I1.0959 J3.0409
G3 X3.8326 Y156.326 I-1.2394 J-2.9969
G3 X3.6913 Y156.3806 I-1.2438 J-3.0069
G3 X3.5489 Y156.4357 I-1.2479 J-3.0168
G3 X3.4053 Y156.4912 I-1.2519 J-3.0268
G3 X3.2606 Y156.547 I-1.2557 J-3.0366
G3 X3.1147 Y156.6033 I-1.2592 J-3.0464
G3 X2.9677 Y156.66 I-1.2625 J-3.056
G3 X1.7128 Y157.1403 I-52.3936 J-135.0134
G3 X1.634 Y157.1702 I-0.8847 J-2.2143
G3 X1.5548 Y157.2001 I-0.8844 J-2.2162
G3 X1.4753 Y157.2302 I-0.884 J-2.2178
G3 X1.3955 Y157.2603 I-0.8835 J-2.2193
G3 X1.3153 Y157.2906 I-0.8829 J-2.2206
G3 X1.2348 Y157.3208 I-0.8822 J-2.2218
G3 X1.154 Y157.3512 I-0.8813 J-2.2228
G3 X1.0729 Y157.3816 I-0.8804 J-2.2237
G3 X0.9914 Y157.4122 I-0.8793 J-2.2243
G3 X-0.4014 Y157.9238 I-33.6601 J-89.4748
G1 X-1.1229 Y158.1801
G1 X-15.936 Y150.4184
G2 X-16.4944 Y150.1601 I-20.7837 J44.1931
G2 X-17.0531 Y149.9026 I-19.8566 J42.3454
G2 X-17.4258 Y149.7313 I-15.6472 J33.5606
G2 X-17.9229 Y149.5035 I-17.5483 J37.6411
G2 X-18.2072 Y149.3736 I-12.9134 J27.8782
G2 X-18.5321 Y149.2254 I-13.5565 J29.2893
G2 X-18.9036 Y149.0563 I-14.2089 J30.7272
G2 X-19.3283 Y148.8635 I-14.8697 J32.191
G2 X-19.814 Y148.6437 I-15.5369 J33.678
G2 X-23.7081 Y146.9049 I-201.4321 J445.8899
G2 X-23.9599 Y146.7938 I-9.4197 J21.0243
G2 X-24.2199 Y146.6794 I-9.4987 J21.2252
G2 X-24.4883 Y146.5614 I-9.5782 J21.4283
G2 X-33.1116 Y142.8658 I-211.2214 J480.9488
G2 X-33.3864 Y142.7509 I-8.1392 J19.0719
G2 X-33.6656 Y142.6342 I-8.178 J19.1859
G2 X-33.9492 Y142.5159 I-8.2172 J19.3014
G2 X-34.2375 Y142.3959 I-8.2572 J19.4192
G2 X-34.5304 Y142.274 I-8.2977 J19.539
G2 X-40.793 Y139.7106 I-231.3457 J556.2598
G2 X-41.1916 Y139.55 I-9.2515 J22.3804
G2 X-41.5965 Y139.3871 I-9.3132 J22.5646
G2 X-42.008 Y139.2218 I-9.3765 J22.7535
G2 X-45.7745 Y137.7225 I-229.9689 J572.2447
G2 X-46.0121 Y137.6287 I-7.0477 J17.5032
G1 X-48.0401 Y136.8316
G1 X-50.2056 Y135.987
G1 X-52.5178 Y135.0924
G1 X-54.9867 Y134.1446
G1 X-57.6227 Y133.1405
G1 X-60.4372 Y132.0764
G1 X-63.4419 Y130.9486
G1 X-66.6496 Y129.7526
G1 X-70.0737 Y128.4836
G2 X-77.9066 Y125.6016 I-955.4847 J2584.8038
G2 X-78.4003 Y125.4206 I-22.1035 J59.5273
G2 X-78.8978 Y125.2383 I-23.3294 J62.8821
G2 X-79.3993 Y125.0545 I-24.7804 J66.8514
G2 X-79.9047 Y124.8694 I-26.5348 J71.6486
G2 X-80.4141 Y124.6828 I-28.716 J77.6113
G2 X-80.9276 Y124.4947 I-31.5306 J85.3035
G2 X-81.4451 Y124.3052 I-35.3614 J95.7711
G2 X-82.4965 Y123.9203 I-64.1345 J173.5494
G1 X-84.6671 Y123.1257
G1 X-89.2973 Y121.4293
G1 X-94.2342 Y119.6148
G3 X-105.5026 Y115.4252 I687.8773 J-1867.3801
G1 X-106.9313 Y114.8871
G1 X-108.3819 Y114.3387
G1 X-109.8549 Y113.7796
G1 X-111.3504 Y113.2096
G3 X-124.9774 Y107.8787 I302.9956 J-794.6131
G1 X-126.7007 Y107.1837
G1 X-128.4494 Y106.4729
G1 X-130.2237 Y105.7456
G1 X-132.024 Y105.0013
G1 X-133.8504 Y104.2392
G3 X-141.6129 Y100.9155 I204.1574 J-487.5297
G3 X-149.8308 Y97.2267 I191.9833 J-438.7053
G1 X-150.861 Y96.7505
G1 X-151.898 Y96.2679
G1 X-152.9418 Y95.7786
G1 X-153.9925 Y95.2825
G1 X-155.0502 Y94.7795
G3 X-157.1945 Y93.7482 I118.027 J-248.1502
G3 X-157.7318 Y93.4874 I34.007 J-70.7201
G3 X-158.2707 Y93.2246 I29.5972 J-61.4027
G3 X-158.8114 Y92.9601 I26.5287 J-54.8955
G3 X-159.3538 Y92.6936 I24.2344 J-50.0125
G3 X-159.8979 Y92.4252 I22.4354 J-46.1696
G3 X-160.4437 Y92.1549 I20.9752 J-43.0392
G3 X-160.9912 Y91.8826 I19.7596 J-40.4235
G3 X-161.5404 Y91.6084 I18.7268 J-38.1933
G3 X-161.8154 Y91.4707 I12.8519 J-26.0039
G3 X-162.0908 Y91.3325 I12.5559 J-25.3611
G3 X-162.3666 Y91.1938 I12.2787 J-24.758
G3 X-162.6428 Y91.0545 I12.0181 J-24.1902
G3 X-162.9195 Y90.9148 I11.7731 J-23.6552
G3 X-172.2903 Y85.9988 I157.7521 J-312.0952
G3 X-172.5812 Y85.8402 I7.5716 J-14.2299
G3 X-172.8726 Y85.6809 I7.5059 J-14.0763
G3 X-173.1643 Y85.521 I7.442 J-13.9263
G3 X-173.4565 Y85.3605 I7.3796 J-13.7798
G3 X-173.749 Y85.1994 I7.3188 J-13.6364
G3 X-174.042 Y85.0377 I7.2594 J-13.4963
G3 X-174.3354 Y84.8753 I7.2014 J-13.359
G3 X-174.6291 Y84.7124 I7.1448 J-13.2248
G3 X-179.4562 Y81.9748 I140.5812 J-253.5055
G1 X-180.6647 Y81.2712
G3 X-185.6198 Y78.3051 I158.6357 J-270.6397
G2 X-186.9571 Y77.5507 I-10.8716 J17.7074
G2 X-188.362 Y76.9314 I-5.7837 J11.2172
G2 X-189.344 Y76.6393 I-2.7549 J7.4653
G2 X-189.6122 Y76.5854 I-0.9479 J4.0267
G2 X-190.2342 Y76.5142 I-0.852 J4.6862
G2 X-190.9519 Y76.5507 I-0.1784 J3.5647
G2 X-191.7412 Y76.8113 I0.3884 J2.5014
G2 X-192.4821 Y77.4462 I1.1029 J2.0369
G2 X-192.7648 Y77.8953 I2.2725 J1.7441
G2 X-192.9852 Y78.4227 I3.2063 J1.6493
G2 X-193.1434 Y79.0136 I5.0125 J1.6593
G2 X-193.2489 Y80.2294 I5.167 J1.0607
G2 X-193.1093 Y81.4418 I7.3448 J-0.2317
G2 X-193.0353 Y81.7829 I10.7981 J-2.1617
G2 X-192.7827 Y82.677 I11.8691 J-2.8714
G2 X-192.6088 Y83.1783 I15.6356 J-5.1432
G2 X-192.0713 Y84.4828 I18.9601 J-7.0496
G1 X-191.9959 Y84.6485
G2 X-191.1453 Y86.3854 I42.8188 J-19.89
G1 X-190.9113 Y86.8446
G3 X-190.8519 Y86.9612 I-5.9173 J3.0864
G1 X-190.6005 Y87.4591
G1 X-190.4727 Y87.7169
G3 X-190.343 Y87.984 I-11.4083 J5.7018
G2 X-191.596 Y87.8284 I-4.733 J32.9792
G1 X-192.0148 Y87.7875
G2 X-193.6947 Y87.6795 I-2.879 J31.6643
G2 X-194.8168 Y87.6572 I-1.108 J27.5004
G1 X-194.9617
G2 X-199.5794 Y87.9971 I0.1178 J33.1401
G2 X-202.6152 Y88.5613 I5.2445 J36.6639
G1 X-202.8063 Y88.6053
G1 X-203.0003 Y88.6508
G1 X-203.1972 Y88.698
G2 X-207.338 Y89.9024 I12.0023 J48.984
G1 X-207.8649 Y90.0815
G2 X-208.9835 Y90.4782 I17.521 J51.193
G2 X-211.5158 Y91.4447 I31.1561 J85.4309
G1 X-211.7277 Y91.5292
G2 X-211.7983 Y91.5574 I0.2799 J0.803
G2 X-212.0807 Y91.6705 I5.276 J13.5801
G1 X-212.645 Y91.8979
G2 X-212.7203 Y91.9284 I0.301 J0.8518
G1 X-213.9219 Y92.4189
G1 X-214.7215 Y92.7497
G1 X-215.1778 Y92.9399
G2 X-218.8153 Y94.4938 I110.2649 J263.1623
G2 X-218.8724 Y94.5187 I0.3513 J0.8834
G1 X-219.9156 Y94.9763
G1 X-220.4711 Y95.2221
G2 X-229.2907 Y99.3063 I123.0028 J277.1809
G1 X-229.8553 Y99.5791
G2 X-247.6384 Y108.8674 I143.9316 J297.233
G1 X-248.7654 Y109.5044
G1 X-249.9259 Y110.1669
G2 X-255.1918 Y113.2634 I135.9837 J237.2793
G1 X-255.8556 Y113.6649
G1 X-256.5287 Y114.0747
G1 X-256.6975 Y114.1779
G1 X-256.8669 Y114.2817
G1 X-257.0368 Y114.3859
G1 X-257.2073 Y114.4907
G1 X-257.3784 Y114.5961
G1 X-257.5501 Y114.702
G1 X-257.7224 Y114.8085
G1 X-258.4215 Y115.2424
G2 X-259.8603 Y116.1456 I87.0726 J140.2915
G1 X-260.0404 Y116.2597
G2 X-266.5506 Y120.5494 I116.3718 J183.6965
G1 X-267.3655 Y121.1119
G2 X-268.6229 Y122.2448 I4.034 J5.7419
G2 X-269.5818 Y123.6395 I5.4739 J4.7906
G2 X-270.4301 Y126.8924 I6.3783 J3.4003
G2 X-270.1234 Y129.1245 I7.3659 J0.1252
G2 X-269.6605 Y130.3284 I7.7961 J-2.3068
G2 X-268.9251 Y131.6012 I8.5857 J-4.1123
G2 X-267.88 Y132.9049 I9.3808 J-6.4494
G1 X-267.8081 Y132.9819
G2 X-266.4096 Y134.2775 I10.5754 J-10.0123
G2 X-263.5223 Y136.4364 I27.8115 J-34.1861
G2 X-260.4883 Y138.3837 I33.8259 J-49.3658
G2 X-260.3901 Y138.4426 I1.4892 J-2.3703
G1 X-259.9703 Y138.6921
G2 X-257.7057 Y139.9783 I42.5478 J-72.2737
G2 X-257.5607 Y140.0577 I2.7316 J-4.817
G2 X-257.4132 Y140.1382 I2.8993 J-5.141
G2 X-257.2632 Y140.2197 I3.1048 J-5.5369
G2 X-254.0389 Y141.9073 I66.5801 J-123.2774
G1 X-253.173 Y142.3452
G1 X-252.2476 Y142.8089
G1 X-251.2593 Y143.3008
G1 X-249.0001 Y144.4231
G1 X-247.7973 Y145.0257
G3 X-247.4922 Y145.1797 I-16.0833 J32.2391
G1 X-246.8634 Y145.4991
G1 X-246.5444 Y145.6623
G1 X-246.2208 Y145.8288
G1 X-245.554 Y146.1751
G1 X-245.2161 Y146.3524
G1 X-245.046 Y146.4423
G1 X-244.3456 Y146.8162
G1 X-244.1695 Y146.9113
G2 X-248.8147 Y145.6471 I-66.3166 J234.514
G2 X-248.8887 Y145.6276 I-0.2546 J0.8171
G1 X-250.4658 Y145.2146
G2 X-250.8865 Y145.1049 I-11.4516 J43.0435
G1 X-251.848 Y144.8543
G1 X-254.4113 Y144.1829
G1 X-255.8747 Y143.7941
G3 X-259.7678 Y142.7231 I72.794 J-272.2094
G3 X-259.8287 Y142.7058 I0.3203 J-1.2428
G3 X-259.8899 Y142.6884 I0.3225 J-1.2495
G1 X-260.9329 Y142.3883
G3 X-266.4603 Y140.6708 I41.0673 J-141.9208
G3 X-266.5464 Y140.642 I0.7884 J-2.5011
G3 X-269.6798 Y139.5417 I37.6807 J-112.3123
G3 X-269.8761 Y139.4691 I2.6209 J-7.3846
G3 X-270.0737 Y139.3955 I2.8936 J-8.0717
G3 X-273.6569 Y137.9697 I31.0102 J-83.1509
G3 X-277.6637 Y136.129 I28.9658 J-68.3339
G3 X-282.0811 Y133.695 I25.896 J-52.2224
G1 X-282.6258 Y133.3578
G1 X-282.8988 Y133.1852
G3 X-284.0145 Y132.4541 I32.2333 J-50.4024
G3 X-286.3255 Y130.7893 I26.1656 J-38.7592
G3 X-287.4759 Y129.8722 I29.521 J-38.2077
G1 X-287.7607 Y129.6347
G3 X-290.102 Y127.4993 I24.8334 J-29.5789
G3 X-292.3961 Y125.0058 I25.899 J-26.13
G3 X-296.6719 Y118.4918 I25.6671 J-21.5086
G1 X-285.1066 Y111.1979
G1 X-273.5375 Y103.9101
G1 X-265.8221 Y99.0559
G1 X-261.4119 Y96.2842
G1 X-259.0593 Y94.8068
G1 X-253.6798 Y91.433
G1 X-250.8091 Y89.6362
G1 X-247.7451 Y87.7228
G1 X-246.1624 Y86.7375
G1 X-244.5269 Y85.723
G1 X-243.695 Y85.2095
G1 X-242.8486 Y84.6901
G1 X-242.6357 Y84.5604
G1 X-242.2058 Y84.3003
G1 X-241.4458 Y83.8432
G1 X-240.6876 Y83.3833
G2 X-240.6387 Y83.3535 I-0.2688 J-0.4963
G1 X-240.118 Y83.0352
G1 X-239.425 Y82.6086
G1 X-238.5034 Y82.0361
G2 X-234.8459 Y79.7 I-119.263 J-190.7562
G2 X-232.4357 Y78.0994 I-114.0207 J-174.3102
G2 X-232.3602 Y78.0484 I-0.6957 J-1.1113
G1 X-231.7168 Y77.6115
G1 X-231.0327 Y77.1425
G2 X-230.6805 Y76.8992 I-12.7098 J-18.7729
G1 X-229.9312 Y76.3771
G1 X-229.5455 Y76.106
G2 X-225.4848 Y73.1409 I-88.2494 J-125.1194
G1 X-224.9687 Y72.7477
G1 X-224.7072 Y72.547
G2 X-223.598 Y71.6827 I-49.465 J-64.6312
G1 X-223.459 Y71.5729
G1 X-223.319 Y71.462
G1 X-222.743 Y71.0018
G1 X-222.1517 Y70.5227
G2 X-220.902 Y69.4862 I-55.6304 J-68.3458
G1 X-220.2637 Y68.9431
G1 X-220.1037 Y68.8054
G1 X-219.9427 Y68.6661
G2 X-219.2816 Y68.0872 I-68.2632 J-78.6128
G2 X-217.892 Y66.8284 I-63.3711 J-71.3536
G1 X-217.8058 Y66.7482
G2 X-214.7538 Y63.713 I-42.1761 J-45.4598
G1 X-214.3827 Y63.3113
G1 X-214.0103 Y62.8991
G1 X-213.9176 Y62.795
G2 X-212.3871 Y60.9709 I-30.8345 J-27.4243
G2 X-211.6427 Y59.992 I-31.3802 J-24.6367
G1 X-211.4609 Y59.7409
G1 X-211.2803 Y59.486
G2 X-209.8603 Y57.2229 I-20.3136 J-14.3226
G1 X-209.8201 Y57.1494
G2 X-209.2009 Y55.91 I-15.3788 J-8.4571
G2 X-208.6694 Y54.577 I-13.8534 J-6.2963
G1 X-208.6405 Y54.4919
G2 X-208.2504 Y53.0506 I-11.6724 J-3.9328
G1 X-201.6379 Y58.4024
G2 X-199.5371 Y59.6449 I22.4227 J-35.5119
G2 X-198.8242 Y60.0372 I23.8875 J-42.5759
G1 X-198.4149 Y60.2579
G2 X-198.309 Y60.3145 I1.2113 J-2.1372
G2 X-198.1997 Y60.3728 I1.0821 J-1.8977
G2 X-198.0868 Y60.4328 I1.0025 J-1.7499
G2 X-198.0583 Y60.448 I0.1315 J-0.2136
G1 X-197.8152 Y60.5764
G1 X-197.2583 Y60.8676
G1 X-196.62 Y61.1966
G2 X-195.8884 Y61.5684 I42.5158 J-82.7623
G1 X-195.7953 Y61.6153
G2 X-194.9431 Y62.0414 I36.5103 J-71.9543
G1 X-193.9664 Y62.5228
G1 X-193.4445 Y62.7773
G1 X-192.887 Y63.0473
G1 X-191.6102 Y63.6591
G1 X-191.2802 Y63.8159
G1 X-190.9393 Y63.9773
G1 X-190.5872 Y64.1435
G2 X-190.543 Y64.1643 I0.2247 J-0.4197
G2 X-190.4986 Y64.1852 I0.2255 J-0.4213
G2 X-190.454 Y64.2062 I0.2263 J-0.4229
G2 X-190.4092 Y64.2273 I0.2271 J-0.4246
G2 X-190.3642 Y64.2484 I0.2279 J-0.4262
G2 X-190.3191 Y64.2697 I0.2287 J-0.4279
G2 X-190.2737 Y64.291 I0.2295 J-0.4296
G2 X-190.2282 Y64.3123 I0.2303 J-0.4312
G2 X-190.1825 Y64.3338 I0.2312 J-0.4329
G2 X-190.1367 Y64.3553 I0.232 J-0.4346
G2 X-190.0906 Y64.3769 I0.2328 J-0.4363
G1 X-189.7106 Y64.5549
G2 X-189.3181 Y64.7381 I18.5753 J-39.2815
G2 X-185.1203 Y66.6652 I201.9345 J-434.3341
G1 X-184.5772 Y66.9108
G1 X-184.0163 Y67.1637
G1 X-183.4371 Y67.4241
G1 X-182.8389 Y67.6922
G1 X-181.5618 Y68.262
G1 X-180.1982 Y68.8668
G1 X-179.4939 Y69.1778
G1 X-178.7666 Y69.4981
G1 X-177.214 Y70.1789
G1 X-176.8194 Y70.3513
G1 X-176.4185 Y70.5263
G1 X-174.7071 Y71.2705
G2 X-165.5594 Y75.1885 I511.563 J-1181.7269
G1 X-163.1151 Y76.2215
G2 X-163.0385 Y76.2537 I0.5432 J-1.1818
G2 X-162.9617 Y76.2861 I0.5446 J-1.185
G2 X-162.8848 Y76.3185 I0.546 J-1.1883
G2 X-162.8078 Y76.3509 I0.5474 J-1.1915
G2 X-162.7306 Y76.3835 I0.5488 J-1.1948
G2 X-162.6532 Y76.4161 I0.5501 J-1.1981
G1 X-161.3758 Y76.9534
G2 X-161.0538 Y77.0886 I10.7023 J-25.029
G2 X-160.3996 Y77.3632 I24.4487 J-57.3422
G1 X-159.0487 Y77.9291
G2 X-144.6157 Y83.9034 I814.9512 J-1948.3911
G1 X-140.7604 Y85.4806
G1 X-136.6457 Y87.1567
G2 X-127.2325 Y90.9664 I1023.5238 J-2515.4321
G1 X-124.8015 Y91.9452
G2 X-113.6808 Y96.3996 I1915.0972 J-4765.1318
G1 X-110.809 Y97.5441
G1 X-109.35 Y98.1248
G1 X-107.8677 Y98.7141
G1 X-104.8069 Y99.9294
G1 X-103.2519 Y100.5459
G2 X-96.6151 Y103.1706 I1100.109 J-2771.9306
G2 X-81.4334 Y109.1383 I2515.5678 J-6377.301
G2 X-64.0637 Y115.9076 I2186.2923 J-5584.221
G1 X-61.8564 Y116.7633
G1 X-61.5799 Y116.8704
G1 X-57.0129 Y118.637
G1 X-54.6924 Y119.5324
G1 X-52.3343 Y120.4401
G1 X-52.2605 Y120.4685
G1 X41.0704 Y155.415
G3 X41.1958 Y155.5841 I-0.9895 J0.8653
G3 X41.2738 Y155.7796 I-0.4388 J0.2884
G3 X41.2348 Y155.9189 I-0.1598 J0.0304
G3 X41.1601 Y155.9672 I-0.1473 J-0.1462
G3 X41.0605 Y155.9919 I-0.1973 J-0.5812
G3 X40.9476 Y155.9989 I-0.106 J-0.7999
G2 X39.0553 Y156.0486 I-0.0759 J33.1716
G1 X38.7853 Y156.0645
G1 X38.4769 Y156.0852
G2 X36.0182 Y156.3437 I2.788 J38.3425
G2 X34.3898 Y156.5988 I6.0819 J44.1448
G1 X34.1804 Y156.6361
G1 X33.9644 Y156.6756
G1 X33.5043 Y156.763
G1 X33.0144 Y156.8611
G2 X30.4192 Y157.4606 I11.4043 J55.2903
G2 X28.9491 Y157.8542 I19.4156 J75.4522
G2 X28.5711 Y157.9612 I7.4459 J27.0374
G2 X26.8514 Y158.4751 I22.922 J79.833
G1 X26.6338 Y158.5432
G2 X22.0375 Y160.1179 I30.4878 J96.485
G2 X21.9659 Y160.1443 I0.2535 J0.7988
G2 X21.894 Y160.1708 I0.2546 J0.8008
G2 X21.8219 Y160.1974 I0.2557 J0.8027
G2 X19.1986 Y161.1989 I56.5729 J152.1246
G1 X18.5247 Y161.4653
G1 X17.8304 Y161.7433
G1 X17.1151 Y162.0331
G2 X16.3778 Y162.3353 I39.7254 J97.9621
G1 X16.1922 Y162.4119
G1 X15.8155 Y162.5681
G1 X15.433 Y162.7274
G2 X13.8049 Y163.4144 I66.4195 J159.6745
G1 X12.9666 Y163.7732
G1 X12.1024 Y164.1462
G2 X11.2116 Y164.5338 I42.7159 J99.3966
G1 X10.7596 Y164.7315
G1 X10.3007 Y164.933
G1 X9.8347 Y165.1383
G1 X9.3617 Y165.3473
G1 X8.386 Y165.7804
G1 X7.8908 Y166.0011
G1 X5.7807 Y166.9474
G1 X4.6929 Y167.4381
G1 X2.3746 Y168.4884
G1 X2.0827 Y168.621
G1 X-3.2508 Y171.0451
G1 X-6.0964 Y172.3334
G1 X-6.8195 Y172.6595
G1 X-7.5543 Y172.9902
G1 X-8.3009 Y173.3256
G1 X-9.8431 Y174.0157
G3 X-11.4362 Y174.7246 I-152.6226 J-340.8427
G1 X-12.246 Y175.0832
G1 X-13.0691 Y175.4465
G1 X-13.9057 Y175.8143
G3 X-21.5764 Y179.1139 I-217.2276 J-494.4344
G1 X-22.0613 Y179.3176
G3 X-22.5783 Y179.5341 I-21.566 J-50.7753
G3 X-23.0953 Y179.7504 I-21.1245 J-49.7647
G3 X-23.4401 Y179.8945 I-16.9238 J-39.9965
G3 X-23.8998 Y180.0866 I-19.2707 J-45.4812
G3 X-24.5128 Y180.3424 I-21.8454 J-51.4789
G3 X-24.8632 Y180.4885 I-16.1714 J-38.2878
G3 X-25.2636 Y180.6554 I-17.0665 J-40.3926
G3 X-25.7214 Y180.846 I-17.9813 J-42.5428
G3 X-26.2445 Y181.0636 I-18.9113 J-44.7273
G3 X-26.8426 Y181.3121 I-19.8495 J-46.9305
G3 X-27.1616 Y181.4445 I-14.2188 J-33.804
G3 X-27.5019 Y181.5857 I-14.5294 J-34.546
G3 X-27.8649 Y181.7361 I-14.8381 J-35.2844
G3 X-28.2522 Y181.8965 I-15.1438 J-36.0167
G3 X-28.6653 Y182.0675 I-15.4459 J-36.7415
G3 X-29.106 Y182.2497 I-15.7436 J-37.4574
G3 X-29.5762 Y182.4439 I-16.0358 J-38.1618
G3 X-30.0779 Y182.6508 I-16.3215 J-38.8523
G3 X-30.613 Y182.8713 I-16.5993 J-39.526
G1 X-33.4689 Y184.0432
G3 X-33.8376 Y184.1939 I-12.4655 J-29.9771
G3 X-34.2182 Y184.3493 I-12.535 J-30.16
G3 X-34.6112 Y184.5096 I-12.6015 J-30.337
G3 X-35.017 Y184.6749 I-12.6653 J-30.5083
G3 X-35.4359 Y184.8453 I-12.7257 J-30.6729
G3 X-35.8684 Y185.0211 I-12.7833 J-30.8315
G3 X-49.7517 Y190.5361 I-346.0887 J-851.0097
G3 X-49.9711 Y190.621 I-6.3472 J-16.0702
G3 X-50.1923 Y190.7065 I-6.3403 J-16.0642
G1 X-52.0804 Y191.4336
G3 X-62.1853 Y195.2207 I-254.3136 J-663.195
G3 X-62.5046 Y195.3373 I-5.8223 J-15.4462
G3 X-62.8264 Y195.4547 I-5.8064 J-15.4251
G3 X-63.1509 Y195.5728 I-5.7903 J-15.4035
G3 X-63.478 Y195.6916 I-5.7741 J-15.3817
G3 X-77.4981 Y200.5773 I-190.0858 J-522.9137
G3 X-79.3169 Y201.1794 I-81.0741 J-241.8809
G3 X-79.5453 Y201.2544 I-3.4366 J-10.0726
G3 X-79.7747 Y201.3297 I-3.4279 J-10.061
G3 X-80.005 Y201.4051 I-3.4192 J-10.0495
G3 X-80.2362 Y201.4807 I-3.4104 J-10.0379
G3 X-80.4684 Y201.5565 I-3.4015 J-10.0262
G3 X-88.9851 Y204.2463 I-150.4505 J-461.5535
G1 X-90.0703 Y204.576
G3 X-100.0319 Y207.4578 I-125.201 J-414.1206
G3 X-100.1884 Y207.501 I-1.8614 J-6.4474
G1 X-100.219 Y207.1132
G1 X-100.2294 Y206.9839
G1 X-100.273 Y206.4671
G2 X-100.3765 Y205.4349 I-53.8396 J4.8806
G2 X-100.4648 Y204.749 I-24.865 J2.8526
G1 X-100.5248 Y204.3583
G2 X-100.728 Y203.3241 I-15.9963 J2.6052
G2 X-101.1242 Y201.9749 I-11.2484 J2.5711
G2 X-101.929 Y200.2784 I-9.0406 J3.2493
G2 X-89.232 Y195.9874 I-188.2396 J-577.9263
G2 X-76.6292 Y191.4272 I-224.1108 J-639.0573
G1 X-74.9558 Y190.8002
G1 X-74.0927 Y190.475
G1 X-73.2022 Y190.138
G2 X-63.7316 Y186.4718 I-267.9599 J-706.2664
G2 X-61.2145 Y185.4726 I-183.0064 J-464.6828
G1 X-60.5757 Y185.2175
G1 X-59.9271 Y184.9577
G1 X-59.2685 Y184.6932
G1 X-58.5996 Y184.4239
G1 X-57.9203 Y184.1497
G1 X-57.2305 Y183.8706
G1 X-55.8072 Y183.2922
G1 X-54.3392 Y182.6925
G1 X-52.8251 Y182.0704
G1 X-51.2633 Y181.4252
G2 X-47.9359 Y180.0384 I-291.531 J-704.1907
G2 X-44.393 Y178.5442 I-579.02 J-1377.8361
G1 X-43.947 Y178.3548
G1 X-43.4977 Y178.1638
G2 X-39.6678 Y176.5238 I-330.723 J-777.6397
G1 X-37.6939 Y175.6707
G1 X-36.692 Y175.2357
G1 X-34.6252 Y174.3341
G1 X-34.1047 Y174.1062
G1 X-33.5802 Y173.8762
G1 X-33.0518 Y173.644
G1 X-32.5193 Y173.4097
G1 X-30.3222 Y172.4393
G1 X-28.0566 Y171.4322
G1 X-27.4861 Y171.1776
G1 X-25.1322 Y170.1229
G1 X-24.5394 Y169.8563
G1 X-23.9421 Y169.5872
G1 X-23.3404 Y169.3156
G1 X-20.8574 Y168.1907
G1 X-19.5971 Y167.617
G1 X-16.9975 Y166.4279
G1 X-15.6782 Y165.8216
G1 X-12.9567 Y164.5649
G1 X-12.6154 Y164.4067
G1 X-12.2727 Y164.2478
G1 X-12.9794 Y163.6305
G2 X-21.3016 Y166.6997 I181.4784 J504.9037
G2 X-29.5781 Y169.8904 I262.1978 J692.4527
G1 X-30.6789 Y170.3228
G2 X-36.5422 Y172.6485 I535.7685 J1359.2764
G1 X-39.8883 Y173.9883
G1 X-48.8055 Y177.5749
G3 X-53.9039 Y179.6173 I-602.9342 J-1497.6903
G3 X-54.2253 Y179.7454 I-12.9308 J-31.955
G3 X-54.5492 Y179.8746 I-12.2665 J-30.3058
G3 X-54.8757 Y180.0046 I-11.6969 J-28.8933
G3 X-55.2048 Y180.1356 I-11.2014 J-27.6656
G3 X-61.2297 Y182.5129 I-411.2955 J-1033.5372
G1 X-62.7871 Y183.1197
G1 X-64.3961 Y183.7427
G1 X-66.0585 Y184.3817
G3 X-73.6818 Y187.2414 I-195.6521 J-509.9622
G3 X-73.9217 Y187.3293 I-3.41 J-8.9376
G3 X-74.1626 Y187.4174 I-3.3909 J-8.8984
G3 X-74.4044 Y187.5057 I-3.372 J-8.8597
G3 X-74.6473 Y187.5942 I-3.3533 J-8.8217
G3 X-74.8912 Y187.683 I-3.3346 J-8.7839
G1 X-75.8825 Y188.0422
G1 X-76.8903 Y188.4047
G3 X-81.2006 Y189.9238 I-160.2061 J-447.6909
G3 X-81.3358 Y189.9706 I-2.0214 J-5.6227
G3 X-81.4713 Y190.0175 I-2.0157 J-5.6123
G3 X-81.6072 Y190.0644 I-2.0099 J-5.6018
G3 X-81.7433 Y190.1113 I-2.0042 J-5.5914
G3 X-81.8796 Y190.1583 I-1.9985 J-5.5811
G3 X-82.0163 Y190.2053 I-1.9928 J-5.5708
G3 X-92.0617 Y193.4954 I-113.8996 J-330.7777
G3 X-92.2198 Y193.5444 I-1.618 J-4.9408
G3 X-94.8345 Y194.3414 I-106.3194 J-344.1049
G1 X-95.4944 Y194.5385
G1 X-96.1601 Y194.7357
G1 X-96.8314 Y194.9327
G1 X-98.1969 Y195.3282
G1 X-99.5861 Y195.7229
G3 X-100.9994 Y196.1166 I-88.7313 J-315.8362
G1 X-101.7125 Y196.3121
G1 X-102.4317 Y196.5072
G1 X-103.1571 Y196.7018
G1 X-103.8889 Y196.8959
G1 X-104.524 Y196.3625
G1 X-105.1612 Y195.8315
G1 X-105.5869 Y195.4787
G2 X-107.2986 Y194.0778 I-125.4345 J151.5108
G2 X-108.4494 Y193.1559 I-85.3672 J105.3941
G1 X-108.5229 Y193.0978
G1 X-109.1968 Y192.57
G1 X-109.5584 Y192.2914
G1 X-109.9465 Y191.9972
G2 X-110.8479 Y191.3439 I-19.7622 J26.3177
G2 X-111.3456 Y191.0197 I-4.6927 J6.6619
G1 X-111.591 Y190.8729
G1 X-111.8363 Y190.7261
G1 X-112.3261 Y190.4308
G1 X-112.4656 Y190.3456
G3 X-113.5657 Y189.6396 I14.215 J-23.3596
G1 X-113.7089 Y189.5403
G1 X-113.8604 Y189.4324
G3 X-114.2001 Y189.1769 I6.2669 J-8.6835
G3 X-114.573 Y188.8651 I4.5118 J-5.7752
G3 X-114.9673 Y188.4728 I3.2469 J-3.6573
G3 X-115.3413 Y187.9554 I2.1875 J-1.9754
G3 X-115.4799 Y187.6411 I1.6882 J-0.9318
G3 X-115.5519 Y187.2764 I1.4465 J-0.4754
G1 X-114.0753 Y186.8071
G1 X-112.5977 Y186.3404
G1 X-109.642 Y185.409
G1 X-107.6728 Y184.7842
G1 X-107.4188 Y184.7031
G1 X-107.1567 Y184.6193
G1 X-106.8862 Y184.5326
G1 X-106.607 Y184.4429
G1 X-106.3189 Y184.3501
G1 X-105.0028 Y183.9229
G2 X-101.5035 Y182.7522 I-69.1967 J-212.6419
G1 X-100.5738 Y182.4302
G1 X-99.584 Y182.0811
G1 X-98.5305 Y181.7019
G2 X-92.9665 Y179.5341 I-42.5909 J-117.5372
G1 X-92.257 Y179.2335
G1 X-91.5269 Y178.9176
G1 X-90.776 Y178.5852
G2 X-87.3824 Y176.9787 I-34.6491 J-77.5798
G2 X-85.6031 Y176.059 I-40.9805 J-81.4665
G2 X-85.4922 Y175.9998 I-1.5364 J-3.0078
G2 X-85.381 Y175.9401 I-1.5242 J-2.9735
G2 X-85.2694 Y175.88 I-1.5123 J-2.9402
G1 X-84.8173 Y175.6338
G2 X-84.6157 Y175.0508 I-4.1975 J-1.7783
G2 X-84.509 Y174.4432 I-3.1632 J-0.8686
G2 X-84.6799 Y173.2252 I-2.7333 J-0.2373
G2 X-85.0791 Y172.5031 I-2.919 J1.1422
G2 X-85.8322 Y171.7106 I-3.7392 J2.799
G2 X-86.3247 Y171.331 I-5.159 J6.1846
G2 X-86.9154 Y170.9469 I-5.1957 J7.3441
G2 X-87.6097 Y170.5569 I-6.7531 J11.2086
G2 X-87.7916 Y170.4624 I-1.9744 J3.5786
G2 X-88.6229 Y170.0584 I-11.1903 J21.9724
G2 X-88.6758 Y170.034 I-0.2925 J0.5624
G1 X-88.8935 Y169.9343
G1 X-90.9296 Y169.2107
G2 X-91.2206 Y169.1078 I-5.3836 J14.7653
G1 X-93.5504 Y168.2888
G2 X-93.8613 Y168.1802 I-5.6158 J15.5656
G2 X-94.1929 Y168.0644 I-5.8135 J16.1191
G1 X-95.9623 Y167.4493
G1 X-98.3234 Y166.6349
G2 X-107.7873 Y163.4343 I-369.108 J1075.8257
G2 X-108.0882 Y163.334 I-6.3211 J18.4523
G2 X-108.3939 Y163.2321 I-6.4039 J18.7064
G2 X-108.7044 Y163.1287 I-6.4889 J18.9678
G2 X-109.02 Y163.0237 I-6.5764 J19.2365
G2 X-115.7554 Y160.7988 I-519.0687 J1560.0431
G2 X-116.1833 Y160.6583 I-9.0097 J26.7266
G2 X-116.6181 Y160.5157 I-9.1985 J27.3076
G2 X-117.0598 Y160.3709 I-9.3974 J27.9198
G2 X-117.5085 Y160.2239 I-9.6075 J28.5661
G2 X-117.9644 Y160.0746 I-9.8299 J29.2499
G2 X-118.4275 Y159.923 I-10.0657 J29.9751
G1 X-122.6626 Y158.5405
G1 X-133.959 Y154.8631
G1 X-136.9707 Y153.8799
G1 X-140.1819 Y152.8278
G1 X-141.8388 Y152.283
G1 X-143.5486 Y151.7192
G1 X-145.313 Y151.1354
G1 X-147.1336 Y150.5307
G1 X-149.0121 Y149.9041
G1 X-150.9502 Y149.2543
G3 X-159.7951 Y146.2392 I311.9626 J-929.6099
G1 X-162.0728 Y145.4471
G3 X-172.4535 Y141.7349 I240.0681 J-687.7011
G1 X-173.7674 Y141.2515
G1 X-175.1009 Y140.7573
G1 X-176.4545 Y140.252
G1 X-177.8283 Y139.7353
G2 X-179.9535 Y139.6043 I-1.7774 J11.5297
G2 X-182.0692 Y139.845 I0.3712 J12.6769
G2 X-183.4472 Y140.1881 I2.782 J14.113
G2 X-184.2187 Y140.439 I4.1731 J14.1452
G2 X-184.3159 Y140.4734 I0.7349 J2.2301
G2 X-184.4144 Y140.5089 I0.7242 J2.164
G2 X-185.3051 Y140.8571 I6.1231 J16.9758
G2 X-186.3031 Y141.3006 I11.0037 J26.1075
G2 X-187.4205 Y141.8535 I14.0957 J29.8944
G2 X-187.561 Y141.9265 I1.4556 J2.9705
G2 X-187.7034 Y142.0013 I1.6027 J3.2253
G2 X-187.8477 Y142.0778 I1.8024 J3.576
G2 X-187.994 Y142.1559 I2.0965 J4.0981
G2 X-188.1423 Y142.2359 I2.593 J4.9883
G2 X-188.4475 Y142.4024 I7.5838 J14.2692
G1 X-188.7614 Y142.576
G1 X-189.0845 Y142.7568
G1 X-189.7706 Y143.1464
G1 X-189.9445 Y143.2459
G1 X-190.3031 Y143.4516
G1 X-190.673 Y143.664
G1 X-191.4624 Y144.1145
G2 X-198.9262 Y145.5793 I35.2612 J199.4259
G2 X-206.3233 Y147.3503 I36.8076 J170.0685
G1 X-206.7977 Y147.4762
G1 X-207.2869 Y147.6078
G1 X-208.3291 Y147.8939
G1 X-208.8662 Y148.0444
G2 X-214.5573 Y149.7797 I37.4278 J132.9494
G1 X-214.9161 Y149.8982
G1 X-215.2802 Y150.0197
G2 X-222.9528 Y152.8773 I38.1686 J114.2109
G2 X-227.2393 Y154.7556 I40.1887 J97.5451
G1 X-227.7775 Y155.0077
G1 X-228.3227 Y155.267
G1 X-228.875 Y155.5338
G1 X-229.4343 Y155.8083
G2 X-234.4642 Y158.4862 I42.0929 J85.1262
G2 X-237.0763 Y160.0418 I44.4191 J77.5551
G1 X-237.7309 Y160.4514
G2 X-243.535 Y164.4766 I43.7813 J69.3277
G2 X-243.7113 Y164.6111 I4.7075 J6.3521
G2 X-246.6594 Y166.9844 I45.2208 J59.1903
G2 X-249.67 Y169.6777 I46.6588 J55.1855
G2 X-249.7594 Y170.6447 I2.0457 J0.6768
G2 X-249.4096 Y171.5506 I2.2388 J-0.3439
G2 X-249.0013 Y172.054 I2.5732 J-1.6702
G2 X-248.3391 Y172.5964 I3.0727 J-3.0756
G2 X-247.9233 Y172.8492 I2.9546 J-4.3907
G2 X-247.4274 Y173.0918 I2.683 J-4.8558
G2 X-246.839 Y173.3372 I3.5878 J-7.7776
G2 X-246.2355 Y173.5429 I3.8002 J-10.16
G1 X-246.0613 Y173.5962
G1 X-245.8614 Y173.6547
G2 X-244.2478 Y174.062 I8.8262 J-31.5714
G1 X-244.0315 Y174.1117
G1 X-242.8784 Y174.3753
G3 X-242.221 Y174.532 I-6.7312 J29.7065
G1 X-241.8713 Y174.6195
G1 X-241.4994 Y174.7171
G1 X-241.1044 Y174.8269
G3 X-240.6852 Y174.952 I-9.899 J33.9322
G3 X-240.2415 Y175.0962 I-3.5497 J11.6784
G3 X-239.7729 Y175.2646 I-6.4756 J18.7536
G3 X-238.7294 Y175.7213 I-3.8405 J10.1964
G3 X-237.6177 Y176.407 I-3.2991 J6.5925
G3 X-237.0863 Y176.8627 I-3.0975 J4.1496
G3 X-236.1325 Y178.174 I-3.2563 J3.3709
G2 X-235.8971 Y178.5065 I1.4125 J-0.7507
G2 X-235.5998 Y178.7851 I1.8782 J-1.7065
G2 X-234.9111 Y179.2128 I2.3006 J-2.9359
G1 X-234.8133 Y179.2593
G2 X-234.2785 Y179.4715 I2.3743 J-5.2047
G2 X-233.9648 Y179.5683 I3.3582 J-10.3262
G2 X-233.6013 Y179.6589 I1.7557 J-6.2664
G2 X-232.6179 Y179.8029 I1.506 J-6.8527
G3 X-232.4292 Y179.8398 I-0.0512 J0.7639
G3 X-232.2637 Y179.9376 I-0.1189 J0.3903
G3 X-232.2026 Y180.0533 I-0.1592 J0.158
G3 X-232.2378 Y180.2293 I-0.2584 J0.0399
G3 X-232.3942 Y180.4024 I-0.5283 J-0.3201
G3 X-232.6366 Y180.5449 I-0.7373 J-0.9763
G1 X-233.0609 Y180.7352
G1 X-233.4862 Y180.9231
G1 X-234.3394 Y181.2933
G1 X-234.5836 Y181.3981
G1 X-235.2354 Y181.6762
G1 X-236.1049 Y182.0457
G1 X-237.2634 Y182.5405
G1 X-237.9239 Y182.8268
G1 X-238.6764 Y183.1595
G2 X-242.6439 Y182.2007 I-109.4634 J444.2863
G2 X-242.772 Y182.1704 I-1.3676 J5.5008
G2 X-242.9043 Y182.1392 I-1.3936 J5.609
G2 X-243.0409 Y182.107 I-1.4203 J5.7204
G2 X-243.1819 Y182.0738 I-1.4477 J5.8349
G2 X-243.3275 Y182.0396 I-1.4759 J5.9527
G1 X-244.8805 Y181.6775
G1 X-246.9529 Y181.2017
G1 X-248.1378 Y180.9331
G1 X-249.4925 Y180.6285
G1 X-251.0414 Y180.283
G1 X-252.8122 Y179.8912
G1 X-254.8365 Y179.446
G1 X-260.2359 Y178.264
G1 X-263.3204 Y177.5851
G1 X-264.1162 Y177.4088
G1 X-264.9376 Y177.2262
G3 X-273.6842 Y175.2163 I126.0556 J-568.6266
G3 X-276.0104 Y174.6536 I98.8832 J-413.817
G1 X-276.6007 Y174.5083
G1 X-277.2 Y174.3597
G1 X-277.8087 Y174.2077
G1 X-278.4266 Y174.0521
G3 X-284.061 Y172.5688 I68.6121 J-272.0673
G3 X-287.0522 Y171.7265 I71.7498 J-260.542
G1 X-287.4283 Y171.6176
G3 X-290.6292 Y170.6599 I54.9692 J-189.5635
G3 X-297.8806 Y168.2598 I52.3066 J-170.1824
G3 X-306.018 Y165.0884 I47.7561 J-134.561
G3 X-306.8838 Y164.6859 I8.041 J-18.4286
G1 X-307.1689 Y164.5443
G1 X-307.5472 Y164.3521
G3 X-309.0479 Y163.5592 I35.395 J-68.8
G3 X-312.0172 Y161.9154 I96.6152 J-178.0245
G1 X-312.2079 Y161.8078
G1 X-312.4048 Y161.6966
G1 X-312.8244 Y161.459
G3 X-312.8773 Y161.429 I0.2478 J-0.4984
G3 X-313.0955 Y161.3051 I33.8021 J-59.7896
G3 X-314.0916 Y160.7373 I94.2965 J-166.6011
G1 X-315.2285 Y160.0857
G1 X-315.5217 Y159.9171
G1 X-316.8609 Y159.1448
G1 X-317.0308 Y159.0466
G1 X-317.7558 Y158.6271
G3 X-318.5287 Y158.1792 I231.1293 J-399.7316
G1 X-322.6498 Y155.7885
G1 X-323.7503 Y155.1535
G1 X-324.9266 Y154.4806
G1 X-325.2262 Y154.3111
G2 X-326.5137 Y153.6048 I-21.5474 J37.7542
G1 X-326.5958 Y153.5629
G3 X-327.1183 Y153.3113 I7.2458 J-15.7161
G1 X-327.6381 Y153.0543
G2 X-328.6959 Y152.5789 I-6.3357 J12.6827
G1 X-328.7657 Y152.5518
G2 X-329.5267 Y152.3093 I-2.2722 J5.8138
G2 X-329.7351 Y152.2634 I-0.6628 J2.5141
G2 X-330.2195 Y152.2009 I-0.7239 J3.7006
G2 X-330.4805 Y152.1976 I-0.165 J2.7286
G2 X-331.0741 Y152.2925 I0.0543 J2.2425
G2 X-331.6984 Y152.6052 I0.5817 J1.9407
G2 X-332.2637 Y153.191 I1.528 J2.04
G2 X-332.4942 Y153.5629 I2.6132 J1.8776
G2 X-332.6978 Y155.0224 I4.371 J1.3536
G2 X-332.4427 Y156.4738 I5.129 J-0.1534
G2 X-332.0709 Y157.3838 I6.3694 J-2.0713
G2 X-331.4082 Y158.5081 I8.2891 J-4.1282
G2 X-330.3435 Y159.8684 I11.8339 J-8.166
G2 X-330.271 Y159.9507 I1.3215 J-1.0908
G2 X-330.1969 Y160.0339 I1.6075 J-1.3575
G2 X-330.1212 Y160.1179 I2.2661 J-1.9653
G1 X-329.9637 Y160.2899
G1 X-329.7994 Y160.4657
G2 X-329.0327 Y161.2464 I19.9925 J-18.8661
G2 X-328.831 Y161.4436 I10.177 J-10.2025
G1 X-337.991 Y161.8044
G2 X-337.57 Y162.2439 I35.8813 J-33.9485
G2 X-337.509 Y162.3061 I0.9336 J-0.8547
G2 X-337.4392 Y162.3768 I0.9897 J-0.9069
G2 X-336.8723 Y162.9343 I19.512 J-19.2726
G2 X-335.697 Y164.0051 I22.4027 J-23.4107
G2 X-334.8852 Y164.6869 I20.7022 J-23.8229
G1 X-334.6653 Y164.8645
G2 X-333.4694 Y165.7823 I23.9944 J-30.0255
G1 X-333.3124 Y165.8973
G2 X-331.605 Y167.0754 I26.0484 J-35.925
G1 X-331.3805 Y167.2213
G1 X-330.8989 Y167.5281
G2 X-328.2723 Y169.067 I26.624 J-42.4308
G2 X-324.6514 Y170.8955 I30.3805 J-55.6617
G2 X-319.6833 Y173.0184 I36.4027 J-78.316
G1 X-319.0337 Y173.2711
G1 X-318.3614 Y173.5275
G1 X-317.6659 Y173.7878
G1 X-316.9464 Y174.0518
G2 X-316.5803 Y174.1842 I25.9885 J-71.2698
G2 X-313.2193 Y175.3464 I48.8886 J-135.941
G1 X-312.3479 Y175.6338
G1 X-300.2386 Y186.3114
G1 X-285.894 Y190.4284
G2 X-285.5851 Y190.0143 I-1.0774 J-1.1258
G2 X-285.4493 Y189.516 I-1.1755 J-0.588
G2 X-285.4606 Y189.1708 I-1.5987 J-0.1207
G2 X-285.5628 Y188.7249 I-2.6045 J0.3626
G1 X-285.6014 Y188.6093
G1 X-285.6461 Y188.4876
G2 X-285.7584 Y188.2154 I-9.0529 J3.5772
G1 X-285.8224 Y188.0727
G1 X-285.9734 Y187.7518
G1 X-286.1451 Y187.3888
G3 X-286.3248 Y186.9711 I6.5693 J-3.0737
G1 X-286.3658 Y186.8614
G3 X-286.5003 Y186.3466 I2.4215 J-0.9078
G3 X-286.5161 Y186.0622 I1.5416 J-0.2278
G3 X-286.2994 Y185.43 I1.1272 J0.0331
G1 X-246.4121 Y193.3182
G1 Y194.5454
G3 X-249.4901 Y194.5627 I-1.8996 J-64.3548
G3 X-249.5894 Y194.5609 I0.0028 J-3.0048
G3 X-249.6919 Y194.559 I0.0061 J-3.0433
G3 X-252.9689 Y194.4244 I1.6048 J-79.0563
G3 X-253.0729 Y194.418 I0.1284 J-2.9077
G3 X-255.2879 Y194.2513 I6.6237 J-102.8031
G1 X-255.8778 Y194.1979
G3 X-259.0183 Y193.8574 I9.8692 J-105.6538
G3 X-259.1171 Y193.8452 I0.3328 J-3.1145
G3 X-259.2166 Y193.8329 I0.3379 J-3.1376
G3 X-259.317 Y193.8204 I0.343 J-3.1612
G3 X-259.4181 Y193.8077 I0.3482 J-3.1853
G3 X-259.5199 Y193.7948 I0.3536 J-3.21
G3 X-259.6226 Y193.7818 I0.359 J-3.2351
G3 X-259.7261 Y193.7686 I0.3646 J-3.2609
G3 X-259.8304 Y193.7551 I0.3703 J-3.2872
G3 X-259.9355 Y193.7415 I0.3761 J-3.3142
G3 X-260.0414 Y193.7277 I0.382 J-3.3418
G3 X-260.1481 Y193.7137 I0.3881 J-3.3701
G3 X-260.2556 Y193.6995 I0.3943 J-3.3991
G3 X-260.364 Y193.6851 I0.4006 J-3.4288
G3 X-260.4732 Y193.6705 I0.4071 J-3.4593
G3 X-260.5833 Y193.6556 I0.4138 J-3.4906
G3 X-260.6942 Y193.6406 I0.4206 J-3.5227
G3 X-260.806 Y193.6254 I0.4276 J-3.5557
G3 X-260.9187 Y193.6099 I0.4347 J-3.5896
G3 X-261.0322 Y193.5943 I0.4421 J-3.6245
G3 X-261.1466 Y193.5784 I0.4496 J-3.6603
G3 X-261.2619 Y193.5623 I0.4573 J-3.6972
G3 X-261.3781 Y193.546 I0.4653 J-3.7352
G1 X-262.3689 Y193.4031
G1 X-263.4246 Y193.2437
G3 X-265.8338 Y192.8559 I34.5947 J-222.622
G3 X-265.9854 Y192.8305 I1.06 J-6.7941
G3 X-266.1382 Y192.8048 I1.1034 J-7.0275
G3 X-266.2922 Y192.7788 I1.1514 J-7.2865
G1 X-267.6052 Y192.553
G3 X-267.9385 Y192.4946 I3.2698 J-19.639
G3 X-268.277 Y192.4349 I4.9026 J-28.7749
G1 X-269.7205 Y192.176
G1 X-271.259 Y191.8942
G1 X-272.0527 Y191.7471
G1 X-272.4558 Y191.672
G1 X-276.1398 Y190.9816
G1 X-278.1048 Y190.6165
G1 X-279.1195 Y190.4307
G1 X-280.1674 Y190.2416
G1 X-281.2496 Y190.05
G1 X-281.5225 Y190.0023
G1 X-281.7976 Y189.9546
G1 X-282.0748 Y189.9068
G1 X-282.3543 Y189.8589
G1 X-282.636 Y189.811
G1 X-283.3464 Y191.0384
G2 X-279.5403 Y192.1476 I36.9954 J-119.8513
G2 X-279.417 Y192.1815 I1.0908 J-3.7303
G2 X-279.2896 Y192.2164 I1.106 J-3.7917
G2 X-279.1581 Y192.2522 I1.1214 J-3.8543
G2 X-279.0223 Y192.2891 I1.137 J-3.9184
G1 X-278.4013 Y192.456
G2 X-273.4099 Y193.7013 I43.9237 J-165.422
G1 X-272.7417 Y193.8567
G1 X-272.0286 Y194.0202
G1 X-271.2673 Y194.1919
G1 X-270.4547 Y194.3723
G1 X-269.5872 Y194.5618
G1 X-268.6613 Y194.7609
G1 X-267.6729 Y194.97
G2 X-265.4116 Y195.4372 I65.2828 J-310.2522
G2 X-265.2691 Y195.4662 I1.3404 J-6.2239
G2 X-265.1254 Y195.4954 I1.3581 J-6.3187
G2 X-264.9806 Y195.5248 I1.3766 J-6.4174
G2 X-264.8346 Y195.5543 I1.396 J-6.5204
G2 X-264.6875 Y195.5841 I1.4162 J-6.6279
G1 X-263.4317 Y195.8361
G1 X-262.0918 Y196.1021
G1 X-254.9428 Y197.5034
G1 X-253.0375 Y197.882
G1 X-252.0546 Y198.0798
G1 X-251.0404 Y198.2862
G3 X-246.4121 Y199.2669 I-65.2693 J319.446
G1 X-245.5976 Y213.1094
G1 X-253.3374 Y211.6573
G1 X-261.076 Y210.1995
G1 X-263.2869 Y209.7814
G1 X-269.1815 Y208.6623
G1 X-270.7532 Y208.3627
G1 X-272.4295 Y208.0425
G1 X-276.2607 Y207.3081
G1 X-280.6382 Y206.464
G1 X-285.6397 Y205.4925
G1 X-286.9302 Y205.2404
G1 X-288.2622 Y204.9797
G1 X-291.1033 Y204.4213
G1 X-294.1333 Y203.8223
G1 X-297.3644 Y203.1795
G1 X-300.8099 Y202.489
G1 X-302.5879 Y202.1305
G1 X-304.4229 Y201.759
G1 X-305.3549 Y201.5697
G1 X-306.3015 Y201.377
G1 X-307.2631 Y201.1807
G1 X-308.2399 Y200.9809
G1 X-309.232 Y200.7774
G3 X-330.3708 Y196.3058 I355.8582 J-1734.454
G1 X-331.711 Y196.0125
G1 X-333.0721 Y195.7134
G1 X-334.4546 Y195.4082
G1 X-335.8588 Y195.0968
G1 X-337.2849 Y194.779
G1 X-338.7333 Y194.4546
G3 X-351.9588 Y191.4146 I288.3073 J-1284.5584
G1 X-352.7908 Y191.2184
G3 X-356.2247 Y190.4018 I181.2923 J-770.0488
G1 X-357.0896 Y190.1945
G1 X-357.9612 Y189.9848
G3 X-373.867 Y186.0259 I252.7646 J-1049.4817
G1 X-374.8668 Y185.7682
G1 X-375.8743 Y185.5074
G1 X-376.8894 Y185.2435
G1 X-377.9122 Y184.9764
G1 X-378.9428 Y184.7061
G1 X-379.9812 Y184.4325
G1 X-381.0275 Y184.1555
G1 X-382.0816 Y183.8752
G3 X-401.2975 Y178.5236 I225.2101 J-845.8291
G2 X-402.3256 Y178.2585 I-4.781 J16.4196
G1 X-402.3592 Y178.2512
G2 X-403.4403 Y178.0721 I-2.1731 J9.7619
G2 X-404.1705 Y178.0341 I-0.6774 J5.9815
G2 X-404.5881 Y178.0625 I0.0382 J3.6419
G2 X-404.8083 Y178.1023 I0.2205 J1.8467
G2 X-405.0366 Y178.1755 I0.3866 J1.5994
G2 X-405.256 Y178.3151 I0.2708 J0.6676
G2 X-405.3671 Y178.5987 I0.2373 J0.2566
G2 X-405.32 Y178.7708 I0.4884 J-0.0413
G2 X-405.2151 Y178.9417 I0.8364 J-0.3955
G1 X-405.1481 Y179.0229
G1 X-405.0724 Y179.1027
G2 X-404.6848 Y179.4195 I2.0392 J-2.1001
G2 X-404.2559 Y179.6878 I3.094 J-4.467
G2 X-404.0234 Y179.8143 I2.8156 J-4.9004
G2 X-403.7723 Y179.9403 I3.1796 J-6.0198
G2 X-402.9674 Y180.2924 I4.824 J-9.9326
G2 X-402.5658 Y180.4463 I11.8982 J-30.4502
G2 X-400.5176 Y181.1645 I27.5107 J-75.1758
G2 X-400.3805 Y181.2107 I1.0115 J-2.7797
G1 X-399.648 Y181.4537
G2 X-398.6691 Y181.7708 I35.3474 J-107.4565
G1 X-398.5426 Y181.8112
G2 X-397.1914 Y182.2354 I38.0472 J-118.8403
G1 X-396.4178 Y182.4728
G1 X-396.0048 Y182.5982
G1 X-395.564 Y182.731
G1 X-394.5554 Y183.0312
G1 X-393.4014 Y183.369
G1 X-392.7852 Y183.5472
G1 X-391.3755 Y183.9495
G2 X-391.3312 Y183.962 I0.1561 J-0.4673
G2 X-391.2868 Y183.9746 I0.1566 J-0.4689
G2 X-391.2421 Y183.9872 I0.1571 J-0.4706
G2 X-387.4304 Y185.0431 I107.3832 J-380.2369
G2 X-386.4122 Y185.3189 I55.0403 J-201.2159
G1 X-385.8866 Y185.4603
G1 X-384.7646 Y185.7603
G1 X-383.5672 Y186.0777
G1 X-382.2893 Y186.4135
G1 X-380.9255 Y186.7689
G1 X-379.4699 Y187.1449
G1 X-377.9166 Y187.5428
G1 X-377.1145 Y187.7469
G1 X-376.2863 Y187.9569
G1 X-374.519 Y188.402
G1 X-372.633 Y188.8731
G1 X-371.6592 Y189.1149
G2 X-371.5981 Y189.13 I0.2555 J-0.9006
G2 X-371.537 Y189.1452 I0.256 J-0.9026
G2 X-371.4757 Y189.1603 I0.2565 J-0.9045
G2 X-371.4143 Y189.1755 I0.257 J-0.9065
G2 X-371.3528 Y189.1907 I0.2575 J-0.9085
G2 X-371.2912 Y189.206 I0.258 J-0.9105
G2 X-371.2294 Y189.2213 I0.2585 J-0.9125
G2 X-371.1676 Y189.2366 I0.259 J-0.9145
G2 X-371.1056 Y189.2519 I0.2595 J-0.9165
G2 X-371.0434 Y189.2673 I0.26 J-0.9186
G2 X-360.438 Y191.839 I331.3062 J-1343.0902
G1 X-357.6066 Y192.5113
G1 X-354.5853 Y193.2231
G1 X-351.3613 Y193.9768
G1 X-347.9211 Y194.7748
G1 X-344.2502 Y195.62
G1 X-343.7876 Y195.7261
G1 X-343.3213 Y195.8329
G1 X-342.3739 Y196.0496
G1 X-338.3311 Y196.97
G1 X-337.8217 Y197.0855
G1 X-335.7179 Y197.5615
G1 X-331.2289 Y198.5714
G1 X-330.0885 Y198.8268
G2 X-305.7432 Y204.1828 I788.8711 J-3527.7028
G1 X-302.5994 Y204.8627
G2 X-269.0396 Y211.9797 I1041.3235 J-4827.5959
G2 X-249.841 Y215.9411 I1009.2439 J-4842.7853
G1 X-244.8836 Y216.9492
G1 Y217.8307
G0 Z5.0
M5
M30
