( Made using CamBam - http://www.cambam.co.uk )
( _2014_1_20_car 1/20/2014 11:46:09 PM )
( T0 : 0.0 )
G21 G90 G64 G40
G0 Z5.0
( T0 : 0.0 )
T0 M6
( 95-99 )
G17
M3 S1000
G0 X-305.0883 Y173.9789
G1 F1.0 Z0.0
G3 X-304.1825 Y174.8008 I-10.8453 J12.8611
G3 X-304.1241 Y174.8578 I-0.5709 J0.6434
G3 X-303.2153 Y175.794 I-21.1487 J21.4396
G3 X-302.6272 Y176.4347 I-123.7023 J114.1283
G1 X-301.8496 Y177.2948
G1 X-301.4023 Y177.7835
G2 X-300.1695 Y179.0487 I21.878 J-20.0842
G2 X-299.4213 Y179.7269 I13.259 J-13.8761
G2 X-298.511 Y180.4379 I7.9484 J-9.2385
G2 X-297.3856 Y181.1332 I5.817 J-8.156
G2 X-293.9665 Y182.1027 I3.9474 J-7.408
G2 X-291.9123 Y182.0212 I0.6237 J-10.2203
G2 X-291.3871 Y181.9377 I-1.8725 J-13.4618
G1 X-291.2171 Y182.2428
G1 X-291.048 Y182.5484
G1 X-290.7141 Y183.162
G1 X-290.4956 Y183.5732
G3 X-289.6689 Y185.2424 I-31.5727 J16.6771
G3 X-289.1884 Y186.3878 I-15.2818 J7.0841
G3 X-289.0777 Y186.7 I-22.6161 J8.1963
G3 X-288.876 Y187.431 I-6.0832 J2.0713
G3 X-288.8432 Y187.6243 I-4.6236 J0.8844
G3 X-290.7308 Y187.4109 I3.5915 J-40.2336
G1 X-290.9995 Y187.3726
G1 X-291.3062 Y187.3263
G3 X-293.7396 Y186.8429 I4.5054 J-29.046
G1 X-293.8161 Y186.8239
G3 X-295.431 Y186.3579 I5.341 J-21.5388
G3 X-297.5162 Y185.5345 I6.1823 J-18.7093
G3 X-300.1106 Y184.0456 I7.3883 J-15.8783
G3 X-301.4726 Y183.0087 I11.3947 J-16.379
G3 X-302.923 Y181.6961 I15.2578 J-18.3184
G3 X-302.9669 Y181.6531 I0.4411 J-0.4948
G3 X-303.7025 Y180.9079 I24.8075 J-25.2226
G3 X-304.4635 Y180.0913 I32.9031 J-31.4254
G1 X-304.8487 Y179.6633
G1 X-305.2419 Y179.2179
G3 X-305.6439 Y178.7554 I31.627 J-27.8999
G3 X-306.4923 Y177.7631 I73.4063 J-63.6202
G3 X-306.5188 Y177.7319 I0.2986 J-0.2801
G3 X-306.5453 Y177.7006 I0.2987 J-0.2803
G1 X-307.4467 Y176.6351
G1 X-308.4087 Y175.5026
G1 X-308.5303 Y175.3603
G1 X-309.0339 Y174.7751
G1 X-309.1613 Y174.6281
G1 X-309.689 Y174.0238
G1 X-309.9586 Y173.7183
G1 X-310.5182 Y173.0918
G1 X-309.3987
G1 X-301.1498 Y181.5769
G2 X-300.6652 Y181.5606 I0.0571 J-5.5096
G2 X-300.1845 Y181.4971 I-0.1902 J-3.2923
G2 X-300.1217 Y181.4812 I-0.1378 J-0.675
G2 X-299.9832 Y181.428 I-0.1454 J-0.5858
G2 X-299.9195 Y181.379 I-0.0988 J-0.1944
G2 X-299.901 Y181.2851 I-0.0659 J-0.0618
G2 X-299.9298 Y181.2348 I-0.1864 J0.0734
G1 X-300.0765 Y181.0537
G1 X-300.1254 Y180.9933
G1 X-300.3205 Y180.7513
G1 X-300.7093 Y180.2664
G1 X-300.9679 Y179.9426
G1 X-301.0369 Y179.8562
G1 X-301.1104 Y179.764
G1 X-301.1889 Y179.6656
G2 X-302.448 Y178.0965 I-130.6797 J103.5739
G1 X-302.812 Y177.6518
G1 X-303.0074 Y177.4156
G2 X-303.0573 Y177.3557 I-0.6458 J0.4865
G1 X-303.2705 Y177.1009
G2 X-303.7628 Y176.5228 I-36.3772 J30.4852
G2 X-303.7942 Y176.4866 I-0.3581 J0.2776
G1 X-304.0622 Y176.1788
G2 X-304.3508 Y175.8527 I-16.3111 J14.1451
G1 X-304.4245 Y175.7703
G2 X-306.0404 Y174.0513 I-36.1793 J32.39
G1 X-305.0883 Y173.9789
G0 Z5.0
G0 X-304.6358 Y172.6161
G1 Z0.0
G1 X-317.4393 Y168.3649
G3 X-318.0597 Y168.1441 I5.0204 J-15.0871
G1 X-318.2642 Y168.0642
G1 X-318.5352 Y167.9537
G3 X-319.6049 Y167.4785 I10.9722 J-26.1372
G3 X-319.6734 Y167.4465 I0.6952 J-1.5815
G3 X-319.7441 Y167.4135 I0.7876 J-1.7765
G3 X-319.8169 Y167.3793 I0.9223 J-2.061
G3 X-319.9723 Y167.3062 I1.9019 J-4.2393
G1 X-320.1378 Y167.2279
G1 X-321.021 Y166.8114
G2 X-322.2127 Y166.2875 I-12.5332 J26.8936
G1 X-322.5358 Y166.1603
G1 X-322.6183 Y166.1291
G1 X-322.7023 Y166.098
G1 X-322.7879 Y166.0669
G2 X-323.5808 Y165.8132 I-3.8428 J10.6452
G2 X-324.0118 Y165.705 I-2.6826 J9.7742
G2 X-325.0178 Y165.5497 I-1.5797 J6.8972
G2 X-326.1866 Y165.5681 I-0.4891 J6.0525
G2 X-325.1374 Y166.3002 I12.5451 J-16.8633
G2 X-324.0496 Y166.9736 I15.1076 J-23.1887
G2 X-323.3084 Y167.3955 I16.3621 J-27.8836
G2 X-320.2578 Y168.9176 I21.534 J-39.3391
G2 X-318.1737 Y169.8236 I29.8697 J-65.863
G1 X-318.0404 Y169.8789
G2 X-316.8179 Y170.3741 I36.0681 J-87.2823
G1 X-316.5013 Y170.4992
G1 X-315.8247 Y170.7626
G2 X-315.1015 Y171.0392 I98.3227 J-256.0108
G1 X-314.7276 Y171.1804
G1 X-314.3413 Y171.3253
G1 X-314.4864 Y172.4744
G3 X-318.5532 Y171.4189 I9.4537 J-44.7851
G1 X-319.1257 Y171.2378
G3 X-319.2731 Y171.1898 I1.434 J-4.6565
G3 X-323.8895 Y169.3868 I13.3516 J-40.9962
G3 X-326.8299 Y167.8767 I15.3403 J-33.4874
G3 X-328.4408 Y166.8889 I15.4803 J-27.0542
G3 X-328.6409 Y166.7564 I5.8892 J-9.1112
G3 X-329.482 Y166.1719 I15.798 J-23.6326
G3 X-331.3131 Y164.7107 I13.8083 J-19.1812
G3 X-331.7602 Y164.3032 I9.6108 J-10.9936
G3 X-331.8709 Y164.1984 I1.7658 J-1.9772
G3 X-331.9817 Y164.092 I1.9398 J-2.1294
G3 X-332.0926 Y163.9837 I2.1623 J-2.3254
G3 X-330.0178 Y164.0436 I-1.6293 J92.4385
G1 X-329.3266 Y164.0753
G1 X-328.9317 Y164.096
G3 X-325.7773 Y164.3282 I-4.3197 J80.2383
G1 X-325.3574 Y164.3679
G3 X-318.6716 Y165.2679 I-8.8762 J91.2165
G3 X-314.2567 Y166.1272 I-16.6761 J97.4495
G3 X-308.4355 Y167.5645 I-23.4751 J107.5854
G1 X-307.6902 Y167.7727
G3 X-299.8331 Y170.2876 I-33.3955 J117.8619
G3 X-300.1006 Y170.4442 I-0.7561 J-0.9847
G3 X-300.396 Y170.5383 I-0.6304 J-1.4694
G3 X-301.0086 Y170.6033 I-0.6447 J-3.1542
G1 X-301.1846 Y170.6058
G1 X-301.3854 Y170.6052
G2 X-301.6144 Y170.6035 I-0.1584 J6.1355
G2 X-301.8756 Y170.6056 I-0.0724 J7.3203
G1 X-302.0146 Y170.6106
G2 X-302.0863 Y170.6147 I0.0288 J1.1272
G2 X-302.4121 Y170.6525 I0.209 J3.2226
G2 X-302.7738 Y170.7534 I0.3469 J1.9428
G2 X-303.1434 Y170.9823 I0.4657 J1.1648
G2 X-303.4438 Y171.3946 I0.8853 J0.9605
G2 X-303.4965 Y171.5169 I2.0485 J0.9561
G2 X-302.3982 Y171.8967 I3.1587 J-7.3555
G2 X-301.2655 Y172.1572 I4.1433 J-15.421
G1 X-300.9396 Y172.2202
G1 X-300.0692 Y172.3804
G3 X-299.5723 Y172.4743 I-5.9714 J32.96
G1 X-299.3079 Y172.5272
G1 X-299.1716 Y172.5555
G1 X-298.8817 Y172.6191
G3 X-298.2238 Y172.7849 I-2.574 J11.6049
G3 X-297.4854 Y173.0231 I-2.4878 J8.9732
G3 X-296.6743 Y173.3853 I-2.2695 J6.1717
G1 X-296.5752 Y173.4396
G3 X-297.2756 Y175.1817 I-9.125 J-2.6566
G3 X-297.5891 Y175.7245 I-6.733 J-3.5268
G3 X-298.0858 Y176.3972 I-5.0217 J-3.1881
G3 X-298.2366 Y176.5619 I-2.4102 J-2.0546
G3 X-298.617 Y176.9035 I-2.3804 J-2.2685
G3 X-299.1228 Y177.2033 I-1.4027 J-1.7901
G3 X-300.3262 Y176.5422 I1.9544 J-4.9834
G3 X-301.3455 Y175.6223 I3.8677 J-5.3102
G3 X-302.7043 Y173.2574 I4.8298 J-4.348
G1 X-304.6358 Y172.6161
G0 Z5.0
G0 X-295.4596 Y175.2861
G1 Z0.0
G1 X-288.5383 Y177.2033
G1 X-287.7238 Y176.5916
G2 X-288.3843 Y176.2996 I-5.9173 J12.4948
G2 X-288.6072 Y176.2085 I-2.1157 J4.856
G1 X-288.906 Y176.0914
G2 X-289.0777 Y176.0266 I-1.4018 J3.4514
G1 X-289.2744 Y175.9542
G2 X-290.8647 Y175.4236 I-13.0842 J36.5639
G1 X-291.3214 Y175.2792
G3 X-291.4392 Y175.2417 I0.7755 J-2.6419
G3 X-291.9766 Y175.0669 I7.2609 J-23.2411
G1 X-292.2619 Y174.9698
G3 X-292.9077 Y174.73 I4.8243 J-13.9792
G3 X-293.626 Y174.4065 I3.1507 J-7.9566
G3 X-292.6483 Y174.2295 I1.1136 J3.3623
G3 X-291.6569 Y174.2983 I0.1598 J4.8772
G3 X-291.0087 Y174.4335 I-1.4119 J8.3928
G3 X-290.1601 Y174.6668 I-5.7778 J22.6752
G1 X-289.678 Y174.8068
G2 X-289.1251 Y174.9557 I3.6765 J-12.5452
G2 X-288.8279 Y175.0248 I6.4171 J-26.9206
G1 X-288.7521 Y175.0408
G1 X-288.6748 Y175.0562
G2 X-288.3438 Y175.1121 I2.1187 J-11.5558
G2 X-287.5772 Y175.1585 I0.6541 J-4.4433
G2 X-286.7048 Y175.0164 I-0.072 J-3.19
G2 X-287.7706 Y174.4781 I-7.1578 J12.8454
G2 X-287.9258 Y174.4073 I-7.2943 J15.8023
G2 X-289.183 Y173.8768 I-13.0523 J29.1761
G1 X-289.5452 Y173.7327
G1 X-290.5123 Y173.352
G3 X-291.0635 Y173.1309 I39.1064 J-98.3052
G3 X-291.282 Y173.021 I0.4104 J-1.0881
G3 X-291.3424 Y172.9656 I0.1212 J-0.1925
G3 X-291.3578 Y172.9198 I0.0553 J-0.0441
G3 X-291.322 Y172.8663 I0.0765 J0.0125
G3 X-291.1718 Y172.8061 I0.2368 J0.3732
G3 X-290.8329 Y172.7571 I0.4708 J2.0593
G1 X-285.894 Y174.0513
G3 X-285.7634 Y174.4225 I-3.3094 J1.3722
G3 X-285.6601 Y174.8021 I-6.0535 J1.8527
G3 X-285.601 Y175.0576 I-99.8171 J23.2139
G3 X-285.5699 Y175.2043 I-2.3685 J0.5779
G1 X-285.5365 Y175.3723
G3 X-285.3268 Y176.7245 I-20.4092 J3.8578
G1 X-285.3159 Y176.8122
G1 X-285.2696 Y177.2131
G1 X-285.2584 Y177.3167
G1 X-285.2473 Y177.4237
G1 X-285.201 Y177.9128
G1 X-285.18 Y178.174
G3 X-285.3998 Y178.8547 I-1.5853 J-0.1361
G3 X-285.8855 Y179.3798 I-1.6004 J-0.9932
G3 X-286.2914 Y179.6302 I-1.6225 J-2.1762
G3 X-286.8752 Y179.8673 I-1.7757 J-3.5351
G1 X-287.0357 Y179.916
G3 X-287.8981 Y180.097 I-1.8164 J-6.5079
G1 X-288.1304 Y180.1275
G1 X-288.378 Y180.1531
G3 X-289.6803 Y180.1918 I-1.0008 J-11.7668
G1 X-289.8481 Y180.1866
G3 X-291.5962 Y180.0154 I0.5309 J-14.4281
G3 X-291.7062 Y179.9976 I0.4281 J-2.9939
G3 X-292.6977 Y179.7969 I2.0063 J-12.4599
G3 X-293.799 Y179.4712 I2.5516 J-10.6543
G3 X-294.0759 Y179.3658 I2.0471 J-5.7944
G1 X-294.1104 Y179.3518
G3 X-294.6833 Y179.0813 I2.3128 J-5.6405
G3 X-294.963 Y178.911 I1.4565 J-2.7071
G3 X-295.2304 Y178.7019 I1.1508 J-1.7462
G3 X-295.4596 Y178.4306 I0.897 J-0.9903
G3 X-295.0334 Y178.1611 I0.9374 J1.0108
G3 X-294.5403 Y178.0556 I0.5836 J1.5232
G3 X-294.2041 Y178.06 I0.1413 J2.0794
G3 X-293.7632 Y178.1237 I-0.3199 J3.7699
G3 X-293.1916 Y178.2638 I-1.8694 J8.862
G1 X-293.041 Y178.3066
G1 X-292.2494 Y178.5386
G2 X-292.0378 Y178.5964 I2.4484 J-8.5454
G1 X-291.8113 Y178.6535
G2 X-291.2901 Y178.7576 I1.6129 J-6.7186
G2 X-290.6862 Y178.8095 I0.6365 J-3.8667
G2 X-289.9953 Y178.7367 I0.0387 J-2.9478
G2 X-289.2523 Y178.4306 I-0.5549 J-2.4017
G2 X-289.759 Y178.0569 I-1.6515 J1.7086
G2 X-290.3319 Y177.7959 I-1.9584 J3.5404
G2 X-290.7302 Y177.6645 I-2.1676 J5.8998
G2 X-290.9608 Y177.5998 I-1.8953 J6.3118
G2 X-291.0845 Y177.5676 I-0.6943 J2.4149
G1 X-291.3678 Y177.4989
G1 X-291.6926 Y177.4261
G1 X-291.866 Y177.3887
G1 X-292.262 Y177.304
G3 X-292.713 Y177.2031 I2.7812 J-13.483
G1 X-292.9523 Y177.1447
G1 X-293.2062 Y177.0772
G3 X-293.777 Y176.8923 I2.0722 J-7.3733
G3 X-294.3987 Y176.6005 I1.3802 J-3.7479
G3 X-295.0147 Y176.1027 I1.2312 J-2.1536
G3 X-295.4596 Y175.2861 I1.5765 J-1.3884
G0 Z5.0
G0 X-285.894 Y181.59
G1 Z0.0
G2 X-285.3066 Y181.3353 I-2.3203 J-6.1542
G2 X-285.1161 Y181.2388 I-1.6213 J-3.4371
G2 X-285.0087 Y181.1809 I-1.0732 J-2.121
G2 X-284.1954 Y180.6429 I-2.7871 J-5.0975
G2 X-282.9148 Y179.1793 I-3.3648 J-4.236
G2 X-282.3443 Y178.0118 I-6.864 J-4.0771
G1 X-282.3138 Y177.935
G2 X-282.0546 Y177.2283 I-14.3907 J-5.6786
G1 X-281.9911 Y177.0449
G1 X-281.9258 Y176.8556
G3 X-273.5657 Y178.3785 I-103.4226 J591.4608
G3 X-273.2964 Y178.4297 I-2.8108 J15.5198
G3 X-273.0184 Y178.4827 I-3.2151 J17.6227
G3 X-272.7315 Y178.5375 I-3.8222 J20.7744
G3 X-271.4204 Y178.7901 I-55.0808 J289.4358
G3 X-267.9269 Y179.4792 I-115.2853 J593.669
G1 X-265.9327 Y179.8832
G3 X-250.0407 Y183.4027 I-97.6187 J478.423
G1 X-249.0198 Y183.6486
G3 X-244.3602 Y184.8049 I-113.933 J469.1229
G1 X-244.0671 Y184.8795
G1 X-243.7717 Y184.955
G1 X-243.1719 Y185.109
G1 X-241.9343 Y185.43
G1 X-242.0107 Y185.4319
G1 X-242.0873 Y185.433
G1 X-242.2403 Y185.4331
G1 X-242.3423 Y185.4317
G1 X-242.4783 Y185.4283
G1 X-242.6595 Y185.4214
G1 X-242.901 Y185.4085
G3 X-243.8644 Y185.3269 I1.8645 J-27.7246
G3 X-244.5049 Y185.254 I2.3046 J-23.0935
G1 X-244.8703 Y185.2076
G1 X-245.065 Y185.1817
G1 X-245.2727 Y185.1533
G3 X-248.5804 Y184.6242 I13.7027 J-96.2691
G1 X-249.5226 Y184.4566
G1 X-250.5983 Y184.2599
G1 X-251.8267 Y184.0299
G1 X-253.2295 Y183.7626
G1 X-256.9676 Y183.0397
G1 X-259.1037 Y182.6283
G1 X-260.2434 Y182.4114
G1 X-261.4596 Y182.1832
G1 X-262.7578 Y181.9442
G1 X-264.1435 Y181.6959
G1 X-264.8594 Y181.571
G2 X-268.1382 Y181.0385 I-25.0893 J144.1136
G1 X-268.9864 Y180.9146
G2 X-269.2004 Y180.8846 I-1.2068 J7.81
G1 X-269.6352 Y180.825
G1 X-270.0772 Y180.7669
G1 X-270.5267 Y180.7104
G2 X-267.4267 Y181.8461 I26.6409 J-67.9178
G2 X-266.3833 Y182.1962 I22.8663 J-66.4244
G1 X-265.7851 Y182.3904
G2 X-260.9599 Y183.8121 I33.2229 J-103.8602
G2 X-260.8834 Y183.8328 I0.4768 J-1.6074
G2 X-260.8062 Y183.8537 I0.4797 J-1.6208
G2 X-260.7285 Y183.8747 I0.4826 J-1.6344
G2 X-260.6501 Y183.8958 I0.4856 J-1.6483
G2 X-260.5712 Y183.917 I0.4887 J-1.6624
G2 X-260.4915 Y183.9383 I0.4918 J-1.6768
G2 X-260.4113 Y183.9597 I0.4949 J-1.6914
G2 X-260.3304 Y183.9813 I0.4981 J-1.7063
G2 X-260.2488 Y184.003 I0.5014 J-1.7214
G2 X-260.1666 Y184.0248 I0.5047 J-1.7369
G2 X-260.0837 Y184.0467 I0.508 J-1.7526
G2 X-260.0002 Y184.0688 I0.5115 J-1.7687
G2 X-259.9159 Y184.0909 I0.515 J-1.7851
G2 X-259.8311 Y184.1132 I0.5185 J-1.8017
G2 X-259.7455 Y184.1356 I0.5222 J-1.8187
G2 X-256.085 Y185.0471 I39.6225 J-151.3305
G2 X-251.1798 Y186.1562 I54.0151 J-227.4793
G1 X-250.5455 Y186.293
G1 X-249.1917 Y186.5812
G1 X-248.8477 Y186.6538
G1 X-248.1373 Y186.8029
G1 X-247.4039 Y186.9559
G1 X-245.839 Y187.2801
G1 X-244.1695 Y187.6243
G3 X-244.5385 Y188.5844 I-9.8651 J-3.2397
G3 X-244.9948 Y189.5061 I-10.489 J-4.6186
G3 X-245.3505 Y190.0926 I-6.6219 J-3.6161
G3 X-245.582 Y190.4092 I-4.1118 J-2.7632
G1 X-245.5976 Y190.4284
G3 X-252.7221 Y189.1132 I50.2987 J-292.4256
G1 X-253.7375 Y188.9124
G3 X-261.8407 Y187.2111 I85.4825 J-427.2935
G1 X-262.3624 Y187.0963
G1 X-262.9008 Y186.9772
G3 X-265.3606 Y186.4265 I113.0483 J-510.6757
G1 X-265.6729 Y186.3558
G1 X-265.99 Y186.2839
G1 X-267.3427 Y185.9752
G1 X-267.6862 Y185.8964
G1 X-268.0351 Y185.8162
G1 X-268.3894 Y185.7345
G1 X-269.901 Y185.3843
G1 X-270.6809 Y185.2025
G1 X-272.3441 Y184.8126
G1 X-274.1176 Y184.3941
G1 X-278.1696 Y183.4306
G1 X-282.7994 Y182.3254
G1 X-285.269 Y181.738
G1 X-285.5803 Y181.6643
G1 X-285.894 Y181.59
G0 Z5.0
G0 X-315.6058 Y163.6305
G1 Z0.0
G3 X-317.6989 Y163.2755 I16.0161 J-100.7818
G3 X-317.7664 Y163.2636 I0.1928 J-1.2923
G1 X-318.4859 Y163.1371
G1 X-319.4459 Y162.9721
G1 X-319.9951 Y162.8817
G1 X-320.6235 Y162.7836
G2 X-322.3051 Y162.5598 I-6.7014 J43.923
G1 X-322.5228 Y162.5359
G2 X-322.9874 Y162.4895 I-2.9355 J27.0373
G2 X-324.0519 Y162.4087 I-2.5346 J26.3445
G3 X-326.1643 Y160.9087 I7.6699 J-13.0381
G3 X-327.9678 Y159.0487 I8.4388 J-9.9867
G3 X-328.9359 Y157.6154 I9.2552 J-7.2948
G3 X-329.8463 Y155.4949 I8.7898 J-5.0294
G1 X-328.4292 Y155.1398
G1 X-315.6058 Y163.6305
G0 Z5.0
M5
M30
