( Made using CamBam - http://www.cambam.co.uk )
( _2014_1_20_car 1/20/2014 11:54:23 PM )
( T0 : 0.0 )
G21 G90 G64 G40
G0 Z5.0
( T0 : 0.0 )
T0 M6
( 62-94 )
G17
M3 S1000
G0 X-166.1242 Y175.9816
G1 F1.0 Z0.0
G1 X-165.567 Y176.0249
G1 X-165.3812 Y176.04
G1 X-164.6386 Y176.1042
G1 X-164.4266 Y176.1237
G1 X-163.8614 Y176.1782
G1 X-163.5385 Y176.2111
G3 X-160.9619 Y176.5272 I-6.4396 J63.1539
G3 X-160.8803 Y176.5389 I-0.1438 J1.2907
G3 X-160.7974 Y176.5509 I-0.1487 J1.3166
G3 X-159.0343 Y176.8366 I-6.9374 J48.3914
G3 X-156.7013 Y177.3153 I-8.6214 J47.9453
G1 X-156.4022 Y177.3862
G1 X-156.0941 Y177.4617
G1 X-155.7767 Y177.5422
G1 X-155.4497 Y177.6282
G1 X-155.113 Y177.7199
G1 X-154.7663 Y177.818
G3 X-153.1949 Y178.3122 I-9.1012 J31.6857
G1 X-152.9972 Y178.3806
G3 X-151.2125 Y179.0704 I-9.4924 J27.2131
G3 X-149.2381 Y180.0139 I-10.0211 J23.5073
G3 X-147.1011 Y181.3203 I-10.0075 J18.7707
G3 X-150.4148 Y180.5466 I20.3262 J-94.5301
G1 X-150.8861 Y180.4273
G3 X-154.6395 Y179.4103 I35.2612 J-137.5851
G1 X-155.1381 Y179.2678
G1 X-155.6695 Y179.1143
G1 X-156.2359 Y178.9491
G1 X-156.8396 Y178.7715
G1 X-157.4832 Y178.5804
G1 X-158.9526 Y178.1393
G1 X-159.7357 Y177.9023
G1 X-160.5709 Y177.6486
G2 X-162.4797 Y177.0687 I-295.5386 J969.3112
G2 X-164.6629 Y176.4122 I-85.8707 J281.605
G2 X-165.829 Y176.0678 I-36.416 J121.1671
G2 X-165.976 Y176.0248 I-1.8256 J5.9692
G2 X-166.1242 Y175.9816 I-1.796 J5.8801
G0 Z5.0
G0 X-165.9399 Y172.9298
G1 Z0.0
G3 X-166.0405 Y172.9227 I0.2986 J-4.9428
G3 X-166.9973 Y172.735 I0.311 J-4.1181
G3 X-168.1523 Y172.1275 I1.2106 J-3.7032
G3 X-168.7134 Y171.6309 I2.8862 J-3.8266
G3 X-169.2716 Y170.9838 I5.24 J-5.0847
G3 X-169.5419 Y170.618 I8.9154 J-6.8689
G3 X-170.1159 Y169.7617 I22.4327 J-15.6581
G1 X-170.4137 Y169.303
G2 X-170.5689 Y169.0682 I-40.1757 J26.3865
G2 X-170.7317 Y168.8285 I-11.0165 J7.3085
G2 X-170.9039 Y168.585 I-6.9922 J4.7636
G2 X-171.2918 Y168.0854 I-8.11 J5.8963
G2 X-171.7507 Y167.5957 I-4.8701 J4.1029
G1 X-171.8768 Y167.4809
G2 X-172.1505 Y167.2603 I-2.4247 J2.7282
G2 X-173.639 Y166.6306 I-2.0118 J2.6813
G2 X-174.5184 Y166.5909 I-0.6257 J4.1027
G2 X-175.4564 Y166.7302 I0.3476 J5.5684
G2 X-175.5729 Y166.758 I0.3738 J1.8233
G2 X-175.6898 Y166.788 I0.4595 J2.0352
G2 X-176.9502 Y165.2427 I-3.8033 J1.8155
G2 X-177.509 Y164.8729 I-2.8787 J3.7423
G2 X-178.3116 Y164.4847 I-3.237 J5.67
G2 X-179.4313 Y164.102 I-4.1572 J10.3326
G2 X-179.5035 Y164.0811 I-0.2683 J0.7941
G1 X-179.812 Y163.9955
G1 X-180.1416 Y163.9085
G1 X-180.4933 Y163.819
G1 X-181.2943 Y163.6158
G1 X-181.719 Y163.5014
G3 X-182.6735 Y163.1985 I3.6361 J-13.1126
G3 X-183.7113 Y162.7212 I2.1684 J-6.0819
G3 X-184.218 Y162.3792 I2.2324 J-3.8534
G3 X-184.4589 Y162.174 I2.2406 J-2.8737
G3 X-185.3094 Y160.9748 I2.4104 J-2.6107
G3 X-185.5603 Y160.2163 I4.05 J-1.7605
G3 X-185.0503 Y160.3259 I-0.7043 J4.5198
G3 X-184.5553 Y160.4905 I-1.6667 J5.8403
G1 X-184.4166 Y160.545
G1 X-184.2594 Y160.6105
G3 X-183.8459 Y160.7977 I-3.655 J8.6194
G1 X-183.6123 Y160.9104
G1 X-183.3466 Y161.0415
G1 X-183.0432 Y161.1914
G2 X-182.2219 Y161.5633 I4.9659 J-9.8746
G2 X-181.7342 Y161.7304 I1.9775 J-4.975
G2 X-181.1539 Y161.8416 I0.9056 J-3.157
G2 X-180.4726 Y161.8044 I0.2211 J-2.2073
G3 X-180.7712 Y161.5519 I1.2682 J-1.8025
G3 X-181.012 Y161.2437 I1.1692 J-1.1617
G3 X-181.206 Y160.4903 I1.1651 J-0.7018
G3 X-181.1083 Y159.9766 I1.8533 J0.0865
G3 X-180.803 Y159.3598 I2.6854 J0.945
G3 X-180.2407 Y158.6666 I3.5998 J2.3459
G3 X-179.3531 Y157.944 I3.6625 J3.5918
G1 X-177.8283 Y158.909
G3 X-177.7905 Y159.1701 I-0.4988 J0.2053
G3 X-177.8767 Y159.4194 I-0.628 J-0.0775
G3 X-177.9772 Y159.5636 I-1.2971 J-0.7973
G3 X-178.1338 Y159.7342 I-2.2307 J-1.8898
G3 X-178.3554 Y159.9416 I-3.3008 J-3.3048
G2 X-178.6427 Y160.2163 I3.0878 J3.5168
G1 X-178.7613 Y160.4119
G1 X-178.7778 Y160.4402
G1 X-178.7966 Y160.4725
G2 X-178.9402 Y160.7346 I4.7978 J2.7981
G2 X-179.1765 Y161.2834 I3.4097 J1.7937
G2 X-179.2727 Y161.6706 I2.3779 J0.7963
G2 X-179.2792 Y162.2044 I1.7798 J0.2887
G2 X-179.0321 Y162.8776 I1.7849 J-0.2733
G2 X-178.926 Y163.0382 I1.5668 J-0.9193
G2 X-178.6427 Y163.3738 I2.6798 J-1.9751
G1 X-178.5242 Y163.366
G1 X-178.5072 Y163.3644
G2 X-178.4621 Y163.3597 I-0.0223 J-0.4283
G2 X-178.2833 Y163.3309 I-0.2114 J-1.883
G2 X-177.9433 Y163.2068 I-0.2198 J-1.1305
G2 X-177.7551 Y163.0532 I-0.3685 J-0.6436
G2 X-177.6015 Y162.765 I-0.5737 J-0.4908
G2 X-177.5408 Y162.3368 I-1.7083 J-0.4604
G1 X-177.5353 Y162.0925
G1 X-177.533 Y161.9632
G1 X-177.5275 Y161.8266
G3 X-177.4892 Y161.5227 I2.0331 J0.1023
G1 X-177.4803 Y161.4849
G3 X-177.3347 Y161.1654 I0.8672 J0.2022
G3 X-177.0163 Y160.9097 I0.6735 J0.5125
G3 X-176.8092 Y160.8318 I0.5687 J1.1981
G1 X-176.6813 Y160.8284
G1 X-176.5532 Y160.8262
G3 X-176.4678 Y160.8255 I0.0585 J1.7646
G3 X-176.1264 Y160.8289 I0.0892 J8.0705
G3 X-176.0808 Y160.8303 I0.0063 J0.5551
G3 X-175.3551 Y160.8923 I-0.1239 J5.7224
G3 X-174.8817 Y161.0038 I-0.3844 J2.6934
G3 X-174.6269 Y161.1175 I-0.4851 J1.4293
G3 X-174.3824 Y161.3296 I-0.3866 J0.6927
G3 X-174.263 Y161.7008 I-0.5238 J0.3733
G3 X-174.2814 Y161.916 I-1.0359 J0.0196
G3 X-174.3394 Y162.1419 I-1.6414 J-0.3009
G3 X-174.4263 Y162.375 I-4.0051 J-1.3613
G3 X-174.658 Y162.8655 I-6.7834 J-2.9037
G1 X-174.9272 Y163.3929
G2 X-175.1951 Y163.9939 I5.6969 J2.8997
G2 X-175.2506 Y164.1523 I2.0102 J0.7932
G1 X-175.2756 Y164.2331
G2 X-175.3506 Y164.5731 I1.9768 J0.6145
G2 X-175.3622 Y164.9318 I1.6978 J0.2346
G2 X-175.0464 Y165.6592 I1.2299 J-0.1017
G1 X-172.7368 Y163.9837
G3 X-171.851 Y163.8416 I1.6184 J7.2529
G3 X-170.954 Y163.8295 I0.5218 J5.4227
G3 X-169.2304 Y164.3104 I-0.2892 J4.365
G3 X-168.2393 Y164.9845 I-2.4799 J4.7116
G3 X-167.739 Y165.4521 I-4.7659 J5.6016
G3 X-167.2136 Y166.0282 I-8.7089 J8.4704
G3 X-166.653 Y166.7143 I-16.5256 J14.0747
G1 X-166.3624 Y167.085
G2 X-166.054 Y167.4793 I38.8099 J-30.0435
G2 X-165.3343 Y168.3558 I17.9884 J-14.0369
G2 X-164.4342 Y169.2736 I7.5579 J-6.5114
G1 X-164.3107 Y169.3804
G2 X-164.1829 Y169.4858 I3.2843 J-3.85
G2 X-163.9112 Y169.6932 I4.2099 J-5.2349
G2 X-163.8409 Y169.7431 I0.5999 J-0.7697
G2 X-163.2132 Y170.1249 I3.1385 J-4.453
G2 X-162.87 Y170.2876 I3.0272 J-5.9415
G1 X-162.1559 Y169.6777
G2 X-161.3119 Y169.7105 I0.544 J-3.1175
G2 X-160.495 Y169.4948 I-0.2718 J-2.6841
G2 X-160.0011 Y169.2219 I-1.3062 J-2.9474
G2 X-159.4147 Y168.7546 I-2.8992 J-4.2398
G2 X-159.1066 Y168.4585 I-6.4589 J-7.0287
G2 X-158.9468 Y168.2966 I-4.5942 J-4.6935
G1 X-158.7782 Y168.123
G3 X-158.3916 Y167.7316 I10.9166 J10.3961
G3 X-158.2894 Y167.6333 I4.3782 J4.4506
G3 X-157.7972 Y167.217 I3.4746 J3.6086
G3 X-157.1528 Y166.8596 I1.6386 J2.195
G3 X-156.3081 Y166.7255 I0.7481 J1.9845
G3 X-155.8484 Y166.788 I-0.1523 J2.8445
G3 X-154.8598 Y166.9871 I-1.3683 J9.3477
G1 X-154.721 Y167.026
G3 X-153.6627 Y167.4819 I-1.2444 J4.3454
G3 X-153.035 Y167.928 I-2.8851 J4.7236
G3 X-152.2789 Y168.6194 I-7.0823 J8.5041
G3 X-152.1852 Y168.7126 I-2.5637 J2.6722
G3 X-151.8406 Y169.0631 I-3.0482 J3.3411
G3 X-151.5469 Y169.4572 I-2.3128 J2.0303
G3 X-151.4006 Y169.7511 I-1.6229 J0.9909
G3 X-151.3117 Y170.1817 I-1.1577 J0.4636
G3 X-151.4436 Y170.7593 I-1.2561 J0.0172
G3 X-151.5188 Y170.9 I-1.4023 J-0.6592
G3 X-151.7271 Y171.1974 I-2.4184 J-1.4724
G3 X-151.8516 Y171.3447 I-1.8292 J-1.4207
G1 X-151.9182 Y171.4183
G3 X-152.2317 Y171.7377 I-6.5226 J-6.0868
G3 X-152.4019 Y171.9022 I-4.3011 J-4.283
G1 X-152.4897 Y171.9864
G2 X-152.6742 Y172.1651 I4.4705 J4.8011
G2 X-152.7206 Y172.2108 I0.7725 J0.8307
G2 X-153.1183 Y172.632 I5.9393 J6.0057
G2 X-153.4968 Y173.154 I2.5338 J2.2356
G2 X-153.7526 Y173.8332 I1.7653 J1.0525
G2 X-153.7099 Y174.6688 I1.8945 J0.3222
G2 X-154.0035 Y174.5835 I-3.6834 J12.1353
G2 X-154.3001 Y174.5095 I-1.5259 J5.4838
G1 X-154.4987 Y174.464
G3 X-155.293 Y174.2813 I5.4844 J-25.658
G1 X-155.3981 Y174.2535
G1 X-155.5097 Y174.2222
G1 X-155.6282 Y174.1866
G3 X-156.2422 Y173.9445 I1.32 J-4.2477
G3 X-156.9678 Y173.4396 I1.2978 J-2.639
G3 X-157.3309 Y173.8495 I-1.5696 J-1.0246
G3 X-157.8183 Y174.099 I-0.7965 J-0.9551
G3 X-158.1838 Y174.1373 I-0.3227 J-1.3157
G3 X-158.6653 Y174.0604 I0.0788 J-2.04
G3 X-159.2659 Y173.8424 I1.2641 J-4.4192
G1 X-159.4214 Y173.7748
G1 X-159.7717 Y173.6208
G1 X-159.9593 Y173.544
G1 X-160.057 Y173.5076
G2 X-160.2684 Y173.4423 I-0.6828 J1.8364
G2 X-160.5005 Y173.4036 I-0.342 J1.3331
G2 X-160.7528 Y173.429 I-0.0554 J0.7138
G2 X-160.9938 Y173.5789 I0.1661 J0.5359
G2 X-161.1675 Y173.8526 I0.6648 J0.6137
G2 X-161.2739 Y174.1945 I1.9467 J0.7939
G2 X-161.3351 Y174.572 I3.4045 J0.7456
G1 X-161.3451 Y174.6688
G3 X-161.9744 Y174.4147 I1.4824 J-4.5782
G3 X-162.5548 Y174.0631 I1.5877 J-3.2749
G3 X-162.7056 Y173.9406 I2.5735 J-3.3245
G3 X-163.0488 Y173.5514 I1.212 J-1.4144
G3 X-163.2493 Y172.8796 I0.9869 J-0.6604
G3 X-163.1751 Y172.4744 I1.2662 J0.0226
G3 X-163.6975 Y172.6369 I-3.0775 J-8.9761
G3 X-164.2279 Y172.7709 I-2.2265 J-7.6942
G3 X-165.3104 Y172.9277 I-1.5172 J-6.6572
G3 X-165.9399 Y172.9298 I-0.331 J-4.9407
G0 Z5.0
G0 X-163.0783 Y168.1849
G1 Z0.0
G3 X-163.4559 Y167.7763 I0.5161 J-0.8557
G3 X-163.5804 Y167.3997 I1.2629 J-0.6263
G3 X-163.1994 Y167.2741 I0.6656 J1.3777
G3 X-162.8003 Y167.2329 I0.435 J2.259
G3 X-162.0122 Y167.3551 I0.032 J2.3957
G3 X-161.5324 Y167.5872 I-0.6247 J1.9028
G3 X-161.0402 Y168.1027 I-0.848 J1.3026
G3 X-161.3463 Y168.2087 I-1.358 J-3.4252
G3 X-161.6598 Y168.2903 I-1.0173 J-3.268
G3 X-162.3024 Y168.367 I-0.6789 J-2.9552
G3 X-162.7328 Y168.3217 I-0.0308 J-1.7753
G3 X-162.9685 Y168.2422 I0.2512 J-1.1333
G3 X-163.0783 Y168.1849 I0.4063 J-0.913
G0 Z5.0
G0 X-162.6312 Y165.6742
G1 Z0.0
G3 X-163.362 Y165.54 I12.111 J-68.0192
G3 X-164.5023 Y165.2888 I3.8989 J-20.4135
G1 X-164.6483 Y165.2513
G1 X-164.7986 Y165.2111
G3 X-165.4794 Y165.0054 I2.7583 J-10.3607
G1 X-165.565 Y164.9764
G3 X-166.3352 Y164.6761 I3.0996 J-9.0868
G1 X-166.431 Y164.633
G1 X-166.5277 Y164.588
G3 X-167.3817 Y164.1124 I2.9314 J-6.2673
G3 X-168.2594 Y163.4131 I3.2257 J-4.95
G3 X-169.0735 Y162.4087 I3.7151 J-3.8432
G2 X-169.2246 Y162.2581 I-0.5307 J0.3814
G2 X-169.4143 Y162.1604 I-0.463 J0.6656
G2 X-169.8282 Y162.0794 I-0.4988 J1.4514
G1 X-169.8844 Y162.0756
G2 X-170.1821 Y162.07 I-0.2087 J3.1544
G1 X-170.5754 Y162.0794
G3 X-171.095 Y162.067 I-0.1681 J-3.8392
G3 X-171.3846 Y161.999 I0.1049 J-1.0976
G3 X-171.6439 Y161.7581 I0.1585 J-0.4306
G3 X-171.6882 Y161.5592 I0.5378 J-0.2243
G3 X-171.675 Y161.3337 I1.1532 J-0.0454
G3 X-171.621 Y161.0959 I2.0712 J0.345
G1 X-166.8383 Y162.4087
G2 X-165.219 Y162.7875 I18.9011 J-77.1517
G1 X-163.5963 Y163.1516
G1 X-162.515 Y163.3967
G1 X-161.8979 Y163.5404
G1 X-161.194 Y163.7098
G3 X-161.0126 Y163.7547 I-4.8457 J19.9877
G3 X-160.1851 Y163.9671 I-12.1709 J49.122
G1 X-160.0803 Y163.9951
G1 X-159.6339 Y164.1174
G1 X-159.1594 Y164.2539
G3 X-158.0836 Y164.5956 I-6.9904 J23.8766
G1 X-159.9171 Y166.1706
G2 X-161.2328 Y165.9131 I-5.4798 J24.5079
G1 X-161.4215 Y165.8805
G1 X-161.6374 Y165.8437
G3 X-162.6312 Y165.6742 I11.1172 J-68.1887
G0 Z5.0
G0 X-161.98 Y161.3911
G1 Z0.0
G3 X-166.8676 Y160.3534 I6.4443 J-42.382
G1 X-167.1795 Y160.2674
G3 X-170.4683 Y159.2252 I13.8755 J-49.4967
G1 X-170.8875 Y159.0752
G3 X-175.2817 Y157.2846 I21.108 J-58.086
G1 X-175.8389 Y157.0305
G1 X-176.4118 Y156.7634
G1 X-177.0007 Y156.4827
G3 X-179.6617 Y155.1398 I37.3876 J-77.3956
G2 X-178.6454 Y155.4251 I14.7416 J-50.5594
G2 X-178.3056 Y155.5165 I7.2255 J-26.1803
G2 X-178.2149 Y155.5406 I0.4216 J-1.4044
G2 X-178.1181 Y155.5662 I0.4373 J-1.4591
G2 X-178.0147 Y155.5934 I0.4537 J-1.5169
G1 X-177.4634 Y155.7356
G1 X-177.1478 Y155.8152
G1 X-176.3052 Y156.0221
G1 X-175.8229 Y156.1371
G1 X-175.2712 Y156.2663
G1 X-174.6399 Y156.4113
G1 X-173.918 Y156.5742
G2 X-173.0923 Y156.7579 I35.4736 J-157.4951
G2 X-172.9874 Y156.7811 I0.7356 J-3.0776
G2 X-172.8808 Y156.8047 I0.7653 J-3.2113
G2 X-172.7725 Y156.8286 I0.7987 J-3.3618
G1 X-170.4635 Y157.3381
G3 X-167.3922 Y158.0501 I-30.6144 J139.0539
G1 X-166.5764 Y158.2534
G1 X-166.3696 Y158.3063
G3 X-164.4854 Y158.8177 I-15.1725 J59.628
G1 X-164.0018 Y158.959
G3 X-163.5039 Y159.1096 I-5.8937 J20.3865
G1 X-162.9915 Y159.2704
G3 X-160.6749 Y160.0844 I-12.9131 J40.4524
G3 X-160.3845 Y160.1982 I-4.7532 J12.5549
G3 X-157.7821 Y161.37 I-11.3037 J28.5804
G3 X-157.1305 Y161.7146 I-12.3297 J24.1027
G1 X-156.9678 Y161.8044
G3 X-161.3429 Y161.4817 I0.4637 J-36.1025
G3 X-161.9638 Y161.3936 I7.9391 J-58.2084
G3 X-161.98 Y161.3911 I6.4282 J-42.3845
G0 Z5.0
G0 X-160.8793 Y157.707
G1 Z0.0
G2 X-164.3375 Y156.7244 I-38.1522 J127.702
G2 X-165.6113 Y156.3832 I-32.7683 J119.7998
G2 X-165.6916 Y156.362 I-0.3583 J1.1939
G2 X-165.7726 Y156.3407 I-0.3667 J1.2266
G1 X-166.4637 Y156.1598
G1 X-167.2015 Y155.9693
G2 X-171.1451 Y154.989 I-68.0395 J265.2886
G1 X-171.2696 Y154.9589
G1 X-171.395 Y154.9287
G1 X-171.6498 Y154.8675
G1 X-172.7376 Y154.6085
G1 X-173.8987 Y154.3359
G1 X-174.4983 Y154.1965
G1 X-175.7781 Y153.9024
G2 X-182.6158 Y152.3924 I-125.5044 J552.1053
G3 X-183.0499 Y152.2965 I4.8443 J-22.9648
G3 X-183.2939 Y152.236 I0.9337 J-4.285
G1 X-183.3746 Y152.2133
G3 X-183.4816 Y152.1807 I0.5097 J-1.8645
G3 X-183.898 Y152.0179 I0.9725 J-3.1023
G3 X-184.0118 Y151.9598 I1.6479 J-3.3653
G3 X-184.2969 Y151.7724 I0.8942 J-1.6708
G3 X-184.6087 Y151.4393 I0.9619 J-1.213
G3 X-184.8398 Y150.872 I1.2499 J-0.8397
G3 X-184.8765 Y150.5217 I2.0985 J-0.397
G3 X-184.8562 Y150.1212 I2.6577 J-0.0661
G3 X-184.8499 Y150.0706 I0.4704 J0.033
G2 X-185.1031 Y149.3598 I-1.9369 J0.2897
G2 X-185.5953 Y148.788 I-1.9357 J1.1684
G2 X-186.0022 Y148.4921 I-2.1501 J2.5287
G2 X-186.5872 Y148.1735 I-3.2606 J5.29
G2 X-187.3924 Y147.8208 I-6.8838 J14.6234
G1 X-187.8539 Y147.6295
G3 X-188.3734 Y147.4002 I7.8634 J-18.5198
G1 X-188.5053 Y147.3368
G3 X-188.6401 Y147.2687 I3.144 J-6.3944
G3 X-189.2273 Y146.9113 I2.0864 J-4.0884
G3 X-188.517 Y146.2804 I10.4004 J10.9939
G3 X-187.7688 Y145.6951 I9.429 J11.283
G3 X-186.1575 Y144.6902 I7.5683 J10.3413
G3 X-182.5524 Y143.5241 I5.2008 J9.9226
G3 X-180.0207 Y143.4238 I1.7642 J12.525
G3 X-178.5803 Y143.5742 I-0.945 J16.0139
G3 X-177.8195 Y143.7049 I-2.3474 J15.952
G1 X-177.4293 Y143.7842
G3 X-175.6711 Y144.2335 I-5.1623 J23.8694
G1 X-174.8238 Y144.4865
G3 X-173.9784 Y144.7464 I-23.5015 J77.9547
G1 X-173.4158 Y144.9229
G1 X-172.667 Y145.162
G3 X-171.6703 Y145.4864 I-30.5897 J95.6709
G3 X-167.6998 Y146.8324 I-75.2414 J228.4739
G1 X-167.1719 Y147.0162
G1 X-165.966 Y147.4388
G1 X-165.3233 Y147.6654
G1 X-165.2423 Y147.694
G3 X-164.5517 Y147.9383 I-38.1696 J108.9839
G1 X-160.8692 Y149.2441
G1 X-160.6352 Y149.3265
G2 X-158.4927 Y150.0706 I61.1394 J-172.5866
G3 X-159.9835 Y150.0031 I0.0384 J-17.3411
G3 X-161.4641 Y149.816 I2.0209 J-21.9419
G1 X-161.8844 Y149.7442
G3 X-162.9993 Y149.5209 I5.4213 J-29.9634
G3 X-164.4734 Y149.1696 I9.8601 J-44.6401
G1 X-164.8648 Y149.0692
G1 X-165.7578 Y148.8343
G1 X-165.8712 Y148.8042
G1 X-165.9863 Y148.7737
G1 X-166.4775 Y148.6436
G2 X-167.6019 Y148.3542 I-16.9031 J63.3356
G1 X-167.745 Y148.3188
G2 X-169.0589 Y148.0193 I-9.0061 J36.4787
G1 X-169.2266 Y147.9852
G2 X-169.9447 Y147.8525 I-3.7387 J18.2244
G1 X-170.1277 Y147.8225
G2 X-170.9117 Y147.7142 I-2.5724 J15.7269
G1 X-171.1116 Y147.6923
G2 X-171.5342 Y147.9577 I-0.0473 J0.3938
G2 X-171.5487 Y148.1358 I0.3101 J0.1148
G2 X-171.3905 Y148.3227 I0.2508 J-0.0519
G2 X-170.0997 Y148.8211 I7.2699 J-16.9067
G2 X-170.0574 Y148.8357 I0.1682 J-0.4171
G2 X-168.6963 Y149.2684 I10.7664 J-31.5096
G2 X-168.6078 Y149.2945 I0.3398 J-0.992
G1 X-168.203 Y149.4111
G2 X-168.0984 Y149.4407 I0.5172 J-1.6305
G2 X-166.9798 Y149.7459 I26.6384 J-95.4078
G2 X-166.3394 Y149.9156 I17.4766 J-64.6691
G1 X-166.258 Y149.9371
G3 X-164.5259 Y150.4053 I-29.7928 J113.6572
G1 X-164.4715 Y150.4207
G3 X-164.0084 Y150.5554 I-11.3901 J40.0345
G3 X-162.9586 Y150.8914 I-7.1051 J24.0072
G1 X-162.6906 Y150.9871
G3 X-161.4947 Y151.5018 I-3.4978 J9.7745
G3 X-160.8955 Y151.8568 I-2.6064 J5.0817
G3 X-160.3262 Y152.3431 I-1.8679 J2.7634
G3 X-162.067 Y152.0198 I6.8358 J-41.6658
G1 X-162.6442 Y151.8964
G1 X-162.7979 Y151.8622
G1 X-162.9616 Y151.8252
G3 X-165.5645 Y151.1631 I11.8244 J-51.927
G1 X-165.9092 Y151.066
G1 X-166.2764 Y150.9605
G1 X-166.6674 Y150.8459
G1 X-167.0839 Y150.7214
G3 X-169.2951 Y150.0268 I28.156 J-93.501
G1 X-169.8826 Y149.8351
G1 X-171.2235 Y149.3912
G1 X-171.9381 Y149.1529
G1 X-173.5721 Y148.6104
G2 X-175.4443 Y148.006 I-39.8901 J120.3816
G2 X-177.5968 Y147.3567 I-26.0425 J82.4282
G2 X-180.0807 Y146.699 I-17.1951 J59.9218
G1 X-180.3982 Y146.6236
G2 X-183.3251 Y146.0391 I-9.9221 J42.0653
G2 X-183.793 Y146.4916 I1.8718 J2.4037
G2 X-184.155 Y147.0325 I2.1334 J1.8194
G2 X-184.3085 Y147.4396 I1.9187 J0.9562
G2 X-184.3523 Y148.0202 I1.612 J0.4136
G2 X-184.0922 Y148.757 I1.7595 J-0.2068
G2 X-183.8237 Y149.1166 I2.1498 J-1.3256
G1 X-183.7453 Y149.2017
G2 X-183.3567 Y149.5534 I2.8617 J-2.7715
G1 X-183.2498 Y149.6358
G2 X-183.0164 Y149.801 I2.8088 J-3.7213
G1 X-180.6823 Y150.3827
G1 X-178.3491 Y150.9683
G1 X-176.7939 Y151.36
G1 X-174.7205 Y151.8825
G2 X-166.4213 Y153.9505 I284.3827 J-1123.5843
G1 X-165.3132 Y154.2203
G1 X-164.1307 Y154.5058
G1 X-163.8303 Y154.5778
G1 X-163.525 Y154.6509
G1 X-163.2149 Y154.7249
G1 X-161.8912 Y155.0383
G2 X-154.8133 Y156.6323 I82.9019 J-351.6084
G2 X-154.5898 Y156.68 I2.1437 J-9.4976
G2 X-154.3645 Y156.7279 I2.0346 J-9.0167
G3 X-154.5578 Y156.0559 I1.605 J-0.8254
G3 X-154.466 Y155.3627 I1.6979 J-0.128
G3 X-154.2691 Y154.939 I2.205 J0.7673
G3 X-153.9057 Y154.4391 I2.9537 J1.7654
G3 X-153.3284 Y153.8678 I4.1323 J3.598
G1 X-153.2489 Y153.7997
G1 X-153.0772 Y153.6582
G3 X-152.1389 Y152.9761 I8.7151 J11.0014
G1 X-151.8823 Y152.8057
G1 X-151.6082 Y152.6275
G1 X-151.3163 Y152.4398
G1 X-151.166 Y152.3431
G1 X-146.3833 Y153.9125
G2 X-148.6747 Y154.7354 I4.625 J16.4795
G2 X-150.8292 Y155.8695 I7.3816 J16.6366
G2 X-152.1809 Y156.7687 I11.1513 J18.2295
G2 X-152.2646 Y156.8289 I1.1603 J1.7
G1 X-152.6189 Y157.0896
G1 X-152.9922 Y157.3736
G2 X-154.9168 Y158.9666 I25.9566 J33.319
G1 X-155.4169 Y159.4066
G1 X-155.5434 Y159.519
G1 X-155.6518 Y159.4751
G2 X-155.7605 Y159.4316 I-1.0357 J2.4291
G1 X-155.9782 Y159.3458
G1 X-156.0406 Y159.3216
G1 X-156.5407 Y159.1318
G1 X-156.8756 Y159.009
G1 X-157.3234 Y158.8492
G2 X-159.1273 Y158.2464 I-24.6442 J70.7466
G1 X-159.369 Y158.1696
G1 X-159.6271 Y158.0885
G1 X-159.9027 Y158.0028
G2 X-160.8793 Y157.707 I-39.1289 J127.4061
G0 Z5.0
G0 X-154.9233 Y162.8063
G1 Z0.0
G3 X-154.646 Y162.5532 I1.1623 J0.9951
G3 X-154.251 Y162.3296 I1.1638 J1.5955
G3 X-153.7867 Y162.1755 I1.0465 J2.3764
G3 X-153.2735 Y162.0881 I0.9842 J4.2255
G3 X-152.7283 Y162.0598 I0.5522 J5.3854
G1 X-152.5904 Y162.061
G3 X-152.8765 Y161.1361 I2.2683 J-1.2084
G3 X-152.7594 Y160.1751 I2.1923 J-0.2204
G3 X-152.4715 Y159.5945 I2.5771 J0.9161
G3 X-151.9247 Y158.9342 I3.1639 J2.0634
G3 X-151.0462 Y158.2315 I4.1501 J4.2881
G3 X-150.5026 Y157.8992 I5.5007 J8.3866
G3 X-150.205 Y157.7387 I4.7574 J8.4662
G3 X-149.5151 Y157.4116 I5.8341 J11.4136
G1 X-149.4262 Y157.3733
G3 X-149.2422 Y157.2967 I1.6231 J3.6381
G3 X-148.8485 Y157.1434 I5.1791 J12.7135
G3 X-146.755 Y156.5231 I5.8108 J15.7703
G3 X-143.9625 Y156.0871 I4.514 J19.7499
G1 X-143.5996 Y156.059
G3 X-141.9551 Y156.0132 I1.4108 J21.0935
G3 X-141.0824 Y156.0455 I-0.2919 J19.6683
G3 X-139.1197 Y156.282 I-0.9537 J16.181
G3 X-138.6204 Y156.3841 I-1.8158 J10.1495
G3 X-137.5739 Y156.6664 I-2.7184 J12.1586
G3 X-137.046 Y156.8501 I-3.8089 J11.7935
G3 X-136.5128 Y157.07 I-3.0496 J8.1513
G3 X-137.0046 Y157.1995 I-8.4497 J-31.0902
G1 X-137.4965 Y157.3285
G2 X-137.8245 Y157.4144 I6.0813 J23.8733
G1 X-139.1357 Y157.7609
G2 X-141.7469 Y158.4948 I23.2317 J87.6752
G1 X-142.093 Y158.5996
G1 X-142.4615 Y158.7138
G1 X-142.6514 Y158.7738
G1 X-142.8471 Y158.8365
G1 X-143.049 Y158.902
G2 X-145.1797 Y159.6654 I11.5271 J35.5317
G1 X-145.3134 Y159.7184
G1 X-145.4489 Y159.7728
G2 X-145.7278 Y159.8873 I3.6519 J9.2991
G2 X-146.9871 Y160.4481 I10.3084 J24.8395
G2 X-148.386 Y161.1749 I10.1803 J21.3049
G2 X-149.1092 Y161.6046 I8.1981 J14.6196
G2 X-150.6854 Y162.7102 I9.2004 J14.7924
G2 X-151.4711 Y163.3738 I9.2097 J11.7015
G1 X-150.757 Y163.9837
G2 X-150.9071 Y164.3489 I4.9495 J2.2481
G2 X-151.0311 Y164.7237 I8.5928 J3.0523
G1 X-151.1075 Y164.9756
G1 X-151.1514 Y165.1195
G1 X-151.2036 Y165.2832
G3 X-151.3649 Y165.7121 I-4.4059 J-1.4124
G3 X-151.4791 Y165.9481 I-4.0924 J-1.8344
G3 X-151.8839 Y166.5202 I-2.5044 J-1.3426
G3 X-153.3913 Y166.2403 I-0.1065 J-3.6252
G3 X-154.6359 Y165.3451 I1.321 J-3.1495
G3 X-155.1625 Y164.4606 I2.0751 J-1.8345
G3 X-155.2808 Y163.8781 I1.8946 J-0.6881
G3 X-155.166 Y163.1954 I1.5476 J-0.0906
G3 X-154.9233 Y162.8063 I1.405 J0.606
G0 Z5.0
G0 X-148.3965 Y164.7221
G1 Z0.0
G3 X-148.3582 Y164.6173 I0.8188 J0.2404
G3 X-148.2496 Y164.4105 I1.1425 J0.4678
G3 X-147.9206 Y164.0048 I2.0486 J1.3251
G3 X-147.5028 Y163.6305 I3.6956 J3.7052
G3 X-147.0828 Y163.6906 I-1.8169 J14.2011
G1 X-146.943 Y163.7122
G3 X-146.3852 Y163.8061 I-7.5777 J46.6945
G1 X-146.2262 Y163.8352
G1 X-145.8031 Y163.9173
G3 X-144.1245 Y164.3093 I-5.6299 J27.8936
G1 X-143.9024 Y164.3687
G3 X-142.7252 Y164.7107 I-8.2612 J30.6343
G1 X-142.5741 Y164.7577
G3 X-140.9748 Y165.2938 I-14.198 J45.0144
G1 X-140.7697 Y165.3671
G1 X-140.5584 Y165.4436
G3 X-139.5963 Y165.8028 I-25.4171 J69.5395
G1 X-139.3489 Y165.8978
G1 X-139.0937 Y165.9966
G1 X-138.8307 Y166.0994
G1 X-138.2706 Y166.3209
G1 X-137.6742 Y166.5597
G1 X-137.0389 Y166.8162
G1 X-135.5872 Y167.4025
G2 X-135.4026 Y167.4764 I3.5587 J-8.6199
G2 X-135.2151 Y167.5512 I3.1579 J-7.6421
G1 X-134.4135 Y167.8671
G2 X-133.5555 Y168.1959 I20.962 J-53.4241
G2 X-133.4471 Y168.2366 I1.1801 J-2.9801
G2 X-133.3377 Y168.2774 I1.149 J-2.9113
G2 X-131.3246 Y168.9823 I16.996 J-45.3133
G1 X-132.9127 Y169.2109
G3 X-133.2976 Y169.3782 I-3.2174 J-6.877
G1 X-133.4276 Y169.4299
G1 X-133.5023 Y169.4584
G3 X-133.588 Y169.49 I-0.4444 J-1.0735
G3 X-134.2891 Y169.6962 I-1.9253 J-5.2515
G3 X-134.7713 Y169.7698 I-0.7446 J-3.2594
G3 X-135.4224 Y169.7415 I-0.2163 J-2.5221
G3 X-136.2255 Y169.3889 I0.3543 J-1.8984
G3 X-136.6022 Y169.05 I1.6382 J-2.1994
G3 X-136.9742 Y168.6092 I5.0111 J-4.6067
G3 X-137.0193 Y168.5515 I0.5944 J-0.5112
G2 X-137.4317 Y168.0358 I-10.8544 J8.258
G2 X-137.5448 Y167.909 I-2.0687 J1.7311
G2 X-137.8031 Y167.6576 I-2.4576 J2.2659
G2 X-137.8734 Y167.5989 I-0.5805 J0.6241
G2 X-138.6122 Y167.2115 I-1.2955 J1.5721
G2 X-139.0566 Y167.1357 I-0.5771 J2.0437
G2 X-139.7355 Y167.2634 I0.0115 J1.9295
G2 X-140.3425 Y167.5932 I0.9849 J2.5359
G2 X-140.6991 Y167.8844 I2.0325 J2.854
G2 X-141.1201 Y168.3275 I3.5222 J3.7676
G2 X-141.5968 Y168.9823 I4.6608 J3.8941
G3 X-141.707 Y168.49 I2.273 J-0.7674
G3 X-141.7562 Y167.988 I8.2795 J-1.0644
G1 X-141.7684 Y167.8444
G1 X-141.7839 Y167.6804
G1 X-141.7935 Y167.5931
G2 X-141.8732 Y167.1318 I-3.7213 J0.4056
G2 X-141.9547 Y166.8763 I-2.2522 J0.5776
G2 X-142.0995 Y166.6043 I-1.2502 J0.4907
G2 X-142.3496 Y166.3492 I-0.8561 J0.5893
G2 X-142.7274 Y166.1706 I-0.7087 J1.0104
G2 X-142.9598 Y166.2099 I-0.0291 J0.535
G2 X-143.1625 Y166.3301 I0.297 J0.7315
G2 X-143.4442 Y166.698 I0.6462 J0.7867
G2 X-143.5221 Y166.9971 I0.8094 J0.3707
G2 X-143.4303 Y167.3997 I0.6807 J0.0566
G2 X-143.7432 Y167.2419 I-1.1402 J1.8711
G2 X-144.0702 Y167.1157 I-1.6388 J3.7608
G2 X-144.2915 Y167.0412 I-44.0038 J130.3005
G2 X-145.186 Y166.777 I-8.3655 J26.681
G2 X-145.2146 Y166.769 I-0.0756 J0.2142
G1 X-145.822 Y166.597
G1 X-145.9837 Y166.5498
G3 X-146.8377 Y166.274 I4.3722 J-15.0
G3 X-147.0617 Y166.1894 I1.3487 J-3.9128
G3 X-147.1763 Y166.1431 I0.848 J-2.2628
G3 X-147.6863 Y165.8988 I1.8436 J-4.5029
G3 X-147.9416 Y165.7366 I1.2221 J-2.2063
G3 X-148.0647 Y165.6401 I0.8629 J-1.2275
G3 X-148.2927 Y165.3916 I0.779 J-0.9433
G3 X-148.4272 Y165.0439 I0.6441 J-0.449
G3 X-148.3965 Y164.7221 I0.8495 J-0.0815
G0 Z5.0
G0 X-148.2205 Y169.33
G1 Z0.0
G1 X-145.9779
G2 X-145.9128 Y169.7794 I11.4739 J-1.4327
G2 X-145.8342 Y170.2266 I12.9653 J-2.0501
G2 X-145.8228 Y170.2861 I0.5783 J-0.0798
G2 X-145.6182 Y171.233 I25.0129 J-4.9082
G1 X-145.5537 Y171.5022
G1 X-145.4776 Y171.8092
G1 X-145.3884 Y172.1596
G2 X-145.3651 Y172.25 I1.3316 J-0.2951
G2 X-145.341 Y172.3432 I1.4519 J-0.3261
G3 X-145.0822 Y173.337 I-136.0452 J35.9625
G3 X-144.938 Y173.9059 I-24.8723 J6.6068
G3 X-144.6011 Y175.4338 I-24.8785 J6.2874
G3 X-144.464 Y176.3178 I-12.8853 J2.4497
G3 X-144.4157 Y176.7927 I-10.9853 J1.3574
G3 X-144.3916 Y177.885 I-8.9215 J0.7433
G3 X-144.5572 Y179.1279 I-6.7366 J-0.2648
G3 X-145.7379 Y178.0582 I3.1085 J-4.6177
G3 X-146.5649 Y176.6966 I4.5206 J-3.6776
G3 X-146.6058 Y176.6019 I1.5641 J-0.732
G3 X-146.9623 Y175.5647 I7.8888 J-3.2909
G3 X-147.2698 Y174.1414 I14.0237 J-3.7747
G3 X-147.2852 Y174.0501 I1.0195 J-0.2187
G1 X-147.3472 Y173.6611
G3 X-147.476 Y172.773 I130.4133 J-19.3734
G2 X-147.5437 Y172.2999 I-37.7738 J5.1616
G2 X-147.5798 Y172.0562 I-8.8703 J1.1908
G2 X-147.6623 Y171.5381 I-18.7287 J2.7163
G2 X-147.709 Y171.2716 I-11.8135 J1.9333
G2 X-147.8218 Y170.7065 I-16.4959 J2.9975
G1 X-147.8539 Y170.5638
G2 X-148.0105 Y169.9605 I-11.4201 J2.6431
G2 X-148.2205 Y169.33 I-7.5009 J2.1477
G0 Z5.0
G0 X-150.184 Y173.3695
G1 Z0.0
G3 X-150.054 Y173.4396 I-0.77 J1.5842
G1 X-149.6412 Y175.9816
G3 X-150.2709 Y176.0336 I-0.4604 J-1.7369
G3 X-150.867 Y175.824 I0.136 J-1.3396
G3 X-151.1834 Y175.5413 I0.8228 J-1.2391
G3 X-151.4695 Y175.0566 I1.3544 J-1.126
G3 X-151.6153 Y174.3314 I1.9036 J-0.76
G3 X-151.5619 Y173.9122 I1.4932 J-0.0229
G3 X-151.4711 Y173.7036 I0.82 J0.2331
G3 X-151.1533 Y173.38 I1.2165 J0.8764
G3 X-150.7255 Y173.2295 I0.4521 J0.6019
G3 X-150.4224 Y173.2745 I0.0126 J0.9584
G3 X-150.184 Y173.3695 I-0.5316 J1.6793
G0 Z5.0
G0 X-141.4995 Y172.7212
G1 Z0.0
G3 X-141.5171 Y172.0684 I6.8463 J-0.5111
G1 X-141.5148 Y171.9703
G3 X-141.4169 Y170.9304 I8.8712 J0.3106
G3 X-141.37 Y170.6558 I8.3439 J1.283
G3 X-141.3165 Y170.5275 I0.3108 J0.0543
G3 X-141.1869 Y170.4769 I0.1006 J0.0666
G3 X-141.1056 Y170.5328 I-0.0509 J0.1611
G3 X-141.0463 Y170.6429 I-0.2661 J0.2145
G2 X-140.7379 Y171.2643 I2.1808 J-0.695
G2 X-140.2163 Y171.7215 I1.2302 J-0.8774
G2 X-139.7744 Y171.8701 I0.7078 J-1.3733
G3 X-139.1152 Y171.8196 I0.7001 J4.814
G3 X-138.4559 Y171.8676 I0.0584 J3.7474
G3 X-137.2272 Y172.3465 I-0.4684 J3.0174
G3 X-136.5659 Y172.9336 I-1.8797 J2.7835
G3 X-136.2538 Y173.3315 I-3.2867 J2.8993
G3 X-135.9468 Y173.8187 I-5.4163 J3.7531
G3 X-135.6463 Y174.3999 I-7.4192 J4.2049
G3 X-135.3483 Y175.0792 I-14.3024 J6.6782
G1 X-135.2766 Y175.2562
G1 X-135.2043 Y175.4392
G3 X-135.1862 Y175.4855 I-0.438 J0.1975
G1 X-135.0358 Y175.8782
G1 X-134.8789 Y176.2959
G2 X-134.5181 Y177.2361 I49.7868 J-18.567
G2 X-134.0611 Y178.2764 I14.7811 J-5.8726
G2 X-133.7777 Y178.8086 I6.9614 J-3.3653
G2 X-133.431 Y179.3474 I5.4053 J-3.0973
G2 X-132.9969 Y179.874 I3.911 J-2.7823
G2 X-132.4479 Y180.3553 I2.7925 J-2.6318
G1 X-131.7301 Y179.3957
G1 X-134.6831 Y172.4744
G3 X-134.1923 Y171.735 I2.0549 J0.8313
G3 X-133.4608 Y171.2325 I1.7822 J1.8106
G3 X-132.9046 Y171.0301 I1.4819 J3.2068
G3 X-132.5757 Y170.9534 I1.5218 J5.7865
G3 X-132.1955 Y170.8949 I0.842 J4.2038
G3 X-131.759 Y170.8602 I0.8573 J8.0361
G3 X-130.6068 Y170.8994 I0.3094 J7.8517
G3 X-129.9412 Y171.8314 I-3.1973 J2.9876
G3 X-129.5097 Y172.8922 I-5.2254 J2.7432
G3 X-129.4196 Y173.2071 I-6.5439 J2.0431
G3 X-129.2195 Y174.0549 I-17.6755 J4.6197
G1 X-129.1148 Y174.5409
G1 X-129.0571 Y174.7995
G2 X-128.9103 Y175.386 I13.878 J-3.1621
G2 X-128.6972 Y176.0428 I7.0471 J-1.9239
G2 X-128.6654 Y176.1246 I0.9045 J-0.3046
G2 X-128.5154 Y176.4676 I4.9477 J-1.9587
G2 X-128.0742 Y177.2033 I3.9972 J-1.8967
G2 X-126.9731 Y176.46 I-1.016 J-2.6922
G2 X-126.6942 Y176.1114 I-2.2834 J-2.1132
G1 X-126.6272 Y176.013
G2 X-126.3087 Y175.4662 I-4.9995 J-3.2777
G1 X-126.2309 Y175.3166
G2 X-126.1493 Y175.1566 I-3.6618 J-1.9685
G2 X-126.1286 Y175.1159 I-0.433 J-0.2453
G3 X-126.1077 Y175.0745 I0.4573 J0.2061
G3 X-125.9134 Y174.6997 I9.4687 J4.6693
G1 X-125.8046 Y174.5029
G3 X-125.682 Y174.2971 I3.4873 J1.9383
G3 X-125.5416 Y174.0839 I4.5192 J2.8244
G3 X-125.1743 Y173.6315 I3.2318 J2.2487
G3 X-124.6685 Y173.1957 I2.4376 J2.3178
G3 X-123.9981 Y172.824 I2.0855 J2.9708
G3 X-123.1983 Y172.6649 I1.2712 J4.2994
G3 X-122.3829 Y172.6501 I0.484 J4.2086
G3 X-121.8471 Y172.7486 I-0.2114 J2.6563
G3 X-121.557 Y172.8653 I-0.4946 J1.6481
G3 X-121.265 Y173.0774 I-0.524 J1.0284
G3 X-121.0451 Y173.4396 I-0.6435 J0.6386
G1 X-125.5266 Y177.2033
G2 X-125.6219 Y177.2933 I0.9389 J1.0903
G2 X-125.7077 Y177.3923 I1.3264 J1.2359
G2 X-125.8389 Y177.619 I0.7074 J0.5605
G2 X-125.8588 Y178.1385 I0.7205 J0.2877
G2 X-125.701 Y178.4512 I1.0307 J-0.3239
G2 X-125.3772 Y178.7761 I1.2297 J-0.9018
G2 X-124.8535 Y179.048 I1.0863 J-1.452
G2 X-124.1139 Y178.7821 I-0.5233 J-2.6168
G2 X-123.4681 Y178.3341 I-1.7963 J-3.2786
G2 X-123.2998 Y178.1851 I-2.7738 J-3.3042
G2 X-122.8743 Y177.7656 I-7.4881 J-8.0212
G1 X-122.6381 Y177.5197
G1 X-122.5119 Y177.3891
G1 X-122.3757 Y177.2515
G3 X-122.0526 Y176.9502 I3.6459 J3.5859
G3 X-121.8696 Y176.8019 I2.4899 J2.8841
G3 X-121.4101 Y176.5195 I1.5447 J1.9986
G3 X-120.8084 Y176.3544 I0.7756 J1.6474
G3 X-120.0818 Y176.4247 I0.1672 J2.0617
G3 X-119.7091 Y176.5521 I-0.8512 J3.0986
G3 X-119.6169 Y176.5916 I-0.5577 J1.4286
G3 X-119.8925 Y177.2802 I-2.1758 J-0.4712
G3 X-120.3627 Y177.8539 I-2.4367 J-1.5174
G3 X-120.7377 Y178.1758 I-3.2165 J-3.368
G3 X-121.2715 Y178.5568 I-5.5175 J-7.1666
G1 X-121.9978 Y179.033
G2 X-122.4048 Y179.3143 I5.1019 J7.8182
G2 X-122.6155 Y179.4726 I2.4667 J3.5028
G2 X-122.7219 Y179.5574 I1.1244 J1.5189
G2 X-122.8295 Y179.6475 I1.4593 J1.8531
G2 X-123.2844 Y180.0988 I2.7913 J3.2683
G2 X-123.6931 Y180.7104 I2.3251 J1.9963
G3 X-123.0755 Y181.4213 I-2.3404 J2.6568
G3 X-122.6712 Y182.2718 I-2.621 J1.7672
G3 X-122.5774 Y182.8954 I-2.1028 J0.6352
G3 X-122.903 Y182.9272 I-0.2422 J-0.7976
G3 X-123.2169 Y182.835 I0.1026 J-0.9296
G3 X-123.4058 Y182.7258 I0.5687 J-1.2027
G1 X-123.5075 Y182.6542
G1 X-123.5604 Y182.6144
G1 X-123.679 Y182.5215
G2 X-123.9981 Y182.2855 I-2.2483 J2.7061
G2 X-124.1041 Y182.1842 I-2.1276 J2.1228
G1 X-124.1398 Y182.1508
G2 X-124.2842 Y182.019 I-2.2993 J2.3743
G1 X-124.3822 Y181.9329
G1 X-124.515 Y181.8207
G2 X-125.0766 Y181.4111 I-3.7062 J4.4909
G2 X-125.4841 Y181.1895 I-1.8939 J2.9972
G2 X-126.0778 Y181.0101 I-0.9022 J1.9139
G2 X-126.1578 Y181.0015 I-0.2364 J1.8294
G2 X-127.001 Y181.2242 I-0.1207 J1.2507
G2 X-127.3712 Y181.5825 I0.9953 J1.3989
G2 X-127.4401 Y182.2175 I1.7128 J0.5071
G2 X-127.4038 Y182.4285 I1.0743 J-0.0763
G2 X-127.3563 Y182.542 I0.4031 J-0.1017
G1 X-128.3717
G2 X-128.9627 Y181.8894 I-2.8244 J1.9638
G2 X-129.7257 Y181.45 I-1.6042 J1.903
G2 X-130.3004 Y181.3191 I-0.8365 J2.3454
G2 X-131.0838 Y181.3174 I-0.3997 J3.7335
G2 X-131.5266 Y181.3734 I0.5489 J6.1122
G1 X-131.7608 Y181.4128
G1 X-131.8813 Y181.4346
G1 X-132.4268 Y181.5377
G1 X-132.7173 Y181.588
G3 X-133.382 Y181.6567 I-0.8908 J-5.3637
G1 X-133.4669 Y181.658
G3 X-133.8277 Y181.6346 I-0.0025 J-2.7599
G3 X-134.415 Y181.4628 I0.268 J-2.0054
G3 X-134.9146 Y181.1092 I0.7034 J-1.5239
G3 X-135.4001 Y180.0038 I1.2624 J-1.2138
G3 X-135.3786 Y179.6524 I1.3182 J-0.0955
G3 X-135.2403 Y179.2334 I2.1137 J0.4653
G1 X-135.0628 Y178.8294
G2 X-135.015 Y178.7127 I-4.9463 J-2.0973
G1 X-134.9652 Y178.5776
G1 X-134.9416 Y178.5044
G2 X-134.8693 Y178.1002 I-1.4163 J-0.4619
G2 X-134.988 Y177.5585 I-1.1071 J-0.0412
G2 X-135.483 Y176.8957 I-3.8909 J2.39
G2 X-136.0757 Y176.3188 I-4.4227 J3.9501
G2 X-137.4627 Y175.4266 I-4.1224 J4.8843
G2 X-138.4963 Y175.048 I-2.5397 J5.3345
G2 X-139.9543 Y174.8797 I-1.3018 J4.876
G2 X-140.7899 Y174.9907 I0.1694 J4.4765
G1 X-140.894 Y175.0164
G3 X-141.3806 Y173.5795 I5.4785 J-2.6562
G3 X-141.4995 Y172.7212 I6.7274 J-1.3694
G0 Z5.0
G0 X-139.4287 Y170.4982
G1 Z0.0
G3 X-139.6914 Y170.204 I1.4663 J-1.574
G3 X-139.918 Y169.7874 I1.2516 J-0.9507
G3 X-139.9771 Y169.4752 I0.8809 J-0.3284
G3 X-139.8415 Y169.0656 I0.627 J-0.0197
G3 X-139.6482 Y168.8983 I0.577 J0.4715
G3 X-139.3795 Y168.7802 I0.5904 J0.9784
G3 X-139.0566 Y168.7126 I0.5756 J1.9449
G3 X-138.6269 Y168.8721 I-0.4657 J1.9133
G3 X-138.2483 Y169.1307 I-0.7769 J1.5438
G3 X-138.0449 Y169.3601 I-0.9781 J1.0724
G3 X-137.88 Y169.7359 I-0.8265 J0.5866
G3 X-137.9335 Y170.2876 I-0.9525 J0.1862
G3 X-138.1334 Y170.5157 I-0.6769 J-0.3917
G3 X-138.4021 Y170.6561 I-0.5464 J-0.7187
G3 X-138.9971 Y170.6926 I-0.3709 J-1.1787
G3 X-139.3691 Y170.5517 I0.1582 J-0.9792
G3 X-139.4287 Y170.4982 I1.4067 J-1.6275
G0 Z5.0
G0 X-138.6421 Y176.6104
G1 Z0.0
G3 X-138.3463 Y176.5916 I0.2933 J2.279
G3 X-137.4194 Y176.9992 I-0.585 J2.5879
G3 X-136.7254 Y177.7366 I-1.3473 J1.9632
G3 X-136.4839 Y178.3721 I-1.6657 J0.9966
G3 X-136.564 Y179.2808 I-1.6555 J0.312
G3 X-136.8215 Y179.7435 I-1.73 J-0.6598
G2 X-137.14 Y179.7274 I-0.4113 J4.999
G2 X-137.4589 Y179.7257 I-0.1906 J5.8136
G1 X-137.6715 Y179.7289
G1 X-137.793 Y179.7313
G1 X-138.1168 Y179.7367
G3 X-138.5487 Y179.7313 I-0.1374 J-6.3781
G3 X-139.1214 Y179.6672 I0.1395 J-3.8369
G3 X-139.4391 Y179.5761 I0.3686 J-1.8836
G3 X-139.7744 Y179.3957 I0.5379 J-1.402
G3 X-140.0961 Y178.5017 I1.6375 J-1.094
G3 X-139.9607 Y177.5613 I1.8737 J-0.2102
G3 X-139.5953 Y177.0366 I1.456 J0.6244
G3 X-138.8354 Y176.6437 I1.0995 J1.195
G3 X-138.6421 Y176.6104 I0.4866 J2.2457
G0 Z5.0
G0 X-137.5355 Y183.5071
G1 Z0.0
G3 X-133.0683 Y183.6386 I1.4701 J25.9983
G3 X-128.6939 Y184.5542 I-3.0098 J25.2892
G3 X-125.8925 Y185.5742 I-8.0301 J26.41
G3 X-122.3446 Y187.3591 I-12.6987 J29.6608
G1 X-121.9028 Y187.6192
G1 X-121.4505 Y187.8938
G3 X-127.3595 Y186.546 I30.4961 J-147.3248
G3 X-133.2017 Y184.933 I28.7338 J-115.4566
G1 X-133.5757 Y184.8184
G3 X-137.5355 Y183.5071 I29.2151 J-94.8619
G0 Z5.0
G0 X-127.7012 Y172.1704
G1 Z0.0
G3 X-127.7296 Y172.145 I0.8183 J-0.9433
G3 X-127.9243 Y171.9314 I1.0748 J-1.1752
G3 X-128.1302 Y171.6082 I1.9983 J-1.4998
G3 X-128.227 Y171.4126 I3.7447 J-1.9767
G3 X-128.2385 Y171.3873 I0.1726 J-0.0938
G3 X-128.451 Y170.8445 I5.592 J-2.5018
G2 X-128.7024 Y170.1231 I-34.0032 J11.4452
G1 X-128.7771 Y169.9343
G1 X-125.8316 Y170.8994
G3 X-125.816 Y171.6272 I-1.0097 J0.3856
G3 X-126.2287 Y172.2268 I-1.2381 J-0.4103
G3 X-126.6624 Y172.4507 I-0.7181 J-0.859
G3 X-126.9435 Y172.4744 I-0.2117 J-0.8291
G3 X-127.7012 Y172.1704 I0.0606 J-1.2472
G0 Z5.0
G0 X-126.5943 Y168.8372
G1 Z0.0
G1 X-127.0321 Y168.6918
G3 X-130.0371 Y167.6207 I23.992 J-72.0566
G3 X-130.8857 Y167.2878 I16.0289 J-42.1097
G3 X-133.1159 Y166.3202 I16.2324 J-40.468
G1 X-133.3993 Y166.1857
G3 X-133.6907 Y166.0443 I10.9304 J-22.8943
G3 X-135.0054 Y165.3629 I13.5885 J-27.8285
G3 X-135.6934 Y164.9747 I12.987 J-23.8173
G3 X-139.1627 Y162.5798 I13.2124 J-22.85
G1 X-139.3691 Y162.4087
G1 X-124.4035 Y166.5202
G1 X-124.1506 Y165.4751
G2 X-125.2815 Y164.5589 I-6.9348 J7.4042
G1 X-125.4529 Y164.4411
G2 X-126.8931 Y163.6096 I-7.0139 J10.4852
G2 X-127.9038 Y163.1539 I-7.2716 J14.7794
G2 X-127.969 Y163.1272 I-0.4225 J0.9402
G2 X-128.0353 Y163.1004 I-0.4191 J0.9409
G2 X-129.4688 Y162.5828 I-8.0156 J19.9557
G2 X-131.4134 Y162.0055 I-13.625 J42.329
G1 X-131.9351 Y161.8628
G1 X-133.1269 Y161.5407
G3 X-133.202 Y161.5202 I0.4325 J-1.7355
G3 X-133.2776 Y161.4996 I0.4469 J-1.7853
G1 X-133.9217 Y161.321
G3 X-135.3837 Y160.8839 I12.23 J-43.5714
G3 X-137.0254 Y160.2994 I8.1117 J-25.3825
G3 X-137.2306 Y160.2163 I1.8343 J-4.8262
G1 Y159.519
G3 X-133.6082 Y159.6128 I0.6576 J44.6079
G3 X-133.0918 Y159.6501 I-1.3181 J21.8098
G1 X-132.5022 Y159.7002
G3 X-127.8202 Y160.3861 I-4.0237 J43.791
G3 X-124.7509 Y161.1181 I-9.1729 J45.2646
G3 X-120.7475 Y162.4087 I-13.2914 J48.081
G2 X-121.839 Y163.245 I2.9403 J4.9679
G2 X-122.6848 Y164.3293 I3.7772 J3.8185
G2 X-123.0904 Y165.1528 I5.4124 J3.1775
G1 X-123.1341 Y165.2631
G2 X-123.4945 Y166.4702 I7.9947 J3.0447
G2 X-123.6339 Y167.1753 I11.596 J2.658
G1 X-123.6491 Y167.2653
G1 X-123.7095 Y167.6493
G1 X-123.7676 Y168.0592
G1 X-123.7817 Y168.1633
G2 X-123.8405 Y168.6069 I90.6593 J12.2423
G1 X-123.8479 Y168.6629
G3 X-123.9981 Y169.6777 I-22.3894 J-2.7944
G1 X-124.995 Y169.3587
G1 X-125.991 Y169.0363
G1 X-126.2752 Y168.9432
G1 X-126.5943 Y168.8372
G0 Z5.0
G0 X-121.4505 Y170.5517
G1 Z0.0
G1 X-119.2227 Y169.33
G3 X-118.4537 Y169.7179 I-1.1241 J3.1848
G3 X-117.8074 Y170.2872 I-1.6884 J2.568
G3 X-117.5109 Y170.7824 I-1.2751 J1.0998
G3 X-117.4457 Y171.1104 I-0.9737 J0.364
G3 X-117.5221 Y171.4953 I-0.892 J0.0231
G3 X-117.7947 Y171.8701 I-1.0866 J-0.504
G3 X-118.5843 Y172.0787 I-1.6807 J-4.7622
G3 X-119.398 Y172.1498 I-0.7658 J-4.0753
G3 X-119.9407 Y172.0947 I0.0155 J-2.8536
G3 X-120.6245 Y171.8397 I0.3859 J-2.0789
G3 X-121.2834 Y171.1034 I0.8472 J-1.4211
G3 X-121.4505 Y170.5517 I1.9724 J-0.8985
G0 Z5.0
G0 X-120.3347 Y167.1357
G1 Z0.0
G3 X-120.2003 Y166.4499 I9.0183 J1.4119
G3 X-120.1431 Y166.224 I5.0605 J1.162
G3 X-119.8266 Y165.3477 I5.0877 J1.3419
G3 X-119.7039 Y165.1111 I3.0623 J1.4376
G3 X-119.2855 Y164.535 I2.6295 J1.4697
G3 X-118.5049 Y163.9837 I1.6949 J1.5719
G3 X-117.9416 Y163.7922 I1.2878 J2.8643
G3 X-117.3569 Y163.682 I1.3481 J5.5417
G3 X-116.9625 Y163.6397 I0.8007 J5.6097
G1 X-116.8571 Y163.6322
G3 X-116.6157 Y163.6212 I0.4369 J6.8954
G3 X-115.972 Y163.6361 I0.185 J5.9151
G3 X-115.6067 Y163.6816 I-0.3755 J4.5054
G3 X-115.199 Y163.7895 I-0.3842 J2.2748
G3 X-115.0991 Y163.8337 I-0.2928 J0.7961
G3 X-114.9081 Y163.9735 I-0.2685 J0.5673
G3 X-114.8417 Y164.2478 I-0.2105 J0.1961
G1 X-119.9916 Y166.9548
G2 X-120.3347 Y167.1357 I17.6552 J33.9104
G0 Z5.0
G0 X-118.2 Y168.3649
G1 Z0.0
G3 X-117.9587 Y168.0443 I2.3349 J1.5065
G3 X-117.6646 Y167.7713 I1.4635 J1.2815
G3 X-116.9177 Y167.4858 I0.8563 J1.1207
G3 X-116.3814 Y167.5364 I0.1117 J1.6831
G3 X-115.7245 Y167.8079 I-0.6968 J2.6176
G3 X-115.3837 Y168.0232 I-1.7052 J3.0758
G3 X-114.5917 Y168.6905 I-3.7098 J5.2067
G3 X-113.7185 Y169.6777 I-6.593 J6.7116
G3 X-114.4041 Y169.961 I-1.2101 J-1.9573
G3 X-115.1458 Y169.9803 I-0.4202 J-1.8829
G3 X-115.6247 Y169.8513 I0.3774 J-2.3538
G3 X-116.2182 Y169.5693 I1.4083 J-3.7299
G3 X-116.2546 Y169.5486 I0.1359 J-0.281
G3 X-116.5789 Y169.3515 I4.7625 J-8.1994
G3 X-116.7484 Y169.2417 I2.3169 J-3.7642
G1 X-117.1296 Y168.9879
G1 X-117.3327 Y168.8537
G1 X-117.5507 Y168.7147
G2 X-118.0625 Y168.4282 I-3.0872 J4.9144
G2 X-118.2 Y168.3649 I-0.9903 J1.9708
G0 Z5.0
G0 X-114.5292 Y166.5202
G1 Z0.0
G2 X-114.2948 Y166.4166 I-0.7975 J-2.1226
G2 X-114.0689 Y166.2957 I-2.5296 J-4.9956
G2 X-113.6336 Y166.0257 I-5.0401 J-8.6126
G3 X-113.3476 Y165.8395 I13.6336 J20.625
G3 X-112.9602 Y165.601 I4.2418 J6.4575
G3 X-112.4144 Y165.3356 I1.9173 J3.2491
G3 X-112.2614 Y165.2821 I1.7966 J4.8855
G3 X-111.8994 Y165.198 I0.6714 J2.0701
G3 X-110.9032 Y165.2985 I0.2954 J2.0597
G2 X-110.3737 Y165.5027 I3.7025 J-8.8116
G2 X-109.8348 Y165.6802 I4.6332 J-13.1543
G1 X-109.7627 Y165.703
G1 X-109.3777 Y165.8239
G3 X-108.8677 Y165.9949 I-4.086 J13.0388
G3 X-108.5806 Y166.1048 I-3.8992 J10.6168
G3 X-108.26 Y166.249 I-1.7193 J4.2499
G3 X-107.911 Y166.4496 I-1.4512 J2.9289
G1 X-107.8687 Y166.4785
G3 X-107.515 Y166.788 I-1.1529 J1.6746
G2 X-108.2961 Y166.8929 I0.1797 J4.2966
G2 X-109.0556 Y167.1032 I1.9543 J8.5342
G2 X-109.2693 Y167.1742 I2.2486 J7.13
G2 X-109.3244 Y167.193 I0.1659 J0.575
G2 X-109.3811 Y167.2126 I0.1839 J0.6244
G1 X-109.6396 Y167.3039
G1 X-109.9343 Y167.41
G3 X-110.7225 Y167.6832 I-7.5777 J-20.5856
G1 X-110.7731 Y167.6993
G3 X-111.2386 Y167.8326 I-2.3153 J-7.2037
G3 X-111.7816 Y167.9415 I-1.4079 J-5.6127
G3 X-112.4159 Y167.973 I-0.484 J-3.3469
G3 X-113.1343 Y167.8225 I0.1135 J-2.3314
G3 X-113.8607 Y167.3651 I0.8522 J-2.1589
G3 X-114.1787 Y167.0266 I2.1367 J-2.3259
G1 X-114.2518 Y166.9336
G3 X-114.394 Y166.7343 I3.0041 J-2.2943
G3 X-114.5292 Y166.5202 I3.0112 J-2.0512
G0 Z5.0
G0 X-112.1414 Y170.2767
G1 Z0.0
G3 X-112.0457 Y170.2161 I15.1785 J23.8786
G1 X-111.8237 Y170.0786
G1 X-111.5851 Y169.9349
G1 X-111.3285 Y169.7853
G3 X-109.9173 Y169.064 I8.0014 J13.9132
G3 X-107.9204 Y168.3649 I4.9894 J11.0495
G3 X-105.3727 Y168.0843 I2.8391 J14.0704
G3 X-102.8141 Y168.2375 I0.3198 J16.1042
G3 X-101.1339 Y168.5517 I-2.4658 J17.8345
G3 X-101.0282 Y168.5767 I-0.5344 J2.4928
G3 X-100.921 Y168.6027 I-0.538 J2.4527
G3 X-98.6724 Y169.2837 I-5.4151 J21.9332
G3 X-97.4204 Y169.7667 I-10.7665 J29.7689
G3 X-96.0188 Y170.3854 I-11.8181 J28.6708
G1 X-95.6617 Y170.555
G3 X-94.9062 Y170.9287 I-20.0275 J41.447
G1 X-94.7156 Y171.026
G1 X-94.5224 Y171.1257
G1 X-94.3266 Y171.228
G3 X-92.5606 Y172.1986 I-24.5714 J46.8014
G3 X-91.632 Y172.7378 I-35.1582 J61.618
G1 X-91.1556 Y173.0203
G1 X-91.0358 Y173.0918
G3 X-90.7094 Y173.4694 I-0.7591 J0.9859
G3 X-90.5924 Y173.9545 I-0.8727 J0.4673
G3 X-90.6456 Y174.2849 I-1.2251 J-0.0277
G3 X-90.8282 Y174.6872 I-1.6468 J-0.505
G3 X-91.1805 Y175.1434 I-2.4299 J-1.5124
G3 X-91.7386 Y175.6338 I-2.9474 J-2.7916
G3 X-94.2759 Y176.9234 I-22.559 J-41.2462
G3 X-96.8767 Y178.0793 I-24.688 J-52.0426
G1 X-97.2273 Y178.2245
G1 X-97.6021 Y178.3773
G3 X-103.7022 Y180.5448 I-29.5669 J-73.5449
G1 X-104.1015 Y180.668
G3 X-108.3933 Y181.8626 I-25.4555 J-83.1462
G3 X-114.1992 Y183.1103 I-20.7133 J-82.2488
G1 X-114.9545 Y183.2406
G3 X-116.5699 Y183.4925 I-11.2712 J-66.9597
G1 X-116.6715 Y183.5071
G2 X-116.6435 Y183.2459 I-0.9471 J-0.2336
G2 X-116.6825 Y182.9862 I-1.1967 J0.0469
G2 X-116.8799 Y182.5039 I-2.1318 J0.591
G2 X-117.0541 Y182.2048 I-5.1441 J2.796
G1 X-117.2998 Y181.8177
G3 X-117.4331 Y181.593 I7.7815 J-4.768
G1 X-117.4648 Y181.5335
G3 X-117.5753 Y181.2458 I1.0621 J-0.573
G3 X-117.5822 Y181.0787 I0.4743 J-0.1031
G3 X-117.4982 Y180.9088 I0.313 J0.0489
G3 X-117.3137 Y180.7851 I0.3946 J0.3891
G3 X-117.0768 Y180.7104 I0.51 J1.2035
G1 X-116.0243 Y182.4231
G1 X-114.8844 Y182.132
G1 X-114.5047 Y182.0336
G1 X-113.9988 Y181.9013
G2 X-111.9789 Y181.358 I-45.9567 J-174.9078
G1 X-111.8488 Y181.3221
G1 X-111.2544 Y181.1567
G2 X-106.5268 Y179.7407 I-36.6622 J-131.0033
G2 X-103.4091 Y178.6889 I-35.2847 J-109.7332
G2 X-101.6429 Y178.0438 I-27.2334 J-77.2994
G1 X-101.1891 Y177.8719
G2 X-96.4053 Y175.8959 I-33.0538 J-86.8038
G2 X-96.331 Y175.8628 I-0.418 J-1.0374
G2 X-93.6379 Y174.6114 I-37.0604 J-83.2773
G1 X-92.949 Y174.2754
G1 X-92.7758 Y174.1899
G1 X-92.6014 Y174.1034
G2 X-95.4937 Y174.2073 I-0.3761 J29.8267
G1 X-95.9057 Y174.2447
G2 X-99.1792 Y174.7157 I3.7975 J38.0049
G2 X-100.1069 Y174.8964 I18.8398 J99.2153
G1 X-100.3458 Y174.9455
G2 X-102.8831 Y175.5149 I19.9315 J94.7542
G1 X-103.2097 Y175.5923
G1 X-104.7012 Y175.9482
G3 X-106.4073 Y176.346 I-48.0861 J-202.3837
G3 X-107.3195 Y176.5476 I-19.1538 J-84.4851
G3 X-109.4134 Y176.9634 I-13.7692 J-63.8625
G3 X-109.4794 Y176.9752 I-0.1625 J-0.7179
G3 X-110.0244 Y177.0694 I-4.177 J-22.5543
G3 X-110.0929 Y177.0808 I-0.1531 J-0.709
G3 X-110.659 Y177.171 I-7.0154 J-42.1935
G3 X-110.7301 Y177.1818 I-0.1432 J-0.7014
G3 X-110.8016 Y177.1926 I-0.1421 J-0.7007
G3 X-110.8734 Y177.2033 I-0.141 J-0.7
G1 X-110.7673 Y177.1309
G1 X-110.6591 Y177.0615
G3 X-110.4376 Y176.9313 I4.0514 J6.6378
G1 X-110.2868 Y176.8502
G3 X-109.666 Y176.5611 I3.9541 J7.6805
G3 X-109.6252 Y176.544 I0.1522 J0.3051
G1 X-109.5381 Y176.5079
G1 X-109.445 Y176.4701
G3 X-108.945 Y176.277 I10.7761 J27.1535
G1 X-108.6581 Y176.1702
G1 X-108.505 Y176.1135
G1 X-108.1556 Y175.9825
G2 X-107.2362 Y175.604 I-5.6741 J-15.0872
G1 X-106.9967 Y175.4902
G1 X-106.8745 Y175.4285
G1 X-106.7495 Y175.3625
G2 X-106.1976 Y175.0255 I-2.7674 J-5.1543
G1 X-106.0618 Y174.9281
G2 X-105.49 Y174.4179 I-2.6345 J-3.5288
G2 X-104.9712 Y173.7036 I-2.744 J-2.5386
G2 X-105.5794 Y173.3781 I-2.3778 J3.7116
G2 X-106.2263 Y173.1383 I-2.1842 J4.9002
G2 X-107.5749 Y172.8621 I-2.2844 J7.7237
G1 X-107.7574 Y172.841
G2 X-108.7329 Y172.7724 I-1.3869 J12.7534
G2 X-110.0335 Y172.7588 I-0.9163 J25.4348
G1 X-110.7757 Y172.771
G1 X-111.6225 Y172.7878
G1 X-112.0739 Y172.7932
G1 X-112.3068 Y172.7939
G3 X-112.8033 Y172.7891 I0.0682 J-32.1911
G1 X-112.8659 Y172.7877
G3 X-113.3989 Y172.7667 I0.3761 J-16.3064
G3 X-114.6101 Y172.6283 I0.492 J-9.6793
G3 X-115.2433 Y172.4744 I1.1783 J-6.2279
G3 X-114.9491 Y172.2549 I11.116 J14.5916
G1 X-114.6546 Y172.0357
G1 X-114.0635 Y171.6002
G3 X-112.8648 Y170.7522 I29.8421 J40.9124
G3 X-112.1414 Y170.2767 I15.9019 J23.4031
G0 Z5.0
G0 X-116.3739 Y175.9816
G1 Z0.0
G3 X-116.13 Y176.7465 I-3.0999 J1.4096
G3 X-116.091 Y177.5485 I-2.5993 J0.5286
G3 X-116.224 Y178.0697 I-1.9079 J-0.2096
G3 X-116.6354 Y178.6621 I-1.5919 J-0.6663
G3 X-116.9653 Y178.9151 I-1.5393 J-1.6653
G3 X-117.3893 Y179.1279 I-1.426 J-2.3124
G1 X-117.3853 Y179.0247
G2 X-117.3841 Y178.9902 I-0.2528 J-0.0263
G2 X-117.3794 Y178.8525 I-3.1279 J-0.1755
G3 X-117.3781 Y178.8131 I0.3143 J-0.0092
G1 X-117.3661 Y178.4983
G1 X-117.355 Y178.2885
G3 X-117.2497 Y177.4551 I5.5922 J0.2832
G3 X-117.1913 Y177.222 I2.9604 J0.6185
G3 X-116.9428 Y176.6299 I2.5408 J0.7179
G3 X-116.3739 Y175.9816 I1.9329 J1.1224
G0 Z5.0
G0 X-119.8499 Y181.0708
G1 Z0.0
G3 X-119.7591 Y181.1384 I-0.7851 J1.1494
G3 X-119.2822 Y181.7276 I-1.0984 J1.3765
G3 X-119.1583 Y182.0568 I-1.2701 J0.6663
G3 X-119.1359 Y182.4078 I-0.9382 J0.236
G3 X-119.5304 Y182.981 I-0.73 J-0.0801
G3 X-120.0021 Y183.065 I-0.3766 J-0.7488
G3 X-120.5716 Y182.8075 I0.1302 J-1.0466
G3 X-120.8067 Y182.5467 I0.9045 J-1.0517
G3 X-120.993 Y182.213 I1.5082 J-1.0612
G3 X-121.099 Y181.9229 I2.3114 J-1.0083
G1 X-121.1254 Y181.8235
G3 X-121.1622 Y181.4138 I1.2925 J-0.3227
G3 X-121.0883 Y181.1474 I0.704 J0.0519
G3 X-120.8102 Y180.893 I0.484 J0.2497
G3 X-120.5938 Y180.8429 I0.2564 J0.6153
G3 X-120.3399 Y180.8599 I0.0611 J0.9917
G3 X-119.8499 Y181.0708 I-0.2951 J1.3603
G0 Z5.0
G0 X-119.1577 Y184.5612
G1 Z0.0
G3 X-118.6375 Y184.5504 I0.2907 J1.4657
G3 X-117.7947 Y185.0822 I-0.1828 J1.2236
G2 X-117.8083 Y185.3034 I0.6499 J0.1512
G1 X-117.8016 Y185.3773
G1 X-117.79 Y185.4752
G1 X-117.775 Y185.6057
G3 X-117.7659 Y185.7805 I-1.8804 J0.1855
G3 X-117.8045 Y186.0113 I-0.6421 J0.0112
G3 X-118.0221 Y186.2475 I-0.4063 J-0.156
G3 X-118.2 Y186.3114 I-0.336 J-0.6559
G2 X-118.5847 Y185.8557 I-5.7102 J4.4306
G1 X-118.7191 Y185.7091
G1 X-119.2643 Y185.1302
G3 X-119.6169 Y184.7344 I8.0235 J-7.5028
G3 X-119.1577 Y184.5612 I0.7499 J1.2924
G0 Z5.0
G0 X-172.3351 Y173.0918
G1 Z0.0
G1 X-173.4508
G3 X-173.9224 Y171.9207 I7.2553 J-3.6021
G3 X-174.1817 Y170.6851 I6.0552 J-1.9155
G3 X-174.188 Y169.8417 I4.3017 J-0.4541
G3 X-174.1084 Y169.3647 I3.2582 J0.299
G1 X-174.0761 Y169.244
G3 X-173.8599 Y168.7126 I2.6693 J0.7764
G3 X-173.4834 Y168.9236 I-1.7177 J3.5066
G3 X-173.1424 Y169.1882 I-1.2617 J1.9779
G3 X-172.693 Y169.9225 I-1.0362 J1.139
G3 X-172.6288 Y170.4989 I-2.0616 J0.5212
G3 X-172.6453 Y170.8291 I-3.9621 J-0.0328
G1 X-172.661 Y171.0041
G2 X-172.6984 Y171.4004 I13.1212 J1.4374
G2 X-172.7023 Y171.4507 I0.5062 J0.0647
G2 X-172.7059 Y171.5019 I0.5371 J0.0636
G2 X-172.7092 Y171.5538 I0.5664 J0.0612
G2 X-172.7089 Y172.0236 I3.3475 J0.2329
G2 X-172.6098 Y172.5474 I2.2179 J-0.1481
G2 X-172.3351 Y173.0918 I1.8573 J-0.5957
G0 Z5.0
G0 X-186.2743 Y163.6305
G1 Z0.0
G3 X-187.1118 Y164.0419 I-1.4013 J-1.7948
G3 X-188.0448 Y164.0557 I-0.4969 J-2.0425
G3 X-188.6366 Y163.8577 I0.5221 J-2.5437
G3 X-189.3341 Y163.416 I1.4884 J-3.1219
G3 X-190.0661 Y162.615 I2.3334 J-2.8675
G3 X-190.343 Y162.061 I1.9206 J-1.3062
G3 X-189.321 Y162.2912 I-1.9319 J10.9592
G3 X-188.9848 Y162.3861 I-1.9436 J7.529
G3 X-188.9635 Y162.3924 I-0.0355 J0.1592
G3 X-187.6257 Y162.8646 I-3.7331 J12.7072
G1 X-187.5842 Y162.8822
G3 X-186.7243 Y163.3126 I-2.716 J6.5003
G3 X-186.2743 Y163.6305 I-1.7348 J2.9332
G0 Z5.0
G0 X-187.3901 Y161.4436
G1 Z0.0
G3 X-188.2232 Y161.3669 I-0.1865 J-2.5371
G3 X-189.0081 Y161.0772 I1.0974 J-4.1802
G1 X-189.2227 Y160.9718
G1 X-189.4643 Y160.8446
G1 X-189.7369 Y160.6938
G1 X-189.8816 Y160.6123
G1 X-189.9562 Y160.5701
G1 X-190.1155 Y160.4807
G1 X-190.1979 Y160.4349
G1 X-190.3743 Y160.3388
G2 X-190.5641 Y160.2398 I-6.9867 J13.1632
G2 X-191.0081 Y160.0355 I-2.3718 J4.5699
G2 X-191.5406 Y159.8655 I-1.3463 J3.2978
G2 X-192.1822 Y159.8133 I-0.4986 J2.1623
G2 X-192.9072 Y160.0083 I0.1472 J1.9929
G2 X-193.2587 Y160.2125 I1.0353 J2.1867
G2 X-193.6009 Y160.4842 I1.9145 J2.7635
G2 X-193.3442 Y161.0877 I3.2855 J-1.0417
G2 X-192.9907 Y161.64 I4.5516 J-2.5231
G2 X-192.7224 Y161.9852 I7.1152 J-5.254
G1 X-192.648 Y162.075
G2 X-192.5677 Y162.1699 I1.4475 J-1.1434
G2 X-192.4811 Y162.2703 I1.8574 J-1.5135
G1 X-192.281 Y162.4975
G1 X-192.0505 Y162.7551
G3 X-191.4499 Y163.452 I-12.503 J11.3826
G1 X-191.376 Y163.5449
G3 X-191.0571 Y163.9837 I-4.6039 J3.6807
G3 X-191.9434 Y163.8522 I0.1625 J-4.1483
G3 X-192.7843 Y163.5429 I1.2409 J-4.6709
G3 X-192.8922 Y163.491 I0.5823 J-1.3473
G3 X-193.4503 Y163.1838 I3.8884 J-7.7249
G1 X-193.5951 Y163.0949
G3 X-193.9207 Y162.8843 I5.6376 J-9.0768
G1 X-194.0922 Y162.7689
G1 X-194.2738 Y162.6441
G1 X-194.4667 Y162.51
G1 X-194.9069 Y162.204
G1 X-195.1432 Y162.0435
G1 X-195.3977 Y161.8764
G2 X-195.9947 Y161.5206 I-5.6851 J8.8599
G1 X-196.1532 Y161.4368
G2 X-196.9065 Y161.1125 I-2.695 J5.2233
G2 X-196.9555 Y161.0959 I-0.1749 J0.4364
G3 X-197.1293 Y160.9036 I1.4665 J-1.4997
G3 X-197.2726 Y160.6877 I1.0981 J-0.8847
G3 X-197.3865 Y160.1835 I0.7845 J-0.4422
G3 X-197.2939 Y159.8465 I1.0267 J0.1011
G3 X-197.0455 Y159.4579 I1.7349 J0.835
G3 X-196.6475 Y159.0134 I5.5085 J4.5322
G1 X-196.5389 Y158.899
G2 X-196.3009 Y158.6379 I-5.1675 J-4.9502
G2 X-196.0601 Y158.3238 I-2.0723 J-1.8377
G2 X-195.8714 Y157.9186 I-1.1637 J-0.7884
G2 X-195.8399 Y157.6799 I-0.9234 J-0.2435
G2 X-196.2495 Y157.2797 I-1.1146 J0.731
G2 X-196.7856 Y157.0782 I-0.8031 J1.3227
G2 X-197.1655 Y157.0404 I-0.4368 J2.4658
G2 X-197.6696 Y157.07 I-0.0461 J3.5241
G3 X-200.9951 Y159.4695 I-214.5437 J-293.8344
G1 X-202.1096 Y160.261
G3 X-203.6003 Y161.3095 I-216.5728 J-306.325
G3 X-205.5965 Y162.6953 I-160.6208 J-229.2511
G1 X-206.1306 Y163.0624
G1 X-206.701 Y163.4528
G1 X-207.3103 Y163.868
G3 X-217.1889 Y170.3157 I-172.8964 J-254.105
G3 X-220.0571 Y172.0863 I-181.2224 J-290.3537
G3 X-220.4228 Y172.3087 I-14.2574 J-23.0283
G3 X-220.7946 Y172.5341 I-12.9361 J-20.921
G3 X-228.8097 Y177.2033 I-144.3456 J-238.5666
G1 Y178.174
G1 X-227.281
G3 X-228.5217 Y178.8677 I-6.6275 J-10.3965
G3 X-228.7063 Y178.9526 I-2.2399 J-4.6308
G3 X-229.2146 Y179.141 I-1.5813 J-3.4867
G3 X-229.5213 Y179.1933 I-0.3751 J-1.2732
G3 X-229.5609 Y179.193 I-0.0186 J-0.1526
G3 X-229.9908 Y179.1549 I0.2281 J-5.0209
G3 X-230.4166 Y179.0847 I0.8012 J-6.1838
G3 X-231.252 Y178.87 I1.6061 J-7.9843
G3 X-232.8393 Y178.2032 I2.7937 J-8.8728
G3 X-233.8027 Y177.5772 I3.164 J-5.9239
G3 X-234.2863 Y177.1304 I2.3801 J-3.0606
G3 X-234.5068 Y176.8553 I1.9424 J-1.7831
G3 X-234.6932 Y176.5257 I1.444 J-1.0344
G3 X-234.7995 Y176.1285 I1.2308 J-0.5421
G3 X-234.7449 Y175.6742 I1.0374 J-0.1056
G3 X-234.475 Y175.229 I1.2604 J0.4596
G3 X-234.2769 Y175.0352 I1.4318 J1.2655
G3 X-233.7735 Y174.6899 I2.0311 J2.4214
G3 X-233.1796 Y174.4065 I2.7764 J5.0556
G3 X-232.5464 Y174.2093 I3.4724 J10.0322
G3 X-231.8984 Y174.0686 I1.569 J5.6642
G3 X-230.5735 Y174.0529 I0.7162 J4.5301
G3 X-229.7063 Y174.2304 I-0.9271 J6.7369
G1 X-229.5961 Y174.2606
G3 X-229.3624 Y174.3288 I-2.166 J7.8566
G1 X-229.1146 Y174.4065
G1 X-228.163 Y173.946
G2 X-228.0996 Y173.9151 I-0.6004 J-1.3108
G1 X-227.0879 Y173.4169
G1 X-226.4153 Y173.0809
G2 X-223.7416 Y171.7047 I-65.0659 J-129.7011
G2 X-223.6571 Y171.6601 I-0.9567 J-1.9147
G2 X-223.5713 Y171.6148 I-0.9708 J-1.9399
G2 X-218.1534 Y168.5871 I-62.4585 J-118.1301
G2 X-214.63 Y166.4171 I-59.161 J-100.0046
G1 X-214.1813 Y166.1274
G1 X-213.7199 Y165.826
G1 X-213.2452 Y165.5123
G2 X-208.3021 Y161.9906 I-50.7561 J-76.4733
G2 X-205.593 Y159.8236 I-50.3461 J-65.7147
G1 X-205.256 Y159.5397
G1 X-204.9154 Y159.2494
G1 X-204.5711 Y158.9523
G2 X-203.1238 Y157.6599 I-44.576 J-51.3787
G1 X-202.7621 Y157.3253
G2 X-199.5746 Y154.1387 I-43.3067 J-46.5056
G2 X-197.9745 Y152.3431 I-43.1811 J-40.0904
G3 X-197.0573 Y152.0071 I1.6015 J2.9524
G3 X-196.081 Y151.9781 I0.5737 J2.8593
G3 X-195.4459 Y152.1287 I-0.4557 J3.335
G3 X-194.6557 Y152.485 I-1.4998 J4.3811
G3 X-193.7058 Y153.1246 I-3.8466 J6.7374
G3 X-193.6484 Y153.1694 I-0.4783 J0.6719
G3 X-193.4076 Y153.3637 I-4.8675 J6.2799
G1 X-193.2852 Y153.466
G1 X-193.0284 Y153.6874
G3 X-192.7593 Y153.9273 I-11.1984 J12.8373
G1 X-192.6914 Y153.9887
G1 X-192.6227 Y154.0511
G1 X-192.4815 Y154.1803
G2 X-192.304 Y154.0829 I-0.8522 J-1.7642
G2 X-192.1358 Y153.9699 I-0.8495 J-1.4466
G2 X-191.8594 Y153.6743 I-0.6073 J-0.8447
G2 X-191.7706 Y153.4163 I-0.5745 J-0.3421
G2 X-191.8056 Y153.0516 I-0.9419 J-0.0936
G2 X-191.8726 Y152.8535 I-2.6905 J0.7993
G2 X-191.9648 Y152.6362 I-5.6995 J2.2902
G1 X-192.0734 Y152.3941
G1 X-192.1282 Y152.265
G1 X-192.1812 Y152.1268
G3 X-192.2693 Y151.808 I1.714 J-0.6452
G3 X-192.2881 Y151.4367 I1.3912 J-0.2564
G3 X-192.1765 Y151.0283 I1.2797 J0.1302
G3 X-191.3288 Y150.3077 I3.4427 J3.191
G3 X-190.3408 Y149.7961 I3.0011 J4.5863
G3 X-189.6377 Y149.5593 I2.4784 J6.1946
G3 X-189.2273 Y149.4533 I3.9684 J14.5226
G3 X-188.5561 Y149.6003 I-0.3449 J3.1807
G3 X-187.9428 Y149.9104 I-0.7059 J2.1576
G3 X-187.6063 Y150.2242 I-1.0762 J1.4914
G3 X-187.3122 Y150.7654 I-1.2204 J1.0136
G3 X-187.2694 Y151.5896 I-1.6213 J0.4975
G3 X-187.4114 Y152.043 I-2.0203 J-0.3838
G3 X-187.6861 Y152.5084 I-2.1507 J-0.956
G3 X-188.1041 Y152.9529 I-2.227 J-1.6751
G3 X-185.8893 Y154.0515 I-13.217 J29.4298
G3 X-183.7604 Y155.3085 I-17.3897 J31.8815
G3 X-182.3908 Y156.2259 I-19.3765 J30.4074
G3 X-180.6351 Y157.5477 I-19.7263 J28.0284
G1 X-180.5813 Y157.5913
G1 X-180.5271 Y157.6354
G1 X-180.4726 Y157.6799
G2 X-180.6007 Y157.6814 I-0.0596 J0.3737
G2 X-180.6429 Y157.6881 I0.0312 J0.3357
G2 X-180.8089 Y157.727 I0.3512 J1.8716
G2 X-180.8557 Y157.7405 I0.0799 J0.3656
G2 X-180.9089 Y157.7568 I0.108 J0.4477
G2 X-180.9694 Y157.7764 I0.1687 J0.6227
G1 X-181.129 Y157.8328
G2 X-181.3387 Y157.9151 I3.2268 J8.5373
G1 X-181.4573 Y157.965
G1 X-181.5919 Y158.0242
G2 X-182.6289 Y158.5682 I4.0436 J8.9671
G2 X-183.2704 Y159.0129 I2.9179 J4.8944
G2 X-183.594 Y159.3214 I1.5611 J1.962
G2 X-183.7305 Y159.519 I0.8602 J0.7402
G3 X-184.1594 Y159.3578 I1.3719 J-4.3005
G3 X-184.5726 Y159.1596 I2.2971 J-5.3208
G3 X-185.3656 Y158.7023 I5.8564 J-11.0706
G2 X-185.8854 Y158.3828 I-24.2038 J38.7928
G1 X-186.1846 Y158.2042
G2 X-186.3459 Y158.1117 I-3.988 J6.7696
G1 X-186.5196 Y158.0162
G2 X-186.9252 Y157.814 I-4.5154 J8.5536
G2 X-187.407 Y157.6226 I-2.1848 J4.7953
G2 X-187.9837 Y157.4791 I-1.1397 J3.3503
G2 X-188.136 Y157.4586 I-0.2916 J1.5916
G2 X-188.8434 Y157.4661 I-0.3239 J2.8361
G2 X-189.6326 Y157.6799 I0.4557 J3.2449
G2 X-189.5304 Y158.3122 I2.0189 J-0.0019
G2 X-189.2507 Y158.8883 I2.4809 J-0.8485
G2 X-189.0021 Y159.2352 I3.8426 J-2.4924
G1 X-188.9307 Y159.3237
G2 X-188.5326 Y159.7775 I8.7289 J-7.2561
G1 X-188.301 Y160.032
G1 X-188.1792 Y160.1688
G3 X-187.9119 Y160.4899 I-5.1453 J4.5549
G1 X-187.8795 Y160.5319
G3 X-187.6102 Y160.9342 I-2.9279 J2.2514
G3 X-187.3901 Y161.4436 I-2.0303 J1.1798
G0 Z5.0
G0 X-198.1708 Y161.9791
G1 Z0.0
G3 X-198.1792 Y162.1498 I-0.8653 J0.043
G3 X-198.2303 Y162.2975 I-0.4684 J-0.0793
G3 X-198.38 Y162.4087 I-0.1913 J-0.101
G2 X-199.9512 Y162.9656 I0.2532 J3.2096
G2 X-200.3927 Y163.3115 I2.11 J3.1473
G2 X-200.9126 Y163.8461 I3.6936 J4.1121
G1 X-199.5032 Y165.2129
G3 X-200.5729 Y165.7428 I-10.638 J-20.131
G3 X-200.7276 Y165.8146 I-1.6549 J-3.3626
G3 X-201.9747 Y166.3676 I-18.9297 J-41.0107
G3 X-202.0555 Y166.4024 I-1.0507 J-2.3241
G3 X-202.139 Y166.4384 I-1.0778 J-2.3868
G3 X-202.2252 Y166.4755 I-1.1071 J-2.4537
G3 X-202.3141 Y166.5138 I-1.1388 J-2.5254
G1 X-203.2618 Y166.9238
G2 X-204.514 Y167.4961 I17.2274 J39.3462
G2 X-204.5927 Y167.5342 I0.9373 J2.0374
G2 X-204.6726 Y167.5732 I0.9179 J1.9822
G1 X-205.0115 Y167.7426
G2 X-205.7745 Y168.1527 I7.6107 J15.0736
G2 X-206.6203 Y168.6684 I7.2408 J12.8282
G2 X-207.5402 Y169.33 I6.8628 J10.5126
G2 X-205.4008 Y169.118 I-1.0221 J-21.221
G2 X-203.2878 Y168.7218 I-4.4325 J-29.4728
G2 X-202.6894 Y168.5828 I-6.6257 J-29.87
G1 X-202.3712 Y168.5047
G2 X-200.6847 Y168.05 I-11.5428 J-46.1693
G2 X-198.4577 Y167.3716 I-25.1937 J-86.6924
G1 X-197.8666 Y167.1822
G1 X-197.5618 Y167.0837
G3 X-197.2564 Y167.0086 I0.5993 J1.7794
G3 X-197.1515 Y167.0041 I0.0806 J0.6568
G3 X-197.0928 Y167.0194 I-0.0018 J0.127
G3 X-197.072 Y167.0477 I-0.0199 J0.0364
G3 X-197.0862 Y167.0936 I-0.0707 J0.0034
G3 X-197.1247 Y167.1383 I-0.1852 J-0.1209
G3 X-197.2257 Y167.2159 I-0.4024 J-0.419
G3 X-197.4242 Y167.3272 I-0.8253 J-1.2386
G3 X-201.5027 Y169.2345 I-48.7916 J-99.0213
G3 X-202.8779 Y169.8358 I-70.8809 J-160.2523
G3 X-203.0559 Y169.9122 I-3.2375 J-7.2919
G3 X-203.2397 Y169.9909 I-3.2279 J-7.2909
G3 X-205.2071 Y170.8135 I-53.2755 J-124.6517
G3 X-205.3324 Y170.8647 I-2.2291 J-5.2689
G3 X-205.4598 Y170.9167 I-2.2299 J-5.2812
G3 X-208.1864 Y172.0005 I-69.6981 J-171.3832
G3 X-208.3601 Y172.0678 I-2.2902 J-5.6534
G3 X-208.5367 Y172.136 I-2.2961 J-5.6809
G1 X-209.2907 Y172.4251
G1 X-210.0961 Y172.7303
G1 X-210.9564 Y173.0524
G3 X-215.5623 Y174.7227 I-101.04 J-271.4429
G1 X-216.7941 Y175.1579
G1 X-218.1092 Y175.6191
G1 X-221.1171 Y176.6663
G1 X-222.7215 Y177.224
G1 X-224.4322 Y177.8207
G1 X-224.2684 Y177.6556
G3 X-224.2131 Y177.6013 I0.7565 J0.714
G1 X-223.9889 Y177.3872
G3 X-223.9239 Y177.3269 I0.7193 J0.7109
G3 X-223.391 Y176.8599 I12.7567 J14.0179
G1 X-223.2348 Y176.7311
G3 X-221.9356 Y175.7651 I11.5854 J14.2266
G1 X-221.7568 Y175.644
G3 X-221.3446 Y175.3729 I8.7792 J12.9016
G3 X-220.2248 Y174.6828 I18.915 J29.438
G1 X-219.9223 Y174.5052
G3 X-218.2942 Y173.5868 I35.7641 J61.5007
G1 X-217.3589 Y173.0717
G2 X-216.2928 Y172.4789 I-38.0983 J-69.7703
G1 X-215.7274 Y172.157
G2 X-214.4511 Y171.3956 I-25.645 J-44.4392
G1 X-214.291 Y171.2955
G2 X-212.8585 Y170.3336 I-15.2375 J-24.2398
G1 X-212.6814 Y170.2044
G1 X-212.5028 Y170.0714
G1 X-212.3229 Y169.9343
G1 X-213.0853 Y169.5141
G3 X-212.7846 Y169.1044 I5.4347 J3.6734
G3 X-212.6746 Y168.9755 I1.5049 J1.1727
G3 X-212.5133 Y168.8169 I1.4483 J1.3122
G3 X-212.4056 Y168.7445 I0.355 J0.4118
G3 X-212.3377 Y168.7256 I0.0775 J0.1468
G2 X-212.0322 Y168.7049 I-0.2525 J-5.984
G2 X-211.7279 Y168.67 I-0.401 J-4.8402
G2 X-211.1255 Y168.5606 I-1.0402 J-7.4409
G2 X-209.9544 Y168.2063 I-1.924 J-8.4735
G2 X-209.2022 Y167.8909 I-4.4982 J-11.7807
G1 X-209.0054 Y167.7982
G1 X-208.7971 Y167.6959
G2 X-208.3276 Y167.4502 I-9.6845 J-19.0757
G2 X-207.1138 Y166.7313 I-9.8172 J-17.9601
G1 X-206.7977 Y166.5278
G2 X-206.0845 Y166.0496 I-19.7585 J-30.2437
G1 X-205.9021 Y165.9239
G1 X-205.7144 Y165.7933
G1 X-205.3159 Y165.5127
G2 X-205.1109 Y165.367 I-4.2673 J-6.2205
G1 X-204.1779 Y164.698
G1 X-203.6804 Y164.3417
G1 X-203.4231 Y164.1588
G3 X-202.2376 Y163.3396 I31.8483 J44.8235
G1 X-201.9274 Y163.1346
G3 X-200.4766 Y162.2527 I13.2696 J20.1947
G3 X-199.6736 Y161.8339 I8.0356 J14.4276
G3 X-198.7891 Y161.4436 I6.1851 J12.8214
G3 X-198.5678 Y161.3922 I0.2002 J0.3599
G3 X-198.3634 Y161.4916 I-0.0339 J0.3296
G3 X-198.2721 Y161.6135 I-0.3627 J0.3666
G3 X-198.1708 Y161.9791 I-0.764 J0.4085
G0 Z5.0
G0 X-203.0496 Y154.2968
G1 Z0.0
G3 X-206.5155 Y156.3353 I-31.5704 J-49.7119
G1 X-206.7928 Y156.4857
G3 X-211.3093 Y158.7357 I-39.5077 J-73.6462
G3 X-214.3805 Y160.108 I-58.3182 J-126.3974
G3 X-216.1482 Y160.8627 I-64.669 J-149.0297
G3 X-218.1745 Y161.7099 I-215.3376 J-512.1805
G1 X-220.4928 Y162.6711
G2 X-220.6389 Y162.7317 I1.2549 J3.2278
G1 X-221.8839 Y163.2508
G1 X-223.2096 Y163.8098
G1 X-223.8925 Y164.1013
G1 X-224.5964 Y164.4048
G1 X-225.3214 Y164.7214
G1 X-225.689 Y164.8836
G1 X-226.0621 Y165.0495
G2 X-229.4456 Y166.6244 I45.965 J103.1754
G1 X-229.1146 Y167.3997
G2 X-227.4714 Y166.9503 I-14.0632 J-54.6468
G2 X-227.3623 Y166.9187 I-0.9744 J-3.571
G1 X-226.7813 Y166.7475
G2 X-224.4684 Y166.0264 I-32.0926 J-107.0168
G2 X-224.3195 Y165.9786 I-0.9206 J-3.1187
G2 X-224.1659 Y165.9291 I-0.9302 J-3.15
G1 X-222.5288 Y165.3984
G3 X-220.3425 Y164.7016 I65.8751 J202.916
G1 X-219.7576 Y164.5219
G3 X-218.416 Y164.1265 I18.4891 J60.2511
G1 X-218.0686 Y164.0286
G1 X-217.7093 Y163.9296
G1 X-217.3379 Y163.8298
G3 X-215.6307 Y163.4085 I11.4719 J42.8145
G3 X-214.7138 Y163.2107 I6.9423 J29.9479
G1 X-214.2388 Y163.1168
G1 X-213.7472 Y163.0262
G1 X-213.8151 Y163.1344
G1 X-213.8814 Y163.2438
G1 X-213.9249 Y163.3171
G1 X-214.0946 Y163.6127
G1 X-214.2054 Y163.8111
G1 X-214.2682 Y163.9248
G1 X-214.3016 Y163.9855
G2 X-214.3189 Y164.0169 I0.15 J0.1029
G2 X-214.3367 Y164.0493 I0.1553 J0.1063
G3 X-214.909 Y165.082 I-84.9582 J-46.4097
G1 X-215.0781 Y165.374
G1 X-215.2769 Y165.7044
G1 X-215.3294 Y165.789
G3 X-215.5771 Y166.1706 I-8.091 J-4.9805
G2 X-218.3897 Y166.4503 I-0.7475 J6.7646
G2 X-219.2758 Y166.7871 I2.5945 J8.1607
G2 X-220.3988 Y167.362 I4.9458 J11.0454
G2 X-221.0177 Y167.7301 I10.9898 J19.1785
G1 X-221.3437 Y167.9326
G2 X-222.0839 Y168.3992 I66.4142 J106.1892
G3 X-222.936 Y168.9178 I-17.951 J-28.5314
G3 X-223.9393 Y169.4538 I-6.8964 J-11.7021
G3 X-225.1463 Y169.9343 I-3.8845 J-8.0017
G1 Y168.3649
G1 X-230.6394 Y168.1027
G2 X-230.375 Y167.5565 I-1.2885 J-0.961
G2 X-230.3354 Y166.9509 I-1.5981 J-0.4085
G2 X-230.4226 Y166.555 I-2.0939 J0.2538
G2 X-230.642 Y166.0648 I-2.4363 J0.796
G2 X-230.8074 Y165.8072 I-2.3458 J1.3244
G2 X-231.3498 Y165.2129 I-2.803 J2.0139
G2 X-231.6881 Y165.3706 I0.3264 J1.142
G2 X-231.9669 Y165.6188 I0.8761 J1.2652
G2 X-232.1197 Y165.8151 I1.6615 J1.45
G2 X-232.2953 Y166.095 I4.2904 J2.888
G2 X-232.51 Y166.4762 I31.9398 J18.2323
G1 X-232.5382 Y166.5252
G1 X-232.5998 Y166.6284
G1 X-232.6686 Y166.7363
G3 X-232.8445 Y166.9695 I-2.0789 J-1.3855
G3 X-233.0919 Y167.1948 I-1.0302 J-0.8827
G3 X-233.4434 Y167.3585 I-0.644 J-0.9234
G3 X-233.8937 Y167.3997 I-0.3531 J-1.3781
G3 X-234.4062 Y167.1829 I3.2319 J-8.3547
G3 X-234.8974 Y166.921 I1.7979 J-3.9635
G3 X-235.1965 Y166.7008 I1.16 J-1.8888
G3 X-235.343 Y166.5459 I0.7559 J-0.8613
G3 X-235.4596 Y166.3287 I0.5254 J-0.422
G3 X-235.4591 Y166.0346 I0.4888 J-0.1463
G3 X-235.3947 Y165.8849 I0.5948 J0.1671
G3 X-235.2953 Y165.7388 I0.8183 J0.4503
G3 X-235.0141 Y165.4525 I1.8133 J1.4995
G3 X-234.9756 Y165.4193 I0.3844 J0.4074
G1 X-234.8958 Y165.3531
G3 X-234.5372 Y165.0804 I4.2921 J5.2719
G1 X-234.4437 Y165.0128
G1 X-234.0278 Y164.7133
G1 X-233.9757 Y164.6749
G1 X-233.7627 Y164.5135
G2 X-233.5509 Y164.3412 I-3.9402 J-5.0624
G2 X-233.4989 Y164.2964 I-0.8027 J-0.9826
G2 X-233.0984 Y163.8859 I-2.1556 J-2.5041
G2 X-232.9321 Y163.6405 I-1.3824 J-1.1153
G2 X-232.8133 Y163.3543 I-1.116 J-0.631
G2 X-232.7778 Y163.0262 I-1.0118 J-0.2755
G2 X-233.6508 Y162.9084 I-0.5897 J1.0767
G2 X-233.9359 Y162.9986 I0.3748 J1.68
G2 X-234.2917 Y163.1723 I1.1121 J2.7297
G1 X-234.4863 Y163.286
G1 X-234.7044 Y163.4203
G2 X-235.5712 Y164.0784 I3.2152 J5.1346
G2 X-236.3065 Y164.8808 I3.8268 J4.2451
G2 X-236.6972 Y165.4932 I3.5167 J2.6743
G2 X-236.8681 Y165.8725 I2.8952 J1.5332
G2 X-236.998 Y166.3311 I2.7742 J1.0334
G2 X-237.0298 Y166.8789 I2.0607 J0.3944
G2 X-236.8704 Y167.4956 I1.7894 J-0.1336
G2 X-236.4412 Y168.1027 I1.9052 J-0.8918
G2 X-235.6167 Y168.6605 I3.3715 J-4.0948
G2 X-234.7012 Y169.0516 I2.3895 J-4.3262
G2 X-234.0513 Y169.1917 I1.1079 J-3.5634
G2 X-233.1633 Y169.1728 I0.382 J-2.927
G2 X-232.0639 Y168.7126 I-0.4788 J-2.6872
G1 Y169.6777
G3 X-233.206 Y169.8942 I-3.4625 J-15.1449
G3 X-234.3641 Y169.9941 I-1.3571 J-8.9681
G3 X-235.1391 Y169.9622 I-0.1384 J-6.0575
G3 X-236.1491 Y169.7298 I0.4023 J-4.0596
G3 X-237.3002 Y168.9405 I0.9902 J-2.6782
G3 X-237.7524 Y168.267 I2.4703 J-2.1473
G3 X-238.0877 Y167.3998 I4.3329 J-2.1734
G3 X-238.2063 Y166.919 I8.4011 J-2.3284
G3 X-238.3723 Y165.8131 I10.3755 J-2.1224
G1 X-238.3983 Y165.5266
G1 X-238.4198 Y165.2315
G3 X-234.0879 Y162.1063 I36.6273 J46.206
G3 X-229.5094 Y159.3549 I38.4105 J58.7308
G3 X-226.3531 Y157.7056 I39.7409 J72.2081
G3 X-226.2525 Y157.6558 I1.608 J3.1222
G3 X-221.911 Y155.645 I42.4781 J86.0228
G3 X-215.9999 Y153.2541 I52.1647 J120.4656
G3 X-215.812 Y153.1832 I2.8891 J7.3727
G3 X-215.6225 Y153.112 I2.9808 J7.6427
G3 X-215.4314 Y153.0404 I3.0841 J7.9453
G3 X-215.2387 Y152.9685 I3.201 J8.2865
G3 X-215.0444 Y152.8963 I3.3351 J8.6761
G3 X-214.8485 Y152.8238 I3.4908 J9.1269
G3 X-214.651 Y152.7509 I3.6742 J9.656
G3 X-214.4518 Y152.6777 I3.8946 J10.2892
G3 X-210.7981 Y151.3779 I72.7599 J198.7323
G1 X-210.084 Y151.9879
G3 X-210.3512 Y152.1961 I-1.5607 J-1.7275
G1 X-210.4445 Y152.2599
G1 X-210.4983 Y152.2956
G1 X-210.6431 Y152.3886
G1 X-210.7267 Y152.4406
G1 X-210.9511 Y152.5761
G1 X-211.2534 Y152.7515
G3 X-211.6601 Y152.9786 I-10.1764 J-17.7446
G3 X-213.3079 Y153.8448 I-29.0705 J-53.2963
G1 X-213.7824 Y154.085
G1 X-214.326 Y154.3567
G3 X-215.7803 Y155.0709 I-90.7909 J-183.0375
G1 X-216.1691 Y155.2594
G1 X-217.0589 Y155.6877
G1 X-218.0772 Y156.1736
G1 X-219.2427 Y156.7253
G1 X-220.5763 Y157.3522
G1 X-222.1019 Y158.065
G1 X-222.2958 Y158.1553
G1 X-223.123 Y158.5402
G3 X-223.3331 Y158.6379 I-13.3392 J-28.425
G1 X-227.8157 Y160.7195
G2 X-230.37 Y161.9242 I127.7069 J274.0925
G1 X-230.6928 Y162.0807
G1 X-231.0196 Y162.2416
G1 X-231.3498 Y162.4087
G2 X-230.6911 Y162.8963 I2.2486 J-2.3494
G2 X-229.9433 Y163.2315 I2.2595 J-4.0393
G2 X-229.4197 Y163.3872 I2.0498 J-5.9321
G1 X-229.2782 Y163.4216
G1 X-229.1266 Y163.4554
G1 X-228.9644 Y163.4885
G2 X-228.0956 Y163.6305 I3.2133 J-16.9343
G1 X-206.4207 Y153.2151
G2 X-206.3733 Y153.1566 I-0.5735 J-0.513
G2 X-206.3264 Y153.0976 I-0.7102 J-0.6117
G2 X-206.2344 Y152.9784 I-1.9913 J-1.6328
G2 X-206.0551 Y152.7361 I-14.7342 J-11.0879
G1 X-205.9383 Y152.5728
G1 X-205.4755 Y151.9162
G3 X-205.4453 Y151.874 I0.4666 J0.3026
G3 X-205.414 Y151.8306 I0.5037 J0.33
G1 X-205.2693 Y151.6334
G3 X-205.0997 Y151.4112 I4.7425 J3.4465
G1 X-205.0068 Y151.2947
G3 X-204.4728 Y150.7051 I5.3722 J4.3294
G1 X-204.3982 Y150.6345
G3 X-204.0368 Y150.3337 I2.6382 J2.803
G3 X-203.58 Y150.0474 I2.2018 J3.0046
G3 X-202.1688 Y149.708 I1.3906 J2.6787
G3 X-201.333 Y149.801 I-0.0343 J4.113
G3 X-200.6175 Y150.1561 I-1.7005 J4.3241
G3 X-199.9774 Y150.6341 I-1.9709 J3.3066
G1 X-199.9401 Y150.6698
G3 X-199.5947 Y151.0997 I-1.3744 J1.4577
G3 X-199.4717 Y151.3931 I-0.9997 J0.5917
G3 X-199.4577 Y151.7645 I-0.8265 J0.2171
G3 X-199.6457 Y152.1652 I-0.9314 J-0.1926
G3 X-199.8081 Y152.3431 I-1.0386 J-0.7852
G2 X-200.2376 Y152.0224 I-1.4603 J1.5077
G2 X-200.7267 Y151.8033 I-1.3935 J2.4549
G2 X-201.781 Y151.6503 I-0.9324 J2.7172
G2 X-202.4792 Y151.7977 I0.085 J2.1294
G2 X-202.8378 Y151.9992 I0.5703 J1.435
G2 X-203.1664 Y152.3431 I0.872 J1.1622
G2 X-203.1884 Y152.6851 I1.7423 J0.2839
G2 X-203.1359 Y153.0238 I1.5044 J-0.0596
G2 X-202.7971 Y153.6149 I1.3832 J-0.4002
G2 X-202.4524 Y153.9125 I1.6502 J-1.5634
G3 X-203.0496 Y154.2968 I-32.1676 J-49.3276
G0 Z5.0
G0 X-198.5432 Y149.9292
G1 Z0.0
G3 X-198.789 Y149.66 I4.3845 J-4.2495
G1 X-198.8376 Y149.6037
G1 X-198.9485 Y149.4748
G2 X-199.259 Y149.1452 I-3.0218 J2.5364
G2 X-199.4636 Y148.9857 I-1.0586 J1.146
G2 X-199.5209 Y148.9509 I-0.3246 J0.4702
G2 X-199.8081 Y148.8359 I-0.5794 J1.0312
G1 X-199.094 Y148.4882
G3 X-198.4801 Y148.8126 I-0.467 J1.6271
G3 X-198.0461 Y149.3545 I-1.0666 J1.2989
G3 X-197.9091 Y149.7995 I-1.2737 J0.6358
G3 X-197.9745 Y150.4184 I-1.318 J0.1735
G3 X-198.4066 Y150.0658 I2.0281 J-2.9261
G3 X-198.5432 Y149.9292 I4.2478 J-4.3862
G0 Z5.0
G0 X-196.1628 Y150.1266
G1 Z0.0
G3 X-196.161 Y150.1065 I2.5587 J0.2122
G3 X-196.1553 Y150.0531 I0.6797 J0.0457
G1 X-196.124 Y149.8148
G1 X-196.1076 Y149.6888
G1 X-196.0935 Y149.5555
G2 X-196.0847 Y149.4146 I-1.7308 J-0.1779
G2 X-196.103 Y149.1023 I-1.5501 J-0.0663
G2 X-196.2152 Y148.7717 I-1.0377 J0.1678
G2 X-196.4675 Y148.466 I-0.97 J0.5437
G2 X-196.8477 Y148.226 I-1.0609 J1.2593
G1 X-194.0064 Y147.8763
G1 X-195.1258 Y151.0283
G3 X-195.4717 Y150.996 I0.1262 J-3.2237
G3 X-195.8063 Y150.9028 I0.208 J-1.3937
G3 X-196.0016 Y150.7756 I0.2524 J-0.6009
G3 X-196.1523 Y150.4973 I0.3648 J-0.3775
G3 X-196.1714 Y150.3144 I1.1101 J-0.2088
G3 X-196.1628 Y150.1266 I2.5673 J0.0243
G0 Z5.0
G0 X-228.2555 Y169.3356
G1 Z0.0
G1 Y169.9995
G1 X-229.4456
G1 Y169.3356
G1 X-228.2555
G0 Z5.0
G0 X-229.1334 Y171.5082
G1 Z0.0
G3 X-229.1146 Y171.5169 I-0.0831 J0.2056
G3 X-229.4616 Y171.9304 I-1.1613 J-0.6221
G3 X-229.949 Y172.1625 I-0.8061 J-1.0651
G3 X-230.3041 Y172.2224 I-0.5766 J-2.3361
G3 X-230.7797 Y172.2305 I-0.2945 J-3.2918
G3 X-230.9061 Y172.2241 I0.0344 J-1.9172
G3 X-231.1927 Y172.2012 I0.428 J-7.1748
G1 X-231.517 Y172.1671
G1 X-231.8845 Y172.1257
G1 X-232.08 Y172.1054
G1 X-232.2881 Y172.0869
G1 X-232.5098 Y172.0726
G1 X-232.5662 Y172.0701
G2 X-232.6823 Y172.0667 I-0.103 J1.5113
G2 X-233.2101 Y172.0895 I-0.097 J3.8695
G2 X-233.797 Y172.2328 I0.2581 J2.3313
G3 X-234.9179 Y173.2498 I-3.5277 J-2.7618
G3 X-236.3224 Y173.8143 I-2.2632 J-3.6015
G3 X-237.3275 Y173.925 I-1.0889 J-5.2716
G3 X-238.6642 Y173.8126 I-0.0775 J-7.0833
G1 X-238.8345 Y173.7809
G3 X-239.1949 Y173.7025 I1.164 J-6.2193
G3 X-239.575 Y173.604 I1.7267 J-7.4463
G3 X-240.4244 Y173.3301 I3.3492 J-11.8421
G1 X-240.64 Y173.2497
G3 X-241.6011 Y172.8412 I4.8987 J-12.8622
G1 X-241.8443 Y172.7257
G3 X-242.0928 Y172.6027 I2.7028 J-5.7768
G3 X-244.578 Y171.1138 I9.5599 J-18.7742
G1 X-244.8836 Y170.8994
G1 Y169.9343
G1 X-236.8466 Y172.4744
G3 X-236.522 Y172.2924 I10.1678 J17.7504
G1 X-236.1941 Y172.1166
G3 X-235.5265 Y171.7875 I6.1374 J11.6074
G3 X-234.1384 Y171.2512 I4.6944 J10.086
G3 X-233.1733 Y171.0174 I2.3398 J7.551
G3 X-231.8523 Y170.9079 I1.2469 J7.0198
G3 X-230.1004 Y171.1654 I-0.1164 J6.88
G3 X-229.1439 Y171.5043 I-2.1253 J7.519
G3 X-229.1334 Y171.5082 I-0.0726 J0.2096
G0 Z5.0
M5
M30
