( Made using CamBam - http://www.cambam.co.uk )
( _2014_1_20_car 1/20/2014 11:31:58 PM )
( T0 : 0.0 )
G21 G90 G64 G40
G0 Z5.0
( T0 : 0.0 )
T0 M6
( 217-222 )
G17
M3 S1000
G0 X179.3424 Y178.174
G1 F1.0 Z0.0
G2 X179.2873 Y178.1571 I-0.1716 J0.4606
G2 X179.2329 Y178.1409 I-0.1751 J0.4899
G2 X178.3657 Y177.93 I-3.4615 J12.3429
G1 X178.0381 Y177.8564
G3 X177.4694 Y177.7067 I2.2525 J-9.7122
G3 X176.6511 Y177.3768 I1.3047 J-4.4162
G3 X175.921 Y176.8816 I1.8098 J-3.4541
G3 X176.4047 Y176.6505 I1.1427 J1.7701
G3 X176.8618 Y176.5653 I0.5559 J1.7122
G3 X177.2666 Y176.5805 I0.1165 J2.2911
G3 X177.6161 Y176.643 I-0.5134 J3.8761
G1 X177.7677 Y176.6791
G1 X178.0512 Y176.7524
G2 X178.3008 Y176.8149 I3.8694 J-14.9201
G2 X178.5216 Y176.8615 I1.5454 J-6.7779
G2 X178.9145 Y176.9068 I0.5493 J-3.0406
G2 X180.0417 Y176.5916 I0.0742 J-1.9074
G2 X179.1687 Y175.5291 I-2.869 J1.4674
G2 X178.285 Y175.0081 I-2.3229 J2.9298
G2 X177.5554 Y174.768 I-1.7792 J4.1791
G2 X176.9893 Y174.6627 I-1.3224 J5.5364
G2 X175.2664 Y174.6688 I-0.8384 J6.5975
G1 X174.8535 Y176.2382
G3 X172.4559 Y175.7425 I6.2378 J-36.2177
G1 X172.3258 Y175.7109
G1 X172.1969 Y175.6791
G3 X171.1771 Y175.4132 I11.0224 J-44.3583
G3 X170.7013 Y175.2807 I5.161 J-19.4613
G1 X170.2416 Y175.1481
G1 X169.7973 Y175.0158
G1 X169.368 Y174.8843
G1 X168.953 Y174.7541
G3 X167.3523 Y174.2262 I19.677 J-62.3584
G1 X167.1778 Y174.1666
G1 X166.4921 Y173.9286
G1 X165.8506 Y173.7016
G1 X165.5503 Y173.5941
G1 X165.2595 Y173.4894
G1 X164.1345 Y173.0795
G1 X163.6428 Y172.8986
G1 X161.7999 Y172.2182
G1 X161.1083 Y171.9643
G2 X160.9569 Y171.909 I-1.3727 J3.5218
G2 X159.7824 Y171.4844 I-51.6121 J140.9323
G1 X158.8992 Y171.1723
G1 X158.5673 Y171.0571
G2 X158.4946 Y171.032 I-0.5848 J1.5773
G2 X156.232 Y170.2876 I-24.431 J70.4534
G2 X154.5677 Y169.9909 I-2.0223 J6.5267
G2 X153.3028 Y170.0181 I-0.4469 J8.6513
G2 X152.3635 Y170.1481 I1.0383 J10.9597
G2 X152.2761 Y170.1643 I0.3048 J1.8926
G2 X151.6027 Y170.3092 I2.1454 J11.6013
G1 X151.352 Y170.3717
G2 X150.4825 Y170.6188 I4.7383 J18.3308
G1 X150.2668 Y170.6863
G2 X150.2263 Y170.6992 I0.1126 J0.4226
G2 X149.6232 Y170.8994 I7.7529 J24.3665
G2 X150.2742 Y171.4955 I2.3203 J-1.8808
G2 X150.9514 Y171.8471 I1.9327 J-2.8941
G2 X151.5857 Y172.0428 I1.8222 J-4.7811
G2 X152.7315 Y172.2135 I1.6919 J-7.4248
G2 X153.5985 Y172.2561 I1.2089 J-15.7515
G1 X153.9239 Y172.2618
G1 X154.2088 Y172.2642
G1 X155.2056 Y172.2668
G3 X156.2023 Y172.2904 I-0.1786 J28.6221
G3 X156.4538 Y172.3221 I-0.1908 J2.5297
G3 X156.9442 Y172.4137 I-1.6021 J9.9342
G1 X157.1807 Y172.4631
G1 X157.4131 Y172.5137
G1 X157.4703 Y172.5264
G3 X161.0807 Y173.4691 I-13.1302 J57.6745
G1 X161.7522 Y173.6698
G1 X162.0663 Y173.7664
G3 X164.4818 Y174.5742 I-17.2699 J55.6534
G3 X165.3782 Y174.9083 I-11.8159 J33.0742
G3 X166.9277 Y175.544 I-12.3617 J32.3383
G3 X168.0678 Y176.0748 I-12.3853 J28.0905
G3 X169.7151 Y176.9963 I-7.5839 J15.4902
G3 X170.4877 Y177.5413 I-5.3235 J8.3665
G3 X171.1902 Y178.174 I-3.8711 J5.0052
G1 X171.1281 Y178.2413
G3 X170.8783 Y178.4791 I-5.0611 J-5.0674
G1 X170.8304 Y178.5243
G2 X170.6579 Y178.702 I2.4566 J2.5562
G2 X170.5983 Y178.7749 I0.714 J0.6448
G2 X170.449 Y179.0678 I0.6207 J0.501
G2 X170.4723 Y179.3957 I0.5341 J0.1267
G3 X170.9499 Y179.5551 I-3.2338 J10.4839
G3 X171.833 Y179.894 I-8.7438 J24.1026
G1 X171.9294 Y179.9331
G1 X172.6877 Y180.243
G2 X173.3578 Y180.5063 I12.8371 J-31.688
G2 X174.5606 Y180.8959 I4.2141 J-10.9577
G2 X175.4977 Y181.0721 I1.6714 J-6.3116
G2 X175.587 Y181.0811 I0.1379 J-0.9143
G2 X176.2814 Y181.0974 I0.4575 J-4.6951
G2 X177.3066 Y180.9179 I-0.1847 J-4.0735
G2 X178.2565 Y180.4928 I-1.2613 J-4.0922
G2 X178.1136 Y180.2936 I-1.2588 J0.7523
G2 X178.0425 Y180.2121 I-1.5896 J1.314
G1 X177.763 Y179.9152
G3 X177.5651 Y179.6736 I1.4975 J-1.428
G3 X177.4499 Y179.4667 I0.8347 J-0.6005
G3 X177.393 Y179.1174 I0.6906 J-0.2918
G3 X177.494 Y178.7783 I0.9225 J0.0904
G3 X177.9547 Y178.6219 I1.6514 J4.1056
G1 X178.0426 Y178.5973
G1 X178.3737 Y178.5104
G2 X178.8673 Y178.369 I-1.5482 J-6.3358
G2 X179.1084 Y178.2802 I-1.5047 J-4.4566
G1 X179.1381 Y178.2679
G2 X179.3424 Y178.174 I-0.847 J-2.1114
G0 Z5.0
G0 X173.015 Y173.7108
G1 Z0.0
G2 X173.0199 Y173.7036 I-0.6261 J-0.4416
G2 X173.0829 Y173.5888 I-1.3658 J-0.824
G2 X173.1711 Y173.3573 I-0.8679 J-0.4629
G2 X173.1802 Y173.1437 I-0.5033 J-0.1285
G2 X173.1049 Y172.9812 I-0.3606 J0.0683
G2 X172.9934 Y172.8767 I-0.407 J0.3225
G2 X172.7605 Y172.7503 I-0.665 J0.9477
G2 X172.3882 Y172.6122 I-2.6203 J6.4909
G1 X172.2011 Y172.546
G1 X172.1081 Y172.5112
G1 X172.0619 Y172.4931
G1 X172.016 Y172.4744
G1 X170.4723 Y173.4396
G1 X170.5441 Y173.4844
G2 X171.1254 Y173.7872 I2.5004 J-4.0907
G2 X171.5952 Y173.958 I1.5652 J-3.5748
G2 X171.9672 Y174.0391 I0.6918 J-2.2783
G2 X172.2553 Y174.0586 I0.26 J-1.704
G2 X172.6822 Y173.977 I0.0067 J-1.1217
G2 X173.015 Y173.7108 I-0.2933 J-0.7078
G0 Z5.0
G0 X172.8318 Y167.5313
G1 Z0.0
G2 X173.0307 Y167.5159 I-0.062 J-2.0915
G2 X173.4504 Y167.4015 I-0.1731 J-1.4626
G2 X173.9917 Y166.8954 I-0.4318 J-1.0042
G2 X174.0877 Y166.6398 I-1.2382 J-0.6112
G2 X174.1383 Y166.1684 I-1.735 J-0.4245
G2 X174.1056 Y165.8151 I-2.6157 J0.0638
G2 X173.983 Y165.2979 I-3.5769 J0.5749
G1 X173.9421 Y165.1713
G2 X173.801 Y164.7983 I-7.6071 J2.6644
G2 X172.9296 Y163.6426 I-2.6349 J1.0804
G2 X171.8745 Y163.1434 I-1.6048 J2.0269
G2 X171.4215 Y163.0988 I-0.4229 J1.9749
G2 X171.0251 Y163.1494 I0.0082 J1.6431
G2 X170.4136 Y163.4744 I0.3244 J1.3482
G2 X170.1102 Y163.8902 I0.955 J1.0152
G2 X169.9863 Y164.2539 I1.648 J0.7648
G2 X169.9354 Y164.8261 I2.3046 J0.4932
G2 X170.0001 Y165.397 I3.7261 J-0.1329
G2 X170.3019 Y166.1532 I2.1353 J-0.4141
G2 X170.7893 Y166.725 I2.3146 J-1.4793
G2 X171.9883 Y167.4042 I2.1877 J-2.464
G2 X172.5347 Y167.519 I0.856 J-2.7161
G2 X172.8318 Y167.5313 I0.235 J-2.0791
G0 Z5.0
G0 X172.5754 Y168.9381
G1 Z0.0
G3 X172.3748 Y168.8967 I0.7914 J-4.3421
G3 X171.1324 Y168.4389 I1.1993 J-5.1704
G3 X170.2902 Y167.9054 I2.5118 J-4.8965
G3 X169.731 Y167.4059 I2.9931 J-3.913
G3 X169.0598 Y166.5042 I3.0681 J-2.9844
G3 X168.6725 Y165.4491 I3.1326 J-1.7486
G3 X168.5802 Y164.7791 I6.2734 J-1.2054
G3 X168.5702 Y164.1383 I5.1538 J-0.4012
G3 X168.6504 Y163.5421 I3.5092 J0.1688
G3 X168.8235 Y163.0094 I2.8133 J0.6193
G3 X169.4344 Y162.1797 I2.0857 J0.8959
G3 X170.2014 Y161.7544 I1.4614 J1.7314
G3 X170.9461 Y161.6214 I0.8634 J2.6839
G3 X171.6033 Y161.6587 I0.1462 J3.2378
G3 X172.6985 Y161.9982 I-0.6318 J3.9741
G3 X174.0804 Y163.0097 I-1.9451 J4.1068
G3 X175.0061 Y164.4505 I-3.4806 J3.2542
G3 X175.0452 Y164.5455 I-3.7662 J1.6059
G3 X175.3204 Y165.3165 I-8.1763 J3.3531
G3 X175.5048 Y166.079 I-5.8956 J1.829
G3 X175.5723 Y166.8122 I-4.0478 J0.7426
G3 X175.4973 Y167.4875 I-2.7871 J0.0321
G3 X175.2671 Y168.061 I-1.9893 J-0.4654
G3 X174.4354 Y168.7887 I-1.556 J-0.9391
G3 X173.9913 Y168.9354 I-0.9771 J-2.2137
G3 X173.1251 Y169.003 I-0.6802 J-3.131
G3 X172.5754 Y168.9381 I0.2417 J-4.407
G0 Z5.0
G0 X172.3161 Y170.5081
G1 Z0.0
G1 X172.3454 Y170.5129
G1 X172.5909 Y170.5482
G1 X172.7141 Y170.5619
G1 X172.8379 Y170.5703
G3 X174.4966 Y170.6689 I-0.9803 J30.5006
G1 X174.8153 Y170.7009
G3 X176.0071 Y170.8899 I-1.1807 J11.2973
G1 X176.2319 Y170.9438
G3 X177.0517 Y171.2303 I-1.1271 J4.5403
G3 X177.3416 Y171.3857 I-1.1613 J2.5161
G3 X177.7945 Y171.7403 I-1.157 J1.9439
G3 X178.2601 Y172.4612 I-1.5073 J1.4843
G1 X178.2978 Y172.562
G3 X178.3982 Y172.9248 I-2.5723 J0.9074
G3 X178.4575 Y173.2964 I-4.2211 J0.8638
G2 X178.522 Y173.5869 I1.2272 J-0.1201
G2 X178.8304 Y174.0309 I0.9658 J-0.3418
G2 X178.8752 Y174.0676 I0.777 J-0.9018
G2 X179.2678 Y174.2969 I1.1177 J-1.4633
G2 X179.638 Y174.4429 I2.1165 J-4.825
G1 X179.803 Y174.5003
G3 X180.4208 Y174.7213 I-3.8292 J11.6737
G3 X180.6483 Y174.819 I-1.4899 J3.785
G1 X180.6974 Y174.8421
G3 X181.064 Y175.0472 I-1.1907 J2.5577
G3 X181.8902 Y175.9816 I-1.2409 J1.9298
G3 X182.0419 Y176.5302 I-5.0691 J1.6967
G3 X182.1181 Y177.0282 I-4.1918 J0.8965
G3 X182.1229 Y177.4721 I-2.9773 J0.2541
G3 X181.932 Y178.2237 I-2.0279 J-0.1152
G3 X181.5955 Y178.6955 I-1.5701 J-0.7638
G3 X181.2567 Y178.9653 I-1.348 J-1.3452
G3 X180.6704 Y179.2404 I-1.4801 J-2.3922
G3 X180.0417 Y179.3957 I-1.2697 J-3.7889
G2 X179.9563 Y179.6639 I0.6421 J0.3522
G2 X179.9869 Y179.8992 I0.5146 J0.0526
G2 X180.0875 Y180.0745 I0.6614 J-0.263
G2 X180.2065 Y180.2034 I0.896 J-0.7076
G2 X180.4448 Y180.3956 I1.6775 J-1.8368
G1 X180.6329 Y180.5275
G1 X180.774 Y180.6267
G3 X180.9783 Y180.7858 I-2.1153 J2.9259
G3 X181.1575 Y180.9726 I-0.7125 J0.8633
G3 X180.8673 Y181.3603 I-0.8307 J-0.3194
G3 X180.4923 Y181.5423 I-0.6843 J-0.9324
G3 X180.126 Y181.6121 I-0.5773 J-2.0349
G3 X179.7874 Y181.634 I-0.4154 J-3.8014
G3 X179.4762 Y181.6375 I-0.2243 J-6.0761
G2 X179.1915 Y181.638 I-0.1163 J15.2565
G2 X178.6775 Y181.6706 I-0.0286 J3.6097
G1 X178.5779 Y181.6896
G2 X178.3965 Y181.7485 I0.2558 J1.0982
G2 X178.1492 Y181.9647 I0.1932 J0.4704
G2 X178.0831 Y182.1958 I0.4942 J0.2665
G2 X178.1123 Y182.552 I1.2213 J0.079
G2 X178.212 Y182.8954 I2.4989 J-0.5388
G3 X177.9082 Y182.9327 I-0.3816 J-1.8493
G3 X177.3182 Y182.9197 I-0.1961 J-4.4886
G3 X176.7693 Y182.8593 I0.6978 J-8.8609
G3 X175.7497 Y182.6839 I2.3495 J-16.7057
G3 X174.8653 Y182.4912 I5.0931 J-25.5098
G1 X174.8171 Y182.4799
G1 X174.4351 Y182.388
G1 X174.3457 Y182.3658
G1 X173.9943 Y182.2768
G1 X173.912 Y182.2555
G3 X171.3396 Y181.5172 I13.7126 J-52.6265
G1 X171.0205 Y181.4166
G1 X170.7417 Y181.327
G1 X170.2551 Y181.1666
G3 X169.5288 Y180.9154 I8.9169 J-26.964
G1 X169.3481 Y180.8501
G1 X169.0781 Y180.7492
G1 X169.0108 Y180.7233
G3 X168.8101 Y180.6434 I2.045 J-5.4307
G3 X168.407 Y180.4547 I1.9261 J-4.638
G3 X167.7712 Y180.0008 I1.2868 J-2.4749
G3 X167.2151 Y178.9815 I1.3301 J-1.3869
G3 X167.1697 Y178.4 I2.4646 J-0.485
G1 X167.1776 Y178.2543
G3 X167.201 Y178.0367 I4.0602 J0.327
G3 X167.2088 Y177.9824 I0.5567 J0.053
G3 X167.2367 Y177.8207 I2.3257 J0.3172
G1 X166.8562 Y177.6955
G3 X165.3969 Y177.166 I13.1095 J-38.4107
G1 X165.2385 Y177.1047
G1 X164.6167 Y176.8584
G1 X164.0359 Y176.6219
G1 X163.4927 Y176.3969
G3 X163.2383 Y176.2908 I3.6882 J-9.1998
G3 X163.115 Y176.2393 I1.6531 J-4.1285
G1 X162.1446 Y175.8339
G1 X161.7194 Y175.6579
G2 X160.9195 Y175.3335 I-20.3228 J48.964
G2 X160.8317 Y175.2986 I-0.5323 J1.2111
G2 X160.7453 Y175.2644 I-0.5188 J1.1848
G2 X160.6601 Y175.2309 I-0.5059 J1.1599
G2 X160.5762 Y175.198 I-0.4937 J1.1366
G2 X160.4935 Y175.1658 I-0.482 J1.1146
G1 X160.1677 Y175.0405
G1 X159.8612 Y174.9255
G1 X159.573 Y174.82
G1 X159.302 Y174.7234
G2 X158.2774 Y174.3848 I-9.9396 J28.3641
G2 X156.7131 Y173.9687 I-5.9963 J19.3919
G2 X155.9183 Y173.8142 I-3.3667 J15.2014
G2 X155.8184 Y173.7979 I-0.2671 J1.3185
G2 X155.468 Y173.7462 I-1.3299 J7.8083
G2 X155.3802 Y173.7347 I-0.2367 J1.4641
G2 X155.2483 Y173.7185 I-0.2999 J1.8957
G2 X155.1164 Y173.7036 I-0.2999 J2.0666
G3 X153.8673 Y173.9077 I-1.5082 J-5.3068
G3 X152.7668 Y173.8702 I-0.3202 J-6.7716
G3 X152.2909 Y173.8016 I1.0398 J-8.8995
G3 X152.0696 Y173.76 I1.1422 J-6.6744
G3 X150.399 Y173.264 I2.0754 J-10.0528
G3 X149.2061 Y172.7315 I4.7606 J-12.268
G3 X148.3464 Y172.2614 I6.4559 J-12.8248
G3 X145.96 Y170.5517 I8.4895 J-14.3702
G3 X147.2238 Y169.7022 I6.94 J8.9603
G3 X149.8443 Y168.6335 I5.0654 J8.6734
G3 X152.2716 Y168.33 I2.512 J10.2326
G3 X153.3349 Y168.3648 I0.1559 J11.5181
G3 X155.3055 Y168.6446 I-1.2367 J15.7852
G3 X156.9942 Y169.06 I-4.9053 J23.5824
G1 X157.177 Y169.1126
G1 X157.3566 Y169.1655
G3 X158.7605 Y169.6152 I-12.8042 J42.3913
G1 X159.3701 Y169.8261
G3 X159.94 Y170.0291 I-11.4995 J33.1875
G1 X161.0058 Y170.4174
G1 X161.9383 Y170.7587
G1 X162.347 Y170.9065
G1 X162.7307 Y171.0435
G1 X163.0913 Y171.17
G2 X163.43 Y171.2865 I4.685 J-13.0735
G2 X163.5095 Y171.3134 I0.3421 J-0.878
G2 X163.5879 Y171.3399 I0.3343 J-0.862
G2 X163.6651 Y171.3657 I0.3268 J-0.8468
G2 X163.7411 Y171.3911 I0.3196 J-0.8323
G2 X163.816 Y171.4159 I0.3126 J-0.8183
G2 X163.8898 Y171.4402 I0.3058 J-0.805
G2 X163.9624 Y171.4639 I0.2993 J-0.7921
G2 X164.034 Y171.4872 I0.293 J-0.7798
G2 X164.1045 Y171.5099 I0.2868 J-0.768
G2 X165.2207 Y171.8473 I8.7075 J-26.7959
G2 X166.9224 Y172.2522 I5.5964 J-19.7419
G2 X167.1376 Y172.2915 I1.0197 J-4.971
G2 X168.6575 Y172.4744 I2.3735 J-13.3164
G1 Y171.5169
G1 X164.0041 Y169.6252
G1 X162.8403 Y169.1531
G1 X161.9672 Y168.7999
G1 X160.6567 Y168.2722
G1 X160.001 Y168.0094
G1 X159.837 Y167.9438
G1 X159.345 Y167.7475
G3 X159.0236 Y167.6091 I2.0082 J-5.1019
G3 X158.9688 Y167.5829 I0.6481 J-1.4291
G1 X158.925 Y167.5613
G3 X158.7767 Y167.4811 I0.8843 J-1.8118
G1 X158.7317 Y167.4532
G3 X158.6617 Y167.4019 I0.1881 J-0.33
G1 X158.6357 Y167.3757
G3 X158.6218 Y167.3497 I0.0644 J-0.0514
G3 X158.6465 Y167.3183 I0.0287 J-0.0029
G3 X158.7155 Y167.3098 I0.0624 J0.2217
G3 X158.9725 Y167.338 I-0.0502 J1.6431
G1 X159.1628 Y167.3748
G1 X159.3047 Y167.4062
G1 X159.5168 Y167.4571
G1 X159.6225 Y167.4839
G3 X159.6754 Y167.4975 I-0.1331 J0.6244
G3 X159.728 Y167.5113 I-0.0725 J0.3851
G2 X166.2573 Y169.1509 I161.2317 J-628.2187
G2 X169.5327 Y169.9298 I55.0167 J-224.0909
G2 X169.5584 Y169.9357 I0.0545 J-0.1793
G2 X171.1901 Y170.2944 I17.5442 J-75.9191
G1 X171.5996 Y170.3775
G1 X171.9073 Y170.4367
G2 X171.9652 Y170.4474 I0.1876 J-0.8519
G1 X172.1822 Y170.486
G1 X172.3161 Y170.5081
G0 Z5.0
G0 X175.921 Y164.6476
G1 Z0.0
G2 X175.7925 Y163.9961 I-7.4398 J1.1282
G2 X175.3951 Y162.8131 I-6.5104 J1.5291
G2 X174.8442 Y161.868 I-4.5986 J2.0477
G2 X173.4018 Y160.6383 I-3.3589 J2.479
G2 X172.0601 Y160.197 I-2.094 J4.1065
G2 X171.0062 Y160.1173 I-0.9646 J5.7492
G2 X169.4367 Y160.319 I0.1329 J7.2421
G2 X167.9396 Y160.8318 I1.8995 J7.9869
G3 X169.0496 Y159.5941 I3.54 J2.0582
G3 X170.335 Y158.9475 I2.5384 J3.4446
G3 X172.8119 Y158.8971 I1.3266 J4.3078
G3 X174.4627 Y159.7238 I-1.1531 J4.364
G3 X175.4148 Y160.7212 I-3.1039 J3.916
G3 X175.942 Y161.6089 I-4.5686 J3.314
G3 X176.4532 Y163.0673 I-6.5329 J3.1083
G3 X176.6834 Y164.5956 I-9.4221 J2.201
G1 X175.921 Y164.6476
G0 Z5.0
M5
M30
