( Made using CamBam - http://www.cambam.co.uk )
( _2014_1_20_car 1/20/2014 11:50:43 PM )
( T0 : 0.0 )
G21 G90 G64 G40
G0 Z5.0
( T0 : 0.0 )
T0 M6
( 167-168 )
G17
M3 S1000
G0 X217.043 Y175.1876
G1 F1.0 Z0.0
G2 X216.6036 Y174.8908 I-1.7342 J2.0937
G2 X216.1062 Y174.7073 I-0.8798 J1.6189
G2 X215.7508 Y174.6957 I-0.2103 J0.9987
G2 X215.5569 Y174.7683 I0.0724 J0.4883
G2 X215.4197 Y174.9824 I0.162 J0.2549
G2 X215.4276 Y175.1308 I0.3992 J0.0532
G2 X215.485 Y175.287 I0.6321 J-0.1436
G2 X215.58 Y175.4416 I0.8975 J-0.445
G2 X215.7026 Y175.5912 I1.3608 J-0.9905
G2 X215.9868 Y175.857 I1.8839 J-1.7295
G2 X217.5367 Y177.0822 I63.1203 J-78.2509
G1 X217.7602 Y177.2545
G2 X219.5658 Y178.61 I70.6934 J-92.2941
G1 X220.0871 Y178.9901
G2 X220.366 Y179.1916 I11.6015 J-15.7648
G1 X220.5102 Y179.2953
G2 X225.2011 Y182.5012 I75.3144 J-105.1646
G1 X225.8366 Y182.9136
G2 X229.2598 Y185.0598 I85.325 J-132.2917
G1 X230.1815 Y185.6178
G1 X231.1683 Y186.2067
G2 X233.4376 Y187.5296 I103.1789 J-174.383
G2 X239.5699 Y190.912 I105.3596 J-183.766
G2 X243.1197 Y192.7592 I123.0346 J-232.113
G2 X243.1755 Y192.7876 I0.4587 J-0.8306
G2 X252.7917 Y197.4538 I128.0199 J-251.5858
G1 X253.408 Y197.7381
G2 X259.0688 Y200.2763 I128.6914 J-279.4305
G2 X262.1066 Y201.5872 I142.8246 J-326.7911
G2 X262.2019 Y201.6278 I0.6141 J-1.3099
G2 X265.4618 Y202.9967 I172.2188 J-405.569
G2 X272.9582 Y206.0109 I147.2264 J-355.3215
G2 X276.98 Y207.557 I136.9873 J-350.3382
G1 X278.0038 Y207.9431
G2 X287.4055 Y211.356 I163.9992 J-437.1266
G1 X288.6045 Y211.7748
G1 X289.8237 Y212.197
G1 X291.0633 Y212.6226
G2 X302.4436 Y216.3622 I162.8084 J-476.2646
G1 X303.8947 Y216.8183
G1 X305.3701 Y217.2775
G1 X306.8702 Y217.7396
G1 X308.3954 Y218.2048
G1 X309.9461 Y218.6727
G2 X311.5228 Y219.1436 I169.0197 J-563.1263
G1 X311.6306 Y219.177
G1 X311.6666 Y219.1881
G2 X311.8105 Y219.2325 I1.0403 J-3.1145
G2 X311.9064 Y219.2621 I1.1277 J-3.4886
G1 X312.2902 Y219.3804
G1 X312.546 Y219.4597
G1 X312.8866 Y219.5668
G1 X313.0808 Y219.6292
G1 X313.1843 Y219.6628
G3 X313.7338 Y219.8493 I-6.3426 J19.5922
G1 X314.0453 Y219.963
G1 X314.2104 Y220.0263
G1 X314.3855 Y220.0964
G3 X314.7813 Y220.2681 I-4.7425 J11.4735
G1 X314.8821 Y220.3154
G3 X315.9054 Y220.9207 I-2.5632 J5.5012
G3 X316.9941 Y222.0867 I-2.5963 J3.5153
G3 X317.414 Y222.9054 I-4.4288 J2.7887
G3 X282.2974 Y211.7464 I108.8931 J-403.5117
G3 X270.829 Y207.3395 I139.3132 J-379.6721
G1 X270.47 Y207.195
G1 X270.1083 Y207.0491
G1 X269.7439 Y206.9016
G3 X254.3403 Y200.2689 I143.8736 J-355.3315
G3 X245.6782 Y196.1671 I147.5799 J-322.8489
G1 X245.4082 Y196.0345
G1 X245.1373 Y195.9012
G1 X244.8655 Y195.7671
G1 X244.1004 Y195.3751
G1 X243.3343 Y194.9851
G1 X241.8002 Y194.209
G1 X240.7767 Y193.6932
G1 X239.412 Y193.0055
G1 X237.5942 Y192.0847
G1 X236.5575 Y191.5549
G3 X233.804 Y190.1199 I89.9012 J-175.8647
G1 X233.0735 Y189.7301
G3 X229.2155 Y187.5811 I63.2412 J-118.0686
G1 X228.7236 Y187.2935
G1 X228.2175 Y186.9937
G1 X227.961 Y186.8402
G1 X227.701 Y186.6835
G1 X227.4374 Y186.5234
G3 X226.319 Y185.8301 I56.3931 J-92.2167
G1 X226.0367 Y185.6513
G3 X223.4927 Y183.9582 I38.6719 J-60.8661
G1 X223.3349 Y183.8478
G3 X220.5131 Y181.7411 I33.7288 J-48.1216
G1 X220.3398 Y181.6024
G1 X220.1658 Y181.462
G3 X217.1013 Y178.7498 I28.8557 J-35.6914
G1 X216.9168 Y178.5695
G3 X216.1673 Y177.8125 I23.9426 J-24.4556
G3 X215.4154 Y177.0095 I32.953 J-31.6108
G1 X215.2296 Y176.8037
G3 X214.857 Y176.3811 I17.4455 J-15.7595
G3 X213.3432 Y174.51 I24.6843 J-21.5186
G3 X212.6152 Y173.5019 I27.1 J-20.3361
G3 X211.1966 Y171.2546 I25.7071 J-17.7998
G2 X225.1418 Y176.118 I247.5206 J-687.3167
G2 X239.1802 Y180.7051 I244.8625 J-725.5918
G2 X239.402 Y180.7753 I4.403 J-13.5306
G2 X239.6255 Y180.846 I4.4093 J-13.561
G2 X239.8509 Y180.9171 I4.4156 J-13.5911
G2 X240.078 Y180.9888 I4.4219 J-13.6215
G2 X240.3069 Y181.0609 I4.4281 J-13.6519
G2 X240.5376 Y181.1335 I4.4343 J-13.6823
G1 X242.5073 Y181.7507
G1 X244.6099 Y182.4036
G2 X255.8512 Y185.7972 I258.4805 J-835.9004
G1 X257.3048 Y186.2246
G1 X258.8061 Y186.6634
G1 X260.3565 Y187.1137
G1 X261.9577 Y187.5759
G1 X263.6113 Y188.0501
G1 X265.3191 Y188.5367
G1 X267.0829 Y189.0359
G1 X268.9046 Y189.5479
G1 X270.7859 Y190.073
G2 X290.9078 Y195.4728 I312.6672 J-1124.9424
G2 X291.2242 Y195.5548 I3.5712 J-13.1291
G2 X291.5418 Y195.637 I3.5732 J-13.1477
G2 X291.8608 Y195.7195 I3.5752 J-13.1665
G2 X292.181 Y195.8022 I3.5773 J-13.1854
G2 X292.5024 Y195.8852 I3.5794 J-13.2044
G2 X292.6635 Y195.9267 I2.4976 J-9.3516
G2 X292.8249 Y195.9683 I2.4982 J-9.3583
G2 X292.9866 Y196.01 I2.4989 J-9.3651
G2 X293.1486 Y196.0517 I2.4996 J-9.3718
G1 X294.4654 Y196.39
G1 X295.8035 Y196.7323
G1 X298.5669 Y197.4349
G1 X301.4208 Y198.1544
G1 X304.3684 Y198.8912
G1 X307.4124 Y199.6457
G1 X308.9591 Y200.0267
G1 X310.5308 Y200.4122
G1 X312.1278 Y200.8023
G1 X313.7505 Y201.197
G3 X314.57 Y203.1405 I-11.2516 J5.8894
G3 X315.068 Y205.1899 I-13.0744 J4.2618
G3 X315.2384 Y206.586 I-17.7446 J2.8745
G1 X315.2654 Y206.9601
G1 X315.2867 Y207.3596
G3 X315.3017 Y207.7859 I-12.4688 J0.651
G3 X315.3065 Y208.0061 I-5.2242 J0.225
G3 X315.3083 Y208.1179 I-3.2757 J0.1074
G3 X315.3096 Y208.2315 I-3.0787 J0.0927
G3 X315.3105 Y208.3469 I-2.9291 J0.0801
G3 X315.3109 Y208.4642 I-2.8126 J0.0691
G3 Y208.5833 I-2.7204 J0.0592
G1 X315.3061 Y209.0911
G1 X315.2937 Y209.6324
G1 X315.274 Y210.2092
G1 X315.248 Y210.824
G1 X315.2171 Y211.4793
G1 X315.184 Y212.1778
G2 X315.1522 Y212.9225 I46.0848 J2.3426
G2 X315.1486 Y213.0164 I2.0985 J0.1264
G1 X315.1354 Y213.4038
G1 X315.1248 Y213.8036
G2 X315.1316 Y215.6295 I30.5028 J0.7985
G2 X315.1863 Y216.6015 I24.3198 J-0.8797
G1 X314.589 Y216.4417
G1 X313.9919 Y216.2806
G1 X312.7986 Y215.955
G3 X310.4157 Y215.291 I73.8434 J-269.5722
G1 X308.8297 Y214.8391
G3 X308.4071 Y214.7175 I7.9924 J-28.5569
G1 X307.4417 Y214.4376
G1 X306.3392 Y214.1147
G1 X305.7516 Y213.9412
G3 X296.3842 Y211.0529 I127.2966 J-429.4826
G1 X296.0878 Y210.9579
G1 X295.7868 Y210.8612
G1 X295.481 Y210.7628
G1 X295.1705 Y210.6626
G1 X294.8551 Y210.5607
G1 X294.5348 Y210.4569
G1 X294.2094 Y210.3512
G1 X293.879 Y210.2436
G3 X272.8942 Y202.8909 I158.1857 J-485.0924
G3 X272.5663 Y202.7678 I12.0981 J-32.7194
G1 X271.2136 Y202.2571
G3 X265.0493 Y199.8707 I180.0312 J-474.1923
G1 X264.269 Y199.5614
G3 X257.1624 Y196.6647 I155.1398 J-390.7715
G1 X256.9403 Y196.5717
G1 X256.0384 Y196.1925
G3 X247.8395 Y192.6158 I141.9939 J-336.6792
G3 X238.5969 Y188.2452 I114.8532 J-254.8379
G1 X237.4357 Y187.6642
G1 X237.2905 Y187.591
G1 X237.145 Y187.5175
G3 X232.2155 Y184.941 I93.0869 J-184.1039
G1 X231.5999 Y184.6062
G3 X229.0729 Y183.1956 I66.3782 J-121.8832
G1 X228.4405 Y182.8327
G3 X223.128 Y179.5867 I58.1092 J-101.0722
G3 X222.9647 Y179.4801 I5.4089 J-8.4702
G1 X222.3086 Y179.0472
G1 X221.6512 Y178.6048
G3 X220.3286 Y177.6862 I37.113 J-54.8478
G1 X219.9997 Y177.4512
G1 X219.6708 Y177.2133
G3 X218.3496 Y176.2252 I36.8531 J-50.6552
G1 X218.0222 Y175.9715
G1 X217.6955 Y175.7142
G3 X217.043 Y175.1876 I35.5446 J-44.7061
G0 Z5.0
G0 X218.4616 Y171.0477
G1 Z0.0
G3 X207.5183 Y167.1357 I142.9436 J-417.1254
G1 X206.8154 Y167.7475
G2 X207.6304 Y170.0624 I17.8242 J-4.9746
G2 X208.7263 Y172.2582 I19.6646 J-8.4429
G2 X209.5882 Y173.6493 I21.103 J-12.1116
G2 X210.8714 Y175.4126 I22.9155 J-15.3279
G2 X211.6628 Y176.3751 I21.54 J-16.9053
G2 X213.9353 Y178.7925 I28.4538 J-24.4715
G2 X215.3189 Y180.0874 I31.943 J-32.7464
G2 X216.0771 Y180.7551 I43.7311 J-48.8839
G2 X216.1251 Y180.7966 I0.7818 J-0.8577
G2 X216.1734 Y180.8381 I0.7854 J-0.8637
G2 X217.0033 Y181.5377 I30.5038 J-35.3475
G1 X217.4366 Y181.8926
G2 X217.4913 Y181.9369 I0.9026 J-1.0578
G2 X217.5462 Y181.9812 I0.9086 J-1.0675
G2 X219.5815 Y183.562 I42.0613 J-52.0573
G1 X220.1154 Y183.9582
G2 X220.6696 Y184.3626 I34.1918 J-46.275
G1 X221.2448 Y184.7755
G2 X221.3902 Y184.8788 I4.3838 J-6.0147
G2 X221.6861 Y185.0879 I10.0696 J-13.9389
G1 X222.2992 Y185.5161
G1 X222.6117 Y185.7319
G1 X223.2588 Y186.174
G1 X223.5885 Y186.3969
G1 X224.1707 Y186.7862
G1 X224.7563 Y187.1701
G1 X224.9243 Y187.2788
G2 X226.2773 Y188.1341 I60.4846 J-94.1886
G1 X226.4589 Y188.2463
G1 X226.875 Y188.501
G1 X227.352 Y188.7895
G1 X227.8992 Y189.1159
G2 X232.3413 Y191.6141 I60.3394 J-102.0929
G1 X232.941 Y191.934
G2 X233.5822 Y192.2721 I37.2775 J-69.9163
G1 X233.7453 Y192.3575
G1 X234.4423 Y192.7197
G2 X236.0415 Y193.5355 I87.0946 J-168.7499
G2 X240.3409 Y195.6401 I96.6367 J-191.9708
G1 X241.4944 Y196.1866
G2 X244.1399 Y197.4165 I128.5962 J-273.1511
G2 X251.2387 Y200.5951 I183.7808 J-400.9206
G1 X251.4631 Y200.6934
G1 X253.3794 Y201.5286
G1 X254.3694 Y201.9575
G2 X256.483 Y202.868 I205.4011 J-473.9046
G2 X256.5493 Y202.8965 I0.4356 J-0.9234
G2 X256.6157 Y202.9249 I0.4362 J-0.9248
G2 X256.6822 Y202.9535 I0.4368 J-0.9262
G1 X257.7805 Y203.424
G2 X262.8058 Y205.5618 I663.4253 J-1552.4829
G1 X263.4444 Y205.8322
G1 X264.7629 Y206.39
G1 X266.1242 Y206.9651
G1 X269.0285 Y208.1909
G2 X273.1213 Y209.898 I230.7637 J-547.4687
G2 X273.3946 Y210.0107 I6.8657 J-16.2663
G2 X277.7762 Y211.7933 I240.8159 J-585.6567
G2 X278.0594 Y211.9069 I6.2999 J-15.2902
G2 X278.3519 Y212.0241 I6.3618 J-15.4583
G2 X278.6538 Y212.1448 I6.423 J-15.6259
G2 X278.9656 Y212.2692 I6.4834 J-15.7928
G2 X279.2875 Y212.3975 I6.543 J-15.9588
G2 X289.6367 Y216.3771 I176.2801 J-442.9777
G1 X291.0239 Y216.8885
G1 X292.5055 Y217.4287
G1 X294.0881 Y217.9988
G1 X295.7786 Y218.5998
G2 X304.8407 Y221.6742 I128.363 J-363.4719
G1 X306.0156 Y222.054
G1 X307.2297 Y222.442
G2 X320.2668 Y226.2999 I102.3421 J-321.8847
G2 X320.4725 Y226.3562 I1.9681 J-6.7946
G2 X320.6792 Y226.4125 I1.9627 J-6.7911
G1 X321.3823 Y225.717
G1 X318.5408 Y218.7958
G3 X318.369 Y218.2035 I3.0549 J-1.2069
G3 X318.3331 Y218.0009 I5.2668 J-1.0394
G3 X318.2664 Y217.1819 I6.2534 J-0.9208
G3 X318.2642 Y216.9471 I4.0445 J-0.1558
G3 X318.2804 Y216.3219 I14.0172 J0.0504
G3 X318.2984 Y215.9652 I11.3342 J0.3916
G1 X318.3211 Y215.558
G1 X318.3436 Y215.0929
G1 X318.3513 Y214.8448
G2 X318.3474 Y214.2776 I-8.9357 J-0.2222
G2 X318.3267 Y213.9757 I-4.74 J0.173
G2 X318.1979 Y213.2946 I-3.5819 J0.3245
G2 X318.061 Y212.9485 I-2.0677 J0.6182
G2 X317.9661 Y212.7803 I-1.5747 J0.7773
G2 X317.2944 Y212.1658 I-1.4736 J0.9363
G2 X316.8293 Y211.981 I-1.1659 J2.2572
G2 X316.2983 Y211.8745 I-0.9463 J3.3406
G1 Y211.2628
G2 X317.0073 Y211.1206 I-0.6105 J-4.8813
G2 X317.6759 Y210.8452 I-0.8655 J-3.0512
G2 X318.6264 Y209.7641 I-1.0231 J-1.8579
G2 X318.7515 Y209.3639 I-2.2727 J-0.9303
G2 X318.8273 Y208.8919 I-3.4926 J-0.8024
G2 X318.849 Y208.3495 I-5.3474 J-0.4861
G2 X318.8486 Y208.3152 I-0.2625 J-0.014
G2 X318.8384 Y208.0249 I-5.6678 J0.0539
G2 X318.8164 Y207.7175 I-6.0387 J0.2785
G2 X318.8014 Y207.5596 I-4.108 J0.3094
G1 X318.7839 Y207.3974
G2 X318.7744 Y207.3152 I-1.063 J0.082
G2 X318.7535 Y207.1462 I-3.7951 J0.3841
G1 X318.7305 Y206.9725
G2 X318.7058 Y206.7941 I-5.1094 J0.6174
G1 X318.5922 Y205.9944
G3 X318.5408 Y205.5707 I9.9089 J-1.4182
G2 X319.6446 Y205.9039 I6.6845 J-20.153
G2 X319.7187 Y205.9245 I0.2583 J-0.7846
G2 X319.7978 Y205.9463 I0.2722 J-0.8313
G1 X320.2199 Y206.0607
G2 X320.4615 Y206.125 I3.0566 J-10.9931
G1 X321.1056 Y206.2959
G3 X321.9623 Y206.5317 I-12.9195 J48.6039
G3 X323.0929 Y206.886 I-6.0368 J21.2463
G1 X323.3904 Y206.9927
G3 X324.0606 Y207.2625 I-4.3185 J11.6938
G1 X324.1446 Y207.2997
G1 X324.2295 Y207.3383
G1 X324.3154 Y207.3783
G1 X324.4023 Y207.4197
G1 X324.4902 Y207.4627
G1 X324.579 Y207.5073
G1 X324.6687 Y207.5537
G3 X325.0454 Y207.7631 I-3.4513 J6.6505
G3 X324.8046 Y208.5717 I-2.6147 J-0.3387
G3 X324.3417 Y209.2771 I-2.9823 J-1.4522
G3 X323.9534 Y209.6839 I-3.7401 J-3.1816
G3 X323.3795 Y210.1621 I-4.3617 J-4.6508
G3 X323.0338 Y210.411 I-4.785 J-6.2836
G3 X322.0853 Y211.0205 I-10.906 J-15.9267
G1 X321.8291 Y211.1771
G2 X321.5564 Y211.3437 I19.6654 J32.4885
G1 X321.2671 Y211.5231
G2 X320.962 Y211.7186 I4.8244 J7.8615
G2 X320.2913 Y212.2001 I5.0682 J7.7678
G2 X319.9615 Y212.4919 I2.4694 J3.1234
G2 X319.9536 Y212.7351 I11.5556 J0.4962
G1 X319.9504 Y212.9784
G2 X319.957 Y213.4648 I15.8913 J0.0266
G1 X319.9703 Y213.7889
G2 X320.0835 Y215.0808 I18.6867 J-0.9868
G2 X320.5263 Y217.6345 I27.292 J-3.4162
G2 X320.9337 Y219.3134 I39.5464 J-8.7086
G2 X320.9913 Y219.5287 I6.0149 J-1.4931
G2 X321.6625 Y221.8078 I51.0758 J-13.8041
G1 X321.7558 Y222.0999
G1 X321.9591 Y222.7213
G1 X322.182 Y223.3821
G1 X322.426 Y224.0847
G2 X323.0051 Y225.682 I91.6767 J-32.3342
G2 X324.6587 Y229.8941 I129.548 J-48.4255
G2 X324.7128 Y230.026 I2.9764 J-1.1437
G1 X325.178 Y231.1494
G1 X325.6805 Y232.3446
G1 X325.9421 Y232.9606
G1 X326.5039 Y234.2724
G1 X326.7955 Y234.9487
G1 X326.8691 Y235.1191
G1 X327.4985 Y236.5715
G3 X328.9352 Y239.8897 I-681.6327 J297.089
G1 X329.1161 Y240.3116
G1 X329.4876 Y241.1836
G1 X329.8671 Y242.0851
G3 X329.9144 Y242.1984 I-2.9646 J1.3044
G3 X330.0095 Y242.4269 I-8.488 J3.6669
G3 X330.3979 Y243.3717 I-74.9417 J31.3597
G1 X330.4946 Y243.6103
G3 X330.8873 Y244.5976 I-69.9708 J28.4016
G3 X331.2793 Y245.622 I-100.036 J38.8679
G3 X331.3273 Y245.751 I-14.644 J5.5237
G3 X332.0876 Y247.9739 I-37.7041 J14.137
G3 X332.2552 Y248.5468 I-15.0383 J4.7097
G3 X332.544 Y249.7459 I-14.9536 J4.2362
G3 X332.5992 Y250.0521 I-7.2606 J1.4666
G3 X332.6772 Y250.6807 I-7.7543 J1.2818
G3 X332.6924 Y251.0002 I-7.37 J0.5108
G3 X332.6397 Y251.6537 I-3.0376 J0.0839
G3 X332.5427 Y251.9747 I-1.7182 J-0.3443
G3 X332.3624 Y252.2724 I-1.0137 J-0.4105
G3 X332.0672 Y252.502 I-0.7025 J-0.5989
G3 X331.8599 Y252.5668 I-0.5513 J-1.3973
G3 X331.6468 Y252.608 I-0.4473 J-1.7459
G3 X331.5034 Y252.6267 I-0.3304 J-1.9742
G3 X331.4211 Y252.635 I-0.1358 J-0.9333
G3 X330.7619 Y252.6591 I-0.5988 J-7.3444
G3 X329.449 Y252.5877 I0.2143 J-16.0515
G1 X329.3645 Y252.5799
G1 X329.1844 Y252.5623
G1 X328.9925 Y252.5422
G1 X328.788 Y252.5194
G1 X328.5701 Y252.4936
G3 X328.0729 Y252.4299 I3.4485 J-28.8533
G1 X327.506 Y252.3498
G1 X326.8596 Y252.2505
G3 X325.1433 Y251.9543 I13.9753 J-86.0915
G1 X324.9223 Y251.9133
G1 X324.4514 Y251.8241
G1 X323.9497 Y251.7265
G1 X323.4152 Y251.6197
G1 X323.1394 Y251.5637
G3 X322.5519 Y251.4419 I9.193 J-45.8564
G1 X321.926 Y251.3092
G3 X318.6004 Y250.558 I32.8117 J-153.0045
G1 X317.7162 Y250.3471
G1 X317.2603 Y250.2366
G1 X316.2886 Y249.9977
G1 X315.7875 Y249.8726
G1 X314.7198 Y249.6021
G3 X313.5823 Y249.308 I99.864 J-388.6628
G1 X312.9959 Y249.1542
G1 X311.7462 Y248.8212
G1 X311.1019 Y248.6468
G1 X309.7291 Y248.2694
G1 X309.0215 Y248.0716
G3 X301.5153 Y245.8349 I67.1075 J-238.9168
G1 X300.5526 Y245.5276
G1 X299.5605 Y245.2052
G1 X298.5384 Y244.8665
G1 X298.4103 Y244.8235
G3 X296.2297 Y244.0733 I52.1454 J-155.1125
G1 X295.6779 Y243.8771
G3 X293.3352 Y243.0081 I39.5769 J-110.2842
G3 X292.7439 Y242.7775 I12.8857 J-33.9243
G3 X290.2465 Y241.7298 I20.3019 J-51.8914
G1 X289.936 Y241.588
G3 X288.6708 Y240.966 I10.3891 J-22.7334
G1 X288.5146 Y240.8827
G1 X288.2025 Y240.7098
G3 X287.8921 Y240.5278 I8.3506 J-14.5943
G3 X287.7383 Y240.4328 I1.5843 J-2.7379
G3 X287.6618 Y240.3842 I0.7448 J-1.2555
G3 X287.0624 Y239.9539 I3.5147 J-5.5288
G1 X286.9917 Y239.8942
G1 X288.7139 Y240.4198
G1 X290.4352 Y240.9486
G1 X293.8761 Y242.0115
G2 X300.7609 Y244.1272 I390.0455 J-1257.0184
G2 X300.9798 Y244.1935 I3.1993 J-10.1593
G1 X302.9815 Y244.7962
G1 X304.0501 Y245.1143
G2 X309.764 Y246.7612 I103.6585 J-348.9085
G2 X309.8538 Y246.7863 I0.7233 J-2.4218
G2 X317.553 Y248.8075 I66.9602 J-239.3889
G1 X318.5513 Y249.0495
G1 X319.5829 Y249.2943
G2 X320.6492 Y249.5414 I25.5675 J-107.8728
G2 X320.716 Y249.5567 I0.3743 J-1.4822
G2 X320.783 Y249.572 I0.3737 J-1.4816
G2 X320.8501 Y249.5873 I0.3731 J-1.4811
G2 X320.9173 Y249.6026 I0.3725 J-1.4804
G1 X322.0284 Y249.8521
G1 X323.1768 Y250.1029
G2 X328.4465 Y251.1576 I39.7819 J-185.0852
G1 X329.1178 Y251.2802
G1 X330.2336 Y250.6629
G2 X329.7256 Y248.3374 I-29.9538 J5.3254
G2 X329.0556 Y246.0533 I-38.8628 J10.1592
G1 X328.9563 Y245.7518
G2 X328.3953 Y244.1549 I-48.1127 J16.004
G2 X328.0551 Y243.2495 I-123.3899 J45.8522
G2 X327.6534 Y242.22 I-86.2151 J33.0433
G1 X327.435 Y241.6726
G1 X327.1997 Y241.0897
G1 X326.947 Y240.4686
G1 X326.3676 Y239.0501
G1 X326.2186 Y238.6838
G1 X326.0656 Y238.3054
G1 X325.9086 Y237.9145
G1 X325.7478 Y237.5104
G3 X325.0364 Y235.6547 I67.5928 J-26.9762
G1 X324.8611 Y235.1726
G1 X324.6847 Y234.6734
G1 X324.508 Y234.1563
G1 X324.3319 Y233.6204
G3 X323.6247 Y231.1395 I34.468 J-11.1662
G1 X322.204 Y229.8267
G2 X319.3822 Y228.8349 I-169.4709 J477.6622
G2 X318.9787 Y228.6943 I-9.2059 J25.7752
G2 X318.5174 Y228.5339 I-10.0607 J28.1964
G2 X318.2713 Y228.4485 I-7.4408 J21.0429
G2 X318.0088 Y228.3575 I-7.7981 J22.072
G2 X317.7288 Y228.2606 I-8.1875 J23.1957
G2 X317.43 Y228.1573 I-8.6144 J24.4299
G2 X317.1113 Y228.0472 I-9.0867 J25.7978
G2 X316.7713 Y227.93 I-9.6137 J27.3267
G2 X316.4086 Y227.8051 I-10.2083 J29.0552
G2 X316.0217 Y227.672 I-10.8882 J31.0349
G2 X315.6088 Y227.5303 I-11.678 J33.339
G2 X315.1684 Y227.3793 I-12.6145 J36.0752
G2 X314.6986 Y227.2184 I-13.7536 J39.4092
G2 X314.1973 Y227.0471 I-15.1877 J43.6126
G2 X313.6625 Y226.8646 I-17.0815 J49.1714
G2 X313.0921 Y226.6701 I-19.7671 J57.0646
G2 X312.4835 Y226.463 I-24.0555 J69.6827
G2 X311.8342 Y226.2423 I-32.7851 J95.3917
G1 X308.3703 Y225.0684
G1 X303.7518 Y223.5037
G1 X302.5206 Y223.085
G3 X295.9631 Y220.8273 I325.5671 J-956.3016
G1 X295.1183 Y220.5317
G1 X294.2469 Y220.2253
G1 X293.3478 Y219.9075
G1 X292.4203 Y219.5778
G1 X291.4636 Y219.2354
G1 X290.4768 Y218.8799
G1 X289.459 Y218.5105
G1 X288.4095 Y218.1264
G1 X287.3272 Y217.7267
G1 X286.2113 Y217.3107
G1 X285.0609 Y216.8773
G1 X283.875 Y216.4254
G1 X282.6527 Y215.954
G1 X281.3932 Y215.4619
G1 X280.0955 Y214.9477
G1 X278.7587 Y214.4099
G1 X278.0808 Y214.134
G1 X277.2188 Y213.784
G1 X276.3555 Y213.437
G1 X274.6265 Y212.7491
G1 X273.4726 Y212.2935
G1 X268.8556 Y210.4755
G1 X268.2403 Y210.2324
G3 X264.9617 Y208.9278 I538.2536 J-1357.5
G1 X264.0885 Y208.5771
G1 X263.1578 Y208.2014
G1 X262.1658 Y207.7988
G1 X261.914 Y207.6962
G1 X261.6582 Y207.5918
G1 X261.3984 Y207.4856
G1 X261.1345 Y207.3775
G1 X260.0097 Y206.9147
G1 X259.7242 Y206.7967
G1 X259.4343 Y206.6765
G1 X259.1398 Y206.5543
G1 X258.8408 Y206.4298
G1 X258.5371 Y206.3032
G1 X257.2428 Y205.76
G1 X255.8644 Y205.1753
G1 X254.3969 Y204.5452
G1 X253.6406 Y204.2173
G1 X252.8608 Y203.8768
G3 X244.6067 Y200.1017 I109.5862 J-250.5227
G1 X244.0871 Y199.8523
G1 X243.5599 Y199.5976
G1 X242.4736 Y199.0675
G1 X241.3553 Y198.514
G3 X241.2151 Y198.4441 I1.483 J-3.1479
G1 X240.0601 Y197.8629
G1 X239.4747 Y197.5649
G1 X238.8811 Y197.2602
G3 X238.7323 Y197.1834 I2.2649 J-4.5727
G3 X238.5829 Y197.1062 I2.3467 J-4.7221
G3 X238.433 Y197.0285 I2.4363 J-4.886
G3 X233.0017 Y194.0943 I82.1834 J-158.6137
G3 X226.9376 Y190.485 I70.2508 J-124.9302
G1 X226.7503 Y190.3667
G3 X225.2121 Y189.3778 I56.1099 J-88.9643
G1 X224.4365 Y188.8665
G3 X221.175 Y186.6126 I58.7764 J-88.5377
G1 X220.7702 Y186.3199
G1 X220.3637 Y186.0228
G1 X219.9556 Y185.7212
G3 X216.5415 Y183.0534 I52.6355 J-70.8777
G1 X216.4368 Y182.967
G3 X212.9579 Y179.9038 I46.5568 J-56.3819
G3 X209.4946 Y176.3636 I39.6621 J-42.2648
G3 X207.8365 Y174.4131 I37.9968 J-33.9814
G3 X206.2386 Y172.3024 I35.3026 J-28.3863
G1 X206.1429 Y172.1669
G1 X206.0476 Y172.0308
G3 X204.5563 Y169.7192 I30.1987 J-21.1189
G3 X203.2057 Y167.2104 I29.3519 J-17.42
G3 X202.6051 Y165.8898 I27.3827 J-13.2494
G3 X202.3265 Y165.2129 I18.8338 J-8.1478
G3 X183.7074 Y159.1971 I413.5796 J-1311.8515
G3 X183.4125 Y159.0995 I9.1644 J-28.1998
G3 X183.113 Y159.0004 I9.2363 J-28.4046
G3 X182.8087 Y158.8996 I9.3087 J-28.6108
G3 X182.4996 Y158.7971 I9.3817 J-28.8181
G3 X182.1857 Y158.693 I9.4554 J-29.0272
G1 X179.3163 Y157.7375
G3 X171.674 Y155.1614 I526.0084 J-1573.0844
G3 X171.1893 Y154.9965 I11.7937 J-35.4621
G3 X170.6968 Y154.8287 I11.8905 J-35.7204
G3 X170.1967 Y154.6582 I11.9883 J-35.9807
G3 X169.6886 Y154.4848 I12.0871 J-36.2431
G3 X169.1725 Y154.3085 I12.187 J-36.5078
G3 X168.6483 Y154.1291 I12.2879 J-36.7748
G3 X168.1159 Y153.9468 I12.39 J-37.0438
G3 X167.8476 Y153.8548 I8.8556 J-26.2707
G3 X167.5772 Y153.7621 I8.8926 J-26.3665
G3 X167.3047 Y153.6685 I8.9297 J-26.4625
G3 X162.3249 Y151.9498 I528.1428 J-1538.2625
G3 X162.0114 Y151.8409 I9.6374 J-28.272
G3 X161.6954 Y151.7312 I9.679 J-28.377
G3 X160.615 Y151.3449 I25.2665 J-72.3795
G1 X159.5369 Y150.9519
G1 X157.3833 Y150.1588
G1 X156.7683 Y149.9312
G1 X156.0656 Y149.6708
G1 X154.1924 Y148.975
G1 X154.0734 Y148.9307
G1 X153.9526 Y148.8857
G1 X152.8482 Y148.4745
G1 X149.9039 Y147.3761
G1 X149.7169 Y147.3063
G1 X148.0081 Y146.6676
G1 X143.4522 Y144.9621
G3 X137.3791 Y142.6841 I1874.0457 J-5005.5577
G1 X133.9093 Y141.381
G1 X124.658 Y137.9024
G1 X112.3252 Y133.2582
G1 X109.0367 Y132.0188
G1 X101.5207 Y129.1848
G1 X97.5124 Y127.6726
G1 X93.2371 Y126.0592
G1 X83.4657 Y122.3697
G1 X72.2996 Y118.1496
G3 X69.9297 Y117.2345 I74.4512 J-196.3364
G1 X69.1412 Y116.9253
G1 X68.0907 Y116.5114
G1 X67.8107 Y116.4007
G1 X66.3179 Y115.809
G1 X65.9199 Y115.6508
G1 X65.0105 Y115.2888
G1 X63.9715 Y114.8742
G1 X61.2022 Y113.7654
G1 X60.8449 Y113.622
G1 X60.0829 Y113.3158
G3 X47.9047 Y108.386 I1147.8158 J-2852.9517
G1 X46.2827 Y107.7243
G1 X45.4456 Y107.3824
G1 X41.6211 Y105.8151
G1 X39.5827 Y104.9759
G1 X37.4098 Y104.0776
G1 X35.094 Y103.1145
G1 X34.8024 Y102.9926
G1 X33.5992 Y102.4882
G1 X32.3584 Y101.9644
G1 X31.0798 Y101.4184
G1 X30.4318 Y101.1377
G1 X29.7753 Y100.8484
G2 X29.195 Y100.5895 I-33.7081 J74.7705
G2 X28.6146 Y100.3306 I-27.1454 J60.0817
G2 X28.2276 Y100.1581 I-19.4529 J43.1091
G2 X27.7117 Y99.9281 I-20.4393 J45.1645
G2 X27.4168 Y99.7968 I-14.3182 J31.7399
G2 X27.0798 Y99.6467 I-14.5644 J32.2457
G2 X26.6947 Y99.4752 I-14.7915 J32.7033
G1 X23.6122 Y98.1059
G1 X21.5557 Y97.1965
G1 X18.8112 Y95.9896
G2 X18.4568 Y95.8344 I-7.6686 J17.0296
G2 X18.2768 Y95.7556 I-5.3624 J12.0102
G1 X16.6302 Y95.0372
G1 X14.7465 Y94.2202
G1 X12.5911 Y93.2926
G2 X12.3172 Y93.1753 I-5.2448 J11.8703
G2 X12.0388 Y93.0563 I-5.237 J11.8604
G2 X11.756 Y92.9355 I-5.2287 J11.8499
G2 X11.4686 Y92.8129 I-5.2202 J11.839
G2 X11.1766 Y92.6885 I-5.2114 J11.8277
G2 X10.8799 Y92.5623 I-5.2022 J11.8158
G1 X9.6135 Y92.0255
G1 X8.2612 Y91.456
G2 X1.023 Y88.4824 I-196.2024 J467.2939
G3 X0.6029 Y88.3035 I7.0498 J-17.1319
G1 X0.1849 Y88.1201
G1 X-0.6522 Y87.7554
G2 X-1.2122 Y87.5167 I-16.3699 J37.6337
G1 X-1.5331 Y87.3824
G1 X-1.7045 Y87.3115
G1 X-1.8876 Y87.2364
G1 X-2.307 Y87.0669
G1 X-2.788 Y86.8775
G1 X-3.34 Y86.6669
G2 X-3.6356 Y86.5575 I-5.8128 J15.2459
G2 X-3.9517 Y86.4432 I-4.1339 J10.9356
G1 X-4.2899 Y86.3241
G1 X-4.6519 Y86.2007
G2 X-4.7441 Y86.17 I-0.656 J1.8142
G2 X-6.7334 Y85.589 I-8.4441 J25.218
G2 X-7.8933 Y85.3459 I-3.8342 J15.4037
G2 X-9.2428 Y85.2057 I-1.6572 J9.3868
G1 X-9.2855 Y85.2048
G1 X-9.4587 Y85.204
G2 X-10.1983 Y85.2643 I0.0137 J4.7323
G1 X-10.2904 Y85.281
G2 X-10.6666 Y85.379 I0.5531 J2.8955
G2 X-10.8521 Y85.4496 I1.5707 J4.4082
G2 X-11.1007 Y85.6742 I0.4441 J0.7413
G2 X-11.2132 Y85.9898 I0.5003 J0.3563
G2 X-11.1973 Y86.2141 I0.8228 J0.0543
G2 X-11.1092 Y86.4967 I1.4565 J-0.2991
G2 X-10.9447 Y86.844 I4.1345 J-1.7464
G3 X-10.8988 Y86.9348 I-1.6364 J0.883
G3 X-10.8521 Y87.032 I-1.6114 J0.8348
G3 X-11.8967 Y86.7942 I0.5325 J-4.7524
G3 X-12.8691 Y86.3443 I1.9727 J-5.5401
G3 X-13.4709 Y85.9596 I4.1007 J-7.0777
G3 X-14.2251 Y85.381 I6.6659 J-9.4688
G3 X-14.2716 Y85.3424 I0.3939 J-0.5229
G3 X-14.3187 Y85.3032 I0.4049 J-0.5333
G3 X-14.3664 Y85.2631 I0.4168 J-0.5447
G3 X-14.4147 Y85.2222 I0.4296 J-0.5572
G3 X-15.4224 Y84.3328 I31.9181 J-37.1798
G1 X-15.6897 Y84.0945
G1 X-15.9767 Y83.8429
G1 X-16.126 Y83.7145
G2 X-16.8252 Y83.1503 I-9.4654 J11.0139
G1 X-16.9167 Y83.082
G2 X-17.7889 Y82.5112 I-5.0809 J6.8121
G2 X-18.8815 Y82.0279 I-2.9086 J5.0992
G2 X-19.2611 Y82.2987 I1.1243 J1.9775
G2 X-19.5564 Y82.6595 I0.8706 J1.0138
G2 X-19.6592 Y82.9554 I0.862 J0.4652
G2 X-19.6452 Y83.3748 I1.094 J0.1735
G2 X-19.4512 Y83.8942 I2.1516 J-0.508
G2 X-19.4184 Y83.9578 I1.0041 J-0.4758
G1 X-19.3458 Y84.0911
G1 X-19.2654 Y84.2302
G2 X-19.2231 Y84.3012 I0.7174 J-0.3791
G1 X-19.1792 Y84.374
G1 X-18.9831 Y84.7008
G1 X-18.959 Y84.7426
G1 X-18.9348 Y84.7851
G3 X-18.7429 Y85.1782 I-2.9066 J1.6621
G3 X-18.6743 Y85.3996 I-1.5506 J0.6022
G3 X-18.6506 Y85.6456 I-0.9255 J0.2132
G3 X-18.7114 Y85.9074 I-0.7378 J-0.0333
G3 X-18.8815 Y86.1524 I-0.7425 J-0.3341
G1 X-28.4582 Y79.8485
G2 X-28.6879 Y80.5403 I1.5488 J0.8982
G2 X-28.5849 Y81.2619 I1.5562 J0.1461
G2 X-28.3607 Y81.6947 I2.1702 J-0.8499
G2 X-27.9664 Y82.2019 I3.4722 J-2.2917
G2 X-27.9108 Y82.2634 I0.7748 J-0.6451
G2 X-27.8527 Y82.326 I1.0042 J-0.8732
G2 X-27.7271 Y82.457 I5.4233 J-5.0774
G2 X-27.4347 Y82.7456 I23.9661 J-23.9858
G1 X-27.3583 Y82.8188
G1 X-27.1952 Y82.9733
G1 X-26.8269 Y83.323
G1 X-26.6344 Y83.5116
G3 X-26.2176 Y83.9566 I-6.7707 J6.7594
G3 X-25.8082 Y84.5141 I-3.0196 J2.6465
G1 X-25.7643 Y84.5902
G3 X-25.6066 Y84.931 I-1.9475 J1.1083
G3 X-25.5052 Y85.7972 I-1.6643 J0.6338
G3 X-26.0618 Y85.7414 I0.1433 J-4.2349
G3 X-26.6092 Y85.6263 I0.9307 J-5.7845
G3 X-27.6748 Y85.2911 I2.5555 J-9.9851
G3 X-28.366 Y85.0146 I5.4118 J-14.533
G3 X-29.2655 Y84.5971 I6.4162 J-14.9991
G3 X-29.7686 Y84.3368 I6.9894 J-14.1263
G1 X-30.0336 Y84.1921
G1 X-30.3138 Y84.0333
G3 X-31.7614 Y83.113 I9.6961 J-16.8493
G3 X-33.5473 Y81.6887 I9.9196 J-14.2712
G3 X-34.4665 Y80.7608 I8.4264 J-9.2659
G3 X-35.379 Y79.5768 I7.3905 J-6.6392
G3 X-35.7774 Y78.8835 I6.6356 J-4.2744
G3 X-35.4269 Y78.8478 I0.4276 J2.4615
G3 X-35.0746 Y78.8504 I0.146 J4.1633
G3 X-34.8401 Y78.861 I-0.5233 J14.1589
G2 X-34.7061 Y78.8674 I0.2731 J-4.3122
G2 X-34.3487 Y78.8754 I0.3734 J-8.6331
G2 X-33.8741 Y78.8278 I0.0074 J-2.3152
G2 X-33.6139 Y78.7409 I-0.3095 J-1.359
G2 X-33.3507 Y78.5631 I-0.4145 J-0.8976
G2 X-33.1294 Y78.2661 I-0.7778 J-0.8105
G2 X-34.1988 Y77.9492 I-21.5479 J70.7717
G1 X-34.5566 Y77.8481
G1 X-35.0343 Y77.716
G2 X-36.9506 Y77.2069 I-48.6665 J179.3232
G1 X-38.2293 Y76.8725
G3 X-38.3105 Y76.8511 I0.3028 J-1.3142
G1 X-39.052 Y76.654
G1 X-39.898 Y76.4232
G3 X-40.3483 Y76.297 I5.6198 J-20.9109
G1 X-40.8277 Y76.1593
G3 X-43.3629 Y75.3512 I12.8122 J-44.5737
G3 X-44.7852 Y74.8121 I11.8096 J-33.3035
G3 X-45.5318 Y74.4941 I8.7979 J-21.6911
G1 X-45.6252 Y74.4523
G1 X-45.7191 Y74.4098
G1 X-45.8136 Y74.3665
G3 X-46.6114 Y73.9795 I11.1804 J-24.0621
G1 X-46.7108 Y73.9283
G3 X-48.4705 Y72.885 I7.9089 J-15.3453
G3 X-48.9021 Y72.5796 I8.0827 J-11.878
G1 X-48.6014 Y72.5411
G1 X-48.2999 Y72.5087
G3 X-48.0986 Y72.4903 I1.0119 J10.0035
G1 X-47.8299 Y72.47
G3 X-46.7525 Y72.4354 I1.0035 J14.4298
G3 X-44.6024 Y72.5689 I-0.0747 J18.5872
G1 X-44.3171 Y72.6038
G3 X-42.8034 Y72.838 I-3.9121 J30.2998
G3 X-40.7985 Y73.2169 I-21.8106 J120.8834
G1 X-40.2642 Y73.3189
G1 X-39.6938 Y73.4241
G2 X-39.0843 Y73.5299 I22.3746 J-127.0716
G1 X-38.7692 Y73.5812
G2 X-37.3238 Y73.7774 I4.8655 J-30.4218
G2 X-37.2782 Y73.7824 I0.0719 J-0.446
G2 X-37.2325 Y73.7873 I0.0711 J-0.4454
G2 X-37.1866 Y73.7922 I0.0703 J-0.4449
G2 X-37.1405 Y73.797 I0.0696 J-0.4442
G2 X-37.0942 Y73.8017 I0.0688 J-0.4437
G1 X-36.712 Y73.8375
G1 X-36.5176 Y73.8534
G3 X-36.1184 Y73.944 I-0.4241 J2.7947
G1 X-35.9879 Y73.984
G1 X-35.8157 Y74.0431
G3 X-35.144 Y74.3212 I-3.3857 J9.1287
G3 X-34.9552 Y74.4079 I-2.7941 J6.3329
G1 X-34.4544 Y74.6437
G2 X-33.7819 Y74.9461 I6.035 J-12.5225
G1 X-33.5994 Y75.0195
G1 X-33.4024 Y75.0919
G2 X-33.1893 Y75.1602 I1.6525 J-4.7868
G1 X-33.1621 Y75.1681
G1 X-33.0495 Y75.1981
G2 X-32.5197 Y75.2708 I0.568 J-2.1729
G2 X-32.2329 Y75.2413 I0.0012 J-1.4007
G2 X-31.6458 Y74.8783 I-0.2193 J-1.0111
G2 X-31.4412 Y74.55 I-1.226 J-0.992
G2 X-31.2959 Y74.1546 I-2.0547 J-0.9791
G1 X-37.1722 Y71.2255
G1 X-39.1318 Y70.2507
G1 X-41.7454 Y68.9526
G1 X-43.2394 Y68.2119
G1 X-44.9474 Y67.3665
G1 X-46.9002 Y66.4018
G2 X-62.562 Y58.7659 I-721.6751 J1460.3326
G2 X-73.0574 Y53.788 I-463.2518 J963.1558
G1 X-74.4155 Y53.1541
G2 X-80.6375 Y50.2843 I-368.3829 J790.5106
G1 X-82.2469 Y49.5517
G1 X-83.9098 Y48.799
G1 X-85.6281 Y48.0261
G1 X-86.2766 Y47.7317
G1 X-86.924 Y47.4348
G3 X-87.0103 Y47.3951 I1.2355 J-2.7995
G1 X-88.3897 Y46.7581
G1 X-89.3087 Y46.3319
G1 X-90.5333 Y45.7623
G1 X-92.1654 Y45.0012
G1 X-94.3401 Y43.9836
G1 X-95.5823 Y43.401
G1 X-96.2447 Y43.0899
G1 X-99.7754 Y41.4272
G1 X-101.7917 Y40.4744
G1 X-104.095 Y39.3832
G1 X-106.7259 Y38.1331
G1 X-107.4046 Y37.8099
G1 X-108.8521 Y37.1197
G1 X-110.3956 Y36.3824
G3 X-110.7875 Y36.195 I11.2545 J-24.0341
G1 X-112.4592 Y35.3943
G1 X-114.2415 Y34.5387
G3 X-114.3534 Y34.4849 I0.8035 J-1.8147
G1 X-115.2766 Y34.0408
G1 X-117.2452 Y33.0917
G1 X-117.745 Y32.8502
G1 X-119.8766 Y31.8185
G1 X-120.9762 Y31.2848
G1 X-123.3206 Y30.1434
G1 X-125.8191 Y28.9213
G1 X-128.4813 Y27.6118
G1 X-128.8165 Y27.4464
G1 X-129.1543 Y27.2795
G1 X-129.8404 Y26.9401
G1 X-130.186 Y26.7689
G1 X-130.8881 Y26.4207
G1 X-132.3365 Y25.7
G1 X-132.5182 Y25.6094
G1 X-133.2563 Y25.2408
G1 X-134.779 Y24.4774
G1 X-136.349 Y23.686
G1 X-137.9675 Y22.8649
G1 X-139.6356 Y22.0121
G1 X-141.3542 Y21.1255
G1 X-141.7867 Y20.9009
G1 X-142.6645 Y20.443
G3 X-143.555 Y19.9755 I125.9038 J-240.8702
G3 X-143.6664 Y19.9167 I2.3049 J-4.5072
G1 X-143.8901 Y19.7986
G3 X-147.6894 Y17.7494 I102.0249 J-193.7076
G3 X-147.8077 Y17.6839 I1.1463 J-2.2098
G1 X-146.6957
G1 X-91.0358 Y41.3225
G1 X-88.2394 Y42.6121
G1 X-85.4451 Y43.9065
G1 X-83.5835 Y44.7721
G1 X-81.1029 Y45.9296
G1 X-77.7984 Y47.4791
G1 X-75.9116 Y48.3676
G1 X-73.7566 Y49.386
G1 X-71.2956 Y50.5536
G3 X-51.6801 Y60.0468 I-672.8733 J1415.3399
G3 X-51.3723 Y60.1986 I-17.1803 J35.2374
G3 X-38.2731 Y66.7416 I-598.7289 J1215.0518
G3 X-30.819 Y70.5424 I-569.8732 J1126.8261
G3 X-30.5855 Y70.6624 I-10.0988 J19.9363
G1 X-29.4735
G2 X-29.2491 Y70.4778 I-1.1407 J-1.6153
G2 X-29.0651 Y70.2529 I-0.7926 J-0.836
G2 X-28.9804 Y69.6807 I-0.593 J-0.3801
G2 X-29.1462 Y69.3248 I-1.2081 J0.3462
G2 X-29.2764 Y69.144 I-1.4896 J0.9348
G2 X-29.6577 Y68.7215 I-4.1297 J3.3444
G1 X-30.1653 Y68.2176
G3 X-30.439 Y67.9279 I5.0032 J-4.9986
G1 X-30.4723 Y67.8899
G1 X-30.5057 Y67.8511
G1 X-30.5728 Y67.7702
G3 X-30.8373 Y67.3797 I2.1074 J-1.7122
G3 X-30.9373 Y67.1494 I1.1854 J-0.6514
G3 X-30.991 Y66.8856 I1.0233 J-0.3458
G3 X-29.3414 Y66.3371 I2.9465 J6.107
G3 X-27.6074 Y66.2148 I1.3861 J7.2955
G1 X-27.3756 Y66.2277
G3 X-26.8476 Y66.2794 I-0.54 J8.2369
G3 X-25.4614 Y66.5443 I-1.4459 J11.3239
G3 X-23.6709 Y67.0968 I-4.7818 J18.6724
G1 X-23.4436 Y67.1791
G3 X-23.3864 Y67.2001 I-0.3623 J1.0741
G3 X-23.3288 Y67.2214 I-0.3792 J1.1144
G3 X-23.2708 Y67.2429 I-0.3982 J1.1598
G1 X-22.7782 Y67.4305
G1 X-22.2559 Y67.6363
G1 X-21.9871 Y67.7441
G1 X-21.4154 Y67.9754
G1 X-21.2702 Y68.0342
G1 X-20.6516 Y68.2834
G2 X-19.2315 Y68.8222 I14.7828 J-36.8155
G1 X-18.861 Y68.9492
G2 X-18.4762 Y69.0725 I4.6027 J-13.7013
G3 X-18.1998 Y69.509 I-1.0816 J0.9906
G3 X-18.1274 Y70.0204 I-1.0255 J0.4061
G3 X-18.2063 Y70.3577 I-1.3576 J-0.1398
G3 X-18.4173 Y70.7644 I-1.9621 J-0.7596
G3 X-18.7941 Y71.2309 I-2.8078 J-1.883
G3 X-19.3613 Y71.7612 I-5.2515 J-5.0477
G1 X-19.5183 Y71.8941
G1 X-19.5993 Y71.9622
G3 X-16.9744 Y72.0626 I0.0589 J32.8081
G3 X-14.3672 Y72.3832 I-2.1704 J28.4164
G3 X-14.285 Y72.3974 I-0.2788 J1.8575
G3 X-12.5442 Y72.767 I-3.9514 J22.8975
G3 X-10.2812 Y73.4826 I-4.7337 J18.9039
G3 X-9.0367 Y74.0256 I-5.5564 J14.4347
G1 X-8.8821 Y74.1022
G3 X-7.515 Y74.8914 I-6.0678 J12.0904
G1 X-7.3486 Y75.0033
G1 X-7.1813 Y75.1197
G3 X-7.1734 Y75.4746 I-0.8692 J0.197
G3 X-7.3005 Y75.806 I-0.9929 J-0.1909
G3 X-7.4377 Y75.9988 I-1.0756 J-0.6197
G3 X-7.5274 Y76.0997 I-1.0786 J-0.8692
G3 X-7.7883 Y76.3423 I-2.0796 J-1.9751
G3 X-8.1582 Y76.6304 I-4.3217 J-5.1666
G1 X-8.3723 Y76.7884
G1 X-8.6136 Y76.9702
G1 X-8.7393 Y77.0702
G2 X-9.0111 Y77.3139 I2.4699 J3.0274
G2 X-8.5682 Y77.4393 I0.7516 J-1.8106
G2 X-8.1107 Y77.4903 I0.6364 J-3.6311
G2 X-7.1934 Y77.4765 I0.3515 J-7.1572
G2 X-7.1643 Y77.4744 I-0.0011 J-0.2183
G2 X-6.5468 Y77.4132 I-0.9311 J-12.5313
G1 X-6.1956 Y77.3664
G2 X-5.7957 Y77.3049 I-2.5312 J-17.7765
G1 X-5.7449 Y77.2965
G2 X-4.6698 Y77.0964 I-5.334 J-31.6502
G1 X-4.0584 Y76.9702
G1 X-3.7322 Y76.9041
G1 X-3.5631 Y76.8737
G3 X-3.5203 Y76.8674 I0.0528 J0.2086
G3 X-3.4326 Y76.8602 I0.0802 J0.444
G3 X-3.0045 Y76.8951 I-0.1339 J4.2892
G3 X-2.5852 Y76.9881 I-0.4046 J2.8147
G3 X-1.8381 Y77.4078 I-0.5473 J1.8492
G3 X-1.4742 Y77.8537 I-1.4331 J1.541
G3 X-1.3194 Y78.1443 I-2.4769 J1.5056
G3 X-1.1801 Y78.4925 I-3.3311 J1.5353
G3 X-1.056 Y78.9 I-4.6194 J1.6289
G3 X-1.0002 Y79.1194 I-6.7728 J1.8398
G3 X-0.8886 Y79.6193 I-16.3204 J3.9072
G1 X-0.8615 Y79.7483
G1 X-0.8043 Y80.022
G2 X-0.666 Y80.6373 I13.8953 J-2.8011
G2 X-0.6466 Y80.7148 I1.2784 J-0.2789
G2 X-0.557 Y81.0418 I8.7659 J-2.2251
G2 X-0.2954 Y81.7607 I5.5345 J-1.6074
G2 X0.1439 Y82.5096 I3.564 J-1.587
G2 X0.8632 Y83.1976 I2.5502 J-1.9463
G2 X1.2148 Y83.366 I4.6899 J-9.3441
G1 X1.5683 Y83.5305
G1 X1.6154 Y83.5524
G1 X2.3706 Y83.9011
G1 X3.8826 Y84.595
G1 X4.8912 Y85.0561
G2 X8.9291 Y86.8931 I965.3352 J-2116.552
G1 X10.0836 Y87.4162
G1 X11.4034 Y88.0132
G1 X12.9122 Y88.6945
G1 X14.6371 Y89.4718
G1 X16.6093 Y90.3584
G1 X17.6614 Y90.8305
G2 X20.0672 Y91.9078 I259.9889 J-577.4122
G1 X20.6883 Y92.1853
G1 X22.0135 Y92.7768
G1 X25.0438 Y94.1255
G1 X28.5096 Y95.6611
G1 X30.3592 Y96.4773
G1 X32.3332 Y97.3458
G2 X32.8347 Y97.566 I17.1053 J-38.278
G2 X43.5521 Y102.2198 I571.5761 J-1301.6357
G1 X44.9381 Y102.813
G2 X46.3698 Y103.4232 I109.8934 J-255.8412
G1 X47.0974 Y103.7323
G1 X48.6004 Y104.3683
G2 X49.3643 Y104.6902 I55.2313 J-130.0034
G1 X50.9424 Y105.3521
G1 X51.0414 Y105.3934
G2 X54.4208 Y106.7937 I172.9138 J-412.5245
G1 X56.1688 Y107.5074
G1 X57.0577 Y107.867
G1 X57.9618 Y108.2302
G1 X58.8813 Y108.5965
G2 X58.9966 Y108.6422 I1.7293 J-4.1941
G1 X59.4613 Y108.8259
G1 X63.4679 Y110.4051
G1 X67.4732 Y111.9871
G1 X70.143 Y113.0432
G1 X73.7021 Y114.4526
G1 X78.4469 Y116.3337
G1 X97.4241 Y123.8628
G2 X98.0267 Y124.1015 I51.1903 J-128.3126
G2 X98.6388 Y124.344 I49.4572 J-123.9465
G2 X99.2607 Y124.5903 I47.9088 J-120.0462
G2 X99.8924 Y124.8405 I46.5144 J-116.5346
G2 X100.5343 Y125.0946 I45.2508 J-113.3533
G2 X101.1863 Y125.3527 I44.0987 J-110.4534
G2 X101.8487 Y125.6149 I43.0423 J-107.7953
G2 X102.5216 Y125.8811 I42.0698 J-105.3493
G2 X103.2052 Y126.1515 I41.1702 J-103.0875
G2 X103.8997 Y126.4261 I40.3349 J-100.9885
G2 X104.6053 Y126.705 I39.5566 J-99.0338
G2 X105.3221 Y126.9883 I38.8288 J-97.207
G2 X106.0503 Y127.276 I38.1463 J-95.4951
G2 X121.5952 Y133.3874 I1733.0022 J-4385.2505
G2 X122.0852 Y133.5789 I21.0166 J-53.0488
G2 X122.5791 Y133.7718 I20.9115 J-52.7966
G1 X126.7947 Y135.4153
G2 X149.3217 Y144.067 I930.4236 J-2388.9359
G1 X152.2348 Y145.1666
G1 X155.2437 Y146.2969
G2 X169.0237 Y151.397 I589.0761 J-1570.4378
G2 X169.4567 Y151.5551 I10.4819 J-28.0385
G2 X169.8915 Y151.7137 I10.4535 J-27.9829
G2 X177.3186 Y154.4004 I472.0046 J-1293.2105
G2 X185.2567 Y157.2224 I457.3498 J-1273.9147
G2 X185.5055 Y157.31 I6.6458 J-18.4822
G2 X185.7549 Y157.3977 I6.6352 J-18.463
G2 X186.0047 Y157.4856 I6.6247 J-18.4436
G2 X186.2551 Y157.5735 I6.6141 J-18.4243
G2 X186.5059 Y157.6616 I6.6035 J-18.405
G1 X188.5452 Y158.3756
G1 X190.6181 Y159.0975
G1 X192.7251 Y159.8273
G2 X212.0512 Y166.3199 I388.7241 J-1125.0804
G2 X212.3547 Y166.4188 I5.5843 J-16.6196
G1 X214.8221 Y167.2193
G1 X217.3307 Y168.0263
G1 X219.8812 Y168.8397
G1 X222.4744 Y169.6592
G1 X225.1109 Y170.4846
G1 X227.7917 Y171.3157
G2 X228.1277 Y171.4192 I5.023 J-15.6994
G2 X233.6813 Y173.1116 I287.963 J-934.9792
G2 X233.8552 Y173.164 I3.3763 J-10.8904
G2 X259.4059 Y180.4493 I252.68 J-837.7473
G1 X261.0229 Y180.8816
G1 X262.6535 Y181.3139
G1 X264.2979 Y181.7462
G1 X266.3885 Y182.296
G1 X268.4793 Y182.8457
G1 X272.662 Y183.9402
G1 X275.4517 Y184.6654
G2 X275.4955 Y184.6768 I0.1447 J-0.4679
G1 X277.0964 Y185.0909
G2 X289.9191 Y188.3415 I331.1882 J-1279.5551
G2 X298.4929 Y190.4065 I146.267 J-588.466
G1 X299.6018 Y190.662
G1 X300.7474 Y190.9218
G2 X303.1953 Y191.4581 I61.6627 J-275.5796
G1 X303.8181 Y191.5892
G2 X306.4836 Y192.1095 I18.3647 J-86.9982
G2 X309.1228 Y192.5453 I16.9801 J-94.6235
G2 X309.2992 Y192.5717 I1.1496 J-7.0628
G2 X309.4874 Y192.5996 I1.0864 J-6.6929
G2 X309.6882 Y192.6289 I1.0343 J-6.3922
G2 X310.7601 Y192.7773 I19.8698 J-139.561
G2 X315.0645 Y193.2321 I10.7946 J-81.5667
G2 X316.2983 Y193.3182 I6.8413 J-89.1382
G2 X316.1152 Y192.4446 I-31.3878 J6.1237
G2 X316.0876 Y192.32 I-1.9424 J0.3645
G2 X316.0728 Y192.2536 I-1.4285 J0.2844
G1 X315.9921 Y191.9
G1 X315.8805 Y191.4295
G2 X315.3919 Y189.5579 I-56.9376 J13.8646
G1 X315.2411 Y189.0262
G2 X313.896 Y184.8156 I-81.5799 J23.7409
G1 X313.702 Y184.2591
G1 X313.4922 Y183.6664
G1 X313.2655 Y183.0352
G1 X313.0211 Y182.3631
G1 X312.8939 Y182.0165
G1 X312.8291 Y181.8405
G1 X312.5511 Y181.0903
G1 X312.4802 Y180.8998
G1 X312.1767 Y180.0878
G1 X311.4812 Y178.2328
G1 X311.3024 Y177.7538
G1 X310.924 Y176.731
G3 X310.852 Y176.4805 I1.4492 J-0.5519
G3 X310.8514 Y176.3932 I0.2688 J-0.0455
G3 X310.8932 Y176.3574 I0.0411 J0.0057
G3 X310.9283 Y176.3653 I0.0009 J0.0781
G3 X311.0006 Y176.4075 I-0.1684 J0.3713
G3 X311.1229 Y176.5124 I-0.6878 J0.9258
G3 X311.1543 Y176.5432 I-0.2724 J0.3091
G3 X311.2625 Y176.6585 I-1.0945 J1.1359
G1 X316.2983 Y186.3114
G1 X316.7701 Y186.4653
G1 X317.2417 Y186.6204
G1 X318.1833 Y186.9348
G1 X318.8097 Y187.1487
G3 X321.2972 Y188.0542 I-22.0062 J64.3231
G1 X321.626 Y188.1826
G1 X321.9758 Y188.3219
G1 X322.3478 Y188.4735
G1 X322.7431 Y188.6386
G1 X323.163 Y188.8188
G1 X323.379 Y188.9136
G3 X325.6445 Y190.0086 I-13.9869 J31.8288
G3 X326.8985 Y190.7134 I-12.9129 J24.4406
G3 X328.2831 Y191.6012 I-12.6134 J21.1963
G3 X329.7845 Y192.7348 I-12.3026 J17.8547
G3 X331.3644 Y194.1977 I-12.1227 J14.6767
G3 X331.6322 Y194.8942 I-2.9716 J1.5424
G3 X331.731 Y195.6339 I-2.9069 J0.7647
G3 X331.391 Y197.0766 I-3.166 J0.0154
G3 X330.8339 Y197.8969 I-3.3274 J-1.6605
G3 X329.8319 Y198.7417 I-3.4827 J-3.1141
G3 X329.5307 Y198.9191 I-3.8656 J-6.2201
G3 X329.0705 Y199.094 I-1.4149 J-3.0297
G3 X328.5863 Y199.1836 I-0.6588 J-2.2073
G3 X327.6305 Y198.9643 I-0.1263 J-1.6424
G3 X327.1121 Y198.5562 I1.2803 J-2.1597
G1 X326.9907 Y198.4287
G1 X326.8673 Y198.2879
G3 X326.604 Y197.9554 I5.6257 J-4.7244
G3 X326.5879 Y197.934 I0.1455 J-0.1257
G1 X326.4537 Y197.7513
G3 X326.3856 Y197.6565 I1.6865 J-1.2854
G1 X326.242 Y197.455
G1 X326.0898 Y197.2414
G2 X325.7373 Y196.7677 I-11.3291 J8.0638
G2 X325.3043 Y196.2633 I-5.444 J4.2356
G2 X324.7405 Y195.7671 I-2.9514 J2.7848
G2 X324.4217 Y195.7177 I-0.5428 J2.4471
G2 X324.0996 Y195.7373 I-0.0959 J1.0824
G2 X323.9002 Y195.8222 I0.1242 J0.5681
G2 X323.7169 Y196.0519 I0.2939 J0.4225
G2 X323.6687 Y196.2155 I0.7132 J0.2987
G2 X323.6487 Y196.4079 I1.254 J0.2281
G2 X323.6481 Y196.5105 I1.222 J0.0579
G2 X323.6632 Y196.7401 I2.7782 J-0.067
G1 X323.6771 Y196.8607
G1 X323.7145 Y197.1268
G3 X323.7479 Y197.4199 I-3.6729 J0.5665
G3 X323.7414 Y197.5744 I-0.678 J0.0488
G3 X323.7115 Y197.6494 I-0.1758 J-0.0266
G3 X323.6247 Y197.6899 I-0.0813 J-0.0613
G2 X323.1043 Y197.4262 I-4.3848 J8.0103
G2 X322.5618 Y197.2115 I-2.2904 J4.9936
G2 X322.1859 Y197.1102 I-1.0843 J3.277
G2 X321.6677 Y197.0666 I-0.4246 J1.9419
G2 X321.3732 Y197.1244 I0.0527 J1.047
G2 X321.0782 Y197.3156 I0.24 J0.6936
G2 X320.8902 Y197.6955 I0.6079 J0.5373
G2 X320.8621 Y197.9262 I1.1114 J0.2525
G2 X320.9144 Y198.454 I2.2299 J0.0453
G2 X321.0772 Y199.0103 I4.1439 J-0.9109
G1 X316.2983 Y198.9191
G2 X316.7647 Y199.4587 I1.9078 J-1.1776
G2 X317.3644 Y199.8448 I1.7732 J-2.0955
G2 X317.8056 Y200.0223 I1.5302 J-3.1652
G2 X318.4183 Y200.1768 I1.4807 J-4.5806
G2 X319.2514 Y200.267 I1.0499 J-5.8041
G2 X320.3593 Y200.2319 I0.3103 J-7.7157
G3 X321.1631 Y200.2385 I0.3623 J4.8575
G3 X321.957 Y200.3632 I-0.5016 J5.7809
G3 X323.4527 Y200.9402 I-1.2081 J5.3585
G3 X323.8407 Y201.1866 I-2.4504 J4.2874
G3 X324.7266 Y202.034 I-2.2796 J3.2701
G3 X325.3513 Y203.5582 I-2.5118 J1.9196
G3 X325.3372 Y204.515 I-3.4927 J0.4269
G3 X325.0454 Y205.5707 I-4.592 J-0.7007
G1 X317.7188 Y203.0361
G3 X317.618 Y202.7991 I15.8043 J-6.8604
G3 X317.5192 Y202.5611 I6.3102 J-2.7599
G3 X317.454 Y202.4022 I4.3794 J-1.8889
G1 X317.1935 Y201.7665
G2 X316.6214 Y200.5174 I-14.4658 J5.8691
G2 X316.4325 Y200.173 I-8.0149 J4.1737
G2 X315.8473 Y199.3035 I-6.3904 J3.669
G2 X314.8625 Y198.3073 I-4.7909 J3.751
G1 X313.8711 Y198.0677
G1 X312.8793 Y197.8292
G1 X310.8951 Y197.355
G1 X310.6304 Y197.292
G1 X306.3954 Y196.2887
G3 X297.9254 Y194.2823 I776.5346 J-3296.9806
G1 X296.7966 Y194.0124
G1 X295.5927 Y193.7235
G1 X292.8423 Y193.0587
G3 X292.1327 Y192.8859 I22.1408 J-92.4724
G1 X290.6195 Y192.5155
G3 X287.1634 Y191.6586 I129.2411 J-528.6348
G1 X285.3218 Y191.1949
G3 X275.525 Y188.6237 I131.7868 J-522.0977
G1 X274.2647 Y188.2778
G3 X273.9473 Y188.1901 I4.8626 J-18.2082
G3 X273.3026 Y188.0111 I15.4049 J-56.7296
G3 X267.4223 Y186.3248 I109.987 J-394.6421
G3 X260.7391 Y184.271 I88.5114 J-299.9232
G1 X259.8939 Y183.9991
G1 X259.0362 Y183.72
G1 X258.821 Y183.6495
G1 X258.605 Y183.5785
G1 X258.3883 Y183.5071
G3 X257.7195 Y183.6046 I-1.2076 J-5.9429
G3 X257.0442 Y183.6338 I-0.658 J-7.381
G3 X257.0005 I-0.0216 J-0.3319
G3 X255.6102 Y183.5379 I0.0744 J-11.1987
G3 X254.6925 Y183.3944 I2.123 J-16.5868
G1 X254.4493 Y183.3478
G3 X254.1906 Y183.2946 I1.5089 J-7.999
G1 X253.9154 Y183.2342
G3 X252.464 Y182.8553 I5.6491 J-24.61
G1 X252.0812 Y182.7396
G1 X251.675 Y182.6098
G3 X250.7564 Y182.2855 I5.5552 J-17.1977
G1 X245.9812 Y180.0075
G1 X245.2784 Y180.9726
G1 X242.318 Y178.4306
G1 X240.72 Y177.9876
G1 X239.1239 Y177.5375
G3 X238.9113 Y177.4769 I3.3745 J-12.2559
G3 X238.6845 Y177.4122 I3.5835 J-12.9873
G3 X238.4426 Y177.343 I3.819 J-13.8076
G3 X238.1847 Y177.269 I4.0873 J-14.7379
G3 X234.0648 Y176.061 I112.6998 J-391.9645
G3 X225.8654 Y173.5114 I119.7274 J-399.51
G1 X225.3383 Y173.3411
G1 X224.7944 Y173.1644
G3 X218.4616 Y171.0477 I136.6108 J-419.2421
G0 Z5.0
M5
M30
