( Made using CamBam - http://www.cambam.co.uk )
( _2014_1_20_car 1/20/2014 11:53:29 PM )
( T0 : 0.0 )
G21 G90 G64 G40
G0 Z5.0
( T0 : 0.0 )
T0 M6
( 10-12 )
G17
M3 S1000
G0 X-134.5454 Y39.5168
G1 F1.0 Z0.0
G3 X-134.8358 Y38.5944 I4.2261 J-1.8375
G3 X-134.9601 Y37.6355 I6.3918 J-1.3161
G3 X-134.9793 Y36.9912 I8.4956 J-0.5756
G3 X-134.9521 Y36.1336 I15.1366 J0.0515
G3 X-134.9177 Y35.6448 I22.599 J1.3413
G3 X-134.9127 Y35.5827 I0.649 J0.0219
G3 X-134.8895 Y35.3184 I7.8033 J0.5496
G3 X-134.8299 Y34.7155 I23.934 J2.0616
G1 X-134.7958 Y34.3943
G1 X-134.7173 Y33.6611
G1 X-134.6777 Y33.27
G1 X-134.6682 Y33.1706
G2 X-134.598 Y32.2618 I-24.0898 J-2.3181
G2 X-134.5813 Y31.2206 I-11.8374 J-0.711
G2 X-134.5867 Y31.0884 I-2.0604 J0.0177
G2 X-134.6366 Y30.5258 I-6.3249 J0.2774
G2 X-134.6831 Y30.2377 I-4.4547 J0.5713
G1 X-133.9801
G3 X-133.2494 Y30.7262 I-1.1714 J2.543
G3 X-132.691 Y31.4049 I-2.3195 J2.4773
G3 X-132.413 Y31.9208 I-3.8334 J2.3988
G3 X-132.1391 Y32.6497 I-4.9325 J2.2695
G3 X-131.9056 Y33.6549 I-7.9314 J2.3715
G3 X-131.7593 Y35.011 I-11.8673 J1.9665
G3 X-131.7602 Y36.8103 I-17.3272 J0.8912
G3 X-131.9979 Y39.1691 I-23.4888 J-1.1759
G2 X-132.485 Y39.0663 I-1.2951 J4.9336
G2 X-132.9809 Y39.0228 I-0.5184 J3.0614
G2 X-133.958 Y39.2039 I-0.04 J2.511
G2 X-134.5454 Y39.5168 I1.1948 J2.9508
G0 Z5.0
G0 X-122.4657 Y40.4486
G1 Z0.0
G1 X-122.1683 Y36.5936
G3 X-120.8605 Y37.6585 I-2.581 J4.5051
G3 X-119.9912 Y39.1038 I-3.676 J3.1952
G3 X-119.6876 Y40.1889 I-5.4267 J2.1033
G3 X-119.5583 Y41.6781 I-8.243 J1.4656
G3 X-119.5642 Y42.0765 I-19.8145 J-0.0907
G3 X-119.6241 Y42.981 I-12.9115 J-0.4011
G3 X-119.7503 Y44.003 I-23.0623 J-2.3292
G1 X-119.7896 Y44.2655
G1 X-119.8102 Y44.3987
G1 X-119.8538 Y44.6729
G1 X-119.948 Y45.2554
G2 X-120.64 Y45.0985 I-1.7501 J6.115
G2 X-121.3477 Y45.0493 I-0.6041 J3.5764
G2 X-121.8175 Y45.1145 I0.0875 J2.3547
G2 X-122.3951 Y45.38 I0.3958 J1.6228
G1 X-122.7484 Y44.1136
G1 X-122.4657 Y40.4486
G0 Z5.0
G0 X-111.8887 Y42.0254
G1 Z0.0
G1 X-111.1784
G3 X-110.2259 Y42.6679 I-1.3799 J3.0726
G3 X-109.5512 Y43.598 I-2.3359 J2.4043
G3 X-109.2756 Y44.3141 I-3.6679 J1.8226
G3 X-109.0856 Y45.314 I-5.5856 J1.5793
G3 X-109.0791 Y45.3784 I-0.6807 J0.1018
G3 X-109.0441 Y45.9663 I-7.1342 J0.7193
G3 X-109.0502 Y46.6359 I-10.7676 J0.2362
G3 X-109.1028 Y47.3948 I-12.0947 J-0.4566
G1 X-109.1226 Y47.5899
G1 X-109.1452 Y47.7906
G1 X-109.1994 Y48.2167
G1 X-109.2068 Y48.2703
G3 X-109.2725 Y48.7255 I-21.7547 J-2.9069
G1 X-109.3449 Y49.2088
G2 X-110.0778 Y49.0737 I-1.1769 J4.3288
G2 X-110.3263 Y49.0618 I-0.2623 J2.8814
G2 X-111.3012 Y49.2467 I-0.0238 J2.5375
G2 X-111.8887 Y49.5565 I1.3237 J3.2223
G3 X-112.2017 Y48.5604 I4.1822 J-1.8611
G3 X-112.2944 Y47.5205 I5.1963 J-0.9873
G3 X-112.258 Y46.8253 I7.5288 J0.0447
G3 X-112.213 Y46.4304 I11.1158 J1.0684
G3 X-112.1473 Y45.9813 I13.5182 J1.7487
G1 X-112.0619 Y45.4705
G1 X-111.9628 Y44.888
G1 X-111.9138 Y44.5771
G1 X-111.8675 Y44.2447
G2 X-111.857 Y44.1602 I-1.5077 J-0.2303
G2 X-111.8193 Y43.7989 I-7.1934 J-0.9325
G2 X-111.7903 Y42.9698 I-7.2555 J-0.6687
G2 X-111.8887 Y42.0254 I-5.4279 J0.0883
G0 Z5.0
M5
M30
