( Made using CamBam - http://www.cambam.co.uk )
( _2014_1_20_car 1/20/2014 11:25:48 PM )
( T0 : 0.0 )
G21 G90 G64 G40
G0 Z5.0
( T0 : 0.0 )
T0 M6
( 52 )
G17
M3 S1000
G0 X26.4951 Y169.9343
G1 F1.0 Z0.0
G2 X25.7114 Y171.6913 I8.0115 J4.6271
G2 X25.3176 Y173.5745 I8.6318 J2.7875
G2 X25.2735 Y174.8576 I9.8006 J0.9796
G2 X25.4428 Y176.5582 I12.447 J-0.3806
G2 X25.6308 Y177.5159 I15.676 J-2.5795
G1 X25.6878 Y177.7612
G2 X25.8192 Y178.2816 I14.4592 J-3.3738
G1 X25.8917 Y178.5488
G2 X26.2547 Y179.758 I31.0254 J-8.6561
G2 X26.7111 Y181.1219 I68.6555 J-22.2148
G1 X26.9625 Y181.8451
G3 X27.5287 Y183.4936 I-111.9377 J39.368
G1 X27.6687 Y183.9207
G1 X27.7382 Y184.1381
G1 X27.8076 Y184.3592
G1 X27.8766 Y184.5841
G1 X28.014 Y185.0495
G1 X28.0808 Y185.2866
G3 X28.2117 Y185.7778 I-16.3959 J4.6319
G3 X28.4529 Y186.8333 I-18.8807 J4.8698
G3 X28.6395 Y187.972 I-16.8287 J3.3432
G3 X28.7379 Y189.1992 I-13.5338 J1.7024
G3 X28.1418 Y190.2206 I-5.2156 J-2.3594
G3 X27.3654 Y191.1124 I-5.8464 J-4.306
G3 X26.7786 Y191.6391 I-6.0218 J-6.1194
G3 X26.7398 Y191.6708 I-0.3202 J-0.3508
G3 X25.8824 Y192.3046 I-7.7451 J-9.5825
G3 X25.826 Y192.3423 I-0.4021 J-0.5402
G3 X24.5889 Y193.0807 I-8.3973 J-12.6633
G3 X24.4248 Y193.168 I-1.8862 J-3.3466
G1 X24.0721 Y193.3489
G3 X23.2549 Y193.7367 I-10.6233 J-21.3314
G1 X23.0417 Y193.8316
G3 X20.7356 Y194.7349 I-13.2223 J-30.3591
G1 X20.5872 Y194.7871
G1 X20.2805 Y194.8932
G1 X19.9583 Y194.9776
G1 X19.6363 Y195.0632
G2 X19.4218 Y195.1209 I2.7404 J10.6172
G1 X18.5652 Y195.3562
G2 X18.3207 Y195.4247 I1.9204 J7.3261
G2 X18.2577 Y195.4424 I0.2403 J0.9744
G2 X18.1925 Y195.4608 I0.245 J0.9929
G1 X17.499 Y195.6588
G2 X14.7338 Y196.4812 I46.474 J161.3205
G2 X14.6461 Y196.5079 I0.3723 J1.3786
G2 X14.5571 Y196.535 I0.3776 J1.3969
G2 X14.4667 Y196.5627 I0.383 J1.4157
G2 X14.3748 Y196.5908 I0.3886 J1.4347
G1 X12.4175 Y197.1946
G1 X9.8087 Y198.0028
G1 X8.3163 Y198.4592
G3 X8.2221 Y198.4877 I-0.8544 J-2.6515
G3 X8.1273 Y198.5164 I-0.871 J-2.7088
G3 X8.0316 Y198.5452 I-0.8886 J-2.7693
G3 X7.9353 Y198.5743 I-0.9071 J-2.8334
G3 X7.8381 Y198.6036 I-0.9266 J-2.9013
G1 X7.0087 Y198.8514
G3 X2.5627 Y200.0952 I-38.4606 J-128.9038
G1 X2.2788 Y200.1684
G1 X1.9902 Y200.2418
G3 X-0.66 Y200.8673 I-19.3486 J-76.057
G1 X-0.9981 Y200.9401
G3 X-4.1064 Y201.5227 I-12.8158 J-59.793
G1 X-4.3032 Y201.5538
G1 X-4.5017 Y201.5845
G1 X-4.7019 Y201.6146
G3 X-6.4149 Y201.8394 I-7.2161 J-48.3516
G3 X-8.2508 Y202.0092 I-4.7753 J-41.6302
G3 X-9.2011 Y202.0655 I-2.3316 J-31.2848
G3 X-11.233 Y202.1071 I-1.7527 J-35.9524
G3 X-11.7493 Y202.0995 I0.1911 J-30.3373
G3 X-16.4594 Y201.6431 I0.6052 J-30.7843
G3 X-18.9293 Y201.0871 I4.9652 J-27.8204
G3 X-19.2366 Y201.0008 I4.9379 J-18.1594
G3 X-24.6613 Y198.7593 I7.2699 J-25.2792
G3 X-27.3276 Y197.0856 I13.3596 J-24.2433
G2 X-27.8195 Y196.9039 I-2.1704 J5.1186
G1 X-27.986 Y196.851
G1 X-28.0816 Y196.822
G1 X-28.3375 Y196.7484
G2 X-29.3728 Y196.5002 I-4.1646 J15.0905
G2 X-31.4798 Y196.2077 I-3.217 J15.4381
G2 X-32.8988 Y196.1939 I-0.8253 J11.8618
G2 X-33.7064 Y196.276 I0.4283 J8.2253
G2 X-34.6135 Y196.4794 I0.8749 J6.026
G2 X-35.5927 Y196.9066 I1.2708 J4.2482
G2 X-36.0598 Y197.2415 I1.6256 J2.7605
G2 X-36.4878 Y197.6899 I1.9841 J2.3223
G2 X-35.8858 Y197.8258 I1.2661 J-4.2072
G2 X-35.2717 Y197.886 I0.8241 J-5.2424
G2 X-34.8603 Y197.8927 I0.325 J-7.3524
G2 X-34.3124 Y197.8722 I-0.0453 J-8.5696
G1 X-34.0 Y197.8509
G3 X-33.1687 Y197.7869 I6.3614 J77.2164
G3 X-32.6931 Y197.7646 I0.7513 J10.9327
G3 X-32.1491 Y197.775 I0.1575 J5.9867
G1 X-32.0091 Y197.787
G3 X-31.377 Y197.9109 I-0.3119 J3.2651
G3 X-30.7051 Y198.2303 I-0.736 J2.4146
G3 X-30.0768 Y198.8254 I-1.5481 J2.2639
G3 X-29.8132 Y199.2096 I-2.7952 J2.2003
G3 X-29.6942 Y199.4193 I-3.2196 J1.965
G3 X-29.4735 Y199.8843 I-4.7247 J2.5276
G2 X-29.1241 Y200.077 I1.1032 J-1.5864
G2 X-28.7456 Y200.2033 I0.9065 J-2.0867
G2 X-27.9533 Y200.2658 I0.5752 J-2.2385
G2 X-27.44 Y200.123 I-0.1373 J-1.488
G2 X-26.9222 Y199.622 I-0.5074 J-1.0425
G1 X-25.0999 Y200.8493
G3 X-25.5644 Y200.8385 I0.1007 J-14.3323
G1 X-26.0287 Y200.8218
G1 X-26.1615 Y200.8198
G1 X-26.2323
G2 X-26.6096 Y200.8387 I-0.0221 J3.3225
G1 X-26.7096 Y200.8512
G2 X-27.228 Y200.9994 I0.2413 J1.8256
G2 X-27.8001 Y201.4483 I0.7003 J1.4815
G2 X-28.038 Y201.794 I1.8839 J1.5515
G2 X-26.9534 Y202.4927 I3.9739 J-4.977
G2 X-25.7637 Y202.9918 I3.9587 J-7.7692
G1 X-25.6005 Y203.0464
G2 X-24.7196 Y203.3017 I4.6105 J-14.2591
G2 X-23.5303 Y203.5771 I6.9596 J-27.3493
G1 X-21.9397 Y203.9041
G1 X-21.7348 Y203.9478
G3 X-20.803 Y204.1645 I-6.6778 J30.8247
G1 X-20.5642 Y204.2268
G3 X-19.4872 Y204.5618 I-3.6714 J13.7024
G3 X-18.3084 Y205.0877 I-2.7533 J7.7561
G1 X-18.1654 Y205.1683
G3 X-16.9633 Y206.0819 I-2.8676 J5.021
G3 X-15.936 Y207.501 I-3.9416 J3.9346
G2 X-16.1696 Y207.4378 I-2.2206 J7.7495
G2 X-16.4039 Y207.3771 I-2.2466 J8.1794
G2 X-16.8741 Y207.2623 I-3.7463 J14.3324
G1 X-17.1886 Y207.1905
G2 X-18.4535 Y206.9351 I-7.7228 J34.9802
G2 X-19.3009 Y206.7867 I-12.2509 J67.4761
G1 X-19.7859 Y206.7073
G1 X-19.9112 Y206.6873
G1 X-21.248 Y206.4791
G1 X-22.0117 Y206.3585
G1 X-22.4185 Y206.2913
G1 X-22.6282 Y206.2555
G1 X-23.0752 Y206.1759
G1 X-23.5507 Y206.0848
G3 X-23.7956 Y206.0347 I2.6438 J-13.5608
G1 X-24.0478 Y205.9806
G3 X-24.5838 Y205.8552 I3.0892 J-14.4189
G3 X-25.1513 Y205.704 I5.4065 J-21.4227
G1 X-25.2225 Y205.6834
G1 X-25.2941 Y205.6623
G3 X-25.9 Y205.4665 I4.8891 J-16.1642
G3 X-27.2379 Y204.8852 I3.1353 J-9.0463
G3 X-28.6142 Y203.924 I3.1927 J-6.0375
G3 X-29.8289 Y202.4022 I4.1538 J-4.5612
G3 X-30.2806 Y201.4537 I6.1824 J-3.5259
G3 X-30.7808 Y201.6958 I-1.7942 J-3.069
G3 X-31.3205 Y201.828 I-0.733 J-1.8248
G3 X-31.6924 Y201.8125 I-0.129 J-1.3717
G3 X-32.1594 Y201.6379 I0.2751 J-1.4481
G3 X-32.3984 Y201.4813 I1.3438 J-2.3109
G3 X-32.6521 Y201.2785 I2.5531 J-3.4532
G3 X-32.7829 Y201.1659 I2.4396 J-2.9672
G1 X-32.9213 Y201.0457
G1 X-33.0695 Y200.9197
G1 X-33.2304 Y200.7905
G2 X-33.4071 Y200.6613 I-2.7516 J3.5767
G2 X-33.6029 Y200.5365 I-1.2541 J1.7516
G2 X-33.821 Y200.4216 I-1.5497 J2.6779
G2 X-34.3507 Y200.2434 I-1.0088 J2.1226
G2 X-34.9842 Y200.1865 I-0.5553 J2.6276
G2 X-35.7017 Y200.2737 I0.1167 J3.954
G2 X-36.4878 Y200.5015 I1.3068 J5.9806
G2 X-37.9904 Y201.2115 I2.135 J6.464
G2 X-39.2743 Y202.2668 I3.6569 J5.7574
G2 X-39.9842 Y203.1189 I5.9742 J5.6992
G2 X-40.7593 Y204.3742 I8.2053 J5.9332
G2 X-41.5525 Y206.1643 I13.9669 J7.2596
G1 X-41.5959 Y206.2808
G1 X-41.6836 Y206.5218
G2 X-42.0549 Y207.6299 I29.2631 J10.4221
G1 X-42.2397 Y208.2239
G1 X-42.2858 Y208.3749
G3 X-44.3177 Y207.838 I27.4114 J-107.8516
G3 X-44.4528 Y207.8009 I0.7346 J-2.9383
G3 X-44.5969 Y207.7611 I0.7965 J-3.1653
G3 X-44.7505 Y207.7185 I0.8706 J-3.4338
G3 X-44.9143 Y207.6727 I0.9614 J-3.7589
G1 X-45.7865 Y207.4244
G3 X-46.284 Y207.2792 I7.0231 J-24.9755
G3 X-50.2341 Y206.0209 I26.1981 J-89.0701
G1 X-50.7561 Y205.8391
G3 X-53.5174 Y204.8058 I23.5321 J-67.0918
G3 X-57.1213 Y203.2349 I21.5156 J-54.2805
G3 X-58.0622 Y202.7721 I23.5515 J-49.0703
G3 X-56.4738 Y202.9236 I-0.5005 J13.6512
G3 X-54.9089 Y203.2349 I-2.7371 J17.8487
G3 X-54.8089 Y203.2594 I-0.261 J1.2821
G3 X-53.7492 Y203.5471 I-6.7866 J27.0876
G3 X-52.3541 Y203.9887 I-10.5721 J35.8305
G3 X-52.266 Y204.0183 I-0.3694 J1.243
G3 X-52.1765 Y204.0486 I-0.3777 J1.263
G3 X-52.0857 Y204.0795 I-0.3863 J1.284
G3 X-51.9935 Y204.111 I-0.3953 J1.306
G3 X-51.8999 Y204.1432 I-0.4047 J1.3293
G3 X-51.8049 Y204.176 I-0.4145 J1.354
G3 X-51.7084 Y204.2095 I-0.4248 J1.3801
G3 X-51.6104 Y204.2436 I-0.4355 J1.4077
G3 X-50.7168 Y204.5597 I-23.9062 J69.002
G1 X-49.6969 Y204.9237
G1 X-49.1523 Y205.1155
G2 X-49.0138 Y205.1637 I1.1367 J-3.0425
G2 X-48.873 Y205.2124 I1.2066 J-3.2595
G1 X-48.2713 Y205.4166
G2 X-48.118 Y205.4673 I1.8379 J-5.2918
G2 X-47.9622 Y205.5184 I2.0784 J-6.0834
G2 X-47.8038 Y205.5696 I2.4129 J-7.1901
G2 X-47.476 Y205.6734 I4.5593 J-13.8319
G2 X-46.7737 Y205.8842 I15.074 J-48.9429
G2 X-46.0192 Y206.0901 I6.9026 J-23.8076
G2 X-44.2707 Y206.4652 I5.2398 J-20.1605
G2 X-43.8144 Y206.5358 I2.3187 J-13.4836
G3 X-42.0093 Y203.7617 I12.4728 J6.1417
G3 X-41.2752 Y202.9353 I12.0101 J9.9291
G3 X-40.8338 Y202.4836 I14.0743 J13.3097
G3 X-40.5931 Y202.248 I6.5113 J6.4137
G3 X-40.5314 Y202.1887 I0.8256 J0.7971
G1 X-40.2661 Y201.938
G1 X-40.1279 Y201.81
G3 X-38.6202 Y200.4865 I36.6301 J40.2052
G1 X-38.4231 Y200.3188
G1 X-38.2194 Y200.146
G1 X-38.0092 Y199.9676
G1 X-37.5613 Y199.5868
G1 X-37.0857 Y199.1784
G2 X-37.056 Y199.1527 I-0.2414 J-0.3091
G2 X-37.0261 Y199.1268 I-0.2416 J-0.3091
G2 X-36.9961 Y199.1008 I-0.2417 J-0.3091
G2 X-36.4878 Y198.6551 I-27.1289 J-31.4504
G2 X-37.5835 Y198.523 I-1.1608 J5.0187
G2 X-38.6839 Y198.609 I-0.0642 J6.2585
G2 X-39.4039 Y198.7613 I1.2631 J7.7483
G1 X-39.5935 Y198.8117
G1 X-39.7947 Y198.8693
G2 X-40.8496 Y199.2244 I4.6649 J15.6003
G2 X-40.9159 Y199.249 I0.501 J1.4564
G2 X-41.0526 Y199.3 I0.8583 J2.5048
G2 X-41.3433 Y199.4105 I7.0761 J19.0549
G1 X-42.0054 Y199.6656
G1 X-42.359 Y199.7995
G1 X-42.4491 Y199.8329
G3 X-43.2772 Y200.1196 I-6.005 J-16.0086
G1 X-43.4933 Y200.1858
G3 X-43.7177 Y200.2498 I-1.8203 J-5.9637
G3 X-43.9508 Y200.3103 I-7.2647 J-27.5007
G3 X-44.4532 Y200.4173 I-1.7919 J-7.1824
G3 X-44.9968 Y200.4907 I-1.2932 J-7.5208
G1 X-45.1357 Y200.5015
G3 X-45.7319 Y200.5066 I-0.3458 J-5.6004
G3 X-47.0798 Y200.2319 I0.2302 J-4.5738
G3 X-46.7298 Y199.4817 I2.6068 J0.7592
G3 X-46.1719 Y198.87 I2.4166 J1.6437
G3 X-45.7212 Y198.5506 I2.3042 J2.7739
G3 X-45.069 Y198.2147 I2.8646 J4.7617
G1 X-44.9821 Y198.1772
G3 X-44.6838 Y198.0553 I8.3494 J20.0093
G1 X-44.6411 Y198.038
G1 X-44.2993 Y197.9005
G1 X-44.0713 Y197.8093
G1 X-43.9409 Y197.7572
G1 X-43.792 Y197.6977
G1 X-43.6216 Y197.6298
G1 X-43.1674 Y197.4491
G3 X-42.5617 Y197.2085 I28.4157 J70.6599
G1 X-40.1378 Y196.2487
G1 X-39.445 Y195.9749
G1 X-39.0755 Y195.8289
G1 X-33.1625 Y193.4969
G1 X-29.2197 Y191.9444
G1 X-23.9619 Y189.8761
G1 X26.4951 Y169.9343
G0 Z5.0
M5
M30
