( Made using CamBam - http://www.cambam.co.uk )
( _2014_1_20_car 1/20/2014 11:32:11 PM )
( T0 : 0.0 )
G21 G90 G64 G40
G0 Z5.0
( T0 : 0.0 )
T0 M6
( 226-228 )
G17
M3 S1000
G0 X211.8957 Y219.7609
G1 F1.0 Z0.0
G3 X211.1414 Y219.9208 I-0.7745 J-1.7944
G3 X210.3825 Y219.784 I-0.006 J-2.1402
G3 X209.9173 Y219.564 I1.1111 J-2.9512
G3 X209.3605 Y219.1713 I2.1283 J-3.6086
G3 X208.7167 Y218.5449 I4.0172 J-4.7729
G3 X207.993 Y217.6142 I6.6087 J-5.8862
G3 X207.209 Y216.2847 I9.5087 J-6.5023
G3 X206.8526 Y215.4846 I6.9595 J-3.5797
G1 X206.8154 Y215.3798
G1 X213.3165 Y218.1784
G1 X211.8957 Y219.7609
G0 Z5.0
G0 X213.0977 Y222.7297
G1 Z0.0
G2 X215.1688 Y221.7706 I-8.7498 J-21.6113
G2 X217.7153 Y220.1658 I-8.63 J-16.5162
G2 X217.7906 Y220.1086 I-0.7672 J-1.0904
G2 X218.9161 Y220.4269 I14.5385 J-49.263
G2 X218.9914 Y220.4474 I0.4633 J-1.5492
G1 X219.3929 Y220.5557
G1 X219.929 Y220.6974
G1 X220.6447 Y220.8827
G1 X221.5999 Y221.1261
G1 X222.8736 Y221.4507
G1 X223.6004 Y221.6395
G1 X224.4296 Y221.8611
G1 X224.8709 Y221.9828
G1 X225.0984 Y222.0467
G1 X225.5828 Y222.186
G1 X225.8324 Y222.2595
G1 X226.0897 Y222.3368
G3 X227.2597 Y222.7089 I-11.0658 J36.8145
G3 X228.5816 Y223.1806 I-9.6799 J29.2163
G1 X228.9193 Y223.3117
G1 X229.2662 Y223.4515
G3 X230.8256 Y224.1544 I-9.6877 J23.5744
G3 X232.5373 Y225.1031 I-8.7768 J17.854
G3 X232.5894 Y225.1356 I-0.5901 J1.0054
G3 X233.4628 Y225.717 I-9.198 J14.7625
G3 X232.9785 Y226.7915 I-6.0916 J-2.0993
G3 X232.3322 Y227.7772 I-7.7297 J-4.3638
G3 X231.8375 Y228.3876 I-8.1083 J-6.0646
G3 X231.537 Y228.7211 I-9.345 J-8.1184
G3 X230.6857 Y229.5604 I-10.8511 J-10.1546
G3 X229.4646 Y230.5805 I-13.4248 J-14.8307
G3 X228.7334 Y231.1196 I-13.5299 J-17.585
G3 X227.8748 Y231.7011 I-14.7605 J-20.8696
G3 X226.8687 Y232.3247 I-14.2361 J-21.843
G3 X224.0926 Y233.8004 I-18.0619 J-30.6304
G3 X220.2435 Y235.4142 I-18.8363 J-39.5292
G3 X220.182 Y235.4367 I-0.2783 J-0.6653
G3 X214.8646 Y237.0567 I-17.9549 J-49.3961
G3 X207.6073 Y238.3541 I-13.2943 J-53.4194
G3 X203.4116 Y238.6511 I-5.8644 J-53.0623
G3 X202.3265 Y238.6725 I-1.3289 J-39.8224
G2 X207.5962 Y237.587 I-16.8687 J-95.2195
G1 X207.9452 Y237.5039
G1 X208.3171 Y237.4137
G1 X208.7133 Y237.3157
G1 X209.1354 Y237.2091
G2 X215.8024 Y235.196 I-19.081 J-75.2369
G1 X216.0109 Y235.122
G1 X216.2224 Y235.0461
G2 X220.6707 Y233.2613 I-22.2826 J-61.9719
G2 X221.8333 Y232.7294 I-21.7774 J-49.1268
G2 X222.0216 Y232.5817 I-0.1921 J-0.439
G2 X222.0606 Y232.3456 I-0.2056 J-0.1552
G2 X221.9691 Y232.2087 I-0.2995 J0.1011
G2 X221.7793 Y232.1096 I-0.2924 J0.3289
G2 X221.5133 Y232.1121 I-0.1281 J0.5433
G1 X220.2745 Y232.4348
G1 X219.0348 Y232.7543
G1 X218.6805 Y232.845
G1 X217.7351 Y233.0856
G1 X217.483 Y233.1494
G3 X213.4437 Y234.1518 I-115.1865 J-455.5046
G3 X205.3346 Y236.0284 I-82.6299 J-338.613
G3 X205.0764 Y236.0844 I-2.4035 J-10.4508
G3 X199.5518 Y237.2059 I-43.0842 J-198.0734
G1 X198.8364 Y237.3377
G3 X197.3077 Y237.6055 I-35.9591 J-200.7598
G1 X197.2116 Y237.6216
G1 X196.8212 Y237.6862
G3 X195.1525 Y237.9433 I-16.2941 J-100.2365
G1 X194.7278 Y238.003
G3 X194.5136 Y238.032 I-1.0042 J-6.5939
G3 X192.6817 Y238.2468 I-7.1585 J-53.1403
G1 X192.5664 Y238.2579
G3 X191.6136 Y238.3349 I-2.9524 J-30.5831
G1 X191.5538 Y238.3388
G3 X191.3127 Y238.3529 I-0.5076 J-6.5811
G1 X191.0697 Y238.3648
G1 X190.8245 Y238.3741
G1 X190.5773 Y238.3805
G3 X190.328 Y238.3833 I-0.2114 J-7.5974
G1 X190.0768 Y238.3821
G1 X189.9506 Y238.3797
G1 X189.6963 Y238.3708
G1 X189.4402 Y238.3555
G3 X188.921 Y238.298 I0.4725 J-6.6337
G3 X188.8563 Y238.2875 I0.0857 J-0.7374
G3 X188.3365 Y238.1614 I0.5027 J-3.2064
G3 X188.0862 Y238.0552 I0.6588 J-1.8994
G1 X189.4845 Y237.8025
G1 X189.6842 Y237.7658
G2 X191.2809 Y237.4694 I-44.4766 J-244.0175
G1 X192.3448 Y237.2687
G1 X193.7627 Y236.9975
G1 X195.6519 Y236.6299
G1 X195.8956 Y236.5819
G1 X196.4154 Y236.4793
G2 X204.7166 Y234.7619 I-93.2027 J-471.4297
G1 X205.821 Y234.5213
G1 X206.9983 Y234.2612
G1 X207.6056 Y234.1255
G2 X214.0673 Y232.6083 I-68.5382 J-306.4094
G1 X214.4764 Y232.5069
G1 X215.3204 Y232.2955
G1 X215.533 Y232.2417
G2 X215.7472 Y232.1873 I-1.5113 J-6.3985
G1 X216.1821 Y232.0761
G1 X216.6238 Y231.9622
G1 X217.0722 Y231.8456
G2 X221.1576 Y230.7253 I-41.7587 J-160.2927
G2 X222.2065 Y230.4173 I-20.987 J-73.4104
G2 X222.338 Y230.378 I-0.6023 J-2.2532
G1 X222.8716 Y230.2166
G1 X223.4128 Y230.0498
G2 X225.7104 Y229.3002 I-26.7717 J-85.954
G1 X226.2901 Y229.098
G1 X226.3626 Y229.0723
G2 X226.508 Y229.0204 I-1.085 J-3.2682
G1 X226.8006 Y228.9145
G2 X228.0022 Y228.4585 I-14.102 J-38.966
G1 X228.0397 Y228.4436
G2 X229.2651 Y227.9303 I-10.8344 J-27.5851
G2 X229.5703 Y227.7925 I-5.2567 J-12.0477
G1 X229.7228 Y227.7218
G1 X230.0287 Y227.5758
G1 X230.105 Y227.5384
G2 X231.3365 Y226.8623 I-6.1539 J-12.6689
G1 X231.4853 Y226.7674
G1 X231.6329 Y226.6691
G2 X231.2864 Y226.277 I-3.8721 J3.0714
G2 X231.2618 Y226.2521 I-0.1841 J0.1578
G2 X230.8487 Y225.8768 I-3.938 J3.9205
G2 X229.9396 Y225.2318 I-5.1466 J6.2897
G2 X229.2942 Y224.8636 I-5.2765 J8.5005
G1 X229.2092 Y224.819
G2 X228.2879 Y224.3789 I-6.6468 J12.731
G2 X228.1671 Y224.3262 I-0.8448 J1.7704
G2 X228.042 Y224.2726 I-0.9515 J2.0481
G2 X227.4669 Y224.0381 I-6.7629 J15.7633
G1 X227.1579 Y223.9191
G1 X226.8268 Y223.7964
G2 X226.0662 Y223.5294 I-10.9254 J29.9124
G2 X224.0236 Y222.8798 I-20.8699 J62.0847
G2 X223.8934 Y222.8402 I-1.6657 J5.2447
G1 X223.3381 Y222.672
G3 X222.0721 Y222.2832 I23.2507 J-77.9665
G1 X221.7465 Y222.1793
G3 X221.0558 Y221.9478 I7.3642 J-23.1167
G3 X221.5977 Y222.3262 I-8.1337 J12.2242
G1 X221.7753 Y222.4568
G3 X222.4698 Y222.9992 I-12.1342 J16.253
G3 X223.775 Y224.183 I-10.3598 J12.733
G3 X223.9381 Y224.3522 I-4.2494 J4.2594
G3 X224.2973 Y224.752 I-7.7788 J7.3499
G1 X224.3192 Y224.7779
G3 X224.6976 Y225.2683 I-5.0604 J4.2967
G3 X224.8762 Y225.5467 I-3.544 J2.4699
G3 X225.0363 Y225.8624 I-2.8308 J1.6343
G3 X225.1408 Y226.2288 I-1.2505 J0.5547
G3 X225.1396 Y226.4293 I-0.73 J0.096
G3 X225.0638 Y226.632 I-0.4869 J-0.0666
G3 X224.8865 Y226.7993 I-0.4492 J-0.2982
G1 X224.7358 Y226.8869
G3 X224.5836 Y226.9718 I-1.5091 J-2.5272
G3 X224.2753 Y227.1346 I-3.3535 J-5.9759
G3 X223.6473 Y227.4373 I-8.2358 J-16.2847
G1 X223.4656 Y227.5191
G1 X223.3684 Y227.562
G1 X223.1455 Y227.6583
G3 X222.5464 Y227.9038 I-11.1958 J-26.4592
G3 X220.107 Y228.7675 I-14.557 J-37.2378
G1 X219.7782 Y228.8718
G3 X218.0146 Y229.395 I-19.3204 J-61.8883
G1 X217.7859 Y229.4589
G1 X217.2975 Y229.5928
G1 X216.7757 Y229.7319
G3 X215.5799 Y230.037 I-15.6629 J-58.9012
G3 X214.2085 Y230.3651 I-23.1597 J-93.7835
G3 X214.1219 Y230.3851 I-0.2661 J-0.9553
G3 X210.4152 Y231.1647 I-22.927 J-99.8032
G3 X205.4346 Y231.9842 I-17.8015 J-92.6446
G3 X202.5701 Y232.319 I-10.2692 J-75.4455
G1 X202.2054 Y232.3526
G3 X202.0215 Y232.3687 I-0.565 J-5.4074
G2 X202.4048 Y232.0538 I-3.9462 J-5.1959
G1 X202.5271 Y231.9425
G2 X202.9858 Y231.4664 I-4.0717 J-4.382
G2 X203.2561 Y231.1177 I-3.0174 J-2.6177
G1 X203.3214 Y231.0199
G2 X203.5986 Y230.4558 I-2.0389 J-1.3521
G2 X203.6726 Y230.1016 I-1.4032 J-0.4779
G2 X203.6343 Y229.6835 I-1.1887 J-0.1018
G2 X203.4026 Y229.2481 I-1.1807 J0.3486
G2 X202.9699 Y228.8689 I-1.4395 J1.2065
G2 X202.5196 Y228.6298 I-1.6467 J2.5569
G2 X202.0409 Y228.4546 I-1.8329 J4.268
G2 X201.0493 Y228.2277 I-2.2595 J7.595
G2 X200.3786 Y228.1318 I-2.0624 J12.0242
G2 X200.3359 Y228.1267 I-0.0598 J0.317
G1 X199.9452 Y228.0838
G2 X199.4984 Y228.0414 I-1.823 J16.8698
G2 X199.4416 Y228.0364 I-0.0813 J0.5966
G1 X198.2327 Y227.9359
G1 X197.9105 Y227.9072
G1 X197.5674 Y227.8735
G1 X197.202 Y227.8324
G3 X196.3716 Y227.7069 I1.4017 J-12.0839
G3 X195.9335 Y227.6126 I1.1103 J-6.2267
G3 X195.4737 Y227.4801 I1.4824 J-6.007
G3 X194.9999 Y227.2865 I1.2254 J-3.6754
G3 X195.6193 Y227.1002 I7.1306 J22.5862
G3 X195.708 Y227.0744 I0.4307 J1.3161
G3 X195.8096 Y227.0452 I0.4616 J1.4114
G3 X196.6238 Y226.8201 I12.1198 J42.254
G3 X196.7328 Y226.7911 I0.4635 J1.5262
G3 X196.789 Y226.7763 I0.3215 J1.1054
G1 X197.3897 Y226.6221
G3 X198.1933 Y226.4267 I9.2003 J36.0727
G3 X198.6535 Y226.3195 I4.9653 J20.2886
G3 X199.8837 Y226.0471 I16.2609 J70.5124
G1 X200.5881 Y225.8982
G3 X201.3941 Y225.7324 I29.2363 J140.0172
G3 X201.4965 Y225.7115 I0.6817 J3.0905
G1 X202.4329 Y225.5228
G1 X202.9325 Y225.4227
G1 X204.0741 Y225.1931
G1 X204.3686 Y225.1332
G2 X207.5001 Y224.4508 I-20.1504 J-100.005
G1 X207.9021 Y224.354
G2 X208.7576 Y224.1379 I-8.9971 J-37.4122
G1 X209.1976 Y224.0207
G2 X209.6506 Y223.8952 I-6.3033 J-23.6396
G2 X211.7022 Y223.2531 I-9.5009 J-33.9552
G2 X212.7785 Y222.8562 I-9.5576 J-27.5742
G2 X213.0977 Y222.7297 I-8.4306 J-21.7378
G0 Z5.0
G0 X215.1522 Y217.4671
G1 Z0.0
G3 X213.5092 Y216.8045 I28.8492 J-73.8963
G3 X212.3514 Y216.3143 I35.969 J-86.5683
G3 X207.7841 Y214.2108 I42.016 J-97.238
G3 X207.7129 Y214.176 I0.7161 J-1.557
G3 X207.6412 Y214.1409 I0.7236 J-1.5706
G3 X206.334 Y213.4918 I57.956 J-118.3584
G3 X204.8488 Y212.7328 I54.1995 J-107.8754
G1 X204.0604 Y212.3209
G3 X199.8941 Y210.053 I80.7619 J-153.323
G3 X194.4237 Y206.8808 I121.3697 J-215.6044
G1 X193.7235 Y206.4621
G1 X193.0018 Y206.028
G1 X192.82 Y205.9183
G3 X192.4511 Y205.6952 I28.2505 J-47.1309
G1 X191.6901 Y205.2332
G1 X190.0703 Y204.2425
G3 X188.3465 Y203.1793 I149.8039 J-244.8174
G1 X176.6387 Y201.5968
G3 X176.8136 Y201.3589 I0.5721 J0.2372
G3 X177.0633 Y201.2012 I0.7103 J0.8487
G3 X177.6185 Y201.0322 I0.9712 J2.1937
G3 X177.9987 Y200.9759 I1.0912 J6.0612
G1 X178.048 Y200.9707
G1 X178.0989 Y200.9658
G1 X178.1515 Y200.9611
G3 X178.7076 Y200.9336 I0.6486 J7.4573
G3 X179.4434 Y200.9408 I0.2187 J15.0681
G3 X180.4149 Y200.9987 I-0.68 J19.6166
G1 X180.6731 Y201.0206
G1 X180.9479 Y201.0465
G1 X181.2403 Y201.0765
G3 X181.5516 Y201.1109 I-1.1807 J12.0942
G3 X183.1979 Y201.327 I-5.8784 J51.1645
G1 X183.4098 Y201.3581
G3 X184.3754 Y201.5067 I-16.7561 J112.0901
G1 X184.6243 Y201.5465
G1 X185.1543 Y201.6332
G1 X185.4277 Y201.6787
G1 X188.3307 Y202.1737
G1 X189.1053 Y202.2997
G1 X189.5056 Y202.3608
G1 X189.9195 Y202.4188
G2 X203.0721 Y210.2088 I303.6367 J-497.6579
G1 X203.9564 Y210.7153
G2 X204.1812 Y210.8437 I5.0399 J-8.5656
G1 X204.6455 Y211.1082
G2 X206.7721 Y212.3102 I146.568 J-256.8298
G2 X206.9063 Y212.3855 I3.307 J-5.738
G1 X208.0528 Y213.0256
G1 X209.2784 Y213.7036
G1 X209.9121 Y214.0514
G2 X212.8211 Y215.6196 I110.6303 J-201.7331
G2 X216.1762 Y217.354 I78.9452 J-148.5982
G1 X217.0492 Y217.7877
G2 X217.2697 Y217.8958 I3.656 J-7.1793
G1 X217.3313 Y217.9264
G1 X217.3925 Y217.9578
G1 X217.5137 Y218.0229
G3 X217.7472 Y218.1683 I-1.1999 J2.1871
G3 X217.8089 Y218.217 I-0.2756 J0.4128
G3 X217.8694 Y218.284 I-0.1808 J0.2241
G3 X217.8724 Y218.3358 I-0.0337 J0.0279
G3 X217.8407 Y218.3532 I-0.0462 J-0.0467
G3 X217.7451 Y218.3588 I-0.065 J-0.2955
G3 X217.5548 Y218.3294 I0.1569 J-1.6473
G1 X217.4514 Y218.3046
G3 X217.0245 Y218.171 I1.3358 J-5.016
G3 X215.1522 Y217.4671 I26.9769 J-74.6001
G0 Z5.0
M5
M30
