( Made using CamBam - http://www.cambam.co.uk )
( _2014_1_20_car 1/20/2014 11:31:09 PM )
( T0 : 0.0 )
G21 G90 G64 G40
G0 Z5.0
( T0 : 0.0 )
T0 M6
( 102103106 )
G17
M3 S1000
G0 X-159.9171 Y105.674
G1 F1.0 Z0.0
G1 X-158.4927 Y105.064
G1 X-144.8623 Y110.4028
G3 X-144.8825 Y110.5001 I-0.6869 J-0.0918
G1 X-144.9085 Y110.596
G3 X-144.9694 Y110.7852 I-8.5911 J-2.6602
G1 X-145.1039 Y111.1589
G1 X-145.1922 Y111.4083
G1 X-145.2383 Y111.5524
G2 X-145.2601 Y111.6301 I0.6958 J0.2373
G3 X-145.6205 Y112.2837 I-4.108 J-1.8384
G3 X-146.0885 Y112.865 I-3.1464 J-2.0544
G3 X-147.3301 Y113.6835 I-2.4925 J-2.4298
G3 X-148.2969 Y113.9226 I-1.4396 J-3.7468
G3 X-149.6168 Y113.9146 I-0.6269 J-5.4218
G1 X-149.7859 Y113.8919
G3 X-150.5454 Y113.7388 I1.09 J-7.3694
G3 X-150.7385 Y113.6874 I0.8421 J-3.5533
G3 X-151.5979 Y113.4028 I2.761 J-9.7744
G3 X-152.5369 Y112.9944 I4.079 J-10.6638
G1 X-152.7728 Y112.8767
G1 X-152.8915 Y112.8152
G3 X-153.3884 Y112.5416 I8.5907 J-16.1898
G3 X-153.9032 Y112.2306 I6.3474 J-11.0883
G3 X-154.0318 Y112.1485 I2.5782 J-4.1811
G1 X-154.2939 Y111.9758
G1 X-154.56 Y111.7927
G3 X-155.7142 Y110.9066 I9.6183 J-13.7224
G3 X-158.3211 Y108.216 I11.3381 J-13.5937
G1 X-158.3934 Y108.1225
G3 X-158.9774 Y107.3088 I12.1554 J-9.3407
G1 X-159.1169 Y107.0964
G3 X-159.3921 Y106.6517 I18.6616 J-11.855
G3 X-159.9171 Y105.674 I10.6508 J-6.3487
G0 Z5.0
G0 X-161.3451 Y101.2091
G1 Z0.0
G3 X-161.5761 Y101.2623 I-0.7234 J-2.6111
G3 X-161.6537 Y101.2772 I-0.2217 J-0.9458
G3 X-161.9661 Y101.3233 I-1.091 J-6.3223
G3 X-162.5966 Y101.3576 I-0.6317 J-5.8021
G3 X-163.8529 Y101.2569 I0.0771 J-8.8521
G3 X-164.6803 Y101.1141 I2.3628 J-16.163
G3 X-164.7867 Y101.0932 I0.4041 J-2.3381
G1 X-165.2714 Y100.9939
G1 X-165.8243 Y100.8777
G2 X-166.4568 Y100.7515 I-4.3438 J20.1065
G1 X-166.7954 Y100.6913
G2 X-167.1578 Y100.636 I-2.0188 J12.0254
G1 X-167.3455 Y100.6122
G2 X-167.7476 Y100.575 I-1.3563 J12.4788
G2 X-168.6719 Y100.5918 I-0.3715 J5.0083
G1 X-166.6337 Y102.9237
G1 X-167.2437 Y103.1338
G2 X-167.782 Y102.5756 I-5.5243 J4.7886
G1 X-167.9706 Y102.3987
G1 X-168.7344 Y101.702
G3 X-169.2293 Y101.2226 I7.5381 J-8.2756
G3 X-169.3547 Y101.0882 I4.4484 J-4.276
G3 X-169.4826 Y100.9395 I2.2103 J-2.032
G2 X-170.2839 Y100.3861 I-9.9457 J13.5426
G2 X-171.1178 Y99.8829 I-8.2667 J12.7555
G2 X-172.8567 Y99.0076 I-10.2674 J18.2354
G2 X-173.3661 Y98.7839 I-7.8087 J17.0869
G2 X-174.7408 Y98.2281 I-17.5795 J41.4982
G2 X-174.9195 Y98.1596 I-1.7362 J4.2622
G2 X-175.1041 Y98.0895 I-1.7703 J4.383
G2 X-177.0784 Y97.3594 I-89.3691 J238.6582
G3 X-177.3331 Y97.265 I4.9878 J-13.8492
G3 X-177.8754 Y97.0614 I19.2983 J-52.2166
G1 X-178.4518 Y96.8391
G3 X-179.0633 Y96.5939 I11.8555 J-30.453
G3 X-179.3773 Y96.4633 I4.1594 J-10.4393
G3 X-179.5362 Y96.3957 I2.3935 J-5.8521
G3 X-179.6974 Y96.3262 I2.1001 J-5.0871
G3 X-181.1478 Y95.641 I9.5249 J-22.0405
G3 X-181.5138 Y95.4474 I7.4246 J-14.4781
G3 X-181.6054 Y95.3973 I0.6785 J-1.3514
G3 X-181.6975 Y95.3464 I0.6648 J-1.3102
G3 X-182.4707 Y94.8898 I8.9815 J-16.0906
G3 X-184.1358 Y93.6836 I7.8539 J-12.5943
G1 X-184.4407 Y94.0313
G1 X-183.9995 Y94.4113
G1 X-183.5582 Y94.7915
G1 X-182.6734 Y95.549
G2 X-180.8754 Y97.0302 I44.6583 J-52.3774
G2 X-179.6394 Y97.9708 I25.0915 J-31.691
G2 X-178.9146 Y98.4831 I20.9596 J-28.8809
G2 X-176.9 Y99.7273 I13.6874 J-19.9102
G2 X-175.6898 Y100.3352 I8.9993 J-16.4078
G3 X-175.6068 Y100.469 I-0.2201 J0.2289
G3 X-175.5992 Y100.6262 I-0.3371 J0.0951
G3 X-175.7176 Y100.9071 I-0.7617 J-0.1557
G3 X-176.0987 Y101.3346 I-1.7436 J-1.1706
G3 X-176.4001 Y101.5569 I-1.3867 J-1.5646
G2 X-178.3781 Y100.2615 I-55.339 J82.3382
G1 X-180.3693 Y98.9863
G1 X-180.936 Y98.6186
G1 X-181.5807 Y98.194
G1 X-181.923 Y97.965
G1 X-182.2866 Y97.7186
G1 X-182.6725 Y97.4528
G1 X-182.8708 Y97.3143
G1 X-183.0748 Y97.1703
G1 X-183.5073 Y96.8597
G3 X-183.9644 Y96.5224 I12.1246 J-16.9101
G1 X-184.0798 Y96.4357
G3 X-185.1172 Y95.6205 I17.9018 J-23.851
G1 X-185.3793 Y95.403
G3 X-186.5406 Y94.3656 I15.7414 J-18.7909
G1 X-186.6832 Y94.2284
G3 X-187.2766 Y93.6278 I11.6139 J-12.0678
G1 X-187.4232 Y93.4712
G1 X-187.5703 Y93.3104
G3 X-188.8182 Y91.7534 I12.1151 J-10.9882
G2 X-188.0615 Y91.953 I12.0945 J-44.3038
G1 X-187.3035 Y92.1476
G1 X-186.7976 Y92.2748
G2 X-186.1223 Y92.4418 I25.01 J-99.6776
G2 X-183.4161 Y93.0885 I68.7893 J-281.8713
G1 X-181.61 Y93.5113
G1 X-180.5782 Y93.7539
G1 X-180.0282 Y93.8843
G1 X-178.772 Y94.1867
G3 X-178.1027 Y94.3511 I-25.558 J105.442
G1 X-177.3896 Y94.5297
G1 X-177.0219 Y94.6233
G1 X-176.6427 Y94.721
G3 X-172.6226 Y95.8581 I-21.71 J84.4277
G1 X-172.1086 Y96.0206
G1 X-171.5794 Y96.1929
G1 X-171.0348 Y96.376
G1 X-170.4746 Y96.5708
G3 X-167.9438 Y97.5463 I-15.5132 J44.0152
G1 X-167.7864 Y97.6129
G1 X-167.628 Y97.6807
G1 X-167.4687 Y97.7496
G1 X-167.3084 Y97.8198
G3 X-164.4372 Y99.2377 I-14.2523 J32.4771
G3 X-161.3451 Y101.2091 I-14.0046 J25.3754
G0 Z5.0
G0 X-142.6409 Y111.9019
G1 Z0.0
G3 X-142.6372 Y111.8955 I0.899 J0.5139
G3 X-142.2346 Y111.5821 I0.5882 J0.3404
G3 X-141.9333 Y111.5562 I0.2214 J0.8123
G3 X-141.5968 Y111.6301 I-0.1255 J1.3757
G1 X-141.5437 Y111.6502
G1 X-141.4901 Y111.6695
G2 X-141.3823 Y111.7058 I0.6166 J-1.6514
G2 X-141.1647 Y111.7726 I2.5764 J-8.0102
G1 X-141.0188 Y111.8144
G1 X-140.9799 Y111.8253
G1 X-140.7718 Y111.8824
G3 X-139.9402 Y112.1121 I-13.7444 J51.3773
G3 X-139.3911 Y112.2833 I-4.3778 J15.0023
G3 X-139.3208 Y112.3073 I-0.2642 J0.8916
G1 X-139.1715 Y112.36
G3 X-138.3946 Y112.6922 I-2.2751 J6.3953
G3 X-137.9767 Y112.9358 I-1.9223 J3.7779
G3 X-137.5459 Y113.2858 I-1.5749 J2.3785
G3 X-137.1744 Y113.8101 I-1.2779 J1.2991
G3 X-137.0316 Y114.5555 I-1.4707 J0.668
G3 X-137.0906 Y114.9662 I-2.3015 J-0.1209
G3 X-137.2306 Y115.392 I-2.79 J-0.6814
G1 X-136.1037
G2 X-135.6275 Y115.1393 I-0.7359 J-1.962
G2 X-135.2669 Y114.7386 I-0.7365 J-1.0253
G2 X-135.1322 Y114.4029 I-1.3322 J-0.7296
G2 X-135.0504 Y113.9307 I-2.8096 J-0.7297
G1 X-135.0383 Y113.8037
G1 X-135.0152 Y113.5153
G1 X-135.0029 Y113.3621
G1 X-134.988 Y113.1995
G3 X-134.6114 Y112.3067 I1.8963 J0.2741
G3 X-133.8784 Y111.6726 I1.9257 J1.4855
G3 X-133.2865 Y111.4132 I1.479 J2.5696
G3 X-132.4457 Y111.2591 I1.0439 J3.3248
G3 X-131.3246 Y111.3679 I0.2128 J3.6385
G1 X-128.4887 Y112.4245
G2 X-128.0835 Y112.5751 I9.6539 J-25.3598
G1 X-124.8402 Y113.7768
G2 X-124.4076 Y113.9367 I10.4216 J-27.5372
G2 X-123.9461 Y114.1071 I10.8341 J-28.6272
G2 X-123.7079 Y114.1951 I7.7739 J-20.694
G2 X-123.462 Y114.2858 I7.9265 J-21.1025
G1 X-120.8388 Y115.252
G1 X-117.3397 Y116.5363
G1 X-112.6722 Y118.2431
G1 X-106.4464 Y120.5122
G1 X-98.1439 Y123.5339
G3 X-97.6168 Y123.7258 I-29.1278 J80.8077
G3 X-97.0813 Y123.9208 I-31.3576 J86.9289
G3 X-96.5373 Y124.119 I-34.1328 J94.5434
G3 X-95.9847 Y124.3203 I-37.7233 J104.3903
G3 X-95.4234 Y124.5249 I-42.6331 J117.8506
G1 X-90.2923 Y126.398
G1 X-87.5566 Y127.3995
G1 X-84.6395 Y128.4705
G1 X-81.5292 Y129.6163
G1 X-78.2134 Y130.8432
G1 X-74.6787 Y132.1581
G1 X-72.8554 Y132.8395
G1 X-70.974 Y133.5451
G1 X-69.0329 Y134.2759
G1 X-67.0302 Y135.0331
G1 X-64.9642 Y135.8178
G1 X-62.8328 Y136.6313
G1 X-60.6341 Y137.4751
G1 X-58.3663 Y138.3505
G1 X-56.0273 Y139.2592
G1 X-54.84 Y139.7228
G1 X-53.6344 Y140.1952
G1 X-52.4102 Y140.6766
G1 X-51.1673 Y141.1673
G1 X-49.9053 Y141.6676
G3 X-38.4022 Y146.3286 I-310.6739 J783.2483
G1 X-36.9465 Y146.9327
G1 X-35.4689 Y147.5495
G1 X-33.9692 Y148.1792
G1 X-32.4471 Y148.8224
G1 X-30.9023 Y149.4793
G3 X-24.3295 Y152.3246 I-251.4751 J589.9428
G3 X-17.3535 Y155.4403 I-257.1736 J585.1675
G1 X-15.5882 Y156.2457
G1 X-13.7976 Y157.07
G1 X-10.4466 Y159.2642
G3 X-14.7408 Y158.7004 I16.2873 J-140.6831
G1 X-15.3528 Y158.6096
G3 X-20.2331 Y157.7837 I18.9058 J-126.553
G1 X-20.881 Y157.658
G3 X-20.9626 Y157.6418 I0.359 J-2.027
G1 X-21.6581 Y157.501
G1 X-22.3986 Y157.3445
G1 X-22.5865 Y157.3036
G1 X-22.9739 Y157.2177
G1 X-23.0715 Y157.1957
G1 X-23.4741 Y157.1035
G3 X-24.3307 Y156.8982 I11.5198 J-49.9528
G3 X-24.5478 Y156.844 I2.8023 J-11.6906
G3 X-26.5205 Y156.302 I10.2857 J-41.2969
G2 X-27.2226 Y156.0906 I-24.706 J80.7967
G2 X-27.9247 Y155.8793 I-26.3806 J86.3695
G2 X-28.3928 Y155.7384 I-22.8725 J75.1454
G2 X-29.0169 Y155.5506 I-28.2695 J92.7996
G2 X-29.849 Y155.3002 I-36.3275 J119.2043
G2 X-30.9585 Y154.9663 I-50.7234 J166.5446
G3 X-32.4379 Y154.5211 I93.0465 J-311.8723
G1 X-38.3551 Y152.7395
G1 X-42.2993 Y151.55
G1 X-47.5572 Y149.9603
G1 X-50.561 Y149.0494
G1 X-52.1628 Y148.5626
G1 X-53.8711 Y148.0426
G3 X-62.9768 Y145.253 I745.796 J-2450.6799
G1 X-64.1511 Y144.8907
G1 X-65.363 Y144.5162
G1 X-66.6138 Y144.1288
G3 X-79.9398 Y139.9465 I567.1698 J-1830.5096
G1 X-81.6569 Y139.3992
G1 X-83.4288 Y138.8322
G1 X-85.2571 Y138.2446
G1 X-86.1854 Y137.9452
G1 X-87.1283 Y137.6404
G1 X-88.086 Y137.3301
G1 X-89.0585 Y137.0142
G1 X-90.0463 Y136.6925
G3 X-99.0654 Y133.7144 I418.071 J-1281.2562
G1 X-101.389 Y132.9343
G3 X-111.9887 Y129.3008 I320.7095 J-952.8482
G1 X-113.3318 Y128.831
G1 X-114.6955 Y128.3516
G1 X-116.0801 Y127.8625
G3 X-128.7011 Y123.2835 I283.4118 J-800.8322
G1 X-130.2984 Y122.6874
G1 X-131.9197 Y122.0782
G1 X-133.5653 Y121.4557
G1 X-135.2356 Y120.8193
G1 X-136.9308 Y120.1687
G1 X-138.6513 Y119.5034
G3 X-138.5132 Y119.272 I1.4547 J0.7112
G3 X-138.3493 Y119.0581 I1.9144 J1.2971
G1 X-138.2309 Y118.9231
G3 X-137.7214 Y118.4192 I7.2468 J6.8173
G1 X-137.3741 Y118.092
G2 X-137.1811 Y117.8995 I-4.5879 J-4.7939
G2 X-136.9728 Y117.6678 I-3.1677 J-3.056
G2 X-136.7672 Y117.3764 I-1.6141 J-1.3576
G2 X-136.6278 Y116.9883 I-0.9075 J-0.5448
G2 X-136.732 Y116.502 I-0.7612 J-0.0912
G2 X-136.8978 Y116.2799 I-1.1072 J0.6535
G2 X-137.119 Y116.0763 I-1.4703 J1.3754
G3 X-137.5503 Y116.5215 I-3.4572 J-2.9179
G3 X-138.0498 Y116.8887 I-2.194 J-2.461
G3 X-139.2323 Y117.2461 I-1.3011 J-2.1697
G3 X-140.0581 Y117.1725 I-0.1312 J-3.1991
G3 X-140.5152 Y117.0492 I0.8197 J-3.9453
G3 X-141.0197 Y116.8617 I1.808 J-5.6391
G1 X-141.1473 Y116.8074
G3 X-141.7165 Y116.5403 I4.3385 J-9.9828
G1 X-142.0139 Y116.389
G1 X-142.3277 Y116.2247
G1 X-142.4889 Y116.1396
G1 X-142.6548 Y116.0519
G1 X-142.7391 Y116.0076
G2 X-143.0976 Y115.8221 I-6.2831 J11.7022
G1 X-143.189 Y115.7759
G1 X-143.282 Y115.7297
G2 X-143.68 Y115.5416 I-4.4455 J8.8898
G2 X-144.6128 Y115.197 I-2.6801 J5.8202
G2 X-144.8623 Y115.1372 I-1.9468 J7.5762
G3 X-144.1481 Y114.8336 I1.3091 J2.0872
G3 X-143.376 Y114.7553 I0.6759 J2.8204
G3 X-142.8609 Y114.8058 I-0.0972 J3.6421
G3 X-142.8284 Y114.8112 I-0.023 J0.2413
G3 X-142.1485 Y114.9687 I-1.0581 J6.1129
G1 X-141.9703 Y115.0217
G1 X-141.7816 Y115.0819
G3 X-141.3552 Y115.2292 I-3.1684 J9.8607
G1 X-140.2375 Y115.6424
G1 X-140.0928 Y115.6939
G2 X-139.4276 Y115.9096 I3.8197 J-10.6471
G2 X-138.6513 Y116.0893 I1.8907 J-6.402
G2 X-138.4552 Y115.7525 I-1.8339 J-1.2934
G2 X-138.346 Y115.3783 I-1.0359 J-0.5055
G2 X-138.3688 Y115.1172 I-0.6863 J-0.0715
G2 X-138.5524 Y114.8148 I-0.6925 J0.2135
G2 X-138.7077 Y114.6831 I-0.7134 J0.6841
G2 X-138.9043 Y114.5622 I-1.2593 J1.8276
G2 X-139.4485 Y114.3345 I-1.7216 J3.35
G2 X-139.7609 Y114.2354 I-1.7234 J4.892
G1 X-140.1093 Y114.1364
G2 X-140.4951 Y114.032 I-39.6872 J145.967
G1 X-140.9214 Y113.9143
G1 X-141.0303 Y113.8826
G1 X-141.2587 Y113.813
G3 X-141.7609 Y113.6352 I1.9563 J-6.323
G1 X-141.8873 Y113.5825
G3 X-142.4299 Y113.2907 I1.2689 J-3.0092
G3 X-142.6245 Y113.0799 I0.3698 J-0.5368
G3 X-142.7356 Y112.8153 I0.886 J-0.5274
G3 X-142.7642 Y112.251 I1.2859 J-0.3481
G3 X-142.6409 Y111.9019 I1.0223 J0.1648
G0 Z5.0
M5
M30
