( Made using CamBam - http://www.cambam.co.uk )
( _2014_1_20_car 1/20/2014 11:53:36 PM )
( T0 : 0.0 )
G21 G90 G64 G40
G0 Z5.0
( T0 : 0.0 )
T0 M6
( 136-139_231232 )
G17
M3 S1000
G0 X242.318 Y142.1843
G1 F1.0 Z0.0
G3 X244.8511 Y144.0856 I-17.013 J25.3041
G1 X245.1974 Y144.377
G1 X245.5887 Y144.7154
G3 X248.5528 Y147.5995 I-27.3898 J31.1146
G3 X250.3766 Y149.6674 I-37.579 J34.9823
G3 X252.6329 Y152.5679 I-41.374 J34.5127
G1 X252.9099 Y152.9529
G1 X253.7804 Y152.4992
G2 X253.2482 Y151.3211 I-13.1609 J5.2363
G2 X252.6208 Y150.1909 I-14.2577 J7.1748
G2 X251.1369 Y148.0764 I-16.567 J10.0484
G2 X247.4706 Y144.4559 I-17.5883 J14.1439
G2 X244.6123 Y142.5464 I-13.5176 J17.1401
G2 X242.8523 Y141.6711 I-9.7246 J17.3462
G1 X242.6229 Y141.5725
G1 X242.318 Y142.1843
G0 Z5.0
G0 X253.6128 Y154.528
G1 Z0.0
G1 X255.4426 Y158.6469
G1 X256.573 Y158.2918
G2 X256.5192 Y158.0583 I-3.6204 J0.7117
G1 X256.4991 Y157.981
G2 X256.4708 Y157.8783 I-1.5244 J0.3656
G1 X256.4304 Y157.7421
G2 X256.2439 Y157.2058 I-8.1716 J2.5413
G2 X255.7864 Y156.1673 I-12.7054 J4.9764
G2 X255.4443 Y155.4927 I-22.8289 J11.1563
G1 X255.2417 Y155.1111
G1 X255.0074 Y154.6766
G1 X254.7397 Y154.1803
G1 X253.6128 Y154.528
G0 Z5.0
G0 X251.4464 Y155.8955
G1 Z0.0
G2 X251.1856 Y155.4897 I-25.3108 J15.9773
G2 X249.7028 Y153.4106 I-26.1695 J17.0957
G1 X249.4998 Y153.1511
G2 X249.4482 Y153.086 I-0.9194 J0.6756
G2 X248.4774 Y151.919 I-27.1274 J21.5792
G2 X245.6487 Y149.0299 I-25.9229 J22.5525
G2 X241.3863 Y145.7391 I-22.4145 J24.6257
G2 X240.1622 Y144.9857 I-15.0305 J23.0515
G2 X237.2357 Y143.4937 I-14.2758 J24.3846
G2 X233.692 Y142.2444 I-10.0112 J22.7458
G1 X233.4628 Y142.1843
G2 X230.7617 Y140.4628 I-12.2957 J16.3127
G2 X229.7995 Y139.9975 I-6.2298 J11.6553
G3 X232.9132 Y139.6189 I2.6001 J8.3902
G3 X233.9576 Y139.7315 I-0.5755 J10.2376
G3 X234.5478 Y139.8405 I-1.7699 J11.2327
G3 X236.0904 Y140.255 I-3.2459 J15.1585
G3 X236.9529 Y140.5505 I-8.1508 J25.1969
G3 X237.0617 Y140.5902 I-1.1198 J3.24
G3 X237.1721 Y140.6308 I-1.3018 J3.7001
G3 X237.3994 Y140.716 I-2.6246 J7.3517
G1 X237.8821 Y140.9018
G1 X238.1305 Y140.9993
G1 X238.6591 Y141.2094
G2 X239.8654 Y141.6851 I27.419 J-67.761
G1 X240.0192 Y141.7438
G1 X240.1757 Y141.8028
G2 X240.4994 Y141.9221 I4.6645 J-12.1583
G1 X241.615 Y140.9552
G2 X241.2746 Y140.5748 I-3.1798 J2.5031
G2 X240.8991 Y140.2291 I-5.1673 J5.2374
G1 X240.7874 Y140.1353
G2 X239.8496 Y139.4441 I-7.6047 J9.3351
G1 X239.5712 Y139.2615
G2 X239.5356 Y139.2386 I-0.1852 J0.2498
G2 X239.4993 Y139.2155 I-0.1889 J0.2563
G2 X239.166 Y139.0082 I-8.2361 J12.8704
G2 X238.2613 Y138.484 I-12.0208 J19.7022
G1 X238.0168 Y138.3501
G1 X237.8902 Y138.2818
G1 X237.7591 Y138.2119
G2 X233.4628 Y136.2282 I-22.1318 J42.2871
G2 X233.9943 Y135.8548 I-1.6666 J-2.9375
G2 X234.4138 Y135.3588 I-1.3399 J-1.5586
G2 X234.5838 Y134.9581 I-1.3619 J-0.8143
G2 X234.6393 Y134.379 I-1.6827 J-0.4536
G2 X234.5934 Y134.0488 I-2.3058 J0.152
G2 X234.0905 Y133.4738 I-2.6731 J1.8307
G2 X233.4684 Y133.0303 I-2.2595 J2.5116
G2 X233.0098 Y132.8079 I-1.9141 J3.3632
G2 X232.3695 Y132.5852 I-2.3096 J5.6089
G2 X231.9956 Y132.4859 I-1.9693 J6.6565
G2 X231.5652 Y132.3886 I-4.4922 J18.8821
G1 X231.0722 Y132.2893
G1 X230.5104 Y132.1768
G3 X230.2124 Y132.1111 I1.3191 J-6.699
G3 X231.7549 Y130.927 I5.1052 J5.0536
G3 X233.5438 Y130.1644 I4.1798 J7.3251
G3 X234.0815 Y130.0205 I3.5252 J12.1006
G1 X234.2215 Y129.9884
G3 X234.5215 Y129.9266 I2.2848 J10.3234
G3 X236.1403 Y129.7394 I2.101 J11.0756
G1 X236.2438 Y129.735
G3 X237.1889 Y129.7328 I0.5015 J12.1765
G3 X237.6921 Y129.7577 I-0.5986 J17.1496
G3 X240.3329 Y130.1528 I-1.1971 J17.0274
G3 X240.6683 Y130.2321 I-6.7534 J29.2861
G3 X242.1777 Y130.6643 I-4.8273 J19.7111
G3 X243.8548 Y131.2823 I-7.3535 J22.5422
G3 X245.7053 Y132.1254 I-9.9992 J24.3967
G3 X247.7316 Y133.2391 I-13.8609 J27.619
G3 X249.9318 Y134.6753 I-18.0682 J30.0848
G1 X250.2032 Y134.8691
G1 X250.477 Y135.0684
G3 X252.8808 Y136.9862 I-23.825 J32.3283
G3 X255.4302 Y139.3706 I-28.6255 J33.1622
G1 X255.7402 Y139.687
G1 X256.0518 Y140.0113
G3 X258.7396 Y143.081 I-35.9944 J34.2279
G3 X261.4889 Y146.8029 I-42.4189 J34.2101
G3 X261.6516 Y147.0447 I-10.5874 J7.3011
G3 X262.9862 Y149.1317 I-49.8519 J33.3487
G3 X265.6972 Y154.0481 I-55.441 J33.7772
G3 X268.2661 Y159.8668 I-63.4903 J31.507
G3 X267.2342 Y160.7958 I-2.0331 J-1.2205
G3 X266.7963 Y160.9626 I-1.2359 J-2.5869
G3 X266.1866 Y161.0885 I-1.1098 J-3.8346
G3 X265.3631 Y161.1284 I-0.6907 J-5.7326
G3 X264.2797 Y161.034 I0.2566 J-9.2027
G3 X263.6701 Y160.9314 I2.851 J-18.8076
G1 X263.5138 Y160.9009
G1 X263.1821 Y160.8318
G2 X260.6847 Y155.4586 I-53.9241 J21.7966
G1 X260.4983 Y155.1101
G2 X257.1735 Y149.7354 I-46.6606 J25.149
G2 X254.6153 Y146.3859 I-45.1933 J31.8649
G2 X250.8405 Y142.2251 I-47.701 J39.4832
G2 X248.5288 Y139.9975 I-48.3922 J47.9046
G2 X248.2263 Y139.7548 I-8.6575 J10.481
G1 X248.1233 Y139.6769
G2 X247.6858 Y139.4015 I-1.8282 J2.4189
G2 X247.3599 Y139.2857 I-0.6178 J1.223
G2 X246.8939 Y139.3091 I-0.19 J0.8725
G2 X246.6483 Y139.4254 I0.326 J1.0055
G2 X246.4029 Y139.6174 I0.9619 J1.4818
G2 X246.2863 Y139.7353 I1.3421 J1.4451
G1 X246.7577 Y140.203
G1 X247.2247 Y140.675
G3 X248.1451 Y141.6324 I-50.2424 J49.224
G3 X249.9267 Y143.6022 I-44.4649 J42.0062
G3 X253.2118 Y147.7751 I-41.5378 J36.0803
G3 X255.1535 Y150.7373 I-38.2633 J27.1979
G3 X257.3652 Y154.9107 I-35.8969 J21.6969
G3 X259.5187 Y160.8318 I-34.7 J15.9726
G3 X259.0926 Y160.8232 I-0.1867 J-1.3134
G3 X258.6897 Y160.6842 I0.2609 J-1.4093
G3 X258.4446 Y160.5403 I1.2815 J-2.4636
G1 X258.3114 Y160.4479
G3 X258.1629 Y160.3378 I4.534 J-6.2717
G2 X257.7684 Y160.049 I-4.5494 J5.7996
G1 X257.7155 Y160.0144
G2 X257.464 Y159.8747 I-1.3062 J2.0553
G2 X256.7033 Y159.751 I-0.5886 J1.2181
G2 X256.2683 Y159.8668 I0.2652 J1.8712
G1 X255.8555 Y163.0262
G1 X254.42 Y162.4087
G2 X253.5309 Y159.8652 I-20.5301 J5.7489
G2 X252.3573 Y157.44 I-23.6314 J9.9392
G1 X252.1825 Y157.126
G2 X251.4464 Y155.8955 I-26.047 J14.7468
G0 Z5.0
G0 X249.8381 Y156.8383
G1 Z0.0
G3 X250.967 Y159.0727 I-17.3201 J10.1529
G1 X251.0066 Y159.1666
G3 X251.5989 Y160.8031 I-16.5129 J6.9008
G1 X251.6613 Y161.0135
G3 X251.7795 Y161.4436 I-12.0737 J3.5464
G3 X251.2483 Y161.3786 I0.0221 J-2.3822
G3 X250.7398 Y161.2117 I0.781 J-3.2368
G3 X250.4143 Y161.0659 I3.5096 J-8.2743
G1 X250.2317 Y160.9756
G1 X250.135 Y160.9261
G1 X249.622 Y160.6607
G2 X249.3246 Y160.5184 I-2.2695 J4.3601
G2 X249.2466 Y160.4842 I-0.5042 J1.0427
G1 X249.2223 Y160.3377
G1 X249.194 Y160.1919
G2 X249.1263 Y159.9028 I-9.5213 J2.0778
G1 X249.1044 Y159.8208
G2 X248.8937 Y159.1759 I-6.3011 J1.7011
G2 X248.7232 Y158.757 I-6.7765 J2.5155
G2 X247.869 Y157.1673 I-11.0948 J4.9367
G2 X247.5871 Y156.7353 I-12.3536 J7.7555
G1 X247.4314 Y156.5086
G2 X247.0632 Y155.9995 I-15.3354 J10.7006
G1 X246.8605 Y155.7327
G2 X245.7189 Y154.3632 I-19.7419 J15.2964
G2 X244.0731 Y152.6559 I-24.5124 J21.982
G1 X243.9646 Y152.5515
G2 X241.5595 Y150.4372 I-26.196 J27.3743
G2 X240.8884 Y149.9097 I-25.2137 J31.3906
G2 X240.5368 Y149.6443 I-10.1579 J13.0849
G1 X240.4477 Y149.5781
G1 X240.2658 Y149.4448
G2 X239.4781 Y148.8934 I-17.7039 J24.4522
G2 X239.0627 Y148.6218 I-15.0452 J22.5497
G2 X238.149 Y148.0866 I-7.5286 J11.8058
G2 X236.996 Y147.5161 I-13.3118 J25.457
G2 X235.8199 Y146.9949 I-17.7623 J38.4917
G1 X235.4809 Y146.8531
G1 X235.2995 Y146.7784
G2 X234.3288 Y146.3904 I-21.3825 J52.085
G1 X233.772 Y146.174
G1 X232.2854 Y145.6023
G3 X230.3161 Y144.8081 I21.7853 J-56.856
G3 X229.2095 Y144.3101 I11.9531 J-28.0354
G1 X228.9275 Y144.1737
G3 X227.6649 Y143.4972 I8.4378 J-17.265
G1 X231.328
G1 X231.7698 Y143.6137
G1 X232.2096 Y143.7372
G3 X232.5017 Y143.8235 I-3.0293 J10.8001
G3 X233.6607 Y144.1982 I-7.7729 J26.0183
G3 X235.9298 Y145.0838 I-10.7072 J30.7866
G3 X237.4024 Y145.7687 I-14.0943 J32.2298
G3 X242.9063 Y149.1987 I-14.7823 J29.8508
G3 X246.1466 Y152.0669 I-18.6508 J24.3343
G3 X247.7959 Y153.9123 I-20.153 J19.6712
G3 X249.4525 Y156.2074 I-18.3999 J15.0266
G3 X249.8381 Y156.8383 I-16.9345 J10.7837
G0 Z5.0
G0 X245.7236 Y158.6409
G1 Z0.0
G3 X245.9812 Y159.2642 I-14.7639 J6.4684
G3 X244.706 Y158.6902 I9.977 J-23.8657
G1 X244.5266 Y158.6024
G3 X243.1149 Y157.8531 I12.0543 J-24.4155
G3 X242.1974 Y157.3113 I12.4616 J-22.1511
G3 X238.7092 Y154.8692 I19.456 J-31.5018
G3 X238.603 Y154.7854 I3.5826 J-4.6528
G1 X238.1529 Y154.4243
G1 X237.9225 Y154.2357
G3 X235.5441 Y152.1329 I30.3161 J-36.6853
G3 X232.5914 Y149.1045 I35.6182 J-37.681
G3 X232.2285 Y148.6967 I19.0411 J-17.3156
G3 X232.0457 Y148.4882 I14.9849 J-13.3161
G1 X236.8212 Y149.801
G3 X241.097 Y152.4826 I-7.0383 J15.9722
G3 X244.4365 Y156.2669 I-11.4314 J13.453
G3 X245.7236 Y158.6409 I-13.4768 J8.8424
G0 Z5.0
G0 X265.5887 Y148.1724
G1 Z0.0
G1 X264.6027 Y146.3013
G3 X265.6489 Y147.0022 I-2.7642 J5.2576
G1 X265.7864 Y147.1187
G3 X266.7899 Y148.1492 I-6.1443 J6.9872
G3 X266.8192 Y148.1843 I-0.2586 J0.2462
G3 X267.0808 Y148.51 I-7.8372 J6.5634
G3 X267.7253 Y149.4165 I-11.2773 J8.6998
G1 X267.8855 Y149.6662
G1 X268.0513 Y149.9355
G3 X268.8547 Y151.4138 I-15.8879 J9.5918
G3 X269.2591 Y152.2849 I-17.5646 J8.685
G3 X269.6766 Y153.2987 I-21.5112 J9.4515
G3 X269.7263 Y153.4288 I-2.11 J0.881
G3 X270.1454 Y154.6286 I-21.5335 J8.1945
G3 X270.5421 Y156.0238 I-21.4828 J6.8619
G3 X270.8586 Y157.6498 I-14.6833 J3.7019
G1 X270.8841 Y157.8586
G3 X270.9214 Y158.2918 I-10.8605 J1.1534
G1 X265.5887 Y148.1724
G0 Z5.0
M5
M30
