( Made using CamBam - http://www.cambam.co.uk )
( _2014_1_20_car 1/20/2014 11:26:26 PM )
( T0 : 0.0 )
G21 G90 G64 G40
G0 Z5.0
( T0 : 0.0 )
T0 M6
( 61 )
G17
M3 S1000
G0 X-241.488 Y216.7801
G1 F300.0 Z0.0
G3 F800.0 X-241.5845 Y216.4928 I3.3024 J-1.2695
G1 X-241.6115 Y216.3954
G3 X-241.7059 Y216.0025 I6.4799 J-1.7655
G1 X-241.7302 Y215.8896
G3 X-241.899 Y214.9823 I24.7962 J-5.0818
G1 X-241.9416 Y214.7221
G3 X-242.2329 Y212.635 I64.8014 J-10.1092
G3 X-242.6692 Y208.4462 I121.7771 J-14.8025
G1 X-242.6927 Y208.1755
G1 X-242.741 Y207.5979
G3 X-242.96 Y204.515 I159.8577 J-12.9034
G3 X-243.1369 Y200.3987 I115.478 J-7.0259
G1 X-243.1475 Y199.8671
G1 X-243.1486 Y199.8003
G1 X-243.1496 Y199.7333
G1 X-243.1506 Y199.666
G1 X-243.1563 Y199.1107
G3 X-243.1123 Y196.5723 I48.1253 J-0.4356
G1 X-243.1043 Y196.4126
G3 X-242.9923 Y195.0516 I22.0463 J1.1285
G3 X-242.8864 Y194.3539 I10.2095 J1.1928
G3 X-242.512 Y192.8059 I16.9136 J3.2722
G3 X-242.3523 Y192.2994 I10.7032 J3.0954
G3 X-241.5215 Y190.3458 I12.787 J4.2845
G3 X-238.9247 Y187.0014 I10.6938 J5.6229
G3 X-237.9884 Y186.2262 I9.3609 J10.3537
G3 X-236.842 Y185.4428 I9.4704 J12.6283
G3 X-235.4559 Y184.6741 I9.2832 J15.1054
G1 X-235.3663 Y184.6299
G1 X-235.2758 Y184.5858
G3 X-233.5887 Y183.8623 I9.0371 J18.7449
G1 X-231.8586 Y183.2265
G1 X-231.2822 Y183.0136
G1 X-228.9786 Y182.1572
G1 X-228.3208 Y181.9113
G1 X-227.5693 Y181.6297
G1 X-225.5664 Y180.876
G1 X-222.8976 Y179.8662
G1 X-222.1862 Y179.5962
G1 X-221.4274 Y179.308
G1 X-220.6181 Y179.0003
G1 X-219.7549 Y178.672
G1 X-218.8343 Y178.3216
G1 X-213.9238 Y176.4543
G1 X-212.6138 Y175.9578
G1 X-209.6178 Y174.8275
G3 X-208.8441 Y174.5372 I34.1935 J89.9284
G3 X-208.4511 Y174.3899 I17.8792 J47.1277
G3 X-208.0517 Y174.2405 I15.7123 J41.3894
G3 X-207.6459 Y174.0889 I14.1894 J37.362
G3 X-207.2336 Y173.9351 I13.0435 J34.3364
G3 X-198.4147 Y170.7171 I218.5035 J585.1253
G3 X-198.136 Y170.6182 I4.528 J12.3089
G3 X-197.8551 Y170.5186 I4.4779 J12.1886
G3 X-197.5719 Y170.4185 I4.4289 J12.0716
G3 X-197.2864 Y170.3177 I4.381 J11.9575
G3 X-196.9986 Y170.2163 I4.334 J11.8462
G1 X-195.8096 Y169.7999
G1 X-194.581 Y169.3738
G3 X-188.946 Y167.4789 I116.973 J338.5288
G3 X-188.7686 Y167.421 I2.3253 J6.8198
G3 X-188.5906 Y167.3629 I2.3136 J6.7959
G3 X-188.4118 Y167.3048 I2.3019 J6.7722
G3 X-188.2323 Y167.2465 I2.2903 J6.7487
G3 X-188.052 Y167.1881 I2.2787 J6.7253
G3 X-187.871 Y167.1295 I2.2672 J6.7021
G1 X-186.3751 Y166.6504
G3 X-186.1872 Y166.5908 I2.1639 J6.4971
G3 X-185.9985 Y166.5311 I2.1528 J6.4754
G3 X-185.809 Y166.4713 I2.1417 J6.4539
G3 X-185.6188 Y166.4114 I2.1305 J6.4322
G3 X-185.4277 Y166.3513 I2.1195 J6.411
G3 X-185.2359 Y166.2912 I2.1085 J6.3898
G3 X-185.0433 Y166.231 I2.0975 J6.3688
G3 X-184.8499 Y166.1706 I2.0866 J6.3479
G3 X-182.012 Y165.92 I1.9708 J6.1238
G3 X-181.0781 Y166.1289 I-0.8129 J5.8271
G3 X-179.9229 Y166.6734 I-1.3552 J4.373
G3 X-179.3531 Y167.1357 I-1.983 J3.0263
G3 X-178.2142 Y169.4016 I-30.6224 J16.8096
G3 X-178.1801 Y169.476 I-1.6024 J0.7805
G3 X-178.145 Y169.5529 I-1.6275 J0.7892
G3 X-177.7812 Y170.3771 I-36.0603 J16.4086
G3 X-176.5022 Y173.7449 I-40.2724 J17.2212
G3 X-175.7901 Y176.0386 I-49.1188 J16.5063
G3 X-175.4277 Y177.3623 I-64.8161 J18.4587
G3 X-175.3838 Y177.531 I-3.728 J1.0598
G3 X-174.5527 Y181.1529 I-70.3247 J18.0439
G3 X-173.7041 Y186.0312 I-91.3395 J18.4022
G1 X-173.6119 Y186.6634
G3 X-173.23 Y189.5579 I-127.9445 J18.3524
G1 X-173.1405 Y190.306
G1 X-173.0514 Y191.0784
G1 X-172.9625 Y191.876
G1 X-172.8736 Y192.6996
G1 X-172.8294 Y193.118
G1 X-172.6467 Y194.9032
G1 X-172.4574 Y196.8074
G2 X-172.4337 Y197.0474 I7.8186 J-0.653
G1 X-172.3351 Y198.0377
G3 X-173.8161 Y201.8443 I-9.0818 J-1.3419
G3 X-174.6611 Y202.9246 I-8.5583 J-5.8235
G3 X-174.9096 Y203.1931 I-5.5379 J-4.8761
G3 X-176.3623 Y204.4888 I-9.3048 J-8.9699
G3 X-177.2667 Y205.1348 I-10.2391 J-13.3785
G3 X-178.3452 Y205.8006 I-10.6598 J-16.0643
G3 X-179.6192 Y206.4812 I-12.742 J-22.3174
G1 X-179.9537 Y206.6451
G3 X-180.6727 Y206.9805 I-11.0208 J-22.6879
G3 X-182.3353 Y207.6847 I-17.2082 J-38.312
G1 X-182.7685 Y207.8553
G1 X-183.2166 Y208.0273
G3 X-183.273 Y208.0486 I-0.4607 J-1.1319
G3 X-183.3296 Y208.07 I-0.4681 J-1.1546
G3 X-185.3983 Y208.816 I-29.6354 J-78.9331
G1 X-186.5044 Y209.1966
G1 X-187.6825 Y209.5971
G1 X-187.8309 Y209.6476
G2 X-190.5196 Y210.5884 I39.2784 J116.5511
G1 X-190.8586 Y210.7139
G1 X-191.202 Y210.8433
G1 X-191.3746 Y210.9095
G1 X-191.5483 Y210.9768
G1 X-191.9001 Y211.1156
G1 X-192.0769 Y211.1868
G2 X-192.4348 Y211.334 I14.0145 J34.5726
G1 X-192.7964 Y211.4876
G1 X-192.8868 Y211.5268
G2 X-192.8682 Y211.5477 I0.1304 J-0.0974
G2 X-192.8488 Y211.5681 I0.1584 J-0.131
G2 X-192.8086 Y211.6072 I0.7332 J-0.7164
G2 X-192.723 Y211.6796 I0.8692 J-0.9397
G2 X-192.5394 Y211.8079 I1.4419 J-1.8688
G2 X-192.1478 Y212.0233 I2.2591 J-3.643
G2 X-191.3283 Y212.3712 I4.1129 J-8.5499
G1 X-191.217 Y212.4126
G2 X-189.4174 Y212.9909 I9.0875 J-25.1924
G1 X-189.3002 Y213.0245
G1 X-189.179 Y213.0588
G1 X-189.0539 Y213.0939
G1 X-188.9247 Y213.1297
G2 X-188.3332 Y213.2893 I8.1243 J-28.9379
G1 X-187.6557 Y213.4643
G2 X-186.88 Y213.6564 I20.8092 J-82.3883
G1 X-186.4656 Y213.7559
G1 X-186.0233 Y213.86
G1 X-185.9108 Y213.8862
G1 X-185.4311 Y213.9964
G1 X-185.3091 Y214.0241
G1 X-185.1852 Y214.0521
G1 X-185.0593 Y214.0804
G1 X-184.9314 Y214.1091
G1 X-184.8014 Y214.1381
G2 X-182.0267 Y214.7293 I39.5227 J-178.6675
G1 X-181.8502 Y214.7654
G1 X-181.6709 Y214.802
G1 X-180.9058 Y214.9561
G1 X-180.5107 Y215.0347
G1 X-179.6675 Y215.2003
G2 X-178.7678 Y215.3741 I25.2679 J-128.4387
G1 X-177.8076 Y215.5564
G1 X-176.7831 Y215.7478
G1 X-176.2541 Y215.8455
G2 X-173.8351 Y216.283 I83.9274 J-457.1441
G1 X-173.2104 Y216.3938
G1 X-171.8776 Y216.6274
G1 X-170.4555 Y216.8731
G1 X-168.9381 Y217.1313
G1 X-167.3192 Y217.4029
G1 X-165.5917 Y217.6886
G1 X-163.7487 Y217.9892
G2 X-162.7972 Y218.1428 I39.3294 J-240.6009
G1 X-160.767 Y218.4672
G1 X-158.6009 Y218.8088
G1 X-157.4828 Y218.9834
G1 X-156.3284 Y219.1626
G1 X-153.8655 Y219.5412
G1 X-151.2378 Y219.9401
G1 X-149.8813 Y220.1442
G2 X-135.4079 Y222.2588 I318.9892 J-2132.7277
G1 X-133.5394 Y222.5251
G1 X-133.0685 Y222.592
G1 X-129.0508 Y223.1602
G1 X-128.5445 Y223.2315
G1 X-124.2247 Y223.8376
G1 X-119.6169 Y224.4823
G1 X-118.914 Y223.8705
G2 X-125.2267 Y222.3489 I-47.6939 J184.0072
G2 X-125.3273 Y222.3263 I-0.7588 J3.1516
G2 X-125.4296 Y222.3035 I-0.7648 J3.1818
G2 X-131.9892 Y220.9326 I-56.368 J253.3444
G1 X-132.8663 Y220.7619
G1 X-133.8024 Y220.5825
G2 X-135.9438 Y220.1822 I-122.9082 J651.5963
G1 X-137.0868 Y219.9738
G1 X-138.3066 Y219.7551
G2 X-141.0969 Y219.2674 I-93.2581 J525.2881
G2 X-141.2728 Y219.2372 I-1.3055 J7.0705
G2 X-141.45 Y219.2068 I-1.3235 J7.1851
G2 X-141.6287 Y219.1762 I-1.3424 J7.3044
G2 X-141.8088 Y219.1454 I-1.3621 J7.429
G2 X-141.9903 Y219.1144 I-1.3827 J7.5595
G2 X-142.1733 Y219.0833 I-1.4044 J7.6961
G2 X-142.3577 Y219.0519 I-1.4271 J7.8394
G2 X-142.5436 Y219.0204 I-1.4511 J7.9903
G2 X-142.7309 Y218.9887 I-1.4762 J8.1488
G2 X-142.9198 Y218.9568 I-1.5029 J8.3162
G2 X-143.1101 Y218.9247 I-1.531 J8.4929
G2 X-143.3019 Y218.8923 I-1.5609 J8.6801
G1 X-144.939 Y218.6187
G1 X-146.6858 Y218.3302
G2 X-146.9059 Y218.2941 I-2.867 J16.7777
G2 X-147.3532 Y218.2208 I-4.642 J26.9284
G2 X-147.8075 Y218.1465 I-5.7987 J34.0414
G2 X-148.7456 Y217.9936 I-24.0765 J144.7581
G1 X-150.7469 Y217.6689
G1 X-155.3216 Y216.9286
G1 X-157.7609 Y216.5306
G1 X-160.3618 Y216.1003
G1 X-161.7036 Y215.875
G1 X-163.0883 Y215.6395
G1 X-163.4371 Y215.5796
G1 X-163.7887 Y215.5191
G1 X-165.2397 Y215.2665
G1 X-166.7365 Y215.0012
G1 X-167.1136 Y214.9335
G1 X-167.4935 Y214.865
G1 X-167.8764 Y214.7955
G1 X-168.2622 Y214.7251
G1 X-169.0458 Y214.5808
G1 X-170.6626 Y214.2775
G1 X-171.4833 Y214.1203
G1 X-172.3165 Y213.9585
G3 X-179.9103 Y212.3555 I47.8921 J-245.6636
G1 X-180.1476 Y212.3011
G1 X-180.3859 Y212.2462
G3 X-184.4407 Y211.2628 I39.0011 J-169.6653
G3 X-182.6922 Y210.5923 I17.8307 J43.8873
G1 X-182.1043 Y210.3822
G3 X-179.7425 Y209.5721 I79.2202 J227.0932
G1 X-179.0675 Y209.3411
G2 X-177.2756 Y208.7025 I-30.1039 J-87.3081
G1 X-176.8011 Y208.5231
G1 X-176.5569 Y208.4284
G1 X-176.3055 Y208.3292
G1 X-176.0467 Y208.2249
G1 X-175.7803 Y208.1152
G2 X-174.5754 Y207.5838 I-10.4491 J-25.3246
G2 X-173.2315 Y206.9046 I-9.7579 J-20.9778
G2 X-173.1483 Y206.8589 I-1.0495 J-2.0084
G2 X-171.6662 Y205.9546 I-9.1855 J-16.7214
G2 X-171.621 Y205.924 I-0.4992 J-0.786
G2 X-170.5318 Y204.6378 I-4.5823 J-4.9847
G2 X-169.7682 Y203.1351 I-6.6601 J-4.3294
G2 X-169.4286 Y202.0636 I-9.2889 J-3.534
G2 X-169.3935 Y201.9227 I-2.1914 J-0.6209
G2 X-169.2562 Y201.2744 I-10.9298 J-2.6538
G2 X-169.1416 Y200.5265 I-11.6318 J-2.1649
G2 X-169.0159 Y198.5216 I-17.031 J-2.074
G2 X-169.0357 Y197.3761 I-20.5951 J-0.2164
G2 X-169.1195 Y196.0732 I-32.1113 J1.4111
G2 X-169.2771 Y194.5942 I-34.0365 J2.8798
G2 X-169.283 Y194.5479 I-0.7273 J0.0681
G2 X-169.3329 Y194.1662 I-60.7634 J7.7593
G1 X-169.3877 Y193.7729
G1 X-169.4473 Y193.3678
G2 X-169.4628 Y193.2657 I-1.4316 J0.1652
G2 X-169.4786 Y193.1629 I-1.4835 J0.1754
G2 X-169.4947 Y193.0593 I-1.5412 J0.1866
G2 X-169.5111 Y192.955 I-1.6058 J0.1991
G2 X-169.5278 Y192.8499 I-1.679 J0.2131
G2 X-169.8585 Y190.941 I-72.2496 J11.5326
G2 X-170.2744 Y188.7757 I-157.3926 J29.1107
G1 X-170.5017 Y187.6243
G1 X-170.0566 Y187.6488
G3 X-170.0269 Y187.6507 I0.0023 J0.2074
G3 X-169.5524 Y187.6823 I-1.291 J22.9157
G3 X-168.6045 Y187.7589 I-5.8012 J77.6963
G1 X-168.3339 Y187.7836
G3 X-166.1728 Y188.0169 I-6.7479 J72.6331
G1 X-166.0336 Y188.0338
G1 X-165.3975 Y188.1135
G3 X-160.3249 Y188.8628 I-19.5069 J149.6077
G3 X-158.88 Y189.105 I-27.0868 J166.0329
G3 X-155.0353 Y189.7962 I-43.3739 J252.2812
G1 X-154.0119 Y189.9903
G1 X-153.752 Y190.0402
G1 X-152.644 Y190.2557
G1 X-152.3627 Y190.3111
G1 X-151.7822 Y190.4263
G3 X-133.324 Y194.6173 I-73.0995 J364.6869
G1 X-133.1801 Y194.6539
G1 X-133.0356 Y194.6908
G1 X-131.8435 Y194.9972
G1 X-131.5433 Y195.0752
G1 X-131.2408 Y195.154
G1 X-129.9926 Y195.4825
G1 X-128.7057 Y195.827
G1 X-127.3789 Y196.1887
G1 X-127.0448 Y196.2809
G3 X-124.1995 Y197.0854 I-54.3288 J197.5803
G1 X-123.8417 Y197.1892
G3 X-120.7963 Y198.1009 I-51.3559 J177.0917
G1 X-120.4137 Y198.2194
G1 X-120.0284 Y198.3397
G3 X-116.7541 Y199.41 I-40.464 J129.3314
G1 X-116.5496 Y199.4802
G1 X-115.7204 Y199.7698
G1 X-115.3036 Y199.9187
G1 X-114.8842 Y200.0709
G3 X-114.6739 Y200.1482 I-3.0679 J8.669
G3 X-112.9476 Y200.8128 I-24.1699 J65.3564
G1 X-112.5161 Y200.9891
G3 X-110.7564 Y201.7722 I-12.4473 J30.3394
G1 X-110.5393 Y201.8787
G3 X-109.671 Y202.3405 I-8.0718 J16.2253
G1 X-109.4581 Y202.4657
G3 X-109.0382 Y202.7344 I-5.8358 J9.5833
G3 X-108.6345 Y203.0361 I-2.8436 J4.2249
G3 X-108.3813 Y203.2819 I-0.8067 J1.0846
G3 X-108.191 Y203.5791 I-1.6226 J1.2483
G3 X-107.9427 Y204.2347 I-3.0734 J1.5391
G3 X-107.8922 Y204.4285 I-2.9072 J0.8605
G3 X-107.7827 Y204.9488 I-9.4815 J2.2674
G1 X-107.6607 Y205.6433
G2 X-107.5839 Y206.0379 I15.8037 J-2.8716
G2 X-107.4628 Y206.4804 I3.3299 J-0.6735
G2 X-107.3643 Y206.705 I1.3996 J-0.4796
G2 X-107.2002 Y206.9136 I0.6427 J-0.3369
G2 X-106.9104 Y207.011 I0.2688 J-0.3198
G2 X-106.742 Y206.9802 I-0.0284 J-0.6321
G2 X-106.5707 Y206.9085 I-0.2822 J-0.9142
G2 X-106.4865 Y206.8618 I-0.2856 J-0.6137
G2 X-106.141 Y206.612 I-1.5599 J-2.5216
G1 X-106.0591 Y206.542
G1 X-106.0185 Y206.5061
G2 X-105.6889 Y206.1881 I-4.8542 J-5.3613
G2 X-105.9364 Y205.126 I-11.8392 J2.1986
G2 X-106.279 Y204.0909 I-10.5146 J2.9054
G2 X-106.5628 Y203.4213 I-9.5024 J3.6334
G1 X-106.6027 Y203.3364
G2 X-108.2621 Y200.8435 I-9.4173 J4.47
G2 X-108.8586 Y200.2265 I-8.3305 J7.4564
G2 X-110.6454 Y198.804 I-8.8674 J9.3056
G2 X-111.7607 Y198.1271 I-8.6869 J13.0549
G2 X-112.3753 Y197.8018 I-8.1656 J14.6827
G2 X-113.8155 Y197.1404 I-10.3399 J20.6184
G2 X-115.5029 Y196.5008 I-11.0834 J26.694
G1 X-115.7198 Y196.4268
G1 X-115.9405 Y196.3532
G1 X-116.165 Y196.2799
G1 X-116.3935 Y196.2069
G1 X-116.6258 Y196.1342
G2 X-118.7552 Y195.5296 I-14.5662 J47.2488
G2 X-119.3077 Y195.3871 I-11.1209 J41.9833
G1 X-119.8782 Y195.2446
G1 X-120.4673 Y195.1017
G2 X-120.5413 Y195.084 I-0.4116 J1.5576
G2 X-120.6156 Y195.0663 I-0.42 J1.597
G2 X-120.6902 Y195.0486 I-0.4291 J1.6392
G1 X-121.3052 Y194.9042
G1 X-121.9396 Y194.7579
G2 X-122.0995 Y194.7214 I-1.9357 J8.1037
G1 X-123.4597 Y194.4133
G1 X-124.9051 Y194.0843
G1 X-125.2715 Y193.9993
G1 X-126.026 Y193.8211
G1 X-126.2159 Y193.7754
G1 X-126.601 Y193.6814
G1 X-126.9914 Y193.5842
G1 X-127.3872 Y193.4834
G1 X-127.4864 Y193.4578
G1 X-127.586 Y193.4318
G1 X-127.6859 Y193.4057
G3 X-129.3766 Y192.9312 I13.476 J-51.2661
G1 X-129.8027 Y192.8002
G1 X-130.2335 Y192.6621
G3 X-132.0425 Y192.0034 I8.8778 J-27.1974
G3 X-129.0409 Y192.2234 I-0.0215 J20.8819
G1 X-128.8422 Y192.2525
G3 X-127.7854 Y192.4254 I-10.177 J65.516
G1 X-127.1827 Y192.5305
G1 X-127.027 Y192.5574
G2 X-125.363 Y192.8123 I6.5883 J-37.4486
G2 X-125.1576 Y192.7798 I0.052 J-0.3366
G2 X-125.0246 Y192.6199 I-0.143 J-0.2542
G2 X-124.9982 Y192.4831 I-0.4142 J-0.1507
G2 X-125.0215 Y192.3035 I-0.5346 J-0.0219
G2 X-125.4633 Y191.8789 I-0.5921 J0.1739
G2 X-142.5784 Y187.4748 I-243.6098 J911.2596
G2 X-142.8508 Y187.4075 I-3.9635 J15.4555
G1 X-145.3416 Y186.7961
G2 X-165.3293 Y182.1628 I-209.3901 J857.8636
G1 X-166.6225 Y181.8799
G1 X-167.9578 Y181.59
G1 X-168.1668 Y181.5636
G1 X-168.3749 Y181.5303
G3 X-168.7868 Y181.4415 I1.3379 J-7.201
G3 X-169.5811 Y181.1612 I1.1153 J-4.427
G3 X-170.9151 Y180.1416 I1.5861 J-3.4576
G3 X-171.5243 Y179.1957 I3.5754 J-2.9717
G3 X-171.779 Y178.6057 I5.7851 J-2.8472
G3 X-172.0054 Y177.9102 I8.441 J-3.1331
G1 X-172.0302 Y177.8207
G1 X-170.8818 Y178.066
G1 X-169.7341 Y178.3149
G1 X-168.9693 Y178.4827
G1 X-167.9502 Y178.7087
G3 X-163.8793 Y179.6375 I-100.7265 J450.8646
G3 X-162.7178 Y179.9097 I-80.0441 J344.2012
G1 X-161.3911 Y180.2242
G1 X-159.876 Y180.588
G3 X-147.7882 Y183.6326 I-168.5824 J694.8306
G1 X-147.0099 Y183.8354
G1 X-146.2068 Y184.0454
G1 X-145.3778 Y184.2628
G1 X-144.5223 Y184.4878
G1 X-142.6978 Y184.9696
G1 X-140.7522 Y185.4857
G1 X-138.6775 Y186.0383
G1 X-136.4648 Y186.6291
G1 X-134.1048 Y187.2601
G1 X-128.71 Y188.7
G1 X-125.8316 Y189.4633
G3 X-125.6695 Y189.5104 I-1.7446 J6.3051
G3 X-125.5074 Y189.5578 I-2.0385 J7.2737
G3 X-125.1835 Y189.6533 I-4.1043 J14.5126
G1 X-124.5367 Y189.8475
G3 X-124.1062 Y189.9794 I-6.7589 J22.8294
G3 X-122.3907 Y190.5274 I-27.0136 J87.5162
G3 X-118.9977 Y191.7353 I-24.7104 J74.7853
G1 X-118.8909 Y191.7764
G1 X-118.4365 Y191.9539
G3 X-117.403 Y192.3728 I-28.0241 J70.6174
G1 X-116.8551 Y192.6042
G3 X-116.5732 Y192.726 I-10.059 J23.6734
G3 X-113.6162 Y194.1331 I-18.399 J42.4759
G1 X-113.5248 Y194.181
G1 X-113.4328 Y194.2295
G3 X-113.2463 Y194.3287 I-4.1662 J8.0527
G3 X-111.5684 Y195.2863 I-16.7357 J31.2754
G3 X-109.7261 Y196.5058 I-14.6541 J24.138
G3 X-108.7873 Y197.2194 I-12.9676 J18.0345
G3 X-106.7989 Y199.0463 I-11.8777 J14.9237
G1 X-106.5666 Y199.2992
G3 X-105.639 Y200.4369 I-10.7913 J9.7454
G3 X-105.2067 Y201.061 I-10.1852 J7.5175
G3 X-104.408 Y202.4775 I-10.1963 J6.6823
G1 X-104.3209 Y202.6632
G3 X-103.3155 Y206.3236 I-10.713 J4.9106
G1 X-103.2916 Y206.5627
G3 X-103.2628 Y208.6285 I-14.1413 J1.2301
G3 X-103.3607 Y209.6945 I-16.9955 J-1.0223
G1 X-103.3961 Y209.9621
G3 X-103.8517 Y212.2279 I-20.2498 J-2.8937
G3 X-104.2951 Y212.1296 I0.1806 J-1.8648
G3 X-104.7126 Y211.9514 I1.2031 J-3.3969
G3 X-104.9838 Y211.8176 I10.0943 J-20.798
G1 X-105.0564 Y211.7826
G1 X-105.1344 Y211.7464
G1 X-105.2183 Y211.7094
G2 X-105.6855 Y211.5652 I-0.8634 J1.9684
G2 X-106.3426 Y211.6026 I-0.2481 J1.4342
G2 X-106.6969 Y211.7426 I0.5099 J1.8089
G2 X-106.9881 Y212.046 I0.8552 J1.112
G2 X-107.1932 Y212.413 I1.7022 J1.1924
G2 X-107.4112 Y213.2182 I2.743 J1.1747
G2 X-107.431 Y213.7734 I2.7827 J0.3771
G2 X-107.3756 Y214.0869 I1.3309 J-0.0734
G2 X-107.3007 Y214.2417 I0.4871 J-0.1402
G2 X-107.2325 Y214.3031 I0.1727 J-0.1233
G2 X-106.3278 Y214.6317 I1.5751 J-2.9267
G2 X-105.3701 Y214.727 I0.9311 J-4.4997
G2 X-104.7294 Y214.6961 I0.0176 J-6.3015
G2 X-104.647 Y214.688 I-0.0571 J-1.0023
G2 X-104.562 Y214.6788 I-0.0567 J-0.917
G1 Y215.6438
G3 X-106.8697 Y218.7015 I-17.4685 J-10.784
G3 X-109.6958 Y221.2874 I-15.9965 J-14.6451
G3 X-111.8034 Y222.7321 I-14.6625 J-19.1314
G1 X-112.0858 Y222.9025
G3 X-115.2131 Y224.5018 I-14.3864 J-24.2743
G3 X-117.0756 Y225.2485 I-13.1992 J-30.224
G3 X-119.2508 Y225.9674 I-12.5676 J-34.3793
G1 X-119.53 Y226.0491
G3 X-120.7268 Y226.3746 I-13.6706 J-47.8957
G1 X-121.0322 Y226.4515
G1 X-121.343 Y226.5274
G1 X-121.6592 Y226.602
G1 X-121.981 Y226.6755
G3 X-123.3584 Y226.9623 I-10.3702 J-46.3386
G3 X-126.5269 Y227.4687 I-9.9527 J-52.1161
G3 X-130.1676 Y227.8222 I-7.4292 J-57.5766
G3 X-130.3976 Y227.8373 I-0.6069 J-7.5185
G3 X-132.3585 Y227.933 I-4.1999 J-65.885
G1 X-132.8567 Y227.9484
G1 X-133.3627 Y227.9605
G3 X-135.519 Y227.973 I-1.5512 J-81.7396
G1 X-136.0664 Y227.9664
G3 X-141.0468 Y227.7385 I1.2913 J-82.7298
G1 X-141.2029 Y227.7266
G1 X-141.3595 Y227.7145
G1 X-141.5166 Y227.702
G1 X-141.6744 Y227.6892
G1 X-142.3146 Y227.6343
G1 X-145.1411 Y227.2065
G1 X-146.0834 Y227.0643
G1 X-147.3398 Y226.8752
G1 X-149.0151 Y226.6234
G1 X-155.7164 Y225.6168
G3 X-169.1131 Y223.5659 I325.9264 J-2173.8003
G1 X-170.8981 Y223.2845
G3 X-174.9765 Y222.6309 I141.0525 J-893.1687
G1 X-177.1505 Y222.2756
G1 X-177.7026 Y222.1845
G1 X-180.0572 Y221.7921
G1 X-180.655 Y221.6913
G3 X-186.1169 Y220.7479 I107.8156 J-640.4426
G1 X-186.4607 Y220.687
G1 X-186.8072 Y220.6254
G1 X-187.1564 Y220.5632
G1 X-188.5978 Y220.3042
G3 X-191.6707 Y219.7399 I70.3554 J-391.7948
G1 X-192.0576 Y219.6677
G1 X-192.4475 Y219.5945
G1 X-194.0569 Y219.2896
G1 X-195.7171 Y218.9695
G1 X-196.5601 Y218.8047
G1 X-197.4161 Y218.6358
G1 X-198.2853 Y218.4627
G1 X-200.0789 Y218.0999
G1 X-200.9894 Y217.9128
G1 X-201.448 Y217.8178
G1 X-202.3796 Y217.6232
G1 X-203.3254 Y217.4234
G1 X-203.802 Y217.3218
G1 X-204.2821 Y217.2189
G3 X-203.6277 Y216.8053 I3.3934 J4.6449
G3 X-202.9175 Y216.4975 I2.2451 J4.2063
G3 X-201.3918 Y216.2637 I1.4466 J4.3465
G3 X-200.366 Y216.3654 I-0.0881 J6.1155
G1 X-198.7494 Y216.6561
G1 X-198.2103 Y216.752
G1 X-196.0536 Y217.1324
G2 X-191.7376 Y217.8799 I194.7798 J-1111.7688
G2 X-183.0979 Y219.3282 I196.8469 J-1147.7458
G2 X-165.7868 Y222.0291 I175.0011 J-1064.8287
G1 X-163.4751 Y222.3661
G1 X-161.0083 Y222.7184
G1 X-159.7347 Y222.8971
G1 X-159.0877 Y222.9871
G1 X-158.4302 Y223.0779
G2 X-152.4157 Y223.8777 I78.5644 J-567.8171
G1 X-150.8622 Y224.0742
G1 X-150.4707 Y224.123
G1 X-149.6751 Y224.2213
G1 X-149.2741 Y224.2703
G1 X-148.8699 Y224.3194
G1 X-148.0486 Y224.4181
G1 X-147.6346 Y224.4673
G2 X-144.1003 Y224.8709 I44.483 J-373.8537
G1 X-143.2021 Y224.9684
G1 X-142.2894 Y225.0651
G1 X-141.3621 Y225.1609
G1 X-140.4196 Y225.2554
G1 X-139.9446 Y225.302
G2 X-135.8875 Y225.6648 I22.533 J-229.0692
G1 X-135.3758 Y225.7056
G1 X-134.8601 Y225.7454
G1 X-134.3402 Y225.7842
G1 X-133.2836 Y225.8585
G1 X-132.2098 Y225.9272
G2 X-131.9471 Y225.9338 I0.2151 J-3.3504
G2 X-131.6847 Y225.9178 I-0.0033 J-2.2223
G2 X-131.5131 Y225.8813 I-0.121 J-0.9899
G2 X-131.4248 Y225.8311 I-0.0659 J-0.2183
G2 X-131.4139 Y225.7705 I-0.0375 J-0.038
G2 X-131.4365 Y225.7391 I-0.0972 J0.0462
G2 X-131.5165 Y225.6842 I-0.2563 J0.288
G2 X-131.6165 Y225.6409 I-0.316 J0.5922
G2 X-131.9495 Y225.5515 I-0.7801 J2.2412
G2 X-137.8504 Y224.4188 I-58.2304 J287.4295
G2 X-139.8218 Y224.0649 I-53.6223 J293.0238
G2 X-139.9471 Y224.0428 I-0.6744 J3.4513
G1 X-141.0924 Y223.8423
G1 X-141.7034 Y223.7366
G1 X-142.3553 Y223.6248
G1 X-143.0509 Y223.5065
G1 X-143.7931 Y223.3815
G1 X-145.49 Y223.0995
G1 X-147.4303 Y222.7832
G1 X-149.6487 Y222.428
G1 X-150.8323 Y222.2409
G1 X-153.5383 Y221.8175
G1 X-156.6314 Y221.3385
G2 X-156.8263 Y221.3084 I-1.4043 J8.4463
G2 X-157.0227 Y221.2781 I-1.4324 J8.6243
G2 X-157.2207 Y221.2475 I-1.4622 J8.8125
G2 X-157.4202 Y221.2167 I-1.4937 J9.012
G3 X-157.6213 Y221.1856 I1.3261 J-9.2547
G3 X-166.1979 Y219.8462 I267.2802 J-1739.503
G1 X-168.4832 Y219.4779
G1 X-169.0634 Y219.3831
G1 X-169.6528 Y219.2864
G1 X-170.2514 Y219.1875
G1 X-171.4868 Y218.9813
G1 X-172.7616 Y218.7655
G1 X-173.409 Y218.6545
G1 X-174.0664 Y218.5409
G1 X-174.7341 Y218.4244
G1 X-175.4122 Y218.3051
G1 X-176.1009 Y218.1826
G1 X-177.5218 Y217.9259
G1 X-178.9877 Y217.655
G1 X-179.3568 Y217.5858
G1 X-179.7289 Y217.5155
G1 X-180.1037 Y217.4443
G1 X-180.4814 Y217.3721
G1 X-180.8621 Y217.2988
G1 X-181.2456 Y217.2245
G3 X-184.5139 Y216.5693 I65.2382 J-333.9276
G1 X-184.9251 Y216.484
G1 X-185.3394 Y216.3973
G3 X-192.8868 Y214.6788 I46.0046 J-219.4813
G2 X-192.7914 Y214.5404 I-0.135 J-0.1952
G2 X-192.7891 Y214.3724 I-0.4112 J-0.0897
G2 X-192.9014 Y214.0712 I-1.0364 J0.2148
G2 X-193.2485 Y213.5722 I-2.5844 J1.4276
G2 X-193.261 Y213.5573 I-0.0836 J0.0578
G2 X-194.1229 Y212.7482 I-4.1953 J3.6052
G2 X-194.7876 Y212.3371 I-2.341 J3.0418
G2 X-195.2116 Y212.1937 I-0.7768 J1.599
G2 X-195.4531 Y212.1832 I-0.1577 J0.8414
G1 X-195.5006 Y212.1898
G2 X-195.5481 Y212.1973 I0.0315 J0.3504
G1 X-195.6425 Y212.2144
G1 X-195.8304 Y212.2534
G1 X-195.9552 Y212.2816
G2 X-196.0265 Y212.2982 I0.118 J0.6658
G1 X-196.216 Y212.344
G1 X-196.468 Y212.4074
G1 X-196.6119 Y212.4445
G1 X-196.9947 Y212.5455
G2 X-197.5043 Y212.6836 I9.6494 J36.6413
G1 X-197.6402 Y212.7208
G1 X-198.3637 Y212.9214
G1 X-199.3275 Y213.192
G1 X-200.6119 Y213.5548
G1 X-201.3458 Y213.7622
G1 X-203.3035 Y214.3125
G1 X-204.423 Y214.6241
G1 X-205.7033 Y214.977
G1 X-206.0339 Y215.0675
G1 X-206.7394 Y215.2595
G1 X-208.3534 Y215.6931
G1 X-209.215 Y215.921
G3 X-213.822 Y217.0922 I-70.0827 J-266.0454
G1 X-215.0543 Y217.3898
G1 X-215.3676 Y217.4643
G1 X-216.0145 Y217.6165
G3 X-216.0958 Y217.6355 I-0.4458 J-1.7265
G3 X-216.1774 Y217.6545 I-0.4547 J-1.7671
G3 X-216.2593 Y217.6735 I-0.4642 J-1.8106
G3 X-216.3416 Y217.6926 I-0.4743 J-1.857
G3 X-216.4242 Y217.7117 I-0.4853 J-1.9069
G1 X-217.1061 Y217.8683
G3 X-217.1917 Y217.8878 I-0.6468 J-2.6459
G1 X-217.8991 Y218.047
G1 X-218.6299 Y218.2085
G3 X-221.9804 Y218.9037 I-35.8364 J-164.2776
G3 X-223.774 Y219.2412 I-20.4035 J-103.5099
G1 X-224.7017 Y219.4047
G3 X-226.6857 Y219.7257 I-18.2242 J-106.3566
G1 X-227.1906 Y219.8005
G1 X-227.4452 Y219.837
G3 X-228.4979 Y219.9794 I-8.426 J-58.3423
G3 X-229.5867 Y220.1105 I-6.6074 J-50.2791
G1 X-229.655 Y220.1181
G3 X-231.9903 Y220.3307 I-5.9623 J-52.5592
G1 X-232.5848 Y220.3677
G3 X-235.128 Y220.4228 I-2.031 J-35.059
G3 X-236.4412 Y220.3652 I0.2975 J-21.8022
G3 X-237.5661 Y220.0977 I2.2018 J-11.7557
G3 X-238.6509 Y219.6977 I2.3187 J-7.9596
G3 X-239.3334 Y219.3379 I2.6178 J-5.7937
G3 X-240.1591 Y218.7227 I2.6956 J-4.4797
G3 X-241.0386 Y217.6648 I3.3607 J-3.6885
G3 X-241.4078 Y216.9674 I5.2313 J-3.2159
G1 X-241.488 Y216.7801
G0 Z5.0
M5
M30
