( Made using CamBam - http://www.cambam.co.uk )
( _2014_1_20_car 1/20/2014 11:18:55 PM )
( T0 : 0.0 )
G21 G90 G64 G40
G0 Z5.0
( T0 : 0.0 )
T0 M6
( mainFrame )
G17
M3 S1000
G0 X452.5992 Y272.057
G1 F1.0 Z0.0
G2 X450.511 Y270.0224 I-36.4969 J35.3688
G1 X450.3933 Y269.9144
G1 X450.2761 Y269.8077
G1 X450.1595 Y269.7022
G1 X450.0435 Y269.5979
G1 X449.928 Y269.4948
G2 X448.0493 Y267.9111 I-28.5462 J31.9573
G2 X444.5432 Y265.417 I-23.8228 J29.7765
G2 X441.7228 Y263.8378 I-16.9733 J27.0065
G2 X441.5865 Y263.7711 I-1.2454 J2.3717
G2 X439.3951 Y262.8202 I-11.8556 J24.3218
G2 X438.9749 Y262.6641 I-11.2638 J29.6868
G2 X438.876 Y262.6287 I-0.9071 J2.3721
G2 X437.2998 Y262.1267 I-8.054 J22.5661
G2 X434.8773 Y261.5914 I-6.0144 J21.4709
G2 X432.4085 Y261.346 I-3.2381 J20.0307
G3 X433.3481 Y262.0898 I-28.3881 J36.8274
G1 X433.5508 Y262.256
G1 X433.9408 Y262.5814
G3 X435.377 Y263.8319 I-42.9568 J50.7858
G1 X435.6428 Y264.0705
G3 X436.6337 Y264.971 I-89.6477 J99.6338
G1 X437.3748 Y265.6489
G2 X437.4444 Y265.7124 I0.9714 J-0.9942
G2 X437.5118 Y265.7739 I0.962 J-0.9868
G2 X439.6271 Y267.6498 I54.7033 J-59.5539
G1 X439.8402 Y267.832
G3 X440.0427 Y268.0091 I-4.6029 J5.4703
G3 X440.855 Y268.7661 I-14.3485 J16.2106
G1 X440.9971 Y268.9086
G3 X441.5278 Y269.4809 I-7.8515 J7.8121
G3 X441.7531 Y269.7516 I-10.4018 J8.8866
G3 X442.1695 Y270.3391 I-4.6901 J3.7654
G3 X442.3288 Y270.6325 I-2.7616 J1.6891
G3 X442.4381 Y270.9153 I-1.5322 J0.7552
G3 X442.4821 Y271.1837 I-1.0614 J0.3116
G3 X442.4369 Y271.4143 I-0.5226 J0.0173
G3 X442.307 Y271.5687 I-0.3516 J-0.1639
G3 X442.1416 Y271.6457 I-0.2923 J-0.4117
G3 X441.7997 Y271.6757 I-0.2579 J-0.9776
G3 X441.4854 Y271.6307 I0.1343 J-2.0597
G3 X440.9201 Y271.4536 I0.853 J-3.7137
G1 X440.8601 Y271.4294
G3 X440.3984 Y271.215 I1.9173 J-4.7331
G3 X439.631 Y270.7642 I3.7175 J-7.2068
G1 X439.4923 Y270.6715
G3 X438.4987 Y269.9118 I7.1182 J-10.3405
G3 X438.0309 Y269.4965 I11.9309 J-13.9079
G1 X437.804 Y269.2812
G1 X437.5816 Y269.0612
G2 X437.539 Y269.0183 I-0.4287 J0.3828
G2 X434.6327 Y266.4871 I-18.9501 J18.8245
G2 X431.8363 Y264.6152 I-18.5859 J24.7402
G1 X431.5194 Y264.4285
G2 X431.441 Y264.3829 I-0.6477 J1.0247
G2 X430.1795 Y263.6828 I-18.8225 J32.4269
G1 X429.8804 Y263.5249
G2 X429.2883 Y263.2202 I-16.4283 J31.203
G2 X429.2162 Y263.1839 I-0.7559 J1.4067
G2 X429.1444 Y263.1477 I-0.7615 J1.4235
G2 X427.9943 Y262.5853 I-27.5262 J54.8343
G2 X425.814 Y261.5797 I-46.7153 J98.4161
G1 X424.8546 Y261.1497
G3 X423.9546 Y260.747 I67.7238 J-152.5615
G3 X422.2715 Y259.9812 I44.8412 J-100.7811
G1 X422.088 Y259.8958
G1 X421.9075 Y259.8113
G3 X420.4947 Y259.1294 I27.5626 J-58.9101
G1 X420.3412 Y259.0527
G1 X420.1902 Y258.9767
G1 X420.0419 Y258.9014
G3 X418.8828 Y258.2911 I21.1703 J-41.6087
G3 X417.8841 Y257.7283 I18.8565 J-34.6323
G3 X416.1803 Y256.669 I16.321 J-28.1514
G3 X413.7596 Y254.8819 I16.7624 J-25.2377
G1 X413.687 Y254.822
G3 X411.5406 Y252.8497 I18.258 J-22.0236
G3 X408.6179 Y253.0868 I-2.197 J-8.9509
G3 X406.4657 Y252.6864 I0.8878 J-10.7581
G3 X406.2691 Y252.6282 I3.1094 J-10.8516
G3 X404.7775 Y252.0842 I4.7075 J-15.2264
G3 X403.6931 Y251.5931 I9.7239 J-22.9135
G3 X402.1054 Y250.7769 I17.1472 J-35.3066
G1 X401.3205 Y250.3517
G1 X400.9284 Y250.1386
G1 X400.7321 Y250.0323
G1 X400.5357 Y249.9265
G2 X400.2748 Y249.8863 I-0.1905 J0.3693
G2 X399.9211 Y250.0706 I0.1129 J0.6482
G2 X399.8077 Y250.2562 I0.2886 J0.3037
G2 X399.8662 Y250.4658 I0.1978 J0.0577
G2 X400.4716 Y251.0242 I10.496 J-10.7717
G1 X400.6174 Y251.1505
G2 X401.8119 Y252.0885 I11.3324 J-13.2019
G2 X404.055 Y253.5089 I13.415 J-18.7031
G2 X404.9329 Y253.978 I14.4893 J-26.0627
G2 X405.03 Y254.0274 I1.3955 J-2.6194
G2 X405.4137 Y254.2185 I9.8593 J-19.3138
G2 X408.3639 Y255.4934 I15.6801 J-32.2336
G1 X408.5517 Y255.5648
G2 X409.9699 Y256.0732 I18.8071 J-50.2305
G2 X410.3269 Y256.1934 I5.9841 J-17.1829
G1 X410.864 Y256.3689
G1 X411.4028 Y256.5391
G3 X411.6033 Y256.6198 I-0.456 J1.4216
G3 X411.7676 Y256.7269 I-0.4474 J0.8658
G3 X411.8836 Y256.8572 I-0.3609 J0.4383
G3 X411.9346 Y257.1489 I-0.3037 J0.2034
G3 X411.8244 Y257.3333 I-0.3992 J-0.1135
G3 X411.5491 Y257.4906 I-0.4596 J-0.4851
G3 X411.2355 Y257.5376 I-0.3246 J-1.0941
G3 X409.4207 Y257.4233 I-0.1624 J-11.8789
G3 X407.7614 Y257.0764 I1.8073 J-12.7892
G3 X406.2601 Y256.5708 I4.0065 J-14.3764
G1 X406.0879 Y256.5017
G3 X405.4123 Y256.2101 I6.913 J-16.9407
G3 X404.1361 Y255.5749 I9.2592 J-20.2047
G1 X403.9891 Y255.4953
G3 X402.8398 Y254.8323 I14.2543 J-26.0382
G1 X402.7068 Y254.7514
G1 X402.5751 Y254.6705
G1 X402.4448 Y254.5898
G1 X402.1872 Y254.4281
G1 X401.9346 Y254.2671
G3 X399.9725 Y252.957 I44.1893 J-68.3035
G1 X398.2661 Y251.785
G1 X397.8906 Y251.5299
G2 X397.1589 Y251.0409 I-24.4577 J35.7964
G2 X395.7664 Y250.153 I-25.8811 J39.0569
G2 X395.6891 Y250.1059 I-1.2264 J1.9226
G2 X395.6123 Y250.0593 I-1.2036 J1.8961
G2 X395.5361 Y250.0132 I-1.1825 J1.8723
G2 X394.3091 Y249.3101 I-14.4861 J23.8558
G2 X393.2059 Y248.7466 I-11.8307 J21.8006
G2 X392.2156 Y248.3037 I-9.8459 J20.6871
G2 X391.3296 Y247.962 I-6.659 J15.9449
G1 X391.1334 Y247.8935
G2 X390.7509 Y247.7678 I-7.1083 J20.9812
G1 X390.5705 Y247.7121
G2 X387.7062 Y247.14 I-4.3241 J14.1941
G2 X384.7853 Y247.1632 I-1.3494 J13.9816
G3 X383.5656 Y247.2694 I-1.3415 J-8.3542
G3 X381.3256 Y246.9197 I-0.0905 J-6.7714
G3 X380.4196 Y246.5464 I2.4889 J-7.3256
G1 X380.2155 Y246.4427
G3 X379.8223 Y246.2228 I5.8918 J-10.9947
G1 X379.7288 Y246.1666
G3 X379.0091 Y245.6865 I5.7811 J-9.4464
G3 X378.3663 Y245.1921 I7.6437 J-10.6021
G1 X378.2194 Y245.0715
G3 X377.6517 Y244.5833 I14.6976 J-17.6637
G3 X376.6176 Y243.6324 I30.3072 J-33.9993
G1 X375.7199 Y242.7895
G1 X375.323 Y242.424
G1 X375.2292 Y242.339
G2 X374.8573 Y242.0073 I-20.7198 J22.8591
G1 X374.7694 Y241.9304
G2 X374.0646 Y241.3388 I-14.5886 J16.6653
G2 X372.7659 Y240.3856 I-10.5897 J13.0672
G2 X370.635 Y239.2474 I-6.9342 J10.4174
G2 X368.3172 Y238.5665 I-4.371 J10.5936
G1 X367.6369 Y238.4446
G1 X366.9981 Y238.3338
G1 X366.3987 Y238.2311
G1 X365.8367 Y238.1336
G1 X365.3102 Y238.0386
G1 X364.8175 Y237.9437
G1 X364.5871 Y237.8966
G3 X362.8237 Y237.4371 I3.3391 J-16.4285
G3 X361.5471 Y236.9504 I4.454 J-13.6024
G3 X360.6233 Y236.5077 I6.2304 J-14.1829
G1 X360.4533 Y236.4184
G1 X360.3739 Y236.3759
G3 X359.167 Y235.6758 I10.3875 J-19.2972
G1 X359.0929 Y235.6298
G1 X358.8162 Y235.4554
G1 X358.6099 Y235.3227
G1 X358.5328 Y235.2726
G3 X357.9967 Y234.9163 I13.0118 J-20.161
G1 X357.7334 Y234.7375
G1 X357.4755 Y234.5596
G1 X357.2226 Y234.3827
G3 X355.2588 Y232.9496 I49.2075 J-69.4901
G1 X354.8314 Y232.6297
G1 X354.0028 Y232.0093
G1 X353.6129 Y231.7192
G2 X353.5182 Y231.649 I-1.1711 J1.4822
G2 X353.4242 Y231.5795 I-1.145 J1.4508
G2 X353.3308 Y231.5107 I-1.1203 J1.4216
G2 X351.8338 Y230.4379 I-36.8678 J49.8664
G2 X351.7506 Y230.3805 I-0.8344 J1.1203
G2 X351.668 Y230.3238 I-0.824 J1.1116
G2 X351.5858 Y230.2677 I-0.8141 J1.1035
G2 X351.5042 Y230.2122 I-0.8045 J1.0959
G2 X351.423 Y230.1573 I-0.7953 J1.0889
G2 X351.3424 Y230.1031 I-0.7864 J1.0823
G2 X351.2622 Y230.0494 I-0.7778 J1.0763
G2 X349.9692 Y229.2302 I-17.3679 J25.9826
G2 X348.7987 Y228.5744 I-11.3987 J18.9725
G1 X348.5372 Y228.4405
G2 X348.4735 Y228.4086 I-0.6567 J1.2318
G2 X347.4475 Y227.9355 I-8.7229 J17.5697
G2 X345.5812 Y227.2824 I-6.0261 J14.2265
G2 X342.6547 Y226.8183 I-3.4787 J12.476
G2 X339.6987 Y227.0225 I-0.548 J13.5649
G2 X339.7442 Y227.1828 I0.5944 J-0.0821
G2 X339.8148 Y227.3261 I1.1324 J-0.4689
G2 X340.1811 Y227.8205 I2.4618 J-1.4408
G2 X340.9793 Y228.5362 I3.9455 J-3.597
G2 X342.3748 Y229.329 I4.1028 J-5.5978
G2 X343.9088 Y229.8006 I3.0689 J-7.2513
G3 X345.6347 Y230.2351 I-3.7968 J18.7269
G3 X347.2086 Y230.7794 I-6.0863 J20.1468
G3 X348.643 Y231.3921 I-9.5762 J24.4051
G1 X348.9735 Y231.548
G1 X349.2969 Y231.7057
G3 X350.552 Y232.3624 I-13.974 J28.2386
G1 X350.8423 Y232.5236
G1 X351.1268 Y232.6847
G3 X352.2355 Y233.3394 I-24.5994 J42.9261
G3 X353.2613 Y233.9767 I-36.8732 J60.5025
G1 X353.7389 Y234.2813
G1 X354.2002 Y234.579
G1 X354.6459 Y234.8693
G1 X355.5079 Y235.4349
G1 X356.3162 Y235.966
G2 X356.4111 Y236.0282 I2.1074 J-3.1132
G2 X356.5052 Y236.0898 I2.0237 J-2.9893
G2 X356.5987 Y236.1509 I1.9491 J-2.8794
G2 X356.6915 Y236.2115 I1.8819 J-2.781
G2 X358.1716 Y237.1618 I58.9658 J-90.2094
G2 X359.486 Y237.9656 I32.3342 J-51.4016
G2 X359.5587 Y238.0085 I1.0433 J-1.6823
G2 X359.6308 Y238.051 I1.0351 J-1.676
G2 X359.7024 Y238.093 I1.0273 J-1.6704
G2 X360.8504 Y238.7403 I17.6521 J-29.9611
G2 X362.9183 Y239.7632 I14.4808 J-26.6732
G2 X364.5253 Y240.4085 I9.929 J-22.402
G2 X365.7621 Y240.8069 I6.5995 J-18.3712
G2 X369.5964 Y241.4693 I4.9031 J-16.9533
G3 X369.9747 Y241.5302 I-0.1572 J2.1814
G3 X370.2948 Y241.6557 I-0.2997 J1.2351
G3 X370.4085 Y241.7461 I-0.2561 J0.4391
G3 X370.4618 Y241.8562 I-0.1487 J0.1398
G3 X370.442 Y241.953 I-0.1706 J0.0155
G3 X370.3306 Y242.0769 I-0.3516 J-0.204
G3 X370.1166 Y242.2029 I-0.7154 J-0.9705
G3 X369.8866 Y242.2968 I-1.397 J-3.0945
G3 X367.2517 Y242.8639 I-3.6729 J-10.659
G3 X363.2426 Y242.4764 I-0.9834 J-10.7563
G3 X361.3582 Y241.7477 I3.2271 J-11.1466
G3 X359.6145 Y240.7273 I6.0241 J-12.2944
G2 X359.4988 Y240.6661 I-1.1559 J2.0448
G2 X359.3832 Y240.6058 I-1.1972 J2.1542
G2 X358.4504 Y240.149 I-9.6555 J18.5387
G2 X357.992 Y239.9427 I-7.7652 J16.6388
G2 X357.0783 Y239.5634 I-12.5769 J29.0045
G2 X355.2735 Y238.9223 I-10.7311 J27.3495
G2 X353.5507 Y238.4195 I-10.4316 J32.5386
G1 X353.3473 Y238.366
G1 X353.1452 Y238.3139
G1 X352.9444 Y238.2633
G1 X352.745 Y238.214
G1 X352.5469 Y238.166
G1 X352.3502 Y238.1192
G1 X352.1547 Y238.0736
G1 X351.9606 Y238.0292
G2 X350.4145 Y237.7023 I-14.0157 J62.4698
G1 X349.6867 Y237.5627
G2 X348.2726 Y237.3115 I-13.2964 J70.7589
G1 X347.9405 Y237.2557
G1 X347.2862 Y237.1484
G1 X346.969 Y237.0975
G1 X345.7191 Y236.9021
G1 X344.5462 Y236.7226
G1 X343.4461 Y236.5537
G3 X343.3172 Y236.5337 I0.5078 J-3.6969
G1 X342.2941 Y236.3721
G3 X341.8146 Y236.2941 I3.833 J-25.0874
G3 X339.9599 Y235.9722 I16.8651 J-102.6619
G3 X336.7352 Y235.2885 I10.188 J-55.9997
G1 X336.435 Y235.2136
G3 X336.3623 Y235.1952 I0.322 J-1.419
G3 X334.0766 Y234.5348 I8.8613 J-34.9588
G3 X333.2321 Y234.2453 I7.6641 J-23.7274
G3 X330.361 Y233.0157 I8.5609 J-23.9568
G3 X327.686 Y231.4035 I9.421 J-18.6576
G1 X327.771 Y231.7212
G2 X328.5725 Y234.1821 I28.9048 J-8.0526
G2 X329.4153 Y236.283 I44.3101 J-16.5564
G1 X329.4641 Y236.3968
G1 X329.5127 Y236.5097
G2 X330.307 Y238.2908 I95.0662 J-41.3266
G1 X330.6637 Y239.0662
G1 X331.0004 Y239.7923
G1 X331.3164 Y240.4729
G1 X331.4642 Y240.7922
G1 X331.607 Y241.1017
G1 X331.8821 Y241.7021
G3 X332.8793 Y243.9693 I-69.8976 J32.0962
G3 X332.9688 Y244.1837 I-9.2208 J3.9761
G3 X333.6293 Y245.8585 I-43.2787 J18.0359
G3 X334.4735 Y248.4238 I-32.1523 J12.0023
G1 X334.5634 Y248.7493
G1 X334.6388 Y249.035
G3 X335.0723 Y251.0571 I-23.351 J6.0637
G3 X335.1414 Y251.6875 I-5.0124 J0.8683
G3 X335.1232 Y252.2787 I-3.4412 J0.19
G3 X335.0086 Y252.814 I-2.7828 J-0.3157
G3 X334.4892 Y253.6698 I-2.0254 J-0.6437
G3 X334.1611 Y253.9417 I-1.7548 J-1.784
G3 X333.8188 Y254.141 I-1.4117 J-2.031
G3 X333.1258 Y254.3954 I-1.6753 J-3.4926
G1 X333.0478 Y254.4154
G3 X332.4253 Y254.5318 I-1.2992 J-5.2276
G3 X331.3213 Y254.6036 I-1.1185 J-8.6686
G3 X329.6653 Y254.5203 I-0.0377 J-15.7532
G1 X329.2531 Y254.4763
G1 X329.1758 Y254.4673
G1 X328.8865 Y254.4315
G1 X328.7781 Y254.4173
G1 X328.5885 Y254.3915
G1 X328.4465 Y254.3714
G1 X328.0209 Y254.3076
G3 X327.2362 Y254.1813 I6.7361 J-44.362
G3 X324.2085 Y253.6196 I14.7715 J-88.0608
G1 X323.8786 Y253.5517
G1 X323.5541 Y253.4837
G1 X323.2349 Y253.4156
G1 X322.921 Y253.3476
G3 X318.0052 Y252.1541 I24.4414 J-111.3892
G1 X317.0892 Y251.9082
G1 X316.2318 Y251.6724
G3 X313.0279 Y250.7492 I50.9857 J-182.9541
G3 X312.8781 Y250.7046 I1.9249 J-6.7421
G1 X311.6994 Y250.3501
G1 X310.6695 Y250.0356
G1 X309.7691 Y249.7575
G3 X306.6225 Y248.7696 I178.2342 J-573.2302
G1 X303.4785 Y247.7731
G3 X303.4215 Y247.808 I-0.4031 J-0.5927
G3 X299.6849 Y249.8423 I-21.7563 J-35.5146
G3 X299.595 Y249.8854 I-0.6742 J-1.2893
G3 X298.1561 Y250.5441 I-20.1524 J-42.1249
G3 X295.5917 Y251.5882 I-23.4625 J-53.952
G3 X295.1057 Y251.7706 I-11.3856 J-29.6102
G3 X291.4247 Y253.038 I-31.5944 J-85.7821
G1 X290.9614 Y253.1871
G1 X290.5557 Y253.3164
G1 X289.845 Y253.5404
G1 X288.7778 Y253.8725
G1 X288.5108 Y253.955
G1 X288.4106 Y253.9858
G1 X288.0602 Y254.0938
G1 X287.7097 Y254.2016
G2 X287.743 Y254.4298 I0.4062 J0.0573
G2 X287.8535 Y254.6106 I0.6842 J-0.2939
G2 X288.1468 Y254.8872 I1.2578 J-1.0399
G1 X288.2229 Y254.9418
G2 X288.3781 Y255.0409 I1.2352 J-1.7645
G2 X289.0223 Y255.3431 I1.9893 J-3.4025
G2 X290.2232 Y255.6533 I2.2291 J-6.1489
G2 X290.6839 Y255.7162 I1.5154 J-9.3902
G2 X291.4954 Y255.7694 I0.9779 J-8.6959
G2 X292.7142 Y255.7336 I0.2698 J-11.5711
G1 X293.0179 Y255.7056
G2 X293.472 Y255.6508 I-1.6379 J-15.4751
G1 X293.6983 Y255.6178
G2 X293.9241 Y255.5814 I-3.7378 J-23.8595
G3 X296.9327 Y255.3562 I2.7029 J15.9032
G1 X297.2617 Y255.366
G3 X299.8321 Y255.6685 I-0.6951 J16.9801
G3 X302.0198 Y256.2338 I-3.5659 J18.3138
G3 X303.8687 Y256.9269 I-6.3031 J19.629
G3 X306.9377 Y258.5053 I-9.9942 J23.2051
G1 X307.2141 Y258.6735
G3 X308.2668 Y259.354 I-13.6233 J22.23
G3 X308.7183 Y259.6651 I-21.8503 J32.1881
G3 X311.9348 Y262.2243 I-20.5653 J29.1488
G3 X312.6933 Y262.9182 I-21.7965 J24.5861
G1 X312.9731 Y263.1834
G3 X314.8625 Y265.1097 I-28.31 J29.6573
G1 X322.6168 Y263.7374
G3 X323.8873 Y263.617 I1.3638 J7.6285
G3 X325.0733 Y263.6825 I0.1026 J8.9083
G3 X325.6217 Y263.7644 I-1.2151 J10.0122
G3 X325.8852 Y263.8145 I-1.3347 J7.7448
G3 X326.9089 Y264.0699 I-2.5913 J12.5651
G3 X328.7629 Y264.7469 I-4.6629 J15.6473
G3 X330.3211 Y265.4862 I-9.7161 J22.4904
G1 X330.4049 Y265.5295
G3 X331.7186 Y266.2466 I-16.5682 J31.912
G3 X332.8483 Y266.9088 I-33.5852 J58.601
G3 X334.8019 Y268.1072 I-71.8827 J119.367
G2 X334.8932 Y268.1638 I0.8591 J-1.2831
G1 X335.6128 Y268.6092
G1 X336.2442 Y268.9963
G1 X336.799 Y269.3313
G2 X336.8599 Y269.3676 I0.406 J-0.6105
G2 X336.9199 Y269.4034 I0.398 J-0.5997
G2 X336.979 Y269.4385 I0.3904 J-0.5894
G2 X338.8646 Y270.4996 I21.7076 J-36.3683
G2 X339.1048 Y270.6241 I3.3186 J-6.1126
G1 X339.316 Y270.7309
G1 X339.6881 Y270.9131
G1 X339.9695 Y271.0452
G2 X340.0754 Y271.0936 I1.0975 J-2.2617
G1 X340.2616 Y271.1768
G1 X340.5426 Y271.2977
G1 X340.6838 Y271.3563
G1 X340.8256 Y271.4135
G2 X342.2614 Y271.2125 I-0.2108 J-6.7342
G2 X343.2915 Y270.8702 I-1.936 J-7.5477
G2 X344.0287 Y270.526 I-3.3815 J-8.202
G2 X344.2973 Y270.3816 I-3.0967 J-6.0842
G2 X344.7586 Y270.1128 I-8.6747 J-15.4157
G2 X345.4324 Y269.6806 I-8.0955 J-13.3627
G1 X345.5155 Y269.6248
G1 X345.8045 Y269.4271
G1 X346.0917 Y269.2267
G3 X346.5216 Y269.0856 I0.4437 J0.6261
G3 X347.1767 Y269.2975 I0.0254 J1.0399
G3 X347.3096 Y269.432 I-0.421 J0.5489
G3 X347.4104 Y269.6969 I-0.3732 J0.2937
G3 X347.3302 Y269.9686 I-0.4637 J0.0108
G3 X346.9418 Y270.4807 I-3.1798 J-2.0085
G1 X346.8373 Y270.594
G3 X345.8972 Y271.3695 I-3.9567 J-3.8392
G3 X344.908 Y271.9197 I-4.2518 J-6.4794
G3 X344.4232 Y272.1303 I-3.5557 J-7.5233
G1 X344.1848 Y272.2228
G3 X343.228 Y272.5342 I-4.3803 J-11.8327
G3 X341.3859 Y272.9245 I-4.0906 J-14.767
G3 X340.9782 Y272.981 I-1.9184 J-12.3402
G1 X340.7803 Y273.005
G3 X340.5853 Y273.0266 I-0.9931 J-8.0904
G3 X337.4993 Y273.1192 I-2.1847 J-21.3227
G3 X332.9135 Y272.5089 I1.0638 J-25.5252
G3 X328.508 Y271.0975 I5.7883 J-25.6492
G2 X327.9424 Y270.892 I-2.2333 J5.265
G2 X327.6388 Y270.8128 I-1.2071 J4.0082
G2 X327.3267 Y270.7648 I-0.5659 J2.6395
G2 X327.0171 Y270.7774 I-0.1095 J1.1145
G2 X326.8949 Y270.8229 I0.0768 J0.3932
G2 X326.8165 Y270.9021 I0.1052 J0.1828
G2 X326.7967 Y270.9945 I0.159 J0.0824
G2 X326.8475 Y271.1554 I0.3729 J-0.0292
G2 X326.929 Y271.2762 I0.8656 J-0.4965
G2 X327.1035 Y271.4608 I1.249 J-1.0055
G2 X327.3994 Y271.7002 I2.383 J-2.6433
G1 X327.5557 Y271.8088
G2 X327.7158 Y271.9119 I1.8251 J-2.6567
G2 X328.9792 Y272.6644 I15.1897 J-24.0652
G2 X329.1199 Y272.7427 I2.6361 J-4.5718
G2 X329.679 Y273.0423 I11.2668 J-20.3575
G1 X329.9439 Y273.1776
G2 X332.058 Y274.0949 I8.6883 J-17.1285
G2 X332.8792 Y274.3685 I6.6055 J-18.4568
G2 X334.349 Y274.7354 I4.3619 J-14.3485
G2 X338.873 Y274.8333 I2.5421 J-12.8927
G3 X338.9666 Y274.8192 I0.3543 J2.0359
G3 X339.0598 Y274.8054 I0.349 J2.0286
G3 X345.0399 Y274.3057 I6.871 J46.2031
G1 X345.6033 Y274.2992
G1 X346.1491 Y274.2998
G3 X350.3712 Y274.5425 I-0.2331 J40.8989
G3 X353.5092 Y275.0158 I-4.1932 J38.4421
G3 X353.6553 Y275.0444 I-0.4354 J2.6118
G3 X358.1821 Y276.2498 I-6.8358 J34.7727
G3 X360.3738 Y277.0801 I-10.2805 J30.4434
G3 X362.5005 Y278.0652 I-12.1839 J29.0929
G3 X366.4866 Y278.1551 I1.4882 J22.44
G3 X367.9748 Y278.3792 I-2.4579 J21.3784
G1 X368.2983 Y278.4433
G3 X370.7559 Y279.141 I-3.3975 J16.6452
G3 X372.511 Y279.9218 I-4.9852 J13.5701
G3 X373.7457 Y280.668 I-5.8013 J10.9927
G3 X375.4027 Y282.0581 I-6.1356 J8.9964
G3 X376.7408 Y283.7573 I-7.1405 J6.9996
G1 X377.7812 Y283.795
G1 X378.7568 Y283.835
G3 X380.5862 Y283.9337 I-3.1333 J75.0388
G3 X383.7819 Y284.2304 I-3.3103 J53.023
G1 X384.081 Y284.2692
G3 X385.237 Y284.4422 I-4.854 J36.398
G3 X385.3001 Y284.4527 I-0.1816 J1.2779
G3 X386.2986 Y284.6374 I-5.3622 J31.7778
G3 X387.1669 Y284.8279 I-4.4635 J22.4285
G3 X387.9211 Y285.0194 I-5.4605 J23.0854
G1 X388.0853 Y285.0646
G3 X389.3441 Y285.4606 I-5.8032 J20.6455
G3 X389.8087 Y285.6317 I-5.9655 J16.9179
G3 X391.3881 Y286.3429 I-5.1793 J13.6119
G3 X392.8596 Y287.2569 I-5.3642 J10.2773
G1 X393.3558 Y287.2868
G2 X395.2803 Y287.3738 I5.532 J-100.9646
G1 X396.9662 Y287.4351
G1 X397.7041 Y287.4641
G1 X398.396 Y287.495
G1 X398.7203 Y287.5112
G3 X399.9763 Y287.5878 I-3.2554 J63.6682
G3 X402.1691 Y287.798 I-2.8905 J41.704
G1 X402.579 Y287.8515
G1 X402.9627 Y287.9064
G3 X404.3938 Y288.1581 I-4.1542 J27.8216
G1 X404.6606 Y288.214
G1 X404.9101 Y288.2692
G3 X406.7585 Y288.7729 I-4.8375 J21.3949
G3 X408.5502 Y289.4512 I-5.5567 J17.3819
G3 X408.6507 Y289.4961 I-0.8348 J2.0067
G3 X409.0674 Y289.7184 I-1.2616 J2.8656
G3 X409.1129 Y289.7483 I-0.1638 J0.2995
G1 X409.1352 Y289.7635
G3 X409.2214 Y289.8275 I-0.7811 J1.1435
G3 X409.3711 Y289.9722 I-0.675 J0.8479
G3 X409.4514 Y290.1309 I-0.2793 J0.241
G3 X409.4223 Y290.2689 I-0.1786 J0.0344
G3 X409.3335 Y290.3489 I-0.2461 J-0.1837
G3 X409.1286 Y290.4248 I-0.3464 J-0.6214
G3 X408.751 Y290.4576 I-0.3309 J-1.6168
G3 X408.4677 Y290.4401 I0.1051 J-4.0066
G3 X407.6356 Y290.2657 I0.5483 J-4.6864
G1 X407.4345 Y290.2075
G2 X406.6495 Y290.0038 I-4.4013 J15.3472
G2 X403.8421 Y289.6082 I-3.4986 J14.6724
G2 X401.0117 Y289.7729 I-0.6017 J14.0629
G3 X399.2703 Y289.9892 I-4.0108 J-25.1726
G1 X398.8879 Y290.0215
G3 X395.9173 Y290.1318 I-2.9355 J-38.9866
G3 X393.6886 Y290.0936 I-0.0381 J-62.7848
G3 X392.0186 Y290.0203 I4.312 J-117.1898
G1 X391.7056 Y290.0034
G1 X391.1188 Y289.9699
G1 X390.0924 Y289.9065
G1 X388.5529 Y289.8065
G1 X387.7831 Y289.758
G1 X387.0132 Y289.7134
G2 X387.4935 Y289.995 I4.6393 J-7.3638
G2 X388.459 Y290.4735 I6.3549 J-11.6086
G2 X388.9239 Y290.6692 I8.0217 J-18.4012
G2 X389.842 Y291.0028 I5.6225 J-14.0463
G2 X391.605 Y291.4961 I6.9475 J-21.4316
G2 X392.3871 Y291.6719 I6.4541 J-26.8818
G2 X392.7553 Y291.7484 I3.3571 J-15.2353
G1 X392.9339 Y291.7843
G1 X393.1099 Y291.8191
G1 X393.8037 Y291.9509
G1 X394.1296 Y292.0107
G1 X395.3933 Y292.2387
G1 X395.9465 Y292.3405
G3 X396.9822 Y292.5432 I-12.4864 J66.5379
G1 X397.4342 Y292.6394
G3 X399.1153 Y293.063 I-5.4024 J24.988
G3 X400.3512 Y293.4725 I-4.8716 J16.7734
G3 X400.4083 Y293.4941 I-0.3802 J1.091
G3 X401.2949 Y293.8672 I-5.1092 J13.3826
G3 X401.458 Y293.9443 I-3.2561 J7.0918
G3 X402.6397 Y294.6025 I-4.8208 J10.0445
G3 X403.7268 Y295.4073 I-5.2338 J8.207
G2 X403.7708 Y295.4411 I0.238 J-0.2636
G2 X403.9554 Y295.5608 I3.1042 J-4.5889
G2 X404.139 Y295.6689 I1.9119 J-3.0368
G2 X404.1838 Y295.6945 I2.2017 J-3.7993
G2 X404.542 Y295.893 I36.0295 J-64.612
G1 X404.7111 Y295.9839
G2 X404.7521 Y296.0058 I0.2273 J-0.3768
G2 X405.0787 Y296.1777 I19.9904 J-37.5833
G2 X406.3135 Y296.8019 I35.0322 J-67.7663
G1 X406.5465 Y296.916
G1 X406.9844 Y297.1277
G1 X407.1765 Y297.2193
G1 X407.5375 Y297.3895
G2 X407.577 Y297.408 I0.2152 J-0.4091
G1 X407.7329 Y297.4805
G1 X408.3193 Y297.7478
G1 X408.5402 Y297.8461
G1 X408.9281 Y298.0148
G1 X409.2204 Y298.1381
G1 X409.2754 Y298.1608
G2 X409.4821 Y298.2447 I2.2407 J-5.2198
G1 X409.794 Y298.366
G2 X409.9509 Y298.4239 I1.6099 J-4.1237
G2 X410.0297 Y298.452 I37.3881 J-104.9711
G1 X410.1088 Y298.4793
G1 X410.8534 Y298.7361
G1 X413.7412 Y299.7255
G1 X415.0044 Y300.1601
G3 X415.1524 Y300.2113 I-2.2151 J6.6454
G1 X416.3261 Y300.6198
G1 X417.4248 Y301.0078
G3 X417.5535 Y301.0537 I-1.4239 J4.1976
G3 X417.6811 Y301.0993 I-1.4022 J4.1262
G3 X421.7109 Y302.6052 I-45.9282 J129.0471
G3 X423.2079 Y303.2083 I-42.7566 J108.2984
G3 X423.371 Y303.2758 I-1.3628 J3.5231
G3 X423.5315 Y303.3426 I-1.3577 J3.4878
G3 X423.6893 Y303.4087 I-1.3532 J3.4542
G3 X423.8446 Y303.474 I-1.349 J3.4219
G3 X423.9972 Y303.5386 I-1.3453 J3.3911
G3 X424.597 Y303.796 I-13.2991 J31.8154
G1 X425.1574 Y304.0419
G3 X429.2852 Y306.0457 I-25.555 J57.8965
G3 X431.2856 Y307.1703 I-24.525 J45.9649
G1 X431.7773 Y307.4658
G1 X432.1438 Y307.6913
G1 X432.4172 Y307.8627
G1 X432.8251 Y308.1235
G1 X433.2302 Y308.3888
G3 X433.6031 Y308.6593 I-2.7773 J4.2216
G1 X433.7133 Y308.7494
G3 X434.0887 Y309.1329 I-1.5445 J1.8873
G3 X434.2065 Y309.3388 I-0.7118 J0.5442
G3 X434.2295 Y309.4344 I-0.3604 J0.1369
G3 X434.1771 Y309.596 I-0.1925 J0.0269
G3 X434.0562 Y309.6641 I-0.1953 J-0.2055
G3 X433.805 Y309.6879 I-0.1977 J-0.746
G3 X433.3736 Y309.6149 I0.1443 J-2.1647
G3 X432.7549 Y309.3989 I1.3735 J-4.9261
G3 X432.4559 Y309.2645 I4.9884 J-11.4946
G1 X432.3087 Y309.1925
G1 X432.1629 Y309.1178
G2 X432.0737 Y309.072 I-1.4619 J2.7411
G1 X431.3646 Y308.7112
G2 X430.0288 Y308.0464 I-46.8584 J92.4889
G1 X429.7352 Y307.9034
G2 X427.4414 Y306.8337 I-35.9722 J74.1436
G2 X427.0065 Y306.6423 I-8.2907 J18.251
G2 X425.36 Y305.9608 I-17.5714 J40.1195
G1 X425.2041 Y305.9003
G1 X424.9013 Y305.7851
G2 X423.7554 Y305.3806 I-9.493 J25.0615
G1 X423.5385 Y305.3103
G2 X422.719 Y305.0664 I-7.1786 J22.6213
G1 X422.6416 Y305.0453
G1 X422.3409 Y304.967
G1 X422.2088 Y304.9345
G2 X421.2094 Y304.7326 I-2.9491 J12.0261
G2 X420.1948 Y304.6325 I-1.3175 J8.1611
G3 X420.0847 Y304.6292 I0.0054 J-2.0121
G3 X419.975 Y304.6254 I0.0172 J-2.0691
G3 X418.2316 Y304.497 I0.8848 J-23.909
G3 X418.0282 Y304.4741 I0.7107 J-7.2245
G3 X417.223 Y304.3682 I4.2542 J-35.4556
G1 X416.8342 Y304.3086
G1 X416.4523 Y304.245
G3 X413.4754 Y303.5946 I6.3412 J-36.1612
G3 X410.9125 Y302.8586 I14.7775 J-56.288
G3 X410.6341 Y302.7714 I2.7487 J-9.2584
G3 X410.4971 Y302.728 I1.6502 J-5.4515
G3 X410.3613 Y302.6847 I1.5021 J-4.9511
G3 X410.2266 Y302.6416 I1.3858 J-4.5572
G3 X409.1599 Y302.2919 I25.1203 J-78.4328
G3 X408.1625 Y301.955 I49.3953 J-147.8572
G1 X406.2957 Y301.3114
G1 X405.4784 Y301.0295
G2 X405.3825 Y300.9966 I-0.5215 J1.3631
G2 X405.2873 Y300.964 I-0.5143 J1.3452
G2 X405.1928 Y300.9316 I-0.5073 J1.328
G2 X405.0991 Y300.8996 I-0.5004 J1.3112
G2 X405.0061 Y300.8679 I-0.4937 J1.295
G1 X404.2673 Y300.6181
G1 X403.5731 Y300.3881
G2 X400.9503 Y299.5858 I-19.3771 J58.6565
G1 X400.4536 Y299.4501
G1 X399.9864 Y299.3284
G1 X399.547 Y299.2197
G1 X399.1338 Y299.1228
G2 X397.5732 Y298.8105 I-6.082 J26.3333
G2 X395.2021 Y298.5314 I-3.7358 J21.5327
G2 X392.8148 Y298.5518 I-1.0495 J16.9168
G1 X392.9873 Y298.6991
G2 X393.6677 Y299.2552 I18.8274 J-22.3398
G2 X393.9709 Y299.4915 I7.7283 J-9.6013
G1 X394.2579 Y299.7095
G1 X394.5292 Y299.9109
G2 X394.5932 Y299.9577 I0.9861 J-1.2799
G2 X394.6562 Y300.0036 I0.9894 J-1.2919
G2 X395.1558 Y300.3601 I17.0959 J-23.4288
G2 X396.0432 Y300.9654 I20.4654 J-29.0522
G2 X396.1272 Y301.0211 I1.4896 J-2.1541
G2 X396.2086 Y301.0749 I1.4886 J-2.1645
G2 X396.2875 Y301.1268 I1.4866 J-2.173
G2 X396.3641 Y301.177 I1.4838 J-2.1796
G2 X396.96 Y301.5621 I19.5906 J-29.6637
G2 X397.0722 Y301.6336 I2.0237 J-3.0512
G2 X397.1775 Y301.7004 I1.991 J-3.0189
G2 X397.2763 Y301.763 I1.9559 J-2.9808
G1 X398.0195 Y302.2282
G1 X398.7653 Y302.6893
G3 X398.7959 Y302.7085 I-0.1355 J0.2496
G3 X399.0252 Y302.8776 I-0.9219 J1.4899
G3 X399.2097 Y303.0679 I-0.9575 J1.1133
G3 X399.3329 Y303.2826 I-0.6052 J0.4899
G3 X399.3504 Y303.492 I-0.3479 J0.1345
G3 X399.258 Y303.6327 I-0.2502 J-0.0637
G3 X399.1324 Y303.6947 I-0.2229 J-0.2935
G3 X398.8924 Y303.7179 I-0.1889 J-0.6994
G3 X398.5381 Y303.6536 I0.0992 J-1.5534
G3 X398.495 Y303.6407 I0.1584 J-0.6056
G3 X398.2001 Y303.5298 I0.8044 J-2.5885
G2 X395.4225 Y302.3914 I-31.6579 J73.2819
G1 X394.8101 Y302.1548
G2 X393.6196 Y301.7064 I-32.0765 J83.3558
G1 X393.0601 Y301.5003
G1 X392.7888 Y301.4013
G1 X392.6552 Y301.3528
G2 X390.5286 Y300.5976 I-55.6765 J153.4169
G1 X390.0622 Y300.4358
G1 X389.1576 Y300.1251
G1 X388.7332 Y299.9807
G1 X387.9101 Y299.7028
G1 X386.3651 Y299.1874
G1 X385.6885 Y298.9637
G1 X384.4191 Y298.5463
G1 X383.308 Y298.1821
G3 X383.1864 Y298.1422 I0.6944 J-2.3242
G3 X383.0667 Y298.103 I0.6417 J-2.16
G1 X381.1833 Y297.4831
G1 X381.095 Y297.4538
G1 X381.008 Y297.425
G1 X380.3245 Y297.197
G1 X380.0256 Y297.0966
G1 X379.7455 Y297.002
G1 X379.2209 Y296.823
G1 X378.7626 Y296.6645
G1 X378.3622 Y296.5238
G3 X377.6634 Y296.2718 I24.9954 J-70.3985
G1 X377.1418 Y296.076
G1 X376.7526 Y295.9235
G1 X376.4624 Y295.8048
G1 X376.2462 Y295.7126
G3 X375.6104 Y295.4073 I3.0612 J-7.1899
G2 X375.1396 Y295.1357 I-16.0463 J27.2709
G1 X374.9104 Y295.006
G2 X373.079 Y294.0341 I-20.5274 J36.4695
G2 X371.4352 Y293.2666 I-15.485 J31.0206
G2 X368.4659 Y292.1475 I-12.239 J27.9759
G2 X366.1747 Y291.5074 I-10.2986 J32.4393
G2 X365.7406 Y291.4052 I-8.9803 J37.1641
G1 X365.3325 Y291.314
G1 X365.2367 Y291.2932
G2 X363.7224 Y290.995 I-9.8439 J45.9929
G2 X361.4367 Y290.6285 I-10.9102 J60.7396
G2 X360.2901 Y290.4705 I-11.5926 J79.8906
G2 X359.7162 Y290.3958 I-6.1124 J44.6994
G1 X359.1421 Y290.3233
G1 X358.635 Y290.2476
G3 X356.6814 Y289.8878 I5.7612 J-36.7702
G3 X356.2568 Y289.7962 I4.1522 J-20.2603
G3 X352.9973 Y288.9569 I11.4389 J-51.1765
G1 X352.3918 Y288.7791
G3 X352.2501 Y288.7367 I0.8059 J-2.9524
G3 X350.027 Y288.0419 I36.017 J-119.1493
G1 X349.196 Y287.7727
G1 X347.7429 Y287.2983
G1 X346.6523 Y286.9451
G1 X345.8328 Y286.6845
G1 X345.2171 Y286.4928
G2 X343.3619 Y285.9441 I-22.2456 J71.8058
G3 X343.1645 Y286.0002 I-1.2956 J-4.181
G3 X339.9596 Y286.5418 I-4.1513 J-14.8128
G3 X337.1367 Y286.4467 I-0.8932 J-15.4383
G3 X334.722 Y285.9717 I2.2972 J-18.0527
G3 X332.6709 Y285.3278 I6.303 J-23.6666
G3 X330.9186 Y284.6453 I12.7745 J-35.3881
G1 X330.7288 Y284.5659
G1 X330.5422 Y284.487
G1 X330.3588 Y284.4087
G3 X328.9218 Y283.7757 I43.424 J-100.5183
G1 X327.6689 Y283.21
G1 X327.1202 Y282.9632
G2 X326.0881 Y282.5073 I-33.6586 J74.8065
G2 X325.179 Y282.1213 I-34.7778 J80.6418
G2 X324.3772 Y281.7981 I-12.5726 J30.0376
G1 X324.0243 Y281.6621
G2 X322.6874 Y281.1881 I-11.6583 J30.7588
G2 X320.6383 Y280.6147 I-7.0228 J21.1484
G2 X318.5408 Y280.2576 I-4.0886 J17.678
G2 X317.8371 Y280.2122 I-0.7694 J6.4469
G2 X317.5156 Y280.2242 I-0.0255 J3.6414
G2 X317.2131 Y280.271 I0.1413 J1.9153
G2 X316.9509 Y280.3746 I0.1905 J0.8652
G2 X316.8604 Y280.4515 I0.2427 J0.3775
G2 X316.7947 Y280.6482 I0.1987 J0.1757
G2 X316.8433 Y280.8112 I0.4468 J-0.0446
G2 X317.0178 Y281.0469 I0.8905 J-0.4763
G1 X317.0959 Y281.1239
G2 X317.3958 Y281.3634 I2.1022 J-2.3246
G1 X317.4352 Y281.3908
G2 X317.7188 Y281.5704 I2.7582 J-4.0418
G1 X318.0093 Y281.72
G2 X319.166 Y282.2832 I14.7788 J-28.8854
G1 X319.4397 Y282.4095
G1 X319.71 Y282.5319
G1 X320.2446 Y282.7675
G1 X320.7652 Y282.9893
G1 X321.2718 Y283.1985
G2 X323.2526 Y283.965 I24.9103 J-61.4298
G1 X323.6888 Y284.1249
G1 X324.5362 Y284.4287
G2 X327.7289 Y285.5258 I87.7482 J-250.1559
G3 X330.1241 Y286.3488 I-84.4778 J249.7552
G3 X330.2361 Y286.3882 I-0.7985 J2.4491
G1 X330.6769 Y286.5445
G1 X331.0895 Y286.6927
G1 X331.4756 Y286.8334
G1 X331.837 Y286.967
G3 X331.9216 Y286.9986 I-0.6348 J1.8307
G3 X332.0049 Y287.0298 I-0.6289 J1.8065
G3 X332.0869 Y287.0606 I-0.6232 J1.7829
G3 X332.1675 Y287.091 I-0.6178 J1.7601
G3 X332.2468 Y287.121 I-0.6125 J1.738
G3 X333.4904 Y287.6074 I-18.7395 J49.7483
G1 X333.9539 Y287.7972
G1 X334.3578 Y287.967
G1 X334.7099 Y288.1186
G3 X335.9315 Y288.674 I-14.2442 J32.9496
G3 X336.5348 Y288.9675 I-13.9211 J29.3849
G3 X336.6099 Y289.005 I-0.839 J1.7732
G3 X336.741 Y289.0711 I-1.1158 J2.3777
G1 X337.1325 Y289.2726
G3 X337.4844 Y289.4655 I-5.9928 J11.3548
G3 X337.568 Y289.5141 I-0.4767 J0.9155
G3 X337.9465 Y289.755 I-2.5172 J4.3732
G3 X338.2865 Y290.0321 I-1.3015 J1.9444
G3 X338.408 Y290.1977 I-0.4202 J0.4357
G3 X338.4232 Y290.2757 I-0.155 J0.0706
G3 X338.342 Y290.3716 I-0.1176 J-0.0173
G3 X338.2368 Y290.3989 I-0.1473 J-0.3506
G1 X338.1865 Y290.4041
G3 X337.9909 Y290.402 I-0.0805 J-1.6254
G3 X337.6522 Y290.3564 I0.2301 J-2.986
G1 X337.5264 Y290.3317
G3 X337.0906 Y290.2261 I1.4487 J-6.9304
G1 X336.9825 Y290.1962
G1 X336.8211 Y290.1492
G1 X336.6603 Y290.1001
G1 X336.2767 Y289.9807
G2 X333.2133 Y289.1945 I-11.0166 J36.5605
G2 X332.5361 Y289.053 I-6.0216 J27.1446
G1 X332.2074 Y288.9878
G2 X329.607 Y288.5385 I-12.3143 J63.5101
G2 X327.3189 Y288.2183 I-13.8794 J90.872
G1 X326.3148 Y288.0936
G1 X325.3724 Y287.983
G1 X324.4879 Y287.8834
G1 X322.8278 Y287.703
G1 X321.3732 Y287.5459
G1 X320.0993 Y287.4031
G1 X319.5414 Y287.3374
G3 X319.0183 Y287.2733 I3.7585 J-32.8265
G3 X317.0597 Y287.0001 I6.7935 J-55.8763
G3 X315.5941 Y286.7391 I5.6726 J-36.0997
G1 X315.3198 Y286.6819
G1 X315.0631 Y286.6251
G1 X314.823 Y286.569
G1 X314.5984 Y286.5135
G3 X314.1792 Y286.4008 I3.0493 J-12.1843
G3 X313.4545 Y286.1703 I3.0195 J-10.7499
G3 X312.9227 Y285.9601 I2.3018 J-6.5992
G3 X312.1654 Y285.5557 I2.0044 J-4.6647
G1 X312.0763 Y285.495
G3 X311.7814 Y285.2605 I2.0325 J-2.8586
G3 X311.5228 Y284.9864 I1.3792 J-1.5604
G2 X309.0414 Y282.7414 I-9.0388 J7.4969
G2 X308.4278 Y282.3523 I-7.4872 J11.1261
G2 X307.1848 Y281.6964 I-7.4343 J12.584
G1 X306.8853 Y281.5605
G2 X306.2877 Y281.3107 I-8.6086 J19.7545
G2 X305.1067 Y280.8881 I-6.8728 J17.3478
G2 X302.8382 Y280.2669 I-8.5581 J26.7984
G1 X302.5871 Y280.209
G2 X300.5994 Y279.7948 I-13.7693 J61.1092
G1 X299.7249 Y279.6265
G1 X299.3144 Y279.5482
G3 X297.7248 Y279.2361 I17.6553 J-94.1481
G1 X297.3771 Y279.164
G3 X296.7046 Y279.0179 I5.8106 J-28.3692
G1 X296.3898 Y278.9459
G1 X296.0854 Y278.8738
G3 X293.7535 Y278.2084 I6.16 J-26.0034
G3 X293.6457 Y278.1714 I0.4767 J-1.5653
G3 X291.9808 Y277.5022 I5.5845 J-16.3008
G3 X290.7872 Y276.8779 I6.072 J-13.061
G3 X289.1322 Y275.7202 I6.3586 J-10.8523
G3 X287.6947 Y274.3014 I7.4478 J-8.9836
G3 X284.1236 Y274.6387 I-3.4091 J-17.0218
G3 X281.4459 Y274.4163 I0.1751 J-18.3373
G3 X280.9492 Y274.3327 I3.1568 J-20.2887
G3 X280.0242 Y274.1441 I3.7185 J-20.602
G3 X279.2219 Y273.9475 I4.5979 J-20.4906
G3 X279.1346 Y273.9243 I0.4813 J-1.9896
G3 X279.0487 Y273.9012 I0.5019 J-2.0351
G3 X278.9643 Y273.8781 I0.5233 J-2.0831
G3 X278.8812 Y273.8551 I0.5455 J-2.1335
G3 X277.5834 Y273.4591 I6.7549 J-24.4576
G3 X275.6704 Y272.7652 I11.761 J-35.4087
G1 X275.1975 Y272.5773
G1 X274.8441 Y272.4336
G1 X274.3156 Y272.2138
G1 X273.7888 Y271.9901
G1 X273.6967 Y271.9507
G1 X273.5135 Y271.8734
G1 X273.1515 Y271.7242
G1 X272.7994 Y271.5825
G2 X270.0411 Y270.5599 I-24.5801 J62.0676
G2 X267.9282 Y269.8815 I-16.0144 J46.253
G2 X267.1221 Y269.6524 I-9.8672 J33.1833
G1 X266.7665 Y269.5577
G1 X266.4318 Y269.4725
G1 X266.1165 Y269.3961
G1 X265.8195 Y269.3278
G1 X265.6798 Y269.297
G2 X264.5893 Y269.0917 I-3.7145 J16.727
G2 X263.7553 Y268.9896 I-1.7682 J10.9884
G2 X263.1198 Y268.9602 I-0.6881 J7.9844
G2 X262.6387 Y268.9804 I-0.0337 J4.9299
G2 X262.5482 Y268.9899 I0.0716 J1.12
G2 X262.4634 Y269.0008 I0.1272 J1.3237
G2 X262.1486 Y269.0623 I0.3315 J2.5337
G2 X261.7005 Y269.2408 I0.4007 J1.6581
G2 X261.3523 Y269.5745 I0.4834 J0.8529
G1 X263.924 Y270.4001
G1 X264.4865 Y270.5817
G1 X265.0311 Y270.7584
G3 X269.2354 Y272.1788 I-51.484 J159.3185
G3 X269.4315 Y272.2486 I-4.5146 J12.9989
G3 X269.6245 Y272.3177 I-3.1122 J9.0006
G3 X271.1387 Y272.8747 I-41.3333 J114.701
G3 X271.3038 Y272.9372 I-1.2803 J3.6309
G3 X271.4662 Y272.999 I-1.23 J3.4733
G3 X271.626 Y273.0603 I-1.1857 J3.3335
G3 X272.8792 Y273.554 I-32.9781 J85.541
G3 X273.9682 Y274.0048 I-35.9622 J88.4156
G3 X277.705 Y275.751 I-20.8678 J49.5285
G3 X277.7623 Y275.7807 I-0.5694 J1.1682
G3 X279.5419 Y276.759 I-18.5288 J35.8141
G3 X281.268 Y277.829 I-18.9809 J32.5471
G1 X281.4326 Y277.939
G3 X281.446 Y277.9481 I-0.0373 J0.0691
G3 X281.8763 Y278.2572 I-4.732 J7.04
G3 X282.3023 Y278.6182 I-2.7425 J3.6689
G3 X282.316 Y278.6316 I-0.0271 J0.0412
G3 X282.5119 Y278.86 I-1.1347 J1.1716
G3 X282.5691 Y278.9726 I-0.3791 J0.2634
G3 X282.5701 Y279.0735 I-0.1356 J0.0518
G3 X282.5136 Y279.1276 I-0.0979 J-0.0457
G3 X282.3745 Y279.1526 I-0.1303 J-0.3253
G3 X282.1155 Y279.1216 I0.0266 J-1.3204
G3 X281.6783 Y278.9957 I0.8125 J-3.6425
G3 X281.5181 Y278.9373 I3.1225 J-8.8177
G1 X281.3792 Y278.8829
G3 X280.9004 Y278.6742 I3.6108 J-8.936
G3 X280.4314 Y278.4446 I4.6418 J-10.075
G2 X277.7211 Y277.2094 I-16.6473 J32.9379
G1 X277.419 Y277.0876
G2 X272.5418 Y275.5078 I-14.7092 J37.0912
G2 X268.7769 Y274.7279 I-10.5245 J41.3307
G2 X263.0393 Y274.1707 I-7.3476 J45.8368
G2 X257.2762 Y274.3014 I-1.7341 J50.6467
G3 X253.6 Y274.1487 I-1.0628 J-18.7388
G3 X252.8087 Y274.021 I2.3846 J-17.2936
G3 X249.8075 Y273.2405 I3.9973 J-21.5293
G1 X249.487 Y273.1308
G3 X247.0134 Y272.1349 I10.3315 J-29.2304
G3 X245.9567 Y271.6401 I16.0499 J-35.6564
G3 X244.9769 Y271.153 I17.6369 J-36.7036
G1 X244.5205 Y270.9186
G1 X244.0797 Y270.6886
G1 X243.2287 Y270.2369
G1 X241.6375 Y269.3803
G2 X241.4633 Y269.2866 I-5.1611 J9.3898
G2 X241.2917 Y269.1945 I-4.6186 J8.4003
G2 X241.1226 Y269.104 I-4.2263 J7.6907
G2 X240.9561 Y269.0151 I-3.9287 J7.1575
G2 X240.7921 Y268.9278 I-3.6951 J6.7442
G2 X240.6305 Y268.8421 I-3.5085 J6.419
G2 X240.4713 Y268.7579 I-3.357 J6.1602
G2 X240.3144 Y268.6754 I-3.2336 J5.9544
G2 X240.1598 Y268.5944 I-3.1329 J5.7919
G2 X240.0074 Y268.515 I-3.0516 J5.6667
G2 X239.8573 Y268.4371 I-2.9873 J5.5746
G2 X239.7094 Y268.3607 I-2.9386 J5.5131
G2 X239.5635 Y268.2859 I-2.9045 J5.4806
G2 X239.4198 Y268.2126 I-2.8848 J5.4771
G2 X237.1271 Y267.1171 I-21.6665 J42.4008
G2 X235.3603 Y266.3987 I-12.3917 J27.9415
G2 X234.0047 Y265.9402 I-9.0615 J24.5571
G1 X233.8763 Y265.9013
G1 X233.7516 Y265.8643
G2 X233.5096 Y265.7947 I-1.8826 J6.0932
G2 X231.6708 Y265.3641 I-5.6971 J20.1862
G2 X229.7995 Y265.1097 I-3.5435 J19.0519
G1 X229.6339 Y265.1318
G1 X229.4689 Y265.1538
G3 X224.2032 Y265.7881 I-32.9369 J-251.2582
G1 X223.0496 Y265.9147
G1 X220.8137 Y266.1531
G1 X216.6198 Y266.592
G1 X214.7848 Y266.7877
G2 X211.3461 Y267.1735 I44.8651 J415.3752
G2 X210.9701 Y267.2179 I5.0206 J44.2208
G2 X210.6 Y267.262 I2.1841 J19.8991
G2 X209.1436 Y267.4408 I16.6635 J141.7282
G2 X208.973 Y267.4623 I0.7088 J6.3006
G2 X207.6194 Y267.6381 I30.7982 J242.4639
G2 X207.4608 Y267.6593 I0.5484 J4.707
G2 X202.4376 Y268.4101 I20.7313 J155.8764
G2 X201.4986 Y268.5706 I9.9742 J61.1791
G2 X199.7415 Y268.8915 I20.1335 J115.2219
G2 X199.6455 Y268.9099 I0.3682 J2.1863
G2 X198.8845 Y269.0585 I8.4673 J45.3601
G1 X198.1721 Y269.2031
G1 X197.5052 Y269.3432
G1 X196.8809 Y269.4789
G2 X194.5485 Y270.0273 I20.0128 J90.3588
G2 X191.0834 Y270.9803 I17.8286 J71.5975
G1 X190.6537 Y271.1116
G1 X190.2785 Y271.2289
G2 X190.1965 Y271.2548 I0.4993 J1.7202
G2 X187.6733 Y272.1146 I18.5346 J58.5225
G1 X186.4629 Y272.5564
G1 X184.1154 Y273.406
G3 X179.7076 Y274.9821 I-477.8506 J-1329.4352
G1 X177.777 Y275.6654
G1 X177.3243 Y275.825
G1 X177.1014 Y275.9035
G1 X176.2169 Y276.2145
G3 X169.3516 Y278.5961 I-273.8765 J-778.4207
G1 X168.0622 Y279.0363
G3 X163.2195 Y280.6659 I-189.2593 J-554.4232
G1 X161.4 Y281.2667
G3 X155.0118 Y283.3079 I-119.4555 J-362.8478
G3 X154.9616 Y283.3234 I-0.1768 J-0.4837
G3 X154.9119 Y283.3387 I-0.1754 J-0.4801
G3 X154.8625 Y283.3539 I-0.1739 J-0.4766
G3 X154.8136 Y283.369 I-0.1726 J-0.473
G3 X154.765 Y283.384 I-0.1712 J-0.4696
G3 X154.7168 Y283.3988 I-0.1698 J-0.4662
G3 X154.6689 Y283.4135 I-0.1685 J-0.4628
G3 X154.6214 Y283.4281 I-0.1671 J-0.4594
G3 X154.5744 Y283.4426 I-0.1658 J-0.4561
G3 X154.5276 Y283.4569 I-0.1645 J-0.4528
G3 X154.4813 Y283.4711 I-0.1632 J-0.4495
G3 X151.5343 Y284.3524 I-58.5001 J-190.262
G1 X150.7953 Y284.565
G1 X150.6566 Y284.6044
G1 X150.1362 Y284.751
G3 X148.5708 Y285.1761 I-28.159 J-100.6054
G1 X148.1556 Y285.2842
G3 X147.328 Y285.4973 I-47.544 J-182.9543
G1 X146.506 Y285.7059
G1 X146.098 Y285.8083
G1 X145.2847 Y286.0106
G1 X145.0829 Y286.0604
G1 X144.8814 Y286.1099
G1 X144.0768 Y286.3063
G1 X143.278 Y286.4991
G1 X141.6914 Y286.8757
G1 X141.5937 Y286.8987
G1 X140.0317 Y287.2616
G1 X139.647 Y287.3499
G1 X139.2637 Y287.4375
G1 X137.736 Y287.7829
G1 X136.9837 Y287.9508
G1 X136.8903 Y287.9715
G3 X124.9246 Y290.478 I-117.7381 J-532.2548
G1 X124.2687 Y290.6077
G1 X122.9667 Y290.8629
G1 X121.6846 Y291.1116
G1 X120.422 Y291.3538
G1 X119.1788 Y291.5899
G1 X119.0258 Y291.6188
G1 X118.873 Y291.6476
G1 X118.7206 Y291.6763
G1 X117.5032 Y291.9043
G1 X117.3534 Y291.9322
G1 X117.2038 Y291.96
G1 X117.0545 Y291.9877
G1 X115.8626 Y292.2079
G3 X97.0443 Y295.4093 I-131.0595 J-713.4839
G1 X95.2756 Y295.6839
G1 X93.5617 Y295.9457
G3 X91.9007 Y296.1953 I-55.1068 J-361.1159
G1 X90.2909 Y296.4332
G1 X88.731 Y296.6601
G3 X82.6811 Y297.5042 I-85.6733 J-591.9457
G3 X82.5155 Y297.5264 I-0.826 J-5.5112
G3 X82.3506 Y297.5486 I-0.8093 J-5.4002
G3 X82.1863 Y297.5706 I-0.7934 J-5.2952
G3 X71.7025 Y298.8805 I-77.353 J-576.5083
G1 X69.7341 Y299.1041
G1 X68.8111 Y299.2063
G1 X67.9168 Y299.3038
G1 X66.1834 Y299.488
G1 X64.5579 Y299.6549
G3 X58.457 Y300.2283 I-40.1366 J-394.3337
G1 X57.8846 Y300.2775
G1 X56.7753 Y300.3704
G3 X52.6133 Y300.6892 I-31.6307 J-385.5701
G3 X52.5157 Y300.6961 I-0.1455 J-1.3672
G3 X52.4188 Y300.7029 I-0.1441 J-1.3591
G3 X52.3227 Y300.7097 I-0.1428 J-1.351
G3 X52.2273 Y300.7163 I-0.1415 J-1.3429
G3 X52.1326 Y300.7229 I-0.1402 J-1.335
G3 X50.6309 Y300.8234 I-15.3713 J-218.4044
G1 X49.3165 Y300.9055
G3 X48.1661 Y300.9727 I-10.2107 J-164.9225
G3 X47.9144 Y300.9868 I-1.0517 J-16.5177
G1 X47.4267 Y301.0135
G3 X45.5976 Y301.106 I-24.032 J-456.9414
G1 X45.2545 Y301.122
G3 X40.1068 Y301.304 I-11.3586 J-248.4053
G1 X39.4533 Y301.3176
G1 X39.1278 Y301.323
G1 X38.478 Y301.3315
G1 X37.8307 Y301.3374
G3 X32.673 Y301.3244 I-1.829 J-296.2526
G1 X31.424 Y301.3101
G3 X30.1847 Y301.293 I7.3816 J-576.9996
G1 X28.9551 Y301.2732
G1 X27.7352 Y301.2512
G1 X26.5249 Y301.2271
G1 X24.1232 Y301.1735
G1 X21.7591 Y301.114
G1 X21.1773 Y301.0984
G1 X20.0182 Y301.0663
G1 X17.7185 Y300.9985
G1 X17.1525 Y300.981
G1 X16.5888 Y300.9633
G1 X14.3427 Y300.89
G3 X5.5 Y300.561 I44.5756 J-1316.9252
G1 X4.9819 Y300.5398
G1 X4.4657 Y300.5186
G1 X2.4095 Y300.4319
G3 X-5.6858 Y300.0615 I64.8138 J-1505.1587
G1 X-6.6345 Y300.0151
G1 X-7.5757 Y299.9685
G1 X-8.0427 Y299.9451
G1 X-9.9031 Y299.8505
G1 X-10.8187 Y299.8031
G1 X-12.6356 Y299.7073
G3 X-41.2341 Y297.8882 I72.2985 J-1362.376
G1 X-43.9149 Y297.6853
G3 X-44.2395 Y297.6603 I1.7115 J-24.3523
G3 X-44.5629 Y297.6353 I1.3437 J-19.4953
G1 X-47.1394 Y297.4329
G1 X-49.635 Y297.2312
G1 X-50.8438 Y297.1314
G1 X-53.2233 Y296.9309
G1 X-54.3758 Y296.8318
G1 X-56.6446 Y296.6327
G1 X-58.8421 Y296.4348
G1 X-60.9707 Y296.2381
G1 X-63.0324 Y296.0427
G3 X-78.9932 Y294.343 I69.1631 J-725.2842
G1 X-80.4886 Y294.1641
G3 X-81.2128 Y294.076 I12.3898 J-104.8925
G3 X-81.5692 Y294.0323 I4.0404 J-34.4323
G3 X-84.3973 Y293.6772 I43.9602 J-361.5034
G3 X-84.4801 Y293.6665 I0.1243 J-1.2964
G3 X-84.5629 Y293.6559 I0.1242 J-1.293
G3 X-84.6454 Y293.6453 I0.1241 J-1.2897
G3 X-84.7278 Y293.6346 I0.1239 J-1.2864
G3 X-84.81 Y293.624 I0.1238 J-1.2831
G3 X-84.8921 Y293.6134 I0.1237 J-1.2798
G1 X-86.2017 Y293.4423
G1 X-87.4701 Y293.2732
G1 X-88.6984 Y293.106
G3 X-88.7728 Y293.0958 I0.1177 J-1.1307
G3 X-98.2561 Y291.6733 I51.5451 J-375.9754
G1 X-99.1437 Y291.5264
G1 X-99.5736 Y291.4543
G1 X-99.9966 Y291.3827
G3 X-100.4129 Y291.3115 I11.1523 J-66.5167
G1 X-100.8227 Y291.2409
G1 X-101.226 Y291.1707
G1 X-101.6228 Y291.101
G1 X-102.0134 Y291.0318
G1 X-102.3978 Y290.9632
G1 X-102.7761 Y290.895
G1 X-102.9622 Y290.8612
G1 X-103.147 Y290.8275
G1 X-103.3302 Y290.794
G3 X-109.1311 Y289.647 I36.3702 J-199.188
G1 X-110.2153 Y289.4113
G3 X-114.2646 Y288.4534 I28.1632 J-128.0962
G3 X-115.0206 Y288.2586 I25.2872 J-99.6559
G3 X-116.434 Y287.8777 I18.1069 J-70.0105
G3 X-118.8919 Y287.1543 I21.9247 J-79.0334
G1 X-119.35 Y287.0093
G3 X-121.0577 Y286.4332 I16.2205 J-50.9012
G1 X-121.3757 Y286.3189
G1 X-121.5246 Y286.2645
G3 X-123.8034 Y285.3497 I13.2803 J-36.3785
G3 X-124.3625 Y285.0956 I11.434 J-25.8947
G3 X-125.9989 Y284.2501 I9.1967 J-19.8065
G3 X-126.9673 Y283.6505 I7.876 J-13.802
G1 X-127.174 Y283.5097
G3 X-128.6774 Y282.2882 I6.8198 J-9.9295
G3 X-129.6446 Y281.1953 I6.1782 J-6.4422
G3 X-130.2335 Y280.2701 I5.738 J-4.3024
G3 X-130.8249 Y278.7371 I5.8433 J-3.1347
G3 X-131.0197 Y277.1057 I6.5611 J-1.611
G3 X-131.5121 Y276.5176 I11.4131 J-10.0571
G1 X-131.746 Y276.2215
G1 X-131.8035 Y276.1476
G1 X-132.0315 Y275.8516
G1 X-132.2557 Y275.5564
G1 X-132.4765 Y275.2622
G1 X-132.6943 Y274.9693
G1 X-132.802 Y274.8237
G1 X-133.2285 Y274.242
G1 X-133.6454 Y273.6672
G3 X-133.6965 Y273.5964 I1.2867 J-0.9823
G1 X-133.9002 Y273.3133
G1 X-134.3031 Y272.7505
G1 X-134.6979 Y272.1952
G1 X-135.0852 Y271.6477
G3 X-136.5989 Y269.4841 I315.349 J-222.2351
G3 X-139.4021 Y265.4031 I506.5037 J-350.92
G1 X-140.0106 Y264.507
G1 X-140.5985 Y263.638
G1 X-140.8829 Y263.2166
G1 X-141.4417 Y262.3866
G3 X-141.9818 Y261.5817 I91.9097 J-62.2686
G1 X-143.0252 Y260.0203
G3 X-150.7126 Y248.2181 I536.5097 J-357.8611
G1 X-151.6531 Y246.7295
G1 X-152.471 Y245.4237
G1 X-153.1823 Y244.2784
G3 X-155.6301 Y240.2443 I220.1432 J-136.335
G1 X-155.9301 Y239.7364
G3 X-156.9645 Y237.9497 I101.3254 J-59.8553
G1 X-157.2184 Y237.5003
G3 X-157.9645 Y236.1435 I88.091 J-49.3263
G3 X-158.1826 Y235.7123 I7.6992 J-4.1642
G3 X-158.3625 Y235.2938 I7.1284 J-3.3125
G3 X-158.5183 Y234.7759 I2.8269 J-1.1326
G3 X-158.5417 Y234.5296 I1.1833 J-0.2369
G3 X-158.5287 Y234.4273 I0.54 J0.0167
G3 X-158.4929 Y234.3432 I0.2452 J0.0547
G3 X-158.3566 Y234.2737 I0.131 J0.0884
G3 X-158.2296 Y234.2995 I-0.0055 J0.353
G3 X-158.0202 Y234.4147 I-0.3629 J0.9075
G3 X-157.7017 Y234.6827 I-1.6842 J2.3249
G3 X-157.279 Y235.1417 I-4.2526 J4.3401
G3 X-156.8934 Y235.6321 I-6.9931 J5.8949
G1 X-156.849 Y235.6995
G1 X-156.8045 Y235.7668
G1 X-156.4498 Y236.3034
G1 X-155.7494 Y237.3584
G1 X-155.0687 Y238.3788
G1 X-154.4072 Y239.3661
G1 X-153.7648 Y240.3214
G1 X-152.5157 Y242.1695
G1 X-151.9284 Y243.0346
G1 X-150.7875 Y244.7086
G1 X-149.7143 Y246.2756
G1 X-148.7052 Y247.7426
G1 X-147.7565 Y249.1162
G1 X-147.3109 Y249.7595
G1 X-146.8786 Y250.3823
G2 X-146.8262 Y250.4577 I1.7206 J-1.1394
G1 X-146.6175 Y250.7581
G1 X-145.7942 Y251.9398
G1 X-145.0205 Y253.0464
G1 X-144.2935 Y254.0826
G1 X-142.9254 Y256.0223
G2 X-140.5138 Y259.4046 I474.1009 J-335.4911
G1 X-139.6022 Y260.6683
G1 X-138.8006 Y261.7711
G1 X-138.6246 Y262.012
G1 X-137.9407 Y262.9438
G1 X-137.339 Y263.7569
G1 X-137.0746 Y264.1119
G1 X-136.826 Y264.4442
G1 X-136.358 Y265.0658
G2 X-135.9458 Y265.6078 I112.133 J-84.8214
G2 X-135.5829 Y266.0804 I32.627 J-24.6799
G1 X-135.2631 Y266.4924
G1 X-134.9814 Y266.8514
G2 X-133.973 Y268.0908 I34.1982 J-26.7922
G1 X-133.7118 Y268.3939
G1 X-133.5114 Y268.6176
G1 X-133.4733 Y268.6591
G2 X-133.3283 Y268.8127 I3.1462 J-2.8235
G2 X-133.2167 Y268.9255 I1.6204 J-1.4918
G2 X-133.0424 Y269.0874 I2.2133 J-2.208
G2 X-132.8495 Y269.2267 I0.6901 J-0.7525
G2 X-132.606 Y268.7054 I-1.3989 J-0.9707
G2 X-132.5631 Y268.2774 I-1.3102 J-0.3474
G2 X-132.6133 Y267.96 I-1.7205 J0.1091
G2 X-132.7838 Y267.5104 I-2.3044 J0.6169
G1 X-132.8385 Y267.4033
G2 X-132.9267 Y267.246 I-2.1666 J1.1111
G1 X-133.0206 Y267.092
G1 X-134.3159 Y265.0368
G1 X-135.5285 Y263.109
G1 X-135.8124 Y262.657
G1 X-136.9291 Y260.8764
G3 X-141.099 Y254.1883 I1878.9151 J-1176.1143
G1 X-141.8775 Y252.9321
G1 X-142.242 Y252.343
G1 X-143.6517 Y250.0586
G3 X-148.5421 Y242.0367 I833.7452 J-513.7751
G1 X-149.147 Y241.03
G1 X-149.6746 Y240.1481
G1 X-150.5938 Y238.6025
G1 X-151.2791 Y237.4408
G1 X-151.7903 Y236.568
G1 X-152.1718 Y235.9123
G1 X-152.2432 Y235.7892
G1 X-152.5102 Y235.3273
G1 X-152.7097 Y234.9805
G1 X-153.3045 Y233.9381
G3 X-153.6157 Y233.286 I3.4225 J-2.0334
G3 X-153.7624 Y232.6706 I2.5014 J-0.9215
G3 X-153.5716 Y231.6027 I1.8796 J-0.2152
G3 X-153.3599 Y231.2616 I2.1391 J1.0912
G3 X-152.8813 Y230.7524 I2.6945 J2.0531
G1 X-152.8318 Y230.7096
G1 X-152.7343 Y230.6285
G1 X-152.6413 Y230.5546
G1 X-152.4632 Y230.421
G1 X-152.3042 Y230.3084
G1 X-152.1632 Y230.2125
G1 X-151.9137 Y230.0488
G1 X-151.5372 Y229.8069
G1 X-151.3502 Y229.684
G1 X-151.3038 Y229.6527
G2 X-151.166 Y229.557 I-1.5774 J-2.4176
G2 X-153.0362 Y229.093 I-3.8059 J11.3384
G2 X-154.4703 Y228.929 I-2.4628 J15.1822
G1 X-154.5379 Y228.9243
G1 X-154.6043 Y228.92
G1 X-154.6698 Y228.916
G1 X-154.7342 Y228.9122
G2 X-154.8611 Y228.9053 I-0.1661 J1.8843
G2 X-155.8449 Y228.872 I-1.3216 J24.5046
G1 X-156.214 Y228.8664
G1 X-156.5369 Y228.8635
G2 X-156.6783 Y228.8627 I-0.0849 J2.4997
G1 X-158.7977 Y228.8615
G3 X-158.6274 Y228.9926 I-0.45 J0.7605
G3 X-158.5215 Y229.1511 I-0.3152 J0.3254
G3 X-158.4995 Y229.3157 I-0.3221 J0.1268
G3 X-158.5394 Y229.4588 I-0.4275 J-0.0421
G3 X-158.6955 Y229.6825 I-0.7981 J-0.3907
G3 X-159.0646 Y229.9782 I-1.376 J-1.3394
G3 X-159.701 Y230.2888 I-1.7973 J-2.8748
G3 X-160.041 Y230.3915 I-1.0982 J-3.0211
G3 X-160.3931 Y230.4385 I-0.3856 J-1.5485
G1 X-174.1132 Y228.3301
G1 X-184.4025 Y226.7441
G1 X-192.119 Y225.5513
G1 X-193.5658 Y225.3272
G1 X-198.9909 Y224.4852
G1 X-200.0081 Y224.327
G1 X-201.9152 Y224.0299
G1 X-205.2525 Y223.5086
G1 X-207.7551 Y223.1159
G1 X-208.2243 Y223.042
G1 X-208.6642 Y222.9727
G1 X-211.9627 Y222.4491
G3 X-212.1688 Y222.416 I2.7954 J-18.0954
G1 X-213.7142 Y222.1658
G1 X-213.9073 Y222.1341
G1 X-214.5829 Y222.0214
G3 X-214.7517 Y221.9926 I0.665 J-4.4048
G1 X-215.0047 Y221.9484
G3 X-215.2572 Y221.9012 I1.2147 J-7.2053
G2 X-216.1526 Y221.7664 I-1.9816 J10.1215
G1 X-216.2019 Y221.7613
G1 X-216.3974 Y221.7427
G1 X-216.5871 Y221.7273
G1 X-216.679 Y221.7206
G2 X-218.1301 Y221.678 I-1.3179 J20.1506
G2 X-220.3045 Y221.8039 I0.1124 J20.781
G2 X-221.383 Y221.9681 I1.617 J14.2514
G1 X-221.65 Y222.0248
G1 X-221.7497 Y222.0482
G1 X-221.9233 Y222.0924
G2 X-222.435 Y222.2564 I1.3109 J4.968
G3 X-222.8581 Y222.4062 I-2.454 J-6.2596
G3 X-223.6932 Y222.6458 I-3.8041 J-11.6856
G1 X-223.7426 Y222.6583
G3 X-224.5323 Y222.8413 I-5.3456 J-21.2705
G1 X-224.9044 Y222.9182
G3 X-226.3537 Y223.1762 I-7.6725 J-38.8907
G1 X-226.4333 Y223.1888
G3 X-228.9666 Y223.5277 I-9.6274 J-62.3358
G3 X-229.9197 Y223.6288 I-5.5275 J-47.5718
G3 X-231.5909 Y223.7758 I-8.0171 J-81.5779
G1 X-232.2184 Y223.821
G1 X-232.4931 Y223.8391
G3 X-234.5553 Y223.9348 I-3.7118 J-57.7359
G3 X-235.5878 Y223.9469 I-0.8486 J-28.1633
G3 X-236.104 Y223.9379 I0.1144 J-21.3851
G3 X-236.6197 Y223.9114 I0.4088 J-12.9654
G3 X-236.717 Y223.9017 I0.0586 J-1.0746
G3 X-236.9087 Y223.8732 I0.2244 J-2.1733
G3 X-237.6538 Y223.7105 I1.8609 J-10.3073
G3 X-238.3447 Y223.5274 I9.7682 J-38.2542
G3 X-239.6311 Y223.1523 I16.5417 J-59.125
G1 X-239.9115 Y223.0671
G1 X-240.1831 Y222.9838
G1 X-241.2335 Y222.6563
G1 X-243.0687 Y222.0731
G1 X-244.445 Y221.6352
G1 X-244.9617 Y221.4723
G1 X-245.1879 Y221.4015
G1 X-246.037 Y221.1392
G1 X-246.3561 Y221.0426
G2 X-247.4771 Y220.719 I-11.5311 J37.8421
G2 X-247.4947 Y220.7142 I-0.0331 J0.0868
G2 X-247.5121 Y220.7095 I-0.0326 J0.0856
G2 X-248.0597 Y220.5687 I-3.9551 J14.2476
G2 X-248.6138 Y220.4564 I-1.6602 J6.7671
G1 X-249.2522 Y220.3615
G1 X-249.8878 Y220.2642
G1 X-250.5204 Y220.1651
G1 X-251.7798 Y219.9615
G1 X-253.0283 Y219.753
G3 X-257.9748 Y218.8782 I66.4512 J-390.1529
G3 X-260.3671 Y218.4345 I105.9921 J-578.1788
G1 X-260.4407 Y218.4207
G1 X-261.6168 Y218.1986
G1 X-263.9495 Y217.7518
G1 X-264.5234 Y217.6406
G1 X-266.809 Y217.1939
G1 X-269.0577 Y216.7483
G1 X-270.1642 Y216.5271
G3 X-278.939 Y214.7339 I243.0291 J-1211.5943
G1 X-280.9938 Y214.3053
G1 X-281.4995 Y214.1994
G1 X-283.5136 Y213.7759
G1 X-285.4958 Y213.3566
G1 X-287.4465 Y212.9417
G1 X-291.2857 Y212.1187
G1 X-293.1448 Y211.7173
G1 X-294.9744 Y211.3205
G1 X-295.8749 Y211.1246
G1 X-297.6614 Y210.7348
G1 X-298.101 Y210.6386
G1 X-301.6032 Y209.8692
G1 X-302.4513 Y209.682
G1 X-304.1339 Y209.3097
G1 X-307.4458 Y208.5732
G1 X-309.0497 Y208.2148
G3 X-315.3626 Y206.7934 I776.5397 J-3463.6021
G1 X-318.3206 Y206.1216
G1 X-321.1853 Y205.4676
G1 X-323.9599 Y204.8309
G1 X-326.647 Y204.2113
G1 X-327.9484 Y203.9101
G1 X-330.5101 Y203.3153
G1 X-332.9911 Y202.7366
G3 X-333.2915 Y202.6663 I3.7413 J-16.6771
G1 X-335.685 Y202.1053
G3 X-335.83 Y202.0712 I1.4537 J-6.5127
G1 X-338.1437 Y201.5264
G1 X-340.3845 Y200.9965
G1 X-342.5549 Y200.4812
G1 X-344.657 Y199.9801
G1 X-348.7285 Y199.0038
G1 X-349.6825 Y198.7739
G1 X-353.438 Y197.8647
G1 X-355.1978 Y197.4362
G1 X-358.6064 Y196.6016
G3 X-364.9935 Y195.0204 I550.1334 J-2235.9233
G1 X-366.39 Y194.6715
G1 X-369.0948 Y193.9921
G1 X-371.6295 Y193.351
G3 X-381.1244 Y190.9064 I340.8946 J-1343.6583
G1 X-382.9025 Y190.4399
G3 X-389.5635 Y188.6627 I231.7835 J-882.1207
G1 X-390.1873 Y188.4936
G1 X-391.3956 Y188.1645
G3 X-395.9215 Y186.9124 I213.9914 J-782.3377
G3 X-402.6914 Y184.9668 I128.5183 J-459.9246
G3 X-403.1135 Y184.8417 I7.948 J-27.6051
G1 X-404.6952 Y184.3683
G1 X-405.8798 Y184.0082
G1 X-406.3237 Y183.8719
G3 X-406.7119 Y183.752 I6.8545 J-22.891
G1 X-408.0692 Y183.3278
G1 X-408.7469 Y183.1127
G1 X-408.9163 Y183.0586
G1 X-409.4238 Y182.8954
G1 X-409.7101 Y182.7891
G1 X-410.2745 Y182.5822
G1 X-410.8224 Y182.3843
G1 X-411.354 Y182.1943
G1 X-411.8695 Y182.0116
G1 X-412.869 Y181.6591
G3 X-413.1034 Y181.5765 I6.2391 J-18.0742
G3 X-413.3341 Y181.4951 I4.2544 J-12.424
G3 X-413.5612 Y181.4149 I3.423 J-10.0454
G1 X-414.4545 Y181.0969
G1 X-415.2907 Y180.7942
G1 X-416.0728 Y180.5046
G1 X-416.8036 Y180.2263
G3 X-416.9745 Y180.16 I1.477 J-4.0598
G3 X-417.1426 Y180.0943 I1.4678 J-4.0014
G3 X-417.3079 Y180.0291 I1.4618 J-3.9514
G3 X-417.4704 Y179.9646 I1.4589 J-3.909
G3 X-420.0011 Y178.8773 I17.6792 J-44.6398
G3 X-420.235 Y178.7674 I3.3095 J-7.3453
G3 X-422.0198 Y177.8594 I14.4256 J-30.5613
G1 X-422.3481 Y177.677
G3 X-423.5581 Y176.956 I14.4699 J-25.6569
G1 X-423.7807 Y176.814
G1 X-423.9882 Y176.6788
G3 X-425.5002 Y175.6007 I14.287 J-21.636
G3 X-426.9221 Y174.4065 I14.241 J-18.4009
G3 X-427.184 Y174.1436 I2.4769 J-2.7281
G3 X-427.5775 Y173.5734 I1.9856 J-1.7917
G3 X-427.7977 Y172.4072 I1.9061 J-0.9637
G3 X-427.7241 Y171.9734 I2.7415 J0.2418
G3 X-427.461 Y171.2531 I3.8004 J0.9797
G3 X-427.1912 Y170.746 I6.2454 J2.998
G1 X-427.1359 Y170.6536
G3 X-426.9187 Y170.3132 I7.0597 J4.2647
G1 X-426.8339 Y170.1877
G1 X-426.6823 Y169.9705
G3 X-426.2117 Y169.33 I23.5678 J16.8232
G2 X-425.6172 Y168.5545 I-11.0468 J-9.0846
G2 X-424.6118 Y166.9554 I-12.9094 J-9.2319
G2 X-424.5853 Y166.9069 I-0.7772 J-0.4569
G2 X-423.8202 Y165.3181 I-16.304 J-8.8295
G2 X-423.2361 Y163.7726 I-19.3055 J-8.1788
G1 X-423.1155 Y163.4043
G2 X-422.8941 Y162.6741 I-19.7042 J-6.3734
G1 X-422.7939 Y162.3182
G1 X-422.7462 Y162.1425
G1 X-422.6998 Y161.9679
G1 X-422.6546 Y161.7944
G2 X-422.0376 Y159.0163 I-46.9012 J-11.8751
G1 X-421.9198 Y158.4027
G1 X-421.864 Y158.1051
G1 X-421.435 Y155.7581
G3 X-421.2406 Y154.7291 I62.2897 J11.2346
G3 X-421.1454 Y154.2469 I27.4098 J5.1617
G1 X-421.0499 Y153.7802
G3 X-420.6378 Y151.9798 I41.6833 J8.5931
G3 X-420.2016 Y150.4205 I29.7281 J7.4756
G3 X-420.1752 Y150.3359 I2.239 J0.6519
G3 X-419.9551 Y149.6674 I16.9631 J5.2135
G3 X-418.9391 Y147.2322 I19.0543 J6.5203
G1 X-418.8832 Y147.1216
G3 X-417.8971 Y145.4392 I14.4656 J7.3489
G3 X-416.0437 Y143.1793 I12.7683 J8.5816
G3 X-414.9644 Y142.1918 I11.3132 J11.2814
G3 X-413.8011 Y141.3047 I11.064 J13.3032
G2 X-414.4533 Y140.6317 I-6.3774 J5.527
G1 X-414.5284 Y140.5617
G1 X-414.6776 Y140.4252
G2 X-414.7504 Y140.3596 I-1.0168 J1.0561
G1 X-415.0397 Y140.1042
G1 X-415.5884 Y139.6313
G3 X-415.7089 Y139.5277 I7.7039 J-9.0796
G1 X-415.9417 Y139.3262
G1 X-416.1589 Y139.1356
G3 X-416.5609 Y138.7715 I9.2425 J-10.6079
G3 X-416.7338 Y138.6084 I5.3724 J-5.8671
G3 X-417.3552 Y137.9684 I8.1362 J-8.5223
G3 X-417.7794 Y137.4485 I5.6834 J-5.0708
G1 X-417.8533 Y137.3463
G1 X-417.9205 Y137.249
G3 X-418.3464 Y136.4725 I3.6194 J-2.4903
G3 X-418.5802 Y135.6183 I3.0561 J-1.2953
G3 X-418.974 Y135.3467 I6.9194 J-10.4547
G3 X-420.4196 Y134.1858 I9.1193 J-12.8359
G1 X-420.5693 Y134.048
G3 X-422.6426 Y131.6145 I9.2481 J-9.9789
G3 X-423.7616 Y129.4849 I9.6849 J-6.4474
G3 X-424.5209 Y125.9658 I9.9145 J-3.9808
G3 X-424.4447 Y124.1613 I10.7551 J-0.4496
G3 X-424.077 Y122.3931 I11.1647 J1.3993
G2 X-424.9241 Y121.9267 I-21.7435 J38.485
G1 X-425.3233 Y121.712
G1 X-426.0996 Y121.3012
G1 X-426.8298 Y120.9204
G1 X-426.9155 Y120.8759
G1 X-428.2763 Y120.1722
G3 X-430.651 Y118.9263 I73.304 J-142.5933
G1 X-430.8725 Y118.807
G1 X-431.0868 Y118.6909
G3 X-431.9138 Y118.2354 I24.3485 J-45.1852
G3 X-432.0939 Y118.1344 I3.0952 J-5.7314
G3 X-433.4787 Y117.3314 I28.458 J-50.6701
G1 X-433.9918 Y117.0196
G1 X-434.4373 Y116.7413
G3 X-434.8243 Y116.4932 I13.8579 J-22.0412
G1 X-435.1605 Y116.2724
G1 X-435.4526 Y116.0762
G3 X-436.4583 Y115.3649 I20.7152 J-30.3575
G3 X-437.4323 Y114.6109 I13.7653 J-18.7885
G1 X-437.9211 Y114.2078
G1 X-438.3937 Y113.8091
G3 X-438.8497 Y113.4147 I19.9651 J-23.5455
G1 X-439.0699 Y113.2205
G3 X-439.9246 Y112.4379 I22.7306 J-25.6866
G3 X-439.9496 Y112.4143 I0.1535 J-0.1871
G3 X-439.9744 Y112.3907 I0.1532 J-0.1864
G3 X-440.7533 Y111.6233 I22.1246 J-23.2328
G1 X-440.933 Y111.437
G3 X-441.6207 Y110.681 I15.8046 J-15.0684
G3 X-442.2309 Y109.9293 I13.2905 J-11.4108
G3 X-442.7552 Y109.1794 I8.5949 J-6.5676
G3 X-443.1815 Y108.4318 I6.4997 J-4.2016
G3 X-443.4953 Y107.6906 I5.3129 J-2.6866
G3 X-443.6832 Y106.9657 I4.1966 J-1.4747
G3 X-443.6638 Y105.5834 I3.6097 J-0.6405
G3 X-443.2423 Y104.4774 I3.8797 J0.845
G3 X-443.1785 Y104.366 I1.6107 J0.8494
G3 X-442.5877 Y103.5483 I5.0103 J2.9975
G3 X-442.2924 Y103.2218 I4.8841 J4.1208
G3 X-441.6975 Y102.6509 I7.8274 J7.5613
G3 X-441.1451 Y102.1876 I7.6661 J8.5792
G3 X-441.0832 Y102.1386 I0.5457 J0.6254
G1 X-440.8376 Y101.9487
G3 X-440.7213 Y101.8613 I3.6635 J4.7489
G3 X-439.8003 Y101.2112 I13.3023 J17.8689
G3 X-439.0921 Y100.7496 I14.5326 J21.5223
G1 X-438.958 Y100.665
G3 X-436.9153 Y99.4482 I31.4127 J50.4114
G3 X-435.9637 Y98.9269 I14.8233 J25.9331
G3 X-435.0563 Y98.4682 I16.4179 J31.3456
G1 X-434.6265 Y98.2623
G3 X-433.7867 Y97.8788 I21.5209 J46.0228
G1 X-433.3901 Y97.7057
G3 X-433.0044 Y97.5417 I6.4497 J14.631
G1 X-432.8171 Y97.4635
G1 X-432.6323 Y97.3873
G1 X-432.4502 Y97.313
G1 X-432.2706 Y97.2406
G3 X-431.561 Y96.9619 I14.632 J36.2113
G1 X-431.3942 Y96.898
G1 X-430.7354 Y96.651
G1 X-430.4257 Y96.5377
G3 X-428.0108 Y95.7019 I32.8287 J90.9551
G1 X-427.1002 Y95.4031
G1 X-426.3022 Y95.1456
G1 X-423.5059 Y94.2549
G1 X-423.1566 Y94.1428
G1 X-422.851 Y94.0442
G1 X-422.3168 Y93.8705
G2 X-422.2166 Y93.8377 I-0.4288 J-1.4789
G1 X-421.4668 Y93.5894
G1 X-420.7187 Y93.3359
G3 X-419.6705 Y88.6266 I105.8997 J21.0984
G1 X-419.5297 Y88.0602
G3 X-416.8897 Y79.1448 I108.7394 J27.3506
G1 X-416.8016 Y78.8874
G1 X-416.7131 Y78.6308
G3 X-413.5808 Y70.5496 I113.5183 J39.3514
G3 X-410.1469 Y63.197 I119.4069 J51.2903
G3 X-406.5362 Y56.5089 I126.4146 J63.9265
G1 X-406.4252 Y56.3159
G1 X-406.3141 Y56.1236
G1 X-406.2029 Y55.9318
G1 X-406.0917 Y55.7405
G1 X-405.9803 Y55.5498
G3 X-404.1658 Y52.5269 I121.6552 J70.9717
G3 X-400.4615 Y46.7903 I136.1878 J83.8773
G3 X-396.7831 Y41.5539 I147.9532 J100.0205
G3 X-389.42 Y32.0862 I161.1958 J117.7651
G1 X-388.5819 Y31.0773
G1 X-387.7512 Y30.0892
G3 X-381.021 Y22.471 I181.5734 J153.6273
G3 X-377.9812 Y19.2254 I177.2462 J162.962
G3 X-375.084 Y16.2281 I196.8264 J187.3507
G3 X-373.7111 Y14.8377 I132.7574 J129.7148
G3 X-372.3725 Y13.4994 I154.4927 J153.1951
G3 X-367.1096 Y8.3908 I233.5811 J235.3711
G1 X-366.964 Y8.2528
G1 X-366.819 Y8.1154
G1 X-366.6744 Y7.9786
G1 X-366.5303 Y7.8424
G1 X-365.3796 Y6.7604
G1 X-364.2602 Y5.7173
G1 X-363.7164 Y5.2137
G1 X-363.18 Y4.7191
G3 X-354.6086 Y-2.9327 I265.7375 J289.0471
G3 X-348.0429 Y-8.5141 I294.2452 J339.4859
G1 X-347.4219 Y-9.0309
G1 X-346.2164 Y-10.0293
G3 X-341.6676 Y-13.739 I335.5648 J406.8202
G3 X-338.2286 Y-16.4874 I310.9958 J385.6195
G1 X-336.9332 Y-17.5109
G3 X-332.3764 Y-21.0635 I391.2716 J497.1642
G3 X-331.2318 Y-21.9448 I305.4866 J395.5972
G1 X-331.017 Y-22.1097
G1 X-329.4034 Y-23.3437
G1 X-327.7859 Y-24.5725
G3 X-324.8521 Y-26.7528 I127.399 J168.3583
G1 X-324.6732 Y-26.8832
G1 X-324.4946 Y-27.0131
G1 X-324.3162 Y-27.1426
G1 X-324.138 Y-27.2717
G1 X-323.96 Y-27.4003
G1 X-323.7822 Y-27.5285
G1 X-323.6047 Y-27.6562
G3 X-317.8717 Y-31.6453 I137.0955 J190.9165
G3 X-312.3971 Y-35.2348 I142.9363 J212.0333
G1 X-312.0736 Y-35.4409
G1 X-311.7511 Y-35.6457
G1 X-311.4296 Y-35.8493
G3 X-301.0469 Y-42.119 I161.0638 J254.9933
G1 X-300.4722 Y-42.4502
G1 X-299.33 Y-43.104
G1 X-298.2033 Y-43.7433
G3 X-289.2507 Y-48.635 I182.2204 J322.8524
G1 X-288.2637 Y-49.1553
G1 X-287.2907 Y-49.6648
G1 X-286.3316 Y-50.1638
G3 X-282.5423 Y-52.104 I209.2293 J403.9553
G1 X-282.097 Y-52.3288
G3 X-267.8334 Y-59.2137 I212.9546 J422.9689
G1 X-266.4848 Y-59.8352
G1 X-265.1767 Y-60.4335
G3 X-260.0927 Y-62.7186 I213.7484 J468.7743
G1 X-258.9774 Y-63.2115
G3 X-250.2991 Y-66.9504 I244.8333 J556.345
G1 X-248.6653 Y-67.6359
G1 X-247.1318 Y-68.2743
G3 X-235.5785 Y-72.9341 I254.6185 J614.6378
G3 X-235.4879 Y-72.9696 I1.0707 J2.5962
G3 X-235.398 Y-73.0049 I1.0642 J2.5818
G3 X-223.9413 Y-77.38 I264.8138 J676.2571
G3 X-223.8437 Y-77.4163 I0.5977 J1.458
G3 X-223.7463 Y-77.4524 I0.5967 J1.4572
G3 X-223.649 Y-77.4886 I0.5957 J1.4565
G3 X-223.5517 Y-77.5246 I0.5947 J1.4557
G3 X-223.4545 Y-77.5606 I0.5937 J1.455
G3 X-223.3574 Y-77.5965 I0.5927 J1.4542
G3 X-223.2603 Y-77.6323 I0.5917 J1.4535
G3 X-217.0281 Y-79.8377 I82.8366 J224.182
G3 X-211.1251 Y-81.7455 I72.4498 J214.075
G3 X-210.7773 Y-81.8522 I6.1015 J19.2759
G3 X-205.2088 Y-83.4687 I58.3583 J190.6254
G3 X-194.6376 Y-86.0355 I47.3795 J172.0803
G3 X-185.2557 Y-87.7072 I31.3357 J148.6971
G3 X-181.1176 Y-88.2465 I19.5174 J133.6164
G3 X-177.2238 Y-88.636 I15.3175 J133.4885
G3 X-169.8972 Y-89.0408 I10.3971 J121.67
G1 X-169.0944 Y-89.058
G3 X-162.7725 Y-88.996 I2.0436 J114.0822
G3 X-160.0094 Y-88.8553 I-4.5546 J116.5923
G3 X-149.7051 Y-87.6804 I-6.4771 J102.5798
G3 X-134.6128 Y-83.9462 I-16.2392 J97.9993
G3 X-127.3296 Y-81.2135 I-31.9857 J96.3187
G3 X-120.2678 Y-77.9508 I-41.6475 J99.4179
G3 X-118.7672 Y-77.181 I-50.7944 J100.8587
G1 X-118.0438 Y-76.8016
G1 X-117.3336 Y-76.4243
G1 X-116.6365 Y-76.0493
G1 X-115.9521 Y-75.6769
G3 X-113.2728 Y-74.1818 I-98.9876 J180.543
G3 X-110.7806 Y-72.7454 I-114.2492 J201.0949
G1 X-109.6176 Y-72.0627
G1 X-108.4936 Y-71.3967
G1 X-107.4068 Y-70.748
G1 X-106.3557 Y-70.1167
G1 X-104.3221 Y-68.8882
G3 X-103.8458 Y-68.5995 I-33.6999 J56.1424
G3 X-103.377 Y-68.3152 I-23.5588 J39.3755
G3 X-102.9156 Y-68.0353 I-19.0627 J31.941
G1 X-101.0987 Y-66.9333
G1 X-99.3938 Y-65.9024
G1 X-97.7927 Y-64.9402
G1 X-96.2881 Y-64.0439
G2 X-96.1115 Y-63.9393 I5.1256 J-8.4528
G2 X-90.4637 Y-60.688 I123.4907 J-207.9809
G2 X-90.1966 Y-60.5397 I5.701 J-9.9557
G2 X-85.9533 Y-58.2697 I73.3333 J-131.9826
G2 X-85.7525 Y-58.1667 I6.8104 J-13.0215
G2 X-85.3568 Y-57.9648 I10.2022 J-19.5107
G2 X-84.9729 Y-57.7706 I11.2231 J-21.7059
G2 X-78.9337 Y-54.942 I50.2358 J-99.3959
G1 X-78.5504 Y-54.778
G1 X-77.8299 Y-54.475
G2 X-72.7154 Y-52.5325 I32.4863 J-77.833
G3 X-73.8659 Y-54.1034 I26.2577 J-20.4376
G3 X-74.1285 Y-54.4918 I15.6955 J-10.8942
G1 X-74.2561 Y-54.6856
G1 X-74.3813 Y-54.8795
G3 X-75.3089 Y-56.4643 I18.0316 J-11.618
G3 X-75.6965 Y-57.2453 I18.0944 J-9.4679
G3 X-75.7407 Y-57.3414 I1.3645 J-0.6857
G3 X-76.0673 Y-58.1175 I12.5508 J-5.7386
G3 X-76.3333 Y-58.8864 I10.8931 J-4.1985
G3 X-76.6614 Y-60.4184 I8.2262 J-2.5629
G3 X-76.659 Y-61.8581 I5.9219 J-0.7102
G3 X-76.3118 Y-63.1235 I4.562 J0.5714
G3 X-75.6882 Y-64.1457 I4.1262 J1.816
G3 X-74.9055 Y-64.9221 I3.9631 J3.2126
G3 X-74.06 Y-65.4979 I4.0575 J5.0497
G3 X-73.8514 Y-65.6138 I2.3865 J4.0474
G3 X-73.4316 Y-65.8236 I4.2913 J8.0617
G3 X-72.5915 Y-66.1675 I4.5208 J9.8471
G3 X-70.958 Y-66.6307 I4.4455 J12.5631
G3 X-69.497 Y-66.8872 I3.909 J17.9789
G1 X-69.1753 Y-66.9284
G3 X-67.9243 Y-67.0454 I2.7759 J22.9261
G3 X-65.7275 Y-67.1138 I2.0487 J30.4846
G3 X-62.4348 Y-66.9693 I-0.2414 J43.079
G3 X-59.1593 Y-66.6037 I-4.4429 J54.6641
G3 X-54.9488 Y-65.8366 I-7.5138 J53.1777
G3 X-51.3216 Y-64.9154 I-14.1338 J63.2532
G3 X-49.7526 Y-64.4493 I-22.3765 J78.1977
G3 X-43.9631 Y-62.4164 I-25.2964 J81.3027
G1 X-43.4278 Y-62.2058
G1 X-42.9104 Y-61.9989
G3 X-38.937 Y-60.3082 I-43.9572 J108.8214
G1 X-38.1988 Y-59.9758
G1 X-37.5085 Y-59.6601
G3 X-37.3469 Y-59.5856 I-1.6193 J3.7232
G3 X-37.188 Y-59.5121 I-1.5736 J3.6095
G3 X-34.696 Y-58.3302 I-61.044 J131.9324
G3 X-30.9925 Y-56.4869 I-97.5865 J200.7032
G1 X-30.072 Y-56.0154
G1 X-29.3827 Y-55.6595
G1 X-28.3506 Y-55.1224
G1 X-27.8352 Y-54.8525
G1 X-27.3202 Y-54.5819
G1 X-27.0098 Y-54.4154
G1 X-26.7775 Y-54.2868
G1 X-26.4909 Y-54.1227
G3 X-25.6065 Y-53.5601 I-5.818 J10.1225
G3 X-25.3429 Y-53.3642 I-4.3677 J6.1532
G3 X-25.2885 Y-53.3209 I-0.4784 J0.6561
G1 X-25.2354 Y-53.2773
G3 X-25.0323 Y-53.0939 I-2.0452 J2.4701
G3 X-24.8588 Y-52.8932 I-1.021 J1.0578
G3 X-24.8039 Y-52.8007 I-0.4301 J0.3174
G3 X-24.7739 Y-52.71 I-0.3427 J0.1638
G3 X-24.825 Y-52.5597 I-0.1512 J0.0325
G3 X-24.9424 Y-52.5023 I-0.1824 J-0.2246
G3 X-25.1877 Y-52.476 I-0.217 J-0.8661
G3 X-25.6446 Y-52.5216 I0.0497 J-2.8111
G3 X-26.4256 Y-52.7043 I1.2692 J-7.1869
G3 X-27.5673 Y-53.081 I4.4784 J-15.4898
G1 X-27.7082 Y-53.1334
G1 X-27.739 Y-53.145
G3 X-28.2138 Y-53.33 I7.1441 J-19.0419
G1 X-28.332 Y-53.3777
G1 X-28.6851 Y-53.5238
G1 X-29.4787 Y-53.8579
G1 X-30.2483 Y-54.1793
G1 X-30.9949 Y-54.4886
G2 X-36.815 Y-56.8002 I-83.7013 J202.2548
G1 X-37.0896 Y-56.9044
G1 X-37.36 Y-57.0066
G1 X-37.8927 Y-57.2064
G2 X-42.0429 Y-58.6966 I-56.9595 J152.1073
G1 X-42.434 Y-58.8306
G1 X-42.8132 Y-58.9594
G2 X-48.7352 Y-60.8197 I-44.6476 J131.7711
G2 X-54.7411 Y-62.3883 I-31.9881 J110.1989
G2 X-57.8201 Y-63.0343 I-16.6579 J71.7335
G1 X-58.0052 Y-63.0685
G2 X-60.9713 Y-63.5325 I-9.5115 J51.0932
G2 X-62.3774 Y-63.687 I-6.0903 J48.9466
G2 X-65.0858 Y-63.8268 I-2.9504 J30.8617
G2 X-66.3119 Y-63.8007 I-0.1081 J23.7986
G2 X-67.4764 Y-63.7059 I0.7509 J16.4162
G2 X-68.5753 Y-63.5342 I1.7239 J14.6383
G1 X-68.8331 Y-63.4794
G1 X-69.0858 Y-63.4194
G2 X-69.5788 Y-63.2819 I2.4405 J9.7019
G2 X-69.8147 Y-63.2052 I1.6912 J5.6062
G2 X-70.7147 Y-62.8297 I2.249 J6.656
G2 X-71.4873 Y-62.3536 I2.2332 J4.4889
G2 X-72.1047 Y-61.7855 I2.3662 J3.191
G2 X-72.8408 Y-60.4364 I2.5941 J2.2908
G2 X-72.965 Y-59.7914 I3.8168 J1.0694
G2 X-72.9878 Y-59.1804 I4.4663 J0.4727
G2 X-72.8384 Y-58.0501 I5.8178 J-0.1941
G2 X-72.7123 Y-57.5692 I6.2613 J-1.3849
G1 X-72.6784 Y-57.4578
G2 X-72.6073 Y-57.2399 I15.623 J-4.9784
G1 X-72.5332 Y-57.0307
G2 X-72.4569 Y-56.8297 I4.3281 J-1.5289
G1 X-72.4184 Y-56.733
G2 X-71.7036 Y-55.2592 I11.8203 J-4.8223
G1 X-71.5509 Y-54.9928
G2 X-70.9377 Y-54.0185 I17.4214 J-10.2843
G2 X-69.9225 Y-52.6222 I19.9904 J-13.4676
G2 X-68.8216 Y-51.2923 I23.6293 J-18.4398
G2 X-68.5005 Y-50.9739 I2.7908 J-2.4935
G1 X-68.4175 Y-50.8999
G2 X-68.0797 Y-50.6138 I7.3229 J-8.3059
G2 X-67.3949 Y-50.0754 I16.7066 J-20.5418
G2 X-66.0336 Y-49.0784 I36.477 J-48.3819
G1 X-65.8722 Y-48.964
G2 X-63.2811 Y-47.1925 I65.4229 J-92.9058
G2 X-60.9818 Y-45.6902 I84.8636 J-127.3813
G1 X-59.9687 Y-45.044
G2 X-56.1351 Y-42.6748 I112.7345 J-178.1308
G1 X-55.4103 Y-42.2402
G1 X-55.0698 Y-42.0376
G1 X-54.7395 Y-41.842
G2 X-52.1654 Y-40.3516 I76.4505 J-129.0745
G2 X-52.1047 Y-40.3172 I0.3801 J-0.6007
G2 X-50.1687 Y-39.2434 I54.5633 J-96.0885
G1 X-49.9862 Y-39.1446
G1 X-49.632 Y-38.9541
G1 X-48.9657 Y-38.6008
G2 X-46.6078 Y-37.4152 I33.4068 J-63.501
G2 X-46.01 Y-37.1355 I11.8822 J-24.6173
G1 X-45.5588 Y-36.9319
G1 X-45.3888 Y-36.8571
G1 X-45.0905 Y-36.7286
G2 X-44.1862 Y-36.3656 I9.5834 J-22.5668
G3 X-44.0238 Y-36.3046 I-2.5238 J6.9672
G3 X-43.864 Y-36.2444 I-2.4529 J6.7532
G3 X-43.7068 Y-36.185 I-2.3913 J6.5642
G3 X-43.5521 Y-36.1263 I-2.3376 J6.3965
G3 X-43.3998 Y-36.0684 I-2.2909 J6.2473
G3 X-43.25 Y-36.0111 I-2.2504 J6.1148
G3 X-43.1027 Y-35.9546 I-2.2154 J5.9967
G3 X-40.7941 Y-35.0332 I-28.58 J74.9557
G3 X-40.5791 Y-34.9431 I-3.2312 J8.013
G3 X-40.3712 Y-34.8551 I-3.3836 J8.2882
G3 X-40.17 Y-34.7692 I-3.5891 J8.6824
G3 X-37.0982 Y-33.3348 I-19.5432 J45.8564
G1 X-36.7219 Y-33.1398
G1 X-36.3943 Y-32.9659
G1 X-36.1089 Y-32.8112
G3 X-35.1211 Y-32.2502 I-20.7838 J37.7484
G3 X-34.1522 Y-31.6573 I-14.3767 J24.5832
G3 X-33.9798 Y-31.4477 I-0.2068 J0.3458
G3 X-33.963 Y-31.2255 I-0.4435 J0.1453
G3 X-34.1103 Y-30.8742 I-0.8478 J-0.149
G3 X-34.5283 Y-30.486 I-1.0583 J-0.7206
G3 X-34.7989 Y-30.3805 I-0.4755 J-0.8198
G3 X-35.0894 Y-30.3836 I-0.1388 J-0.6137
G2 X-38.0435 Y-31.0171 I-11.5372 J46.5944
G2 X-40.8396 Y-31.4524 I-10.5222 J58.3901
G1 X-41.4973 Y-31.5353
G1 X-41.6593 Y-31.5547
G1 X-41.8208 Y-31.5736
G1 X-41.9816 Y-31.592
G1 X-42.6227 Y-31.6617
G2 X-47.6866 Y-32.0213 I-8.3737 J82.0771
G2 X-52.1264 Y-32.105 I-4.1298 J101.2959
G2 X-56.0108 Y-32.0349 I0.2849 J123.3966
G2 X-62.7975 Y-31.6472 I5.0901 J148.7248
G1 X-63.4327 Y-31.5957
G2 X-68.3484 Y-31.1169 I15.2352 J181.8879
G2 X-75.6941 Y-30.1558 I21.2864 J191.2479
G1 X-75.8086 Y-30.1385
G1 X-76.7097 Y-30.0004
G2 X-78.285 Y-29.7483 I33.6877 J215.5383
G2 X-78.5801 Y-29.6995 I2.9842 J18.97
G1 X-78.7185 Y-29.6765
G1 X-79.7897 Y-29.4942
G1 X-80.5925 Y-29.3529
G1 X-81.194 Y-29.2441
G1 X-82.0954 Y-29.0759
G1 X-82.3205 Y-29.0328
G1 X-82.9951 Y-28.8995
G2 X-82.7921 Y-27.639 I13.0432 J-1.454
G1 X-82.7309 Y-27.3663
G2 X-82.43 Y-26.327 I10.5883 J-2.5023
G2 X-81.6448 Y-24.6083 I9.3505 J-3.2331
G1 X-81.6002 Y-24.5318
G2 X-81.4184 Y-24.2345 I8.2672 J-4.8507
G2 X-80.6572 Y-23.1733 I10.0779 J-6.4256
G2 X-80.0195 Y-22.4302 I11.8057 J-9.4861
G1 X-79.9885 Y-22.3964
G2 X-78.9711 Y-21.3697 I15.5595 J-14.4023
G1 X-78.7067 Y-21.1233
G1 X-78.5064 Y-20.9408
G2 X-77.8962 Y-20.4034 I31.1078 J-34.7014
G3 X-77.1308 Y-20.6407 I5.2481 J15.5775
G3 X-75.6004 Y-21.016 I6.8307 J24.5443
G3 X-75.5071 Y-21.0357 I0.3635 J1.4895
G1 X-75.1342 Y-21.1116
G1 X-74.7634 Y-21.1826
G1 X-74.3949 Y-21.2493
G3 X-71.4531 Y-21.6707 I8.6904 J50.1841
G1 X-70.7609 Y-21.747
G1 X-70.42 Y-21.7819
G1 X-70.3353 Y-21.7903
G1 X-69.6595 Y-21.8538
G3 X-66.9938 Y-22.0489 I7.0705 J78.29
G1 X-66.9156 Y-22.0534
G3 X-65.6664 Y-22.1169 I4.855 J83.1579
G1 X-65.5908 Y-22.1203
G1 X-65.5152 Y-22.1236
G1 X-64.9122 Y-22.1478
G1 X-64.3184 Y-22.1684
G1 X-64.026 Y-22.1773
G3 X-61.7052 Y-22.2215 I3.713 J134.0632
G3 X-60.6169 Y-22.2265 I1.0337 J105.8139
G3 X-52.187 Y-21.9468 I0.0365 J126.0374
G1 X-51.3969 Y-21.8916
G3 X-51.2055 Y-21.8775 I-0.6686 J10.3601
G3 X-45.1463 Y-21.2641 I-8.3404 J112.6217
G3 X-40.6268 Y-20.5641 I-11.6922 J90.4228
G3 X-37.2646 Y-19.8684 I-12.3757 J68.2847
G3 X-34.7693 Y-19.2245 I-11.9132 J51.3284
G3 X-34.3049 Y-19.0899 I-6.102 J21.9117
G1 X-33.8709 Y-18.9592
G1 X-33.4652 Y-18.8326
G1 X-33.086 Y-18.7102
G3 X-30.2897 Y-17.658 I-10.1931 J31.3295
G3 X-28.9366 Y-17.0227 I-8.7258 J20.346
G3 X-27.6326 Y-16.2919 I-7.7499 J15.3567
G3 X-27.5599 Y-16.2382 I-0.8553 J1.2341
G3 X-27.4275 Y-16.1214 I-1.2294 J1.5269
G3 X-27.3226 Y-15.9908 I-0.6619 J0.639
G3 X-27.2578 Y-15.6922 I-0.3398 J0.23
G3 X-27.3719 Y-15.4517 I-0.5854 J-0.1303
G3 X-27.4495 Y-15.3567 I-0.831 J-0.5997
G3 X-27.6123 Y-15.1899 I-1.8817 J-1.6739
G1 X-27.7619 Y-15.0424
G1 X-27.8274 Y-14.9714
G2 X-27.9334 Y-14.8223 I0.5777 J0.5228
G2 X-27.9736 Y-14.6707 I0.276 J0.1543
G2 X-27.9386 Y-14.5453 I0.276 J-0.0095
G2 X-27.7876 Y-14.3836 I0.48 J-0.2969
G2 X-27.5024 Y-14.2181 I0.939 J-1.2892
G2 X-27.1975 Y-14.0921 I1.8133 J-3.9558
G3 X-27.0888 Y-14.0413 I-0.6376 J1.504
G1 X-26.9829 Y-13.989
G1 X-26.7767 Y-13.8816
G3 X-26.383 Y-13.6629 I-9.9968 J18.4602
G1 X-26.0185 Y-13.45
G1 X-25.6793 Y-13.246
G1 X-25.3632 Y-13.0518
G3 X-23.0245 Y-11.5449 I-49.2587 J79.0145
G1 X-22.8796 Y-11.4487
G3 X-22.7439 Y-11.3584 I-2.4985 J3.9039
G3 X-22.6802 Y-11.3161 I-0.7217 J1.1522
G1 X-22.1881 Y-10.9866
G1 X-21.452 Y-10.4893
G3 X-20.7188 Y-9.988 I-54.2139 J80.0724
G2 X-20.623 Y-10.1958 I-0.3259 J-0.2761
G2 X-20.6133 Y-10.3909 I-0.7419 J-0.1349
G2 X-20.6746 Y-10.7249 I-1.7993 J0.1577
G2 X-20.8519 Y-11.2015 I-3.3592 J0.9787
G2 X-20.9052 Y-11.3168 I-1.761 J0.7437
G2 X-20.99 Y-11.4877 I-7.9232 J3.8241
G1 X-21.0342 Y-11.5722
G2 X-21.0568 Y-11.6142 I-0.6107 J0.3008
G2 X-21.0796 Y-11.6561 I-0.4051 J0.1937
G1 X-21.1197 Y-11.7357
G3 X-21.1795 Y-11.9016 I0.8551 J-0.4022
G3 X-21.1893 Y-11.9776 I0.7049 J-0.1292
G3 X-21.1788 Y-12.0455 I0.1988 J-0.0042
G3 X-21.0928 Y-12.1223 I0.1148 J0.042
G3 X-20.999 Y-12.1299 I0.0673 J0.2474
G3 X-20.8399 Y-12.0946 I-0.0619 J0.6534
G3 X-20.4138 Y-11.8606 I-0.5657 J1.535
G3 X-19.7785 Y-11.3876 I-23.9412 J32.8242
G3 X-15.0376 Y-7.3419 I-31.9429 J42.2327
G3 X-11.3081 Y-3.3751 I-37.4863 J38.9798
G3 X-11.2599 Y-3.3184 I-1.1287 J1.0076
G3 X-8.3392 Y0.4265 I-44.2464 J37.5205
G3 X-6.0284 Y3.8765 I-52.3299 J37.5492
G3 X-4.1799 Y7.0023 I-63.1744 J39.4694
G1 X-3.7955 Y7.6973
G1 X-3.4295 Y8.3741
G3 X-0.7871 Y13.7181 I-87.1132 J46.4003
G3 X0.127 Y15.7579 I-126.4501 J57.89
G3 X1.6485 Y19.3615 I-149.385 J65.1958
G3 X2.7389 Y22.085 I-202.076 J82.487
G3 X2.7892 Y22.213 I-4.0899 J1.6809
G3 X2.8387 Y22.339 I-4.0303 J1.654
G3 X2.8873 Y22.4631 I-3.9723 J1.6279
G3 X2.9351 Y22.5853 I-3.9155 J1.6024
G3 X2.9821 Y22.7056 I-3.8599 J1.5776
G3 X3.0283 Y22.824 I-3.8057 J1.5534
G3 X3.0738 Y22.9406 I-3.7526 J1.5299
G3 X3.1185 Y23.0554 I-3.7008 J1.5069
G3 X3.4689 Y23.9597 I-93.7776 J36.8545
G1 X3.7736 Y24.7518
G1 X4.3035 Y26.1391
G1 X5.8839 Y30.3046
G1 X5.9301 Y30.4208
G2 X6.1669 Y30.8932 I3.1552 J-1.2859
G2 X6.3048 Y31.0886 I1.5425 J-0.9421
G2 X6.4744 Y31.2537 I0.7319 J-0.582
G2 X6.5628 Y31.3038 I0.2454 J-0.3306
G2 X6.6514 Y31.3231 I0.0924 J-0.2108
G2 X6.79 Y31.2567 I0.0019 J-0.1741
G2 X6.8504 Y31.146 I-0.2676 J-0.2179
G2 X6.8909 Y30.9319 I-0.8489 J-0.2714
G2 X6.8825 Y30.6062 I-2.0164 J-0.1108
G2 X6.8324 Y30.2842 I-4.2253 J0.4928
G2 X6.1275 Y27.2431 I-52.7344 J10.6212
G1 X6.0399 Y26.9131
G1 X5.8618 Y26.265
G2 X5.1035 Y23.774 I-57.8926 J16.2641
G2 X3.5415 Y19.4946 I-68.208 J22.4703
G1 X3.3814 Y19.0987
G2 X2.0697 Y16.06 I-72.7534 J29.6027
G2 X-0.1026 Y11.5966 I-90.5614 J41.3164
G2 X-0.3891 Y11.0462 I-32.3782 J16.5017
G2 X-0.5154 Y10.8058 I-12.9956 J6.6753
G2 X-0.6343 Y10.5808 I-10.6661 J5.4916
G2 X-0.7463 Y10.37 I-9.1719 J4.7357
G2 X-0.8516 Y10.1726 I-8.1036 J4.197
G2 X-0.9506 Y9.9878 I-7.288 J3.7866
G2 X-1.0438 Y9.8146 I-6.6373 J3.4595
G2 X-1.1314 Y9.6524 I-6.1015 J3.1904
G2 X-1.2137 Y9.5005 I-5.6494 J2.9633
G2 X-1.2911 Y9.3582 I-5.2608 J2.768
G2 X-1.3638 Y9.2248 I-4.9221 J2.5975
G2 X-1.4322 Y9.0999 I-4.6229 J2.4467
G2 X-1.4963 Y8.9828 I-4.356 J2.3119
G1 X-1.9814 Y8.1071
G2 X-2.0425 Y7.9979 I-3.5074 J1.8905
G2 X-2.4729 Y7.2351 I-81.4805 J45.4708
G3 X-2.5484 Y7.0393 I0.4837 J-0.2989
G3 X-2.5324 Y6.8617 I0.3154 J-0.0611
G3 X-2.4428 Y6.7444 I0.2696 J0.113
G3 X-2.2099 Y6.6561 I0.2705 J0.362
G3 X-1.8466 Y6.7178 I0.0678 J0.7006
G3 X-1.558 Y6.9469 I-0.3102 J0.6872
G3 X-0.5511 Y8.3395 I-28.0403 J21.3333
G3 X0.2771 Y9.5941 I-42.9159 J29.2321
G1 X0.4532 Y9.872
G1 X0.6224 Y10.142
G1 X0.9467 Y10.6672
G3 X0.9844 Y10.729 I-1.2167 J0.7866
G3 X2.1684 Y12.6973 I-298.5955 J180.9414
G1 X2.6126 Y13.4356
G1 X2.8085 Y13.7578
G1 X3.1794 Y14.3596
G2 X3.845 Y15.4025 I45.3755 J-28.2245
G2 X3.9087 Y15.4994 I2.8339 J-1.7947
G2 X3.9708 Y15.5931 I2.9425 J-1.8796
G2 X4.0917 Y15.7743 I4.5061 J-2.8769
G2 X4.2059 Y15.9434 I5.1785 J-3.374
G2 X4.4226 Y16.2589 I11.4189 J-7.6127
G1 X4.6151 Y16.5329
G1 X4.7859 Y16.771
G2 X5.4024 Y17.5906 I20.9231 J-15.0975
G1 X5.5614 Y17.7917
G2 X5.8039 Y18.0902 I9.9932 J-7.8675
G1 X6.0512 Y18.3848
G3 X6.964 Y18.4701 I-0.3904 J9.1128
G3 X8.5358 Y18.7939 I-1.5956 J11.7204
G3 X9.1128 Y18.9699 I-3.7293 J13.2627
G3 X10.0958 Y19.3549 I-3.4204 J10.1803
G3 X11.473 Y20.1358 I-3.4344 J7.6622
G3 X12.6601 Y21.1835 I-4.0439 J5.7781
G2 X11.7496 Y17.667 I-38.3238 J8.0469
G1 X11.623 Y17.2612
G2 X11.084 Y15.6628 I-49.037 J15.644
G2 X9.8902 Y12.6225 I-51.7183 J18.5543
G1 X9.7386 Y12.2712
G2 X7.0481 Y6.829 I-59.3636 J25.9618
G1 X6.7245 Y6.2493
G1 X6.6441 Y6.1071
G1 X6.5636 Y5.9655
G1 X6.4832 Y5.8248
G1 X6.4027 Y5.6847
G1 X6.3223 Y5.5453
G2 X3.6087 Y1.1971 I-67.7962 J39.2884
G2 X1.0148 Y-2.4614 I-69.9525 J46.8477
G2 X-9.4475 Y-14.1383 I-72.1529 J54.1225
G2 X-15.4125 Y-19.2387 I-57.8718 J61.6433
G2 X-18.5698 Y-21.5711 I-48.4917 J62.3394
G2 X-18.6704 Y-21.6415 I-2.0018 J2.7542
G2 X-18.7679 Y-21.7095 I-1.9519 J2.6953
G2 X-21.842 Y-23.7395 I-42.8188 J61.4985
G1 X-22.058 Y-23.8778
G3 X-22.5866 Y-24.2644 I3.1939 J-4.9216
G3 X-22.8092 Y-24.4691 I1.4506 J-1.8006
G3 X-22.9845 Y-24.6939 I0.8182 J-0.8188
G3 X-23.0284 Y-24.8015 I0.3117 J-0.1897
G3 X-23.0281 Y-24.9007 I0.1989 J-0.0491
G3 X-22.9109 Y-25.0154 I0.1764 J0.0632
G3 X-22.7706 Y-25.0493 I0.1925 J0.4881
G3 X-22.5026 Y-25.0505 I0.14 J1.3534
G3 X-22.0413 Y-24.9755 I-0.2819 J3.1868
G1 X-21.956 Y-24.9554
G3 X-21.3263 Y-24.769 I-1.9918 J7.8852
G1 X-21.1714 Y-24.7148
G1 X-20.9405 Y-24.6292
G1 X-20.7113 Y-24.539
G1 X-19.8441 Y-24.189
G1 X-16.4857 Y-22.8271
G1 X-15.0134 Y-22.2362
G1 X-14.322 Y-21.9618
G1 X-13.6513 Y-21.6982
G1 X-13.0006 Y-21.4451
G1 X-12.3691 Y-21.2025
G1 X-11.7564 Y-20.9702
G1 X-11.1617 Y-20.7478
G1 X-10.5845 Y-20.5352
G2 X-6.0685 Y-19.0072 I31.955 J-87.0044
G2 X-4.3523 Y-18.5024 I18.6941 J-60.3908
G1 X-3.9751 Y-18.398
G1 X-3.6092 Y-18.2989
G2 X-2.1855 Y-17.9361 I14.3223 J-53.2232
G2 X2.8625 Y-16.9646 I12.3857 J-50.7569
G2 X7.9851 Y-16.5355 I6.3453 J-44.9615
G2 X9.0304 Y-16.5707 I0.2323 J-8.6461
G2 X9.5191 Y-16.6363 I-0.7963 J-7.79
G2 X10.4432 Y-16.8737 I-0.9661 J-5.6775
G2 X11.2475 Y-17.2534 I-1.3436 J-3.8878
G2 X11.8975 Y-17.7645 I-1.7882 J-2.9431
G2 X12.6806 Y-19.0791 I-2.2597 J-2.2367
G2 X12.8205 Y-19.7495 I-3.4753 J-1.0746
G2 X12.8463 Y-20.0762 I-6.1891 J-0.6534
G2 X12.7406 Y-21.3533 I-5.5443 J-0.1841
G2 X12.4233 Y-22.4996 I-8.0092 J1.5998
G2 X11.9974 Y-23.5247 I-9.6843 J3.4228
G2 X10.9749 Y-25.3311 I-13.875 J6.6609
G1 X10.8499 Y-25.5202
G2 X9.7965 Y-26.9607 I-18.5271 J12.4436
G2 X8.7941 Y-28.1567 I-20.9481 J16.5392
G2 X7.869 Y-29.1605 I-22.7201 J20.0074
G1 X7.6616 Y-29.3753
G2 X6.0013 Y-30.9867 I-31.4299 J30.7221
G1 X5.8414 Y-31.1333
G1 X5.5297 Y-31.4152
G2 X3.1232 Y-33.4501 I-36.602 J40.846
G1 X2.8149 Y-33.6953
G1 X2.6795 Y-33.802
G1 X2.1694 Y-34.1991
G1 X1.7844 Y-34.4936
G1 X1.4943 Y-34.7128
G2 X1.0571 Y-35.0388 I-16.4037 J21.5403
G2 X0.9474 Y-35.1198 I-3.4749 J4.5899
G1 X0.7826 Y-35.241
G1 X0.6176 Y-35.3616
G3 X0.3092 Y-35.6203 I1.5468 J-2.1575
G3 X0.0668 Y-35.9257 I0.9574 J-1.0088
G3 X0.0004 Y-36.0804 I0.6426 J-0.3671
G3 X-0.0185 Y-36.2308 I0.4059 J-0.1275
G3 X0.0954 Y-36.4679 I0.3359 J0.0155
G3 X0.2835 Y-36.5733 I0.3566 J0.4159
G3 X0.4651 Y-36.6133 I0.3379 J1.1001
G3 X0.7889 Y-36.6149 I0.169 J1.4837
G3 X1.2639 Y-36.52 I-0.2555 J2.516
G3 X1.4939 Y-36.4436 I-0.7232 J2.5624
G3 X1.7186 Y-36.3527 I-1.3192 J3.5832
G1 X2.0407 Y-36.2103
G3 X4.5263 Y-34.9796 I-14.6559 J32.7262
G3 X6.6158 Y-33.7375 I-16.0213 J29.3307
G3 X10.013 Y-31.1735 I-15.5346 J24.1148
G3 X12.2713 Y-28.9086 I-16.2407 J18.452
G3 X12.3697 Y-28.7951 I-2.0822 J1.9041
G3 X13.8147 Y-26.9245 I-16.3954 J14.1586
G3 X15.5634 Y-23.8424 I-16.6207 J11.4672
G3 X16.7249 Y-20.4946 I-17.3707 J7.9024
G3 X16.931 Y-19.4911 I-12.5428 J3.0983
G3 X17.0357 Y-18.532 I-8.5839 J1.4226
G3 X17.0136 Y-17.6327 I-5.674 J0.3105
G3 X16.84 Y-16.8203 I-3.8227 J-0.3922
G3 X16.0137 Y-15.5562 I-2.7582 J-0.9009
G3 X15.4976 Y-15.1763 I-2.3512 J-2.6534
G3 X15.2369 Y-15.0311 I-1.7467 J-2.8292
G3 X14.7091 Y-14.7996 I-2.2896 J-4.502
G3 X13.674 Y-14.5026 I-2.4985 J-6.7572
G3 X12.7469 Y-14.3456 I-2.3054 J-10.7938
G3 X11.9289 Y-14.2618 I-1.8096 J-13.6315
G1 X11.7495 Y-14.2487
G1 X11.5757 Y-14.2375
G3 X10.9014 Y-14.2073 I-1.1289 J-17.6635
G3 X8.5397 Y-14.2205 I-0.9787 J-36.1911
G1 X8.3921 Y-14.2259
G1 X7.8391 Y-14.2495
G1 X7.4246 Y-14.2707
G1 X6.8029 Y-14.3071
G1 X6.1815 Y-14.3486
G2 X5.9498 Y-14.3406 I-0.0791 J1.0616
G2 X5.7588 Y-14.2829 I0.0891 J0.6403
G2 X5.6333 Y-14.1835 I0.1396 J0.3051
G2 X5.637 Y-13.956 I0.1437 J0.1114
G2 X5.8171 Y-13.8169 I0.376 J-0.3008
G1 X6.6938 Y-13.3837
G1 X7.5402 Y-12.9575
G3 X13.9778 Y-9.4248 I-50.4317 J99.5343
G3 X18.6322 Y-6.4719 I-46.7988 J78.9097
G3 X18.8458 Y-6.3263 I-4.6623 J7.069
G3 X22.1448 Y-3.9398 I-41.3389 J60.616
G3 X22.7482 Y-3.4717 I-22.1529 J29.1849
G3 X23.8651 Y-2.5755 I-36.068 J46.0934
G3 X23.9256 Y-2.5258 I-1.0483 J1.3371
G3 X23.9856 Y-2.4763 I-1.0409 J1.3245
G3 X24.0451 Y-2.4272 I-1.0337 J1.312
G3 X24.104 Y-2.3784 I-1.0267 J1.2998
G3 X24.1625 Y-2.3299 I-1.0198 J1.2878
G3 X27.7361 Y0.9019 I-35.4787 J42.8237
G3 X30.9803 Y4.4645 I-31.2026 J31.6719
G2 X32.5747 Y5.6203 I28.6063 J-37.7854
G2 X34.1071 Y6.6492 I33.9318 J-48.8787
G2 X37.0538 Y8.4628 I41.3218 J-63.8367
G1 X37.3806 Y8.6538
G1 X37.703 Y8.8406
G2 X38.9784 Y9.5658 I72.4103 J-125.8521
G1 X39.5789 Y9.9009
G1 X40.1622 Y10.2232
G2 X41.2951 Y10.8424 I138.2855 J-251.6919
G2 X41.4281 Y10.9146 I2.5799 J-4.593
G2 X41.5601 Y10.9862 I2.4565 J-4.3718
G1 X43.6578 Y12.118
G3 X43.7726 Y12.1798 I-1.3434 J2.6307
G3 X43.8865 Y12.2412 I-1.3172 J2.5804
G3 X47.4897 Y14.213 I-110.5614 J206.3104
G1 X47.8255 Y14.4021
G1 X48.1502 Y14.5862
G1 X48.4642 Y14.7656
G3 X50.8739 Y16.1961 I-42.2058 J73.844
G3 X52.6447 Y17.3293 I-35.7954 J57.8817
G3 X52.7268 Y17.384 I-0.7906 J1.2753
G3 X52.8075 Y17.438 I-0.7865 J1.2629
G3 X55.291 Y19.2186 I-25.3542 J37.9862
G3 X57.6313 Y21.1835 I-21.2578 J27.6953
G1 X59.0796 Y22.0131
G1 X59.1688 Y22.0641
G1 X62.0192 Y23.6927
G2 X63.4005 Y24.4804 I167.977 J-292.9459
G1 X66.1208 Y26.0296
G1 X71.394 Y29.0265
G1 X73.8667 Y30.4296
G1 X78.659 Y33.1461
G1 X87.6478 Y38.2333
G1 X91.5816 Y40.457
G1 X98.9587 Y44.624
G1 X111.872 Y51.91
G1 X113.0829 Y52.5928
G1 X122.4677 Y57.8822
G1 X136.5478 Y65.8112
G1 X143.5891 Y69.7736
G1 X150.6312 Y73.7344
G1 X236.9439 Y122.5902
G1 X237.9517 Y122.0435
G3 X236.9925 Y121.0082 I13.6552 J-13.6122
G3 X236.1885 Y119.9782 I9.973 J-8.614
G1 X236.146 Y119.9166
G3 X235.827 Y119.4142 I7.3315 J-5.0083
G3 X235.5628 Y118.9121 I5.4209 J-3.1733
G1 X235.5079 Y118.79
G3 X235.4572 Y118.6683 I2.1421 J-0.9634
G3 X235.2973 Y118.1749 I3.0637 J-1.2654
G3 X235.2254 Y117.6968 I2.4994 J-0.6202
G3 X235.2547 Y117.2488 I1.9075 J-0.1002
G3 X235.6195 Y116.505 I1.5395 J0.2936
G3 X235.8941 Y116.2495 I1.4748 J1.31
G3 X236.5258 Y115.8959 I1.6556 J2.2168
G3 X236.8511 Y115.7793 I1.5893 J3.9217
G3 X237.5094 Y115.6206 I1.6704 J5.4835
G3 X238.1567 Y115.5332 I1.5035 J8.6906
G3 X239.4179 Y115.4891 I1.0346 J11.5264
G1 X239.713 Y115.4967
G1 X240.0032 Y115.5096
G3 X242.2755 Y115.7601 I-1.2927 J22.1634
G1 X242.5221 Y115.8004
G3 X244.4509 Y116.1868 I-5.1733 J30.8323
G3 X246.1191 Y116.6091 I-9.4121 J40.6885
G1 X246.4817 Y116.7105
G1 X246.657 Y116.7607
G3 X249.391 Y117.6374 I-14.2781 J49.2302
G3 X251.4082 Y118.391 I-17.4203 J49.7024
G3 X252.9017 Y119.0055 I-26.2967 J66.0435
G3 X257.2762 Y121.0859 I-23.8723 J55.8342
G1 X331.0257 Y166.02
G1 X329.7314 Y167.0446
G1 X282.4581 Y138.415
G1 X281.9086 Y138.0845
G2 X279.7373 Y136.7965 I-181.3445 J303.2542
G2 X271.522 Y132.0904 I-212.2472 J360.9821
G1 X270.7462 Y131.6588
G1 X269.9936 Y131.2424
G2 X264.1265 Y128.0782 I-159.6347 J288.9763
G1 X263.0187 Y127.4989
G1 X261.9777 Y126.9603
G1 X261.7333 Y126.8348
G2 X261.4926 Y126.7115 I-4.8783 J9.2241
G1 X260.5437 Y126.2285
G1 X260.0981 Y126.0036
G2 X256.6266 Y124.297 I-83.1931 J164.8443
G2 X253.9982 Y123.0679 I-65.2219 J136.0533
G2 X253.9362 Y123.0397 I-0.336 J0.656
G2 X253.8748 Y123.0118 I-0.3327 J0.6503
G2 X249.9406 Y121.3142 I-42.4019 J92.8609
G2 X249.6921 Y121.214 I-3.4169 J8.115
G2 X247.8173 Y120.4925 I-27.9445 J69.8115
G1 X247.345 Y120.3216
G2 X245.9181 Y119.8381 I-16.5365 J46.4563
G2 X244.0488 Y119.2904 I-12.0649 J37.7091
G1 X243.9496 Y119.2644
G1 X243.5556 Y119.1651
G1 X243.1725 Y119.0748
G2 X241.6698 Y118.7975 I-3.7385 J16.0521
G2 X240.9968 Y118.7295 I-1.3237 J9.7366
G2 X240.3789 Y118.716 I-0.4637 J7.0389
G2 X239.8244 Y118.7662 I0.1202 J4.4154
G2 X239.3417 Y118.8954 I0.3529 J2.2836
G2 X238.965 Y119.1184 I0.4465 J1.1839
G2 X238.6508 Y119.7785 I0.5995 J0.6902
G2 X238.7178 Y120.3084 I1.6354 J0.0623
G2 X238.8547 Y120.6834 I2.7667 J-0.7969
G2 X239.1367 Y121.2111 I4.2581 J-1.9365
G2 X239.4766 Y121.7033 I5.3369 J-3.3218
G1 X239.6549 Y121.9323
G2 X240.0128 Y122.3657 I12.4724 J-9.9361
G2 X241.465 Y123.8915 I16.2376 J-14.0006
G2 X241.5364 Y123.9598 I1.4447 J-1.4386
G2 X241.6069 Y124.0268 I1.1657 J-1.1563
G2 X242.1692 Y124.5457 I24.1188 J-25.5691
G1 X242.419 Y124.7685
G2 X242.5369 Y124.8721 I4.2621 J-4.7292
G2 X244.4125 Y126.4201 I28.7453 J-32.9194
G1 X244.5323 Y126.5138
G1 X244.6447 Y126.6014
G1 X244.7503 Y126.6833
G2 X245.1476 Y126.9885 I16.1632 J-20.6261
G1 X246.3458 Y127.8956
G1 X246.9403 Y128.1625
G1 X247.5246 Y128.4271
G1 X248.099 Y128.6895
G3 X257.0233 Y133.0768 I-74.1055 J162.0102
G3 X263.5378 Y136.7103 I-74.9739 J142.0784
G3 X272.9583 Y142.745 I-76.7565 J130.1901
G1 X273.2453 Y142.9448
G1 X273.5229 Y143.1389
G1 X273.7914 Y143.3276
G1 X274.0511 Y143.511
G1 X274.3023 Y143.6891
G1 X274.5454 Y143.8622
G3 X281.9114 Y149.4533 I-92.2198 J129.1433
G1 X283.3947 Y150.1211
G1 X283.7539 Y150.2832
G1 X284.4664 Y150.6053
G1 X285.1676 Y150.9229
G1 X286.5473 Y151.55
G3 X291.8807 Y154.0084 I-259.2918 J569.5306
G1 X292.4627 Y154.2808
G1 X293.0354 Y154.5496
G3 X295.2864 Y155.6159 I-138.7923 J295.904
G1 X295.5498 Y155.7417
G1 X295.8111 Y155.8668
G1 X296.0703 Y155.9911
G1 X296.3274 Y156.1146
G1 X296.5823 Y156.2374
G1 X296.8352 Y156.3594
G1 X297.086 Y156.4806
G1 X297.3348 Y156.6011
G3 X301.27 Y158.5415 I-131.1696 J270.9705
G3 X304.689 Y160.2906 I-123.6898 J245.9963
G1 X305.0613 Y160.4853
G1 X305.4275 Y160.6776
G1 X305.7877 Y160.8677
G3 X311.4039 Y163.9623 I-81.1751 J153.963
G1 X311.9244 Y164.2636
G1 X312.4274 Y164.5577
G3 X316.2804 Y166.9127 I-62.426 J106.4602
G1 X316.6369 Y167.1412
G1 X316.9815 Y167.3639
G1 X317.6466 Y167.7994
G1 X318.2668 Y168.2125
G3 X320.5617 Y169.8073 I-48.2445 J71.8682
G1 X320.9859 Y170.115
G1 X321.3817 Y170.4061
G3 X322.8478 Y171.522 I-37.2514 J50.4634
G3 X324.9846 Y173.2746 I-35.5132 J45.4802
G3 X327.0277 Y175.1355 I-30.8328 J35.9036
G3 X327.3015 Y175.4285 I-2.9264 J3.0093
G3 X327.5371 Y175.7569 I-1.6534 J1.4348
G3 X327.6229 Y175.9278 I-1.0576 J0.6378
G3 X327.6744 Y176.0968 I-0.7023 J0.3065
G3 X327.6788 Y176.2553 I-0.4552 J0.0919
G3 X327.5187 Y176.4676 I-0.2676 J-0.0353
G3 X327.3105 Y176.5072 I-0.1948 J-0.4572
G3 X326.9518 Y176.4415 I0.0396 J-1.2279
G3 X326.4572 Y176.213 I0.8312 J-2.4491
G3 X326.2265 Y176.068 I2.6265 J-4.4333
G3 X326.1146 Y175.99 I0.9601 J-1.4971
G3 X326.005 Y175.9091 I1.4578 J-2.088
G1 X325.4143 Y175.4601
G2 X325.1222 Y175.2409 I-12.0761 J15.7849
G1 X324.977 Y175.1325
G2 X320.2556 Y171.8101 I-67.8084 J91.3458
G1 X319.7298 Y171.4606
G1 X319.6001 Y171.3749
G1 X319.4709 Y171.2898
G2 X315.3063 Y168.6463 I-88.0056 J134.0449
G1 X314.8459 Y168.365
G1 X313.9372 Y167.8152
G2 X310.3866 Y165.7338 I-107.1112 J178.6452
G1 X309.9956 Y165.5106
G2 X303.78 Y162.1005 I-113.3253 J199.1884
G2 X294.2787 Y157.3241 I-119.0104 J224.9015
G1 X293.0771 Y156.7551
G1 X292.023 Y156.2627
G1 X291.0987 Y155.8364
G2 X287.8462 Y154.3822 I-80.7974 J176.3473
G1 X287.028 Y154.0301
G1 X286.4126 Y153.7702
G2 X286.297 Y153.722 I-1.7305 J3.9813
G1 X286.1885 Y153.6768
G1 X285.7814 Y153.5091
G1 X285.1685 Y153.2626
G2 X284.552 Y153.0255 I-10.9529 J27.5509
G3 X283.4503 Y152.5709 I5.8771 J-15.807
G1 X283.197 Y152.4538
G3 X281.2532 Y151.4297 I11.2449 J-23.7005
G1 X280.8383 Y151.187
G1 X280.4392 Y150.9469
G3 X280.2468 Y150.8291 I3.2725 J-5.5568
G1 X279.8697 Y150.5942
G1 X279.7786 Y150.5368
G1 X279.4185 Y150.3071
G1 X279.2447 Y150.1948
G1 X278.9036 Y149.972
G1 X278.7388 Y149.8632
G3 X277.4511 Y148.9923 I49.6471 J-74.7929
G3 X275.2209 Y147.4275 I130.2589 J-188.0236
G1 X274.8023 Y147.131
G1 X274.6058 Y146.992
G1 X274.2246 Y146.723
G1 X273.5072 Y146.2206
G1 X273.4283 Y146.1658
G1 X272.8048 Y145.7374
G1 X272.6673 Y145.6443
G1 X272.4001 Y145.465
G2 X271.3842 Y144.8104 I-20.6332 J30.9063
G2 X270.5964 Y144.347 I-9.4587 J15.1798
G2 X270.2916 Y144.1832 I-6.9793 J12.6215
G2 X270.1563 Y144.1141 I-1.1771 J2.136
G2 X269.6378 Y143.8745 I-3.2004 J6.2444
G2 X269.2322 Y143.7242 I-1.7643 J4.1391
G2 X268.9161 Y143.6397 I-0.8437 J2.5227
G2 X268.6719 Y143.602 I-0.4431 J2.0622
G2 X268.3006 Y143.6156 I-0.1395 J1.2719
G2 X267.9612 Y143.7668 I0.1383 J0.7668
G3 X270.1797 Y145.2685 I-59.6484 J90.5095
G1 X270.3 Y145.3521
G1 X270.7766 Y145.6852
G3 X272.6119 Y146.9919 I-134.1858 J190.4147
G1 X273.4104 Y147.5698
G1 X274.1572 Y148.114
G1 X275.5547 Y149.1383
G1 X276.7763 Y150.0363
G1 X277.846 Y150.821
G2 X277.9631 Y150.9067 I3.0314 J-4.0197
G2 X278.0784 Y150.9911 I2.8283 J-3.7465
G2 X281.7328 Y153.6156 I135.0446 J-184.1802
G2 X281.7904 Y153.6559 I0.8994 J-1.2234
G2 X281.8472 Y153.6956 I0.8865 J-1.2072
G2 X281.903 Y153.7346 I0.8739 J-1.1914
G2 X281.9581 Y153.773 I0.8616 J-1.176
G2 X285.4669 Y156.1254 I60.2744 J-86.1121
G1 X285.5471 Y156.1784
G3 X285.7012 Y156.2931 I-1.4109 J2.0559
G1 X285.7694 Y156.3519
G3 X285.8317 Y156.4124 I-0.6533 J0.7343
G3 X285.9363 Y156.5433 I-0.6073 J0.5929
G3 X285.9946 Y156.681 I-0.3564 J0.232
G3 X285.9054 Y156.9053 I-0.2099 J0.0464
G3 X285.7307 Y156.9831 I-0.2816 J-0.3975
G3 X285.4018 Y157.0118 I-0.2681 J-1.1716
G3 X284.9138 Y156.9391 I0.1082 J-2.4008
G3 X284.4443 Y156.7873 I1.0074 J-3.9192
G2 X284.3423 Y156.7461 I-0.8984 J2.0728
G1 X283.9461 Y156.5889
G1 X283.5977 Y156.456
G2 X282.3599 Y156.0412 I-5.8016 J15.2602
G2 X281.0858 Y155.7571 I-2.7495 J9.332
G1 X282.2015 Y158.6469
G3 X281.5042 Y159.0448 I-1.6193 J-2.0275
G3 X281.1737 Y159.1528 I-1.2436 J-3.2476
G3 X280.5349 Y159.2725 I-1.143 J-4.3322
G1 X280.3938 Y159.2873
G1 X280.2568 Y159.2984
G3 X279.1924 Y159.3086 I-0.6282 J-10.0094
G1 X278.7937 Y159.2909
G1 X278.4449 Y159.2714
G1 X278.2923 Y159.2623
G1 X277.7199 Y159.2305
G2 X276.8602 Y159.2094 I-0.8477 J17.0621
G1 X276.7526 Y159.211
G2 X276.3764 Y159.2271 I0.0475 J5.4923
G2 X276.0018 Y159.2642 I0.5957 J7.9281
G2 X276.8819 Y160.272 I7.9197 J-6.0277
G2 X278.3908 Y161.5933 I9.9811 J-9.8761
G1 X278.5921 Y161.7434
G2 X278.9507 Y161.9971 I5.6343 J-7.584
G2 X279.225 Y162.1794 I4.2996 J-6.173
G2 X279.6456 Y162.4387 I5.0756 J-7.7627
G2 X279.7526 Y162.5006 I1.812 J-3.0063
G1 X279.8333 Y162.5462
G2 X280.0777 Y162.6784 I3.4876 J-6.1571
G3 X284.4838 Y161.7094 I6.9891 J21.278
G3 X287.8632 Y161.565 I2.6939 J23.422
G3 X290.3917 Y161.7659 I-0.6787 J24.5552
G3 X294.1196 Y162.5153 I-3.6148 J27.6258
G3 X295.9388 Y163.0709 I-8.0683 J29.6753
G3 X296.835 Y163.3898 I-9.5963 J28.3866
G1 X297.2794 Y163.559
G1 X297.7214 Y163.7346
G1 X297.9643 Y163.8371
G1 X298.2037 Y163.9427
G3 X299.1444 Y164.3816 I-13.4597 J30.0768
G3 X300.9472 Y165.2732 I-36.9154 J76.9129
G1 X301.1575 Y165.3797
G1 X301.9903 Y165.8055
G1 X302.7952 Y166.2219
G3 X308.9846 Y169.5414 I-142.7128 J273.5259
G1 X309.2731 Y169.7005
G1 X310.4073 Y170.3296
G1 X311.4686 Y170.9236
G1 X311.717 Y171.0634
G3 X315.6115 Y173.2978 I-135.5691 J240.7978
G3 X318.5065 Y175.0227 I-95.1588 J163.0105
G3 X319.5847 Y175.684 I-44.9295 J74.4575
G1 X320.0547 Y175.9764
G1 X320.2746 Y176.1142
G3 X321.9684 Y177.1995 I-64.1334 J101.9491
G1 X322.2836 Y177.4073
G3 X323.4559 Y178.2021 I-35.3239 J53.3634
G1 X323.8907 Y178.5083
G3 X323.9855 Y178.576 I-1.0705 J1.5969
G1 X324.0771 Y178.6419
G3 X325.4626 Y179.7073 I-14.4972 J20.2873
G3 X326.113 Y180.2961 I-6.3244 J7.639
G3 X326.4095 Y180.6215 I-2.9944 J3.0267
G3 X326.5411 Y180.7985 I-1.7692 J1.4522
G3 X326.6484 Y180.9913 I-1.0191 J0.6937
G2 X327.641 Y182.9718 I17.2022 J-7.3822
G1 X327.7631 Y183.1813
G1 X327.8856 Y183.3863
G2 X328.1329 Y183.786 I30.0137 J-18.2946
G2 X329.1565 Y185.2932 I24.908 J-15.8157
G1 X329.2738 Y185.4549
G1 X329.39 Y185.6135
G1 X329.5051 Y185.7692
G1 X329.6191 Y185.9221
G2 X330.5319 Y187.1144 I52.6362 J-39.3505
G1 X330.9365 Y187.6341
G3 X330.984 Y187.6952 I-0.6014 J0.5173
G3 X331.0312 Y187.7557 I-0.5965 J0.5129
G3 X331.0779 Y187.8158 I-0.5917 J0.5085
G3 X331.1243 Y187.8755 I-0.587 J0.5041
G3 X331.1703 Y187.9347 I-0.5824 J0.4998
G3 X331.2159 Y187.9935 I-0.5779 J0.4955
G3 X331.2611 Y188.0518 I-0.5735 J0.4912
G3 X331.3059 Y188.1097 I-0.5693 J0.487
G3 X331.3504 Y188.1672 I-0.5651 J0.4828
G3 X331.3945 Y188.2243 I-0.561 J0.4787
G3 X331.4382 Y188.281 I-0.557 J0.4746
G3 X331.7829 Y188.7321 I-21.6377 J16.8944
G1 X332.1023 Y189.1586
G3 X332.6851 Y189.9708 I-28.3224 J20.9341
G3 X332.7162 Y190.0159 I-0.4744 J0.361
G3 X333.6416 Y191.4872 I-15.9141 J11.0363
G3 X334.2249 Y192.6561 I-11.0828 J6.26
G3 X334.8272 Y194.52 I-8.8391 J3.8857
G3 X335.0127 Y196.4701 I-8.508 J1.7934
G3 X336.7677 Y196.6951 I-0.1158 J7.8587
G3 X338.2241 Y197.1913 I-2.1944 J8.8272
G3 X338.8314 Y197.4789 I-4.3179 J9.9027
G3 X339.9261 Y198.1013 I-6.5718 J12.8324
G1 X340.1593 Y198.2483
G3 X340.6063 Y198.541 I-22.0934 J34.2281
G1 X340.8141 Y198.6811
G1 X341.0147 Y198.8181
G1 X341.4016 Y199.086
G1 X342.1256 Y199.5913
G2 X343.4129 Y200.4492 I19.1458 J-27.3321
G2 X344.4186 Y201.032 I9.0766 J-14.5045
G1 X344.6125 Y201.1322
G2 X346.1242 Y201.7551 I4.5257 J-8.8378
G2 X347.7246 Y202.0896 I2.4962 J-7.9457
G3 X350.8865 Y202.3837 I-0.5431 J22.9814
G3 X352.0563 Y202.6139 I-3.2395 J19.5499
G3 X355.9913 Y203.9784 I-4.1854 J18.4268
G3 X357.8252 Y204.9702 I-8.9762 J18.7884
G3 X359.5549 Y206.1342 I-12.6389 J20.6499
G3 X359.8863 Y206.3988 I-3.1192 J4.2453
G3 X360.1651 Y206.6676 I-2.3567 J2.7238
G3 X360.4054 Y206.9838 I-1.293 J1.2318
G3 X360.4785 Y207.141 I-0.7843 J0.4603
G3 X360.5056 Y207.2946 I-0.4102 J0.1517
G3 X360.377 Y207.5212 I-0.2585 J0.0031
G3 X360.1796 Y207.5888 I-0.2622 J-0.4434
G3 X359.8191 Y207.5907 I-0.1871 J-1.3415
G3 X359.2904 Y207.4844 I0.436 J-3.536
G3 X358.7777 Y207.3168 I1.851 J-6.5314
G2 X354.3528 Y206.2938 I-6.2566 J16.9814
G2 X353.2149 Y206.2181 I-1.6498 J16.2132
G2 X351.5052 Y206.2654 I-0.4747 J13.7688
G2 X349.8184 Y206.5488 I0.9445 J10.7824
G3 X347.5541 Y206.7333 I-2.0677 J-11.3942
G3 X345.8559 Y206.6041 I0.2245 J-14.1781
G3 X340.993 Y205.1039 I2.1811 J-15.7023
G2 X340.1859 Y204.7772 I-1.8883 J3.5043
G2 X339.5269 Y204.6535 I-0.9696 J3.3488
G2 X339.0134 Y204.6573 I-0.2368 J2.7487
G2 X338.6322 Y204.7413 I0.2065 J1.8443
G2 X338.1373 Y205.053 I0.3767 J1.1469
G2 X337.8652 Y205.5707 I0.8567 J0.7807
G2 X338.5873 Y206.4471 I4.1706 J-2.7007
G2 X339.3652 Y207.0524 I3.2498 J-3.3744
G2 X340.1275 Y207.4448 I2.8331 J-4.5661
G2 X340.8328 Y207.6933 I2.3736 J-5.6115
G2 X342.1095 Y207.9678 I2.688 J-9.3981
G2 X343.0808 Y208.0878 I2.7284 J-18.0936
G2 X344.5434 Y208.2149 I8.9995 J-95.0453
G3 X344.6348 Y208.2228 I-0.0736 J1.3818
G1 X344.9775 Y208.2541
G3 X346.0027 Y208.3749 I-1.662 J18.5103
G1 X346.2531 Y208.4326
G3 X348.1997 Y208.9871 I-4.709 J20.2272
G3 X349.8505 Y209.6496 I-5.0939 J15.0786
G3 X351.2238 Y210.3963 I-5.619 J11.9709
G3 X351.2965 Y210.4421 I-0.9016 J1.5112
G3 X351.8616 Y210.8234 I-7.7693 J12.1275
G3 X352.8646 Y211.619 I-8.2117 J11.3816
G1 X353.075 Y211.8057
G1 X353.2761 Y211.9902
G3 X354.0364 Y212.7266 I-28.4119 J30.093
G2 X354.367 Y213.0541 I16.2341 J-16.0596
G1 X354.5231 Y213.2069
G1 X354.6756 Y213.3539
G2 X355.2856 Y213.9037 I7.9719 J-8.2333
G2 X355.858 Y214.3396 I4.5682 J-5.4036
G2 X356.9651 Y214.9342 I3.2464 J-4.7168
G2 X357.8641 Y215.2126 I2.1517 J-5.3576
G2 X359.2614 Y215.3958 I1.7322 J-7.7901
G2 X359.6138 Y215.4072 I0.3931 J-6.7275
G2 X360.1425 Y215.404 I0.1975 J-11.016
G1 X360.2747 Y215.3998
G1 X360.4727 Y215.3911
G1 X360.6707 Y215.3798
G3 X366.5857 Y215.9405 I1.1782 J19.0497
G3 X368.7098 Y216.6076 I-5.0057 J19.6538
G3 X372.2179 Y218.2871 I-7.9906 J21.1941
G3 X373.454 Y219.0614 I-13.3808 J22.7363
G3 X375.5072 Y220.5757 I-15.3723 J22.9913
G3 X378.3211 Y223.1664 I-19.6554 J24.1725
G3 X378.9748 Y223.8649 I-19.9209 J19.2991
G3 X379.4521 Y224.4006 I-34.5969 J31.3014
G3 X380.817 Y226.0648 I-27.1665 J23.6731
G3 X384.204 Y226.1078 I1.5214 J13.5902
G3 X385.6554 Y226.3749 I-1.9756 J14.8095
G1 X385.9914 Y226.4565
G3 X387.2975 Y226.8389 I-5.1425 J19.9872
G3 X387.5998 Y226.9413 I-4.792 J14.6374
G3 X388.7758 Y227.3845 I-7.9133 J22.7773
G1 X389.0485 Y227.4966
G1 X389.3159 Y227.6097
G3 X390.3599 Y228.077 I-12.0385 J28.2888
G1 X390.8453 Y228.3065
G3 X391.0797 Y228.4197 I-4.197 J8.9972
G3 X391.195 Y228.4758 I-2.2744 J4.8186
G3 X391.3092 Y228.5317 I-1.9944 J4.2199
G3 X391.4225 Y228.5874 I-1.7915 J3.7853
G3 X391.5348 Y228.6429 I-1.6355 J3.4511
G3 X391.6462 Y228.6982 I-1.5108 J3.184
G1 X392.0873 Y228.9192
G1 X392.9401 Y229.3528
G1 X393.3399 Y229.5575
G1 X394.1155 Y229.9535
G1 X394.8459 Y230.3211
G2 X396.2294 Y230.9865 I19.7854 J-39.364
G2 X397.4633 Y231.5254 I13.8625 J-30.06
G1 X397.737 Y231.6357
G2 X398.2712 Y231.84 I9.5376 J-24.1431
G1 X398.5235 Y231.931
G2 X399.016 Y232.0978 I9.9438 J-28.5515
G2 X400.9031 Y232.5868 I4.8038 J-14.6506
G2 X402.3544 Y232.7779 I2.4241 J-12.8069
G2 X404.5479 Y232.7197 I0.805 J-11.0271
G2 X406.687 Y232.231 I-1.4104 J-11.0999
G3 X407.1664 Y232.1327 I0.6605 J2.0024
G3 X407.3728 Y232.1348 I0.0906 J1.266
G3 X407.5555 Y232.1747 I-0.0643 J0.7319
G3 X407.697 Y232.2574 I-0.1515 J0.4215
G3 X407.7883 Y232.5095 I-0.1926 J0.2124
G3 X407.7301 Y232.6945 I-0.5548 J-0.0729
G3 X407.5652 Y232.9324 I-1.1125 J-0.5947
G3 X407.3602 Y233.1367 I-1.6636 J-1.4653
G1 X407.2441 Y233.2403
G3 X406.3135 Y234.0071 I-9.8724 J-11.0352
G3 X406.223 Y234.0752 I-0.9341 J-1.1471
G3 X405.5017 Y234.5744 I-7.9411 J-10.7009
G3 X404.3464 Y235.2043 I-4.8565 J-7.5335
G3 X403.1019 Y235.6321 I-2.7876 J-6.0849
G3 X401.442 Y235.8578 I-1.724 J-6.4635
G3 X399.9923 Y235.7395 I-0.062 J-8.1812
G3 X399.37 Y235.6141 I1.6496 J-9.7984
G3 X398.7944 Y235.4651 I3.131 J-13.2779
G1 X398.6604 Y235.4263
G1 X398.529 Y235.3869
G3 X397.5057 Y235.0404 I5.7913 J-18.782
G3 X396.6232 Y234.6999 I11.6683 J-31.5585
G3 X395.8556 Y234.3882 I30.0537 J-75.121
G2 X395.7716 Y234.3538 I-0.5743 J1.2834
G2 X395.6889 Y234.32 I-0.541 J1.2041
G1 X395.0373 Y234.0557
G2 X393.8858 Y233.6186 I-10.3126 J25.4311
G2 X393.4477 Y233.4703 I-6.5886 J18.7476
G2 X392.6704 Y233.2433 I-4.0714 J12.4946
G2 X391.4776 Y233.0133 I-2.2937 J8.6902
G2 X390.2636 Y232.973 I-0.8291 J6.6655
G2 X392.0819 Y234.9319 I7.3817 J-5.0287
G2 X394.045 Y236.147 I6.2622 J-7.9238
G2 X395.9193 Y236.8675 I5.8216 J-12.3448
G2 X397.6173 Y237.3033 I5.7709 J-18.9638
G1 X397.7111 Y237.323
G2 X398.4577 Y237.468 I4.8075 J-22.7601
G2 X399.1606 Y237.5869 I8.0872 J-45.6653
G1 X399.3257 Y237.6128
G1 X399.4883 Y237.6375
G1 X399.6484 Y237.6613
G2 X400.2798 Y237.7495 I4.2201 J-27.904
G1 X400.8726 Y237.8258
G1 X401.4289 Y237.8931
G1 X402.473 Y238.0129
G3 X404.3002 Y238.2235 I-15.5238 J142.7682
G1 X404.6426 Y238.2659
G3 X404.7228 Y238.2761 I-0.123 J1.292
G3 X405.9844 Y238.4512 I-7.0374 J55.3273
G3 X407.8641 Y238.7925 I-4.8186 J31.8813
G3 X408.33 Y238.8985 I-3.1052 J14.7253
G3 X409.0241 Y239.0771 I-4.2575 J17.9863
G3 X409.7107 Y239.2824 I-4.064 J14.8446
G1 X409.8826 Y239.3305
G1 X409.9252 Y239.3427
G1 X410.2638 Y239.4441
G3 X410.9247 Y239.6611 I-6.9821 J22.3823
G1 X411.2424 Y239.7733
G1 X411.5536 Y239.8878
G1 X411.7062 Y239.9455
G3 X414.0946 Y240.9474 I-15.7631 J40.9233
G1 X414.6104 Y241.182
G1 X415.1085 Y241.4127
G1 X415.1688 Y241.4408
G1 X415.6481 Y241.6663
G3 X417.4988 Y242.5546 I-89.3858 J188.6065
G1 X418.3073 Y242.9463
G1 X419.0657 Y243.313
G1 X419.4215 Y243.4842
G1 X419.594 Y243.567
G1 X420.2738 Y243.8914
G1 X420.9125 Y244.1927
G1 X421.5128 Y244.472
G1 X421.7949 Y244.6017
G2 X422.8917 Y245.0953 I60.8998 J-133.8562
G1 X423.1326 Y245.2011
G2 X423.3664 Y245.3029 I3.2588 J-7.1679
G2 X423.4798 Y245.3519 I1.6911 J-3.7582
G2 X425.2777 Y246.0937 I22.1817 J-51.2111
G2 X428.027 Y247.0697 I15.0817 J-38.1222
G1 X428.3757 Y247.1769
G2 X430.8499 Y247.8066 I8.0732 J-26.546
G1 X431.0809 Y247.8559
G3 X431.4558 Y247.9485 I-1.9113 J8.5489
G3 X431.5106 Y247.9636 I-0.2018 J0.8392
G3 X431.7447 Y248.0339 I-1.285 J4.7014
G3 X432.2178 Y248.2214 I-1.0146 J3.2506
G3 X432.4217 Y248.3466 I-0.5388 J1.1064
G3 X432.4942 Y248.4142 I-0.2497 J0.3404
G3 X432.5405 Y248.4884 I-0.1761 J0.1614
G3 X432.5119 Y248.6272 I-0.1203 J0.0476
G3 X432.4165 Y248.6967 I-0.2266 J-0.2113
G3 X432.2106 Y248.7682 I-0.4254 J-0.8923
G3 X431.835 Y248.8243 I-0.5361 J-2.3052
G1 X431.693 Y248.8337
G3 X431.195 Y248.8377 I-0.3066 J-7.2151
G3 X430.6977 Y248.8107 I0.1979 J-8.2662
G1 X430.2197 Y248.7723
G1 X429.7569 Y248.7326
G1 X429.3088 Y248.6916
G3 X422.4003 Y247.7466 I7.7096 J-82.0832
G3 X415.6016 Y246.1981 I13.4326 J-74.6757
G1 X414.791 Y246.8991
G2 X416.2979 Y247.8058 I7.7449 J-11.166
G2 X417.4924 Y248.3634 I7.5238 J-14.5611
G2 X417.6065 Y248.4108 I1.3908 J-3.1823
G2 X418.5004 Y248.7542 I8.4559 J-20.6786
G2 X419.8652 Y249.2011 I8.6529 J-24.1188
G1 X420.0373 Y249.2524
G2 X421.2473 Y249.5918 I14.106 J-47.968
G3 X421.8494 Y249.7608 I-5.5343 J20.8665
G1 X421.9971 Y249.8042
G3 X424.329 Y250.5632 I-14.106 J47.3024
G3 X426.4858 Y251.3616 I-24.1895 J68.6516
G3 X434.3572 Y254.8889 I-31.5885 J81.0386
G1 X435.0786 Y255.2601
G3 X437.8394 Y256.7649 I-39.8953 J76.4787
G1 X437.9888 Y256.8504
G1 X438.5799 Y257.1931
G3 X443.0435 Y260.041 I-33.7892 J57.8805
G1 X443.4502 Y260.3274
G3 X446.5092 Y262.6732 I-29.7612 J41.9768
G1 X446.7866 Y262.9058
G3 X448.8652 Y264.7888 I-26.1012 J30.901
G3 X450.3257 Y266.3048 I-22.1774 J22.8266
G1 X450.5882 Y266.5999
G3 X452.4138 Y268.9307 I-18.8717 J16.6611
G1 X452.5182 Y269.0837
G3 X453.912 Y271.4843 I-15.8129 J10.7855
G3 X454.0362 Y271.8009 I-1.6041 J0.8123
G3 X454.0877 Y272.1104 I-1.1184 J0.3449
G3 X454.0416 Y272.3829 I-0.6696 J0.027
G3 X453.6796 Y272.6365 I-0.3775 J-0.1536
G3 X453.3673 Y272.5896 I-0.0432 J-0.7755
G3 X452.9537 Y272.3659 I0.5305 J-1.4751
G3 X452.5992 Y272.057 I1.8355 J-2.4637
G0 Z5.0
M5
M30
