( Made using CamBam - http://www.cambam.co.uk )
( _2014_1_20_car 1/20/2014 11:48:41 PM )
( T0 : 0.0 )
G21 G90 G64 G40
G0 Z5.0
( T0 : 0.0 )
T0 M6
( 151-156 )
G17
M3 S1000
G0 X-337.6155 Y52.6229
G1 F1.0 Z0.0
G2 X-337.381 Y52.4166 I-0.9277 J-1.2914
G2 X-337.2012 Y52.1611 I-0.7779 J-0.7385
G2 X-337.1425 Y51.5436 I-0.7451 J-0.3824
G2 X-337.3377 Y51.1716 I-1.0454 J0.3115
G2 X-337.753 Y50.8117 I-1.1841 J0.9468
G1 X-336.4089 Y49.8396
G3 X-335.0455 Y48.8947 I25.7639 J35.7194
G3 X-334.107 Y48.3094 I12.5511 J19.0785
G3 X-332.7993 Y47.6263 I7.5999 J12.956
G3 X-332.3309 Y48.0576 I-1.6635 J2.2767
G3 X-331.9854 Y48.5924 I-1.5202 J1.3611
G3 X-331.8881 Y49.0087 I-1.023 J0.4587
G3 X-332.0926 Y49.5565 I-0.7634 J0.0271
G2 X-333.9918 Y50.9417 I27.7456 J40.0387
G2 X-335.8302 Y52.4067 I34.7624 J45.5041
G2 X-335.8876 Y52.4544 I1.0288 J1.2981
G2 X-335.9459 Y52.5029 I1.048 J1.3191
G2 X-339.5662 Y55.7315 I48.7693 J58.3307
G2 X-341.8748 Y57.9959 I72.5757 J76.3003
G1 X-342.4785 Y58.6118
G1 X-343.1173 Y59.2736
G2 X-346.4483 Y62.8727 I113.7384 J108.6067
G1 X-347.1475 Y62.1642
G2 X-347.3194 Y61.2122 I-4.0239 J0.2347
G2 X-347.6983 Y60.3221 I-4.5271 J1.4014
G2 X-348.032 Y59.7703 I-6.4112 J3.5008
G2 X-348.2405 Y59.4667 I-12.5824 J8.4153
G1 X-348.3549 Y59.3072
G1 X-348.4786 Y59.1385
G1 X-348.6115 Y58.9594
G1 X-348.9143 Y58.5503
G1 X-348.9913 Y58.4439
G1 X-349.07 Y58.3336
G1 X-349.1499 Y58.219
G3 X-349.3155 Y57.9712 I4.3178 J-3.0632
G1 X-349.3976 Y57.8411
G3 X-349.7324 Y57.2237 I5.215 J-3.2273
G3 X-350.0 Y56.4647 I3.9067 J-1.8043
G3 X-349.353 Y55.6764 I38.4392 J30.8871
G3 X-349.1339 Y55.4164 I11.2447 J9.2542
G3 X-348.2421 Y54.3899 I48.1041 J40.8925
G3 X-348.1214 Y54.2545 I5.3035 J4.6071
G3 X-346.1438 Y52.1323 I53.3017 J47.6851
G3 X-346.0136 Y51.9978 I5.3494 J5.0504
G3 X-345.8789 Y51.8593 I5.5555 J5.2675
G3 X-345.7396 Y51.7166 I5.795 J5.5188
G3 X-345.5955 Y51.5696 I6.0779 J5.8145
G3 X-345.4464 Y51.4181 I6.4166 J6.1673
G3 X-345.2921 Y51.2621 I6.8316 J6.598
G3 X-345.1326 Y51.1013 I7.3544 J7.1389
G3 X-344.9676 Y50.9357 I8.0391 J7.8448
G3 X-344.797 Y50.7651 I8.9867 J8.8187
G3 X-344.6205 Y50.5894 I10.4168 J10.2839
G3 X-344.438 Y50.4083 I12.9383 J12.8594
G3 X-344.0475 Y50.0231 I46.2728 J46.5156
G1 X-343.6296 Y49.6138
G1 X-343.1825 Y49.1786
G1 X-342.7043 Y48.7157
G1 X-342.193 Y48.2231
G1 X-341.0225 Y47.0995
G1 X-339.6862 Y45.8141
G1 X-339.3424 Y45.4813
G1 X-339.168 Y45.312
G2 X-338.8086 Y44.9618 I-27.3374 J-28.4187
G2 X-337.1803 Y43.3465 I-86.8004 J-89.126
G1 X-336.9756 Y43.1391
G1 X-336.7684 Y42.9279
G1 X-336.5585 Y42.7127
G1 X-336.3461 Y42.4934
G1 X-336.131 Y42.2698
G1 X-335.9134 Y42.0419
G2 X-333.971 Y39.9137 I-45.4293 J-43.4134
G1 X-333.7315 Y39.637
G1 X-333.4901 Y39.3542
G1 X-333.247 Y39.0652
G2 X-331.1353 Y36.3305 I-33.0071 J-27.6702
G1 X-330.8839 Y35.9707
G1 X-329.8463 Y34.4086
G1 X-309.3987 Y26.883
G3 X-309.1197 Y27.3658 I-2.0256 J1.4924
G3 X-308.9601 Y27.8999 I-1.8919 J0.8562
G3 X-308.9536 Y28.273 I-1.3872 J0.2107
G3 X-309.1533 Y28.7352 I-0.8626 J-0.0984
G3 X-309.5531 Y29.0309 I-1.9973 J-2.2828
G3 X-310.0082 Y29.2313 I-0.8862 J-1.3951
G3 X-310.3392 Y29.2713 I-0.3159 J-1.2253
G3 X-310.7779 Y29.1928 I0.04 J-1.4882
G3 X-311.0173 Y29.1063 I0.8706 J-2.7838
G1 X-311.1429 Y29.0558
G2 X-311.2076 Y29.0296 I-0.5258 J1.2056
G2 X-311.2743 Y29.0029 I-0.3896 J0.8769
G1 X-311.417 Y28.9485
G2 X-311.7483 Y28.8481 I-0.9117 J2.4131
G2 X-312.6566 Y28.8523 I-0.4454 J1.8976
G1 X-312.7692 Y28.8932
G2 X-312.8791 Y28.9412 I0.3646 J0.9847
G2 X-313.0835 Y29.0663 I0.5032 J1.0516
G2 X-313.3128 Y29.4851 I0.3346 J0.4554
G2 X-313.2814 Y29.8087 I1.2018 J0.0466
G1 X-313.2629 Y29.8931
G1 X-313.2426 Y29.9825
G3 X-313.2061 Y30.1853 I-2.7527 J0.6008
G3 X-313.2168 Y30.4174 I-0.6294 J0.0874
G3 X-313.367 Y30.6449 I-0.4101 J-0.1074
G3 X-313.5729 Y30.7966 I-3.5599 J-4.6168
G3 X-313.7823 Y30.9435 I-4.4724 J-6.1542
G3 X-314.2154 Y31.2156 I-3.5462 J-5.1625
G3 X-314.3435 Y31.2859 I-0.9674 J-1.6133
G3 X-314.6978 Y31.4489 I-1.4468 J-2.6765
G3 X-315.2002 Y31.5864 I-0.8699 J-2.1931
G3 X-315.8981 Y31.5765 I-0.3189 J-2.1361
G3 X-316.2876 Y31.4828 I0.462 J-2.776
G3 X-316.7174 Y31.3275 I1.3731 J-4.4746
G3 X-317.1915 Y31.1149 I2.6238 J-6.484
G1 X-317.4393 Y30.9927
G3 X-317.49 Y31.3971 I-3.3762 J-0.2183
G3 X-317.4949 Y31.4239 I-0.1914 J-0.0209
G3 X-317.5905 Y31.8479 I-5.6507 J-1.0511
G3 X-317.6677 Y32.1271 I-8.579 J-2.2208
G1 X-317.7792 Y32.4968
G1 X-317.9301 Y32.9888
G1 X-317.9489 Y33.0525
G1 X-317.9879 Y33.1887
G2 X-318.1508 Y33.9262 I5.4312 J1.5864
G2 X-318.1808 Y34.3579 I2.5538 J0.3943
G2 X-318.1111 Y34.8513 I1.7849 J-0.0006
G2 X-317.8411 Y35.3664 I1.431 J-0.4219
G1 X-317.2087 Y35.0186
G1 X-316.5754 Y34.6727
G1 X-315.3063 Y33.9854
G3 X-314.4588 Y33.5296 I71.7482 J132.3858
G1 X-313.9743 Y33.2697
G1 X-312.6814 Y32.578
G1 X-310.9576 Y31.6558
G1 X-309.9734 Y31.1272
G1 X-309.449 Y30.8445
G1 X-308.8901 Y30.5421
G1 X-308.6017 Y30.3855
G1 X-307.9873 Y30.0507
G1 X-307.3327 Y29.6918
G2 X-306.6359 Y29.3067 I-40.6639 J-74.4092
G1 X-305.8942 Y28.893
G1 X-305.5122 Y28.6781
G2 X-303.7733 Y27.6822 I-72.8173 J-129.1616
G2 X-301.8057 Y26.5102 I-61.1569 J-104.9079
G1 X-301.3022 Y26.2006
G2 X-300.7166 Y27.1183 I3.8699 J-1.8239
G2 X-299.9177 Y27.8576 I3.359 J-2.8284
G2 X-299.3019 Y28.2427 I3.3401 J-4.6562
G2 X-298.4243 Y28.6458 I3.8316 J-7.1842
G2 X-297.9069 Y28.8349 I4.7895 J-12.3067
G1 X-297.6282 Y28.927
G1 X-297.3298 Y29.0202
G2 X-297.2921 Y29.0317 I0.1333 J-0.3712
G2 X-297.254 Y29.0431 I0.134 J-0.3752
G2 X-297.2157 Y29.0546 I0.1348 J-0.3794
G2 X-297.177 Y29.0662 I0.1356 J-0.3837
G2 X-296.8474 Y29.1625 I11.7534 J-39.6228
G1 X-296.4957 Y29.2623
G3 X-295.6944 Y29.4885 I-111.2259 J395.6742
G1 X-295.2691 Y29.6132
G3 X-295.0505 Y29.6799 I-1.5157 J5.3608
G3 X-295.8644 Y30.0799 I-120.4446 J-244.0562
G1 X-296.6806 Y30.4752
G1 X-296.9143 Y30.5874
G1 X-297.1815 Y30.7151
G3 X-299.3253 Y31.7234 I-82.6217 J-172.8849
G1 X-300.7596 Y32.3849
G1 X-301.1425 Y32.5603
G1 X-302.0184 Y32.9599
G1 X-304.3558 Y34.0216
G1 X-305.691 Y34.6292
G1 X-307.215 Y35.328
G1 X-307.6078 Y35.5094
G1 X-308.013 Y35.6973
G1 X-308.8762 Y36.1004
G1 X-309.3212 Y36.3098
G1 X-310.2688 Y36.76
G1 X-311.2767 Y37.2462
G1 X-311.7956 Y37.4998
G1 X-312.3303 Y37.7635
G1 X-312.6015 Y37.8983
G1 X-312.8767 Y38.0359
G1 X-313.4438 Y38.3217
G1 X-314.0279 Y38.6197
G2 X-316.677 Y40.0221 I51.0281 J99.5909
G2 X-316.7595 Y40.0673 I0.5724 J1.1441
G1 X-317.4393 Y40.4429
G2 X-317.8222 Y39.9851 I-2.8213 J1.9708
G2 X-318.2691 Y39.5896 I-3.5913 J3.6076
G1 X-318.4023 Y39.4832
G1 X-318.5547 Y39.3616
G1 X-318.7262 Y39.2199
G3 X-318.7477 Y39.2015 I0.1113 J-0.1519
G3 X-318.9392 Y39.0281 I5.2493 J-5.9862
G3 X-319.3882 Y38.5052 I2.3512 J-2.4733
G1 X-317.4283 Y36.9358
G2 X-318.0166 Y36.6167 I-2.9846 J4.8018
G2 X-318.6287 Y36.3461 I-4.4964 J9.3431
G1 X-318.7113 Y36.3124
G1 X-318.7997 Y36.277
G2 X-320.234 Y35.7692 I-7.6084 J19.2115
G2 X-323.1772 Y35.0141 I-8.0043 J25.0862
G1 X-323.5759 Y34.9409
G1 X-323.6263 Y34.9323
G2 X-324.5507 Y34.8001 I-2.7027 J15.599
G2 X-325.6165 Y34.7319 I-1.181 J10.0975
G2 X-326.1866 Y34.7564 I-0.0233 J6.109
G1 X-329.7179 Y38.0223
G1 X-333.2499 Y41.2874
G1 X-335.6061 Y43.4625
G1 X-335.7559 Y43.6004
G1 X-335.6853 Y43.8417
G1 X-335.6153 Y44.0833
G1 X-335.5679 Y44.2442
G2 X-335.3546 Y44.8801 I8.0308 J-2.3398
G2 X-335.2804 Y45.057 I4.0477 J-1.5943
G1 X-335.2372 Y45.1498
G2 X-334.9526 Y45.6161 I2.3912 J-1.1392
G3 X-337.1538 Y47.7521 I-41.2264 J-40.2829
G3 X-339.4591 Y49.7754 I-46.454 J-50.6041
G1 X-339.772 Y50.0387
G1 X-341.4476 Y51.435
G1 X-341.8934 Y51.8086
G2 X-341.9494 Y51.8558 I0.6461 J0.824
G1 X-342.4263 Y52.2602
G1 X-342.6713 Y52.4702
G1 X-343.1906 Y52.922
G1 X-343.4568 Y53.1574
G2 X-343.4901 Y53.1871 I0.2738 J0.3409
G2 X-343.5235 Y53.2169 I0.2726 J0.3392
G2 X-343.5571 Y53.2469 I0.2715 J0.3377
G2 X-343.8329 Y53.4951 I10.9189 J12.4053
G1 X-344.1157 Y53.7535
G1 X-344.2587 Y53.8856
G1 X-344.5521 Y54.16
G2 X-347.5334 Y57.2394 I32.1982 J34.1553
G1 X-347.6229 Y57.3406
G1 X-347.7128 Y57.4429
G2 X-347.6074 Y57.604 I3.8115 J-2.3776
G2 X-347.4953 Y57.7605 I2.3104 J-1.5361
G2 X-347.2379 Y58.0468 I1.5466 J-1.1317
G2 X-347.0196 Y58.1842 I0.4732 J-0.5099
G2 X-346.871 Y58.2076 I0.1335 J-0.3644
G2 X-346.6996 Y58.1593 I-0.0306 J-0.4365
G2 X-346.5278 Y58.045 I-0.4592 J-0.877
G1 X-346.3512 Y57.8976
G1 X-346.2575 Y57.8217
G3 X-346.0312 Y57.6756 I0.7718 J0.9477
G3 X-345.74 Y57.5883 I0.3855 J0.7561
G3 X-345.3994 Y57.6185 I0.0911 J0.9089
G3 X-345.0508 Y57.7636 I-0.4441 J1.5581
G1 X-344.9673 Y57.8121
G3 X-344.6259 Y58.0546 I-1.5586 J2.5547
G2 X-344.3695 Y58.0569 I0.1333 J-0.5721
G2 X-344.286 Y58.0368 I-0.1279 J-0.7155
G2 X-343.9727 Y57.9035 I-0.4741 J-1.5488
G2 X-343.4209 Y57.5228 I-1.8759 J-3.3089
G2 X-343.3585 Y57.4096 I-0.1191 J-0.1395
G2 X-343.3625 Y57.2804 I-0.3647 J-0.0532
G2 X-343.4428 Y57.0444 I-0.9689 J0.1977
G1 X-343.4568 Y57.0143
G2 X-343.7118 Y56.5728 I-3.4465 J1.6966
G1 X-343.749 Y56.516
G1 X-343.8348 Y56.3877
G1 X-343.9342 Y56.2428
G1 X-344.1983 Y55.8604
G1 X-342.3684 Y54.633
G1 X-341.5391 Y55.4997
G1 X-340.4792 Y54.5215
G2 X-340.4188 Y54.2373 I-0.9703 J-0.3546
G2 X-340.4285 Y53.947 I-1.6349 J-0.0909
G2 X-340.4565 Y53.7556 I-3.1252 J0.3599
G1 X-340.501 Y53.5023
G1 X-340.5228 Y53.3572
G3 X-340.5332 Y52.9667 I1.5821 J-0.2377
G3 X-340.3515 Y52.4731 I1.0378 J0.1017
G3 X-340.1515 Y52.2422 I1.1035 J0.754
G3 X-339.8767 Y52.026 I1.3884 J1.4823
G3 X-339.5164 Y52.0504 I0.1082 J1.0738
G3 X-339.18 Y52.1817 I-0.326 J1.3319
G3 X-338.9729 Y52.3039 I-1.3815 J2.5762
G1 X-338.8584 Y52.3794
G1 X-338.7286 Y52.4668
G1 X-338.5787 Y52.5633
G2 X-338.4002 Y52.6607 I0.8609 J-1.3646
G2 X-338.1802 Y52.7368 I0.4059 J-0.8181
G2 X-337.9101 Y52.7413 I0.1463 J-0.6778
G2 X-337.6155 Y52.6229 I-0.1682 J-0.8442
G0 Z5.0
G0 X-329.136 Y42.6353
G1 Z0.0
G3 X-328.8791 Y41.7228 I17.246 J4.3633
G3 X-328.7829 Y41.4218 I9.629 J2.9091
G3 X-328.6477 Y41.0227 I16.3464 J5.3179
G3 X-328.0254 Y39.457 I19.3899 J6.7991
G1 X-327.9321 Y39.2526
G3 X-327.7087 Y38.7901 I16.0211 J7.4516
G3 X-327.4353 Y38.2706 I17.4293 J8.8433
G3 X-326.5958 Y36.9488 I10.7156 J5.8781
G2 X-326.3099 Y37.3763 I3.3596 J-1.9376
G2 X-325.9476 Y37.7412 I1.5933 J-1.2192
G2 X-325.6461 Y37.908 I0.7045 J-0.9179
G2 X-325.1843 Y37.9565 I0.3273 J-0.8939
G2 X-324.9235 Y37.8921 I-0.145 J-1.1486
G2 X-324.6445 Y37.7658 I-0.6115 J-1.7216
G2 X-324.35 Y37.583 I-1.6232 J-2.944
G2 X-324.2007 Y37.476 I-1.3675 J-2.066
G2 X-324.0462 Y37.358 I-10.551 J-13.9793
G1 X-323.8855 Y37.2299
G1 X-323.5315 Y36.9391
G3 X-323.4866 Y36.9023 I0.3713 J0.4072
G3 X-323.1927 Y36.7416 I0.5656 J0.6851
G3 X-322.8625 Y36.6861 I0.3615 J1.141
G3 X-322.2156 Y36.8197 I0.028 J1.4973
G3 X-321.8502 Y37.0668 I-0.4886 J1.1159
G3 X-321.7065 Y37.2777 I-0.4972 J0.4932
G3 X-321.6931 Y37.5839 I-0.393 J0.1706
G3 X-321.7759 Y37.7372 I-0.5007 J-0.1713
G1 X-321.8204 Y37.7949
G1 X-321.8654 Y37.8521
G1 X-321.9571 Y37.9654
G1 X-322.0194 Y38.04
G3 X-322.2758 Y38.3318 I-5.4254 J-4.5093
G3 X-322.8176 Y38.8886 I-8.859 J-8.0772
G3 X-323.1952 Y39.2431 I-8.186 J-8.3405
G1 X-323.2977 Y39.3357
G3 X-325.0204 Y40.7151 I-13.8389 J-15.5165
G3 X-326.2438 Y41.5322 I-11.6983 J-16.1909
G1 X-326.4061 Y41.6308
G3 X-327.163 Y42.0558 I-6.6737 J-11.0001
G3 X-328.0669 Y42.4663 I-3.925 J-7.4428
G3 X-328.5751 Y42.6207 I-1.3329 J-3.4715
G3 X-328.8477 Y42.6609 I-0.4024 J-1.7854
G3 X-329.136 Y42.6353 I-0.0702 J-0.844
G0 Z5.0
G0 X-318.5552 Y27.8351
G1 Z0.0
G1 X-319.2692 Y27.1378
G3 X-317.5303 Y26.254 I26.0016 J49.0063
G3 X-317.4737 Y26.2263 I0.4541 J0.859
G1 X-316.8689 Y25.9353
G3 X-314.4252 Y24.8237 I34.6331 J72.8935
G1 X-313.7212 Y24.5192
G1 X-312.9142 Y24.1771
G1 X-311.989 Y23.7928
G1 X-310.9286 Y23.361
G1 X-309.7138 Y22.875
G1 X-309.0648 Y22.6184
G1 X-308.3721 Y22.3461
G1 X-304.6747 Y20.9024
G1 X-303.6899 Y20.5146
G2 X-302.6409 Y20.0972 I-146.9883 J-370.9464
G1 X-301.5245 Y19.6462
G1 X-301.2414 Y19.5304
G1 X-300.954 Y19.4123
G1 X-300.3616 Y19.1665
G1 X-299.7513 Y18.9098
G2 X-299.1228 Y18.6415 I-22.1445 J-52.7361
G1 X-294.3364
G1 X-292.2415 Y17.5951
G1 X-290.1485 Y16.5451
G1 X-288.754 Y15.8432
G2 X-286.8959 Y14.905 I-344.0875 J-683.7414
G1 X-285.8348 Y14.3677
G1 X-285.561 Y14.2288
G1 X-284.977 Y13.9325
G1 X-283.6428 Y13.2541
G1 X-282.119 Y12.477
G1 X-280.3788 Y11.5864
G1 X-278.3917 Y10.5651
G2 X-273.1032 Y7.8213 I-483.327 J-938.0291
G2 X-270.0895 Y6.2375 I-310.0867 J-593.7032
G1 X-268.4851 Y5.387
G1 X-266.7766 Y4.4747
G1 X-266.6695 Y4.4173
G1 X-266.2344 Y4.1836
G1 X-265.7926 Y3.9458
G1 X-264.8814 Y3.4535
G1 X-263.942 Y2.9431
G2 X-262.9737 Y2.4138 I-53.3111 J-98.6683
G1 X-261.9758 Y1.8643
G1 X-261.4696 Y1.5839
G1 X-260.4263 Y1.0019
G1 X-259.8974 Y0.7045
G2 X-258.8078 Y0.0863 I-73.5912 J-130.96
G1 X-258.2558 Y-0.2303
G1 X-257.978 Y-0.3905
G1 X-257.4146 Y-0.7177
G1 X-256.8437 Y-1.0526
G1 X-256.2654 Y-1.3956
G1 X-255.68 Y-1.7477
G1 X-255.0878 Y-2.1095
G2 X-253.876 Y-2.8742 I-31.1374 J-50.6792
G2 X-252.6506 Y-3.7033 I-20.4908 J-31.608
G1 X-252.3491 Y-3.9228
G2 X-251.7542 Y-4.3932 I-6.5997 J-8.9573
G1 X-251.6114 Y-4.5191
G2 X-250.3727 Y-5.8674 I-7.0518 J-7.7217
G2 X-249.3861 Y-7.4098 I-8.871 J-6.7614
G2 X-248.8575 Y-8.5104 I-13.6533 J-7.2339
G1 X-248.7305 Y-8.8101
G2 X-248.1154 Y-10.4304 I-32.9306 J-13.4279
G1 X-248.04 Y-10.641
G1 X-247.9623 Y-10.8583
G1 X-247.8819 Y-11.0825
G3 X-247.7085 Y-11.5596 I29.4918 J10.452
G1 X-247.617 Y-11.8051
G3 X-247.1694 Y-12.9141 I21.1278 J7.8827
G3 X-247.1078 Y-13.0529 I3.3957 J1.4247
G3 X-247.0438 Y-13.1933 I2.5305 J1.0684
G3 X-247.011 Y-13.2638 I1.5355 J0.6713
G3 X-246.3359 Y-14.5146 I10.8707 J5.0596
G3 X-245.3553 Y-15.8152 I7.7629 J4.8332
G1 X-245.2141 Y-15.967
G3 X-243.7618 Y-17.1976 I6.5646 J6.275
G3 X-243.3487 Y-17.4663 I4.7595 J6.8646
G3 X-242.427 Y-17.9771 I6.4633 J10.5763
G3 X-241.9343 Y-18.2092 I4.4774 J8.863
G3 X-241.0529 Y-18.4237 I1.7473 J5.2617
G3 X-240.1514 Y-18.5241 I1.5254 J9.5998
G3 X-238.3411 Y-18.494 I0.7107 J11.7045
G3 X-237.1493 Y-18.3005 I-0.7653 J8.4819
G3 X-236.4901 Y-18.0921 I-1.1268 J4.7107
G3 X-236.1584 Y-17.9277 I-0.8976 J2.2279
G3 X-235.8503 Y-17.6723 I-0.5844 J1.0183
G3 X-235.7454 Y-17.4867 I-0.4587 J0.3818
G3 X-235.7271 Y-17.2514 I-0.4532 J0.1535
G2 X-237.9347 Y-17.2673 I-1.1472 J6.0267
G2 X-240.0116 Y-16.5184 I1.1788 J6.5229
G2 X-241.2202 Y-15.6745 I3.5778 J6.4119
G2 X-240.8642 Y-15.3646 I1.0783 J-0.8794
G2 X-240.4239 Y-15.1942 I0.7316 J-1.2357
G2 X-240.1118 Y-15.152 I0.4115 J-1.8702
G2 X-239.6943 Y-15.1556 I0.1777 J-3.5806
G2 X-239.4575 Y-15.1773 I-0.1894 J-3.3786
G2 X-238.8372 Y-15.2657 I-1.7187 J-14.2751
G1 X-238.7573 Y-15.2781
G1 X-238.5874 Y-15.3036
G1 X-238.4063 Y-15.3284
G1 X-238.2132 Y-15.3501
G3 X-238.0068 Y-15.3654 I0.3486 J3.3138
G3 X-237.7864 Y-15.3688 I0.1432 J2.1438
G3 X-237.5522 Y-15.352 I-0.0584 J2.4507
G3 X-237.306 Y-15.302 I-0.1873 J1.5549
G3 X-237.0556 Y-15.2011 I-0.3399 J1.2047
G3 X-236.5955 Y-14.7605 I-0.5851 J1.0716
G3 X-236.4412 Y-14.4473 I-1.6944 J1.0293
G3 X-236.8489 Y-13.3802 I-7.9155 J-2.4126
G3 X-237.0156 Y-13.0376 I-8.1757 J-3.7671
G3 X-237.0381 Y-12.9938 I-0.4425 J-0.1996
G3 X-237.8486 Y-11.6476 I-11.7893 J-6.1811
G3 X-237.8768 Y-11.6064 I-0.4633 J-0.2859
G3 X-238.5013 Y-10.7451 I-16.7378 J-11.4799
G3 X-239.3846 Y-9.6372 I-29.6588 J-22.7402
G3 X-239.5011 Y-9.4964 I-3.5705 J-2.8363
G1 X-239.7508 Y-9.1969
G1 X-240.0182 Y-8.8786
G1 X-240.6289 Y-8.1515
G2 X-241.3162 Y-7.3126 I35.964 J30.1634
G2 X-241.4019 Y-7.2049 I4.5741 J3.7251
G1 X-241.5772 Y-6.9812
G1 X-239.4723 Y-6.0161
G3 X-239.0153 Y-6.4033 I20.9966 J24.3192
G3 X-238.5527 Y-6.7839 I16.4957 J19.5778
G3 X-238.4906 Y-6.8341 I0.8148 J0.9427
G3 X-238.4243 Y-6.8877 I0.8695 J1.01
G3 X-238.3534 Y-6.9446 I0.9324 J1.0878
G3 X-238.2777 Y-7.0052 I1.0059 J1.1796
G3 X-238.1968 Y-7.0696 I1.0938 J1.2902
G1 X-237.7631 Y-7.4102
G3 X-235.9921 Y-8.7248 I30.6827 J39.483
G1 X-235.876 Y-8.8072
G3 X-232.0639 Y-11.2952 I36.2613 J51.395
G2 X-232.488 Y-11.5384 I-0.9703 J1.2012
G2 X-232.9705 Y-11.6182 I-0.4553 J1.2542
G2 X-233.2953 Y-11.5834 I0.0627 J2.1191
G2 X-233.7148 Y-11.4778 I0.7441 J3.8446
G2 X-233.7412 Y-11.47 I0.0432 J0.1947
G1 X-233.9804 Y-11.3983
G3 X-234.2538 Y-11.3223 I-1.5897 J-5.1884
G3 X-234.5696 Y-11.2571 I-0.7381 J-2.7758
G3 X-235.4222 Y-11.2952 I-0.3373 J-2.0078
G3 X-235.5274 Y-11.481 I0.2191 J-0.2467
G3 X-235.5126 Y-11.6939 I0.4342 J-0.077
G3 X-235.4573 Y-11.8247 I0.5796 J0.1681
G3 X-235.3547 Y-11.9799 I1.0336 J0.572
G3 X-235.1923 Y-12.1596 I1.4066 J1.108
G3 X-234.9551 Y-12.3659 I2.3788 J2.4946
G3 X-234.6234 Y-12.6029 I3.5455 J4.6109
G1 X-234.4285 Y-12.726
G3 X-234.3776 Y-12.7566 I0.5261 J0.8152
G3 X-234.3251 Y-12.7877 I0.6079 J0.9664
G3 X-233.7646 Y-13.0923 I4.6985 J7.9784
G3 X-233.4399 Y-13.2516 I4.5577 J8.8805
G3 X-233.2195 Y-13.3246 I0.4379 J0.9521
G3 X-232.9907 Y-13.3632 I0.5793 J2.7358
G3 X-232.5284 Y-13.3845 I0.4133 J3.9432
G3 X-231.6103 Y-13.3107 I-0.1509 J7.6194
G3 X-229.8226 Y-12.9165 I-1.6581 J11.7712
G3 X-228.6757 Y-12.5041 I-2.9726 J10.0665
G3 X-228.0487 Y-12.2005 I-3.055 J7.1073
G3 X-227.7294 Y-12.0101 I-1.9483 J3.6319
G3 X-227.4078 Y-11.7766 I-1.7913 J2.8045
G3 X-227.2541 Y-11.64 I-2.0117 J2.4188
G3 X-226.976 Y-11.2952 I-1.1327 J1.1982
G1 X-227.1834 Y-11.3508
G1 X-227.3918 Y-11.402
G2 X-227.8118 Y-11.4898 I-2.0766 J8.8912
G1 X-227.9326 Y-11.5109
G2 X-228.9088 Y-11.6044 I-1.0921 J6.2637
G2 X-229.5624 Y-11.5745 I-0.0976 J5.0269
G2 X-230.416 Y-11.3882 I0.4557 J4.137
G2 X-231.4542 Y-10.8527 I1.2416 J3.6809
G2 X-231.9658 Y-10.4195 I2.6588 J3.6591
G2 X-232.475 Y-9.8477 I3.7935 J3.8907
G2 X-232.718 Y-9.52 I4.6765 J3.7227
G1 X-232.7771 Y-9.4349
G1 X-232.836 Y-9.3478
G2 X-233.0768 Y-8.9706 I8.8368 J5.9053
G2 X-233.3178 Y-8.5605 I19.5536 J11.7706
G2 X-233.3771 Y-8.4554 I4.0544 J2.3529
G2 X-233.6222 Y-8.0052 I18.3274 J10.2702
G1 X-233.8748 Y-7.5235
G2 X-233.9063 Y-7.4627 I0.6257 J0.3631
G1 X-234.1737 Y-6.9469
G3 X-234.2076 Y-6.8821 I-1.0217 J-0.4918
G1 X-234.3478 Y-6.6157
G3 X-234.4197 Y-6.4809 I-2.9874 J-1.5074
G3 X-234.7329 Y-5.9148 I-19.2101 J-10.2581
G1 X-234.9013 Y-5.6278
G1 X-234.989 Y-5.4836
G3 X-235.1755 Y-5.1907 I-9.4201 J-5.7887
G3 X-235.6013 Y-4.5906 I-9.1994 J-6.0774
G3 X-235.8396 Y-4.2962 I-4.4519 J-3.3596
G3 X-236.3958 Y-3.7152 I-4.989 J-4.2196
G1 X-236.5484 Y-3.5795
G3 X-237.2519 Y-3.0668 I-3.3552 J-3.8647
G3 X-238.5024 Y-2.5823 I-2.9098 J-5.6546
G3 X-239.8277 Y-2.3774 I-1.5759 J-5.8043
G3 X-240.7223 Y-2.4165 I-0.2229 J-5.1506
G3 X-241.8768 Y-2.7249 I0.5627 J-4.4219
G3 X-243.1968 Y-3.6272 I1.5394 J-3.6687
G3 X-243.762 Y-4.3547 I3.128 J-3.0136
G3 X-244.2226 Y-5.3018 I4.4602 J-2.755
G3 X-244.5377 Y-6.4569 I6.439 J-2.3767
G3 X-244.6868 Y-7.801 I9.7525 J-1.7623
G3 X-244.6902 Y-7.8862 I0.9185 J-0.0798
G3 X-244.6931 Y-7.972 I0.9314 J-0.0737
G3 X-244.6492 Y-9.5083 I14.0069 J-0.3688
G2 X-244.6908 Y-9.7306 I-0.391 J-0.042
G2 X-244.8503 Y-9.891 I-0.3641 J0.2027
G2 X-244.9874 Y-9.9536 I-0.3308 J0.5428
G2 X-245.1791 Y-9.9998 I-0.42 J1.3218
G2 X-245.9014 Y-9.9732 I-0.2852 J2.0748
G2 X-246.0997 Y-9.9212 I0.3214 J1.6297
G2 X-246.3112 Y-9.8245 I0.2587 J0.8454
G2 X-246.3972 Y-9.7314 I0.1134 J0.1912
G2 X-246.6198 Y-9.113 I23.29 J8.7303
G2 X-246.8163 Y-8.4858 I14.9646 J5.034
G2 X-247.1099 Y-7.2049 I10.6509 J3.1154
G2 X-247.2083 Y-6.3338 I8.5957 J1.412
G2 X-247.1708 Y-5.1643 I6.157 J0.3881
G2 X-247.0394 Y-4.5067 I5.1552 J-0.6883
G2 X-246.2216 Y-2.9064 I4.1564 J-1.1149
G2 X-245.484 Y-2.176 I3.7201 J-3.0193
G2 X-244.4915 Y-1.5228 I4.0555 J-5.0818
G2 X-243.9233 Y-1.2432 I4.2436 J-7.9056
G2 X-242.5777 Y-0.7447 I4.6335 J-10.4439
G2 X-241.0089 Y-0.3482 I5.0462 J-16.6609
G2 X-239.2205 Y-0.0423 I5.6298 J-27.5354
G2 X-238.271 Y0.0777 I4.4075 J-31.0669
G2 X-238.524 Y1.1322 I2.825 J1.2354
G2 X-238.364 Y2.2048 I2.7979 J0.1307
G2 X-238.0529 Y2.8594 I3.5163 J-1.2695
G2 X-237.4784 Y3.6287 I4.4043 J-2.6902
G2 X-236.5613 Y4.4984 I6.2441 J-5.6659
G2 X-235.2247 Y5.471 I9.6449 J-11.8494
G2 X-235.1368 Y5.5284 I0.8122 J-1.1483
G2 X-235.0474 Y5.5862 I1.0232 J-1.4853
G2 X-234.8625 Y5.7039 I7.2023 J-11.1069
G1 X-234.6709 Y5.8236
G1 X-234.2615 Y6.0732
G1 X-233.8235 Y6.3326
G1 X-233.3561 Y6.604
G2 X-233.2373 Y6.6725 I2.4116 J-4.0477
G1 X-232.7327 Y6.9628
G1 X-232.1987 Y7.274
G1 X-232.0639 Y7.3541
G3 X-232.7683 Y7.6064 I-1.3395 J-2.6303
G3 X-233.0136 Y7.6541 I-0.6342 J-2.6072
G3 X-234.0081 Y7.708 I-0.7759 J-5.1217
G3 X-234.6692 Y7.6507 I0.3224 J-7.5656
G3 X-235.5368 Y7.4896 I1.1045 J-8.3683
G3 X-238.756 Y6.1794 I2.7511 J-11.3691
G3 X-239.5844 Y5.6286 I4.5893 J-7.8012
G3 X-240.439 Y4.879 I4.0 J-5.4224
G3 X-240.8255 Y4.4091 I3.0252 J-2.8817
G3 X-241.1348 Y3.8316 I2.0821 J-1.4866
G3 X-241.2202 Y3.4992 I1.6361 J-0.5978
G1 X-240.9861 Y3.2639
G2 X-240.7563 Y3.0247 I-5.1281 J-5.1557
G2 X-240.3326 Y2.5139 I-3.8433 J-3.6195
G2 X-240.1015 Y2.136 I-2.8437 J-1.9982
G2 X-239.8924 Y1.582 I-2.3028 J-1.1856
G2 X-240.4479 Y1.4895 I-0.5123 J1.3623
G2 X-241.0023 Y1.5883 I0.0706 J2.0013
G2 X-241.3518 Y1.7244 I0.9965 J3.0768
G2 X-241.7913 Y1.9572 I1.9557 J4.2237
G2 X-241.8184 Y1.9734 I0.1009 J0.1992
G2 X-242.3748 Y2.3432 I4.8943 J7.9671
G2 X-242.4447 Y2.3937 I0.7163 J1.0664
G1 X-242.5925 Y2.5024
G1 X-242.7487 Y2.6196
G3 X-243.4449 Y2.7946 I-1.5945 J-4.871
G3 X-244.1596 Y2.8625 I-0.7636 J-4.2441
G3 X-245.5668 Y2.5991 I-0.0283 J-3.7395
G3 X-245.9424 Y2.4316 I1.5622 J-4.0059
G3 X-245.989 Y2.4079 I0.1643 J-0.3816
G3 X-246.9241 Y1.8123 I3.121 J-5.9319
G3 X-247.4195 Y1.4203 I6.8428 J-9.1565
G1 X-247.4811 Y1.3689
G1 X-247.7409 Y1.1476
G3 X-248.0143 Y0.9086 I13.9605 J-16.2487
G1 X-248.1545 Y0.7847
G1 X-248.7909 Y0.2214
G1 X-248.956 Y0.0777
G2 X-249.3854 Y0.0331 I-0.4843 J2.5733
G2 X-249.8148 Y0.0787 I-0.0552 J1.5216
G2 X-250.0808 Y0.1927 I0.2473 J0.9446
G2 X-250.3563 Y0.4675 I0.4848 J0.7616
G2 X-250.4613 Y0.6655 I1.0397 J0.6782
G2 X-250.5457 Y0.9063 I1.8537 J0.7849
G2 X-250.5801 Y1.0374 I1.5557 J0.4775
G2 X-250.6418 Y1.3369 I4.294 J1.0415
G1 X-250.6699 Y1.4964
G1 X-250.684 Y1.5785
G1 X-250.7142 Y1.7519
G3 X-250.749 Y1.9344 I-4.1297 J-0.6916
G1 X-250.7688 Y2.0277
G3 X-250.8843 Y2.4374 I-3.0616 J-0.6424
G3 X-251.0999 Y2.8631 I-1.7682 J-0.628
G3 X-251.4961 Y3.237 I-1.1037 J-0.7726
G3 X-251.8053 Y3.434 I-9.9506 J-15.2761
G3 X-252.1152 Y3.6298 I-8.93 J-13.7888
G3 X-252.3222 Y3.7598 I-6.7884 J-10.5863
G3 X-252.5988 Y3.9323 I-7.4055 J-11.5656
G3 X-252.757 Y4.0304 I-5.3489 J-8.4471
G3 X-252.9381 Y4.1423 I-5.5454 J-8.7765
G3 X-253.1453 Y4.2696 I-5.7439 J-9.1132
G3 X-253.3825 Y4.4146 I-5.9458 J-9.4604
G3 X-253.6541 Y4.5796 I-6.1526 J-9.8214
G3 X-253.7991 Y4.6672 I-4.3692 J-7.0639
G3 X-256.1359 Y6.0414 I-60.3637 J-99.9775
G3 X-260.8844 Y8.6576 I-85.2968 J-149.1979
G3 X-261.0364 Y8.7384 I-4.0181 J-7.3748
G3 X-261.1909 Y8.8204 I-4.0919 J-7.5243
G3 X-261.3478 Y8.9036 I-4.1704 J-7.6831
G3 X-264.7082 Y10.6544 I-164.1054 J-310.8574
G3 X-265.143 Y10.8779 I-13.8896 J-26.4912
G3 X-265.5921 Y11.1082 I-19.1242 J-36.7379
G1 X-267.6466 Y12.1576
G1 X-269.9951 Y13.356
G1 X-271.2463 Y13.9976
G1 X-272.5789 Y14.6859
G1 X-273.2656 Y15.0432
G2 X-276.3915 Y16.7018 I99.7912 J191.8399
G2 X-279.9251 Y18.6689 I71.5052 J132.6071
G1 X-280.3699 Y18.9257
G1 X-280.8207 Y19.1883
G2 X-282.7311 Y20.3313 I60.3398 J103.0221
G1 X-283.2126 Y20.6278
G1 X-283.7002 Y20.9316
G1 X-284.1936 Y21.2432
G2 X-285.2062 Y21.8959 I69.2951 J108.6084
G2 X-287.3367 Y23.3348 I44.0438 J67.5087
G2 X-289.5573 Y24.9454 I46.5486 J66.518
G2 X-290.5712 Y24.641 I-6.8769 J21.0669
G1 X-290.9116 Y24.5482
G1 X-291.3665 Y24.428
G1 X-291.6266 Y24.3602
G2 X-291.6939 Y24.3427 I-0.2146 J0.6871
G1 X-292.4097 Y24.1549
G1 X-292.8177 Y24.0442
G1 X-293.2826 Y23.9121
G1 X-293.4022 Y23.8767
G3 X-294.6632 Y23.4519 I4.9878 J-16.8888
G1 X-294.7419 Y23.4211
G3 X-295.0752 Y23.2834 I2.7641 J-7.1584
G1 X-295.2454 Y23.2077
G1 X-295.4195 Y23.126
G3 X-296.1884 Y22.6981 I3.0721 J-6.4251
G3 X-296.377 Y22.571 I3.1023 J-4.805
G3 X-296.761 Y22.2725 I2.7284 J-3.907
G3 X-297.5031 Y21.4327 I2.5657 J-3.015
G3 X-297.9997 Y20.224 I3.0105 J-1.9431
G2 X-298.2992 Y21.1316 I4.4802 J1.9818
G2 X-298.3687 Y22.0848 I3.2349 J0.7149
G2 X-298.2643 Y22.7151 I3.7085 J-0.29
G2 X-298.0074 Y23.5244 I7.5883 J-1.9638
G1 X-297.9281 Y23.7363
G1 X-297.8864 Y23.8454
G1 X-297.6946 Y24.3411
G2 X-297.33 Y24.9882 I2.4064 J-0.9297
G2 X-296.7949 Y25.5034 I2.1409 J-1.6879
G2 X-296.3743 Y25.7654 I1.9377 J-2.6429
G2 X-295.7712 Y26.0297 I2.326 J-4.4874
G2 X-294.9347 Y26.2759 I2.5067 J-6.9717
G2 X-293.8065 Y26.5031 I4.2011 J-17.9457
G1 X-293.1619 Y26.6155
G1 X-292.9958 Y26.645
G3 X-292.2434 Y26.7932 I-3.8041 J21.3022
G1 X-292.0508 Y26.8374
G3 X-291.9533 Y26.8613 I-0.2689 J1.3122
G3 X-291.0822 Y27.1378 I-1.5296 J6.3298
G1 X-291.3871 Y28.1048
G3 X-293.0601 Y27.9887 I1.465 J-33.2392
G1 X-293.2985 Y27.9647
G3 X-295.1937 Y27.6796 I1.9805 J-19.606
G3 X-296.4336 Y27.3682 I2.496 J-12.5613
G1 X-296.591 Y27.3187
G3 X-297.3 Y27.0594 I2.6964 J-8.4725
G1 X-297.4792 Y26.9828
G3 X-297.8549 Y26.8037 I3.8825 J-8.6313
G1 X-297.9015 Y26.7796
G3 X-298.7138 Y26.2656 I2.6507 J-5.0883
G3 X-298.8986 Y25.6794 I4.4104 J-1.7129
G3 X-299.0226 Y25.0774 I7.8004 J-1.9195
G1 X-299.0501 Y24.9039
G1 X-299.0786 Y24.7052
G1 X-299.1462 Y24.1745
G2 X-299.1843 Y23.8713 I-40.9562 J4.998
G2 X-299.3139 Y23.0673 I-11.7294 J1.4779
G1 X-299.336 Y22.9645
G2 X-299.4605 Y22.5002 I-6.2453 J1.4258
G2 X-299.5457 Y22.2581 I-5.3418 J1.7441
G2 X-299.6534 Y22.006 I-4.5159 J1.7798
G2 X-300.5472 Y20.8358 I-3.1358 J1.4687
G1 X-318.5552 Y27.8351
G0 Z5.0
G0 X-235.878 Y1.8607
G1 Z0.0
G3 X-235.9509 Y1.5484 I2.0405 J-0.6411
G3 X-235.9558 Y0.8695 I2.4962 J-0.3574
G3 X-235.774 Y0.112 I3.6622 J0.4781
G3 X-235.6241 Y-0.2745 I5.9942 J2.1032
G3 X-235.204 Y-1.1083 I7.9651 J3.4905
G3 X-234.6536 Y-1.9982 I13.0695 J7.4669
G1 X-234.5803 Y-2.1087
G1 X-234.4281 Y-2.3342
G1 X-234.27 Y-2.5642
G3 X-234.1064 Y-2.7989 I7.1407 J4.8046
G1 X-233.7598 Y-3.2894
G2 X-233.0023 Y-4.367 I-81.6143 J-58.1773
G1 X-232.9555 Y-4.4353
G2 X-232.8615 Y-4.5737 I-2.8602 J-2.0446
G2 X-232.0839 Y-5.815 I-14.8335 J-10.1563
G2 X-231.9052 Y-6.1444 I-6.1837 J-3.5675
G2 X-231.7353 Y-6.4882 I-6.3541 J-3.3549
G2 X-231.695 Y-6.5758 I-1.403 J-0.6986
G2 X-231.6168 Y-6.7546 I-4.0474 J-1.8762
G2 X-231.3498 Y-7.5316 I-5.3945 J-2.2877
G3 X-231.2572 Y-7.887 I2.335 J0.4189
G3 X-231.0953 Y-8.2166 I1.5187 J0.5414
G3 X-230.5338 Y-8.6845 I1.0438 J0.6818
G3 X-230.0592 Y-8.8103 I0.6782 J1.6005
G3 X-229.4145 Y-8.8258 I0.403 J3.3425
G3 X-228.5863 Y-8.72 I-0.5183 J7.3506
G1 X-228.3689 Y-8.6805
G1 X-228.1392 Y-8.6363
G1 X-227.8962 Y-8.5884
G2 X-227.3495 Y-8.4863 I3.2458 J-15.8659
G1 X-227.2083 Y-8.4636
G2 X-226.5669 Y-8.4055 I0.717 J-4.3511
G2 X-226.1932 Y-8.7129 I-0.8857 J-1.4578
G2 X-225.9197 Y-9.1121 I-1.3865 J-1.2434
G2 X-225.7791 Y-9.4022 I-4.8696 J-2.5385
G3 X-225.587 Y-9.7846 I3.6743 J1.6067
G3 X-225.4513 Y-9.988 I1.4564 J0.8249
G2 X-220.9671 Y-9.7698 I4.7194 J-50.8021
G1 X-220.3255 Y-9.7702
G2 X-215.2022 Y-10.0407 I-0.4271 J-56.7532
G2 X-211.8082 Y-10.4664 I-6.0017 J-61.594
G1 X-211.3721 Y-10.5345
G1 X-210.9224 Y-10.6079
G2 X-206.1608 Y-11.5723 I-11.6172 J-69.595
G2 X-203.4713 Y-12.2604 I-19.4062 J-81.4507
G1 X-203.8142 Y-12.0564
G1 X-204.1576 Y-11.8531
G1 X-204.8461 Y-11.4495
G1 X-205.3067 Y-11.1832
G1 X-205.5705 Y-11.0322
G3 X-207.704 Y-9.8648 I-33.1524 J-58.0574
G3 X-209.1565 Y-9.1441 I-20.7622 J-40.023
G3 X-211.1453 Y-8.295 I-11.9754 J-25.2934
G3 X-212.3135 Y-7.8901 I-6.9824 J-18.2584
G3 X-213.6795 Y-7.5244 I-5.1275 J-16.4205
G3 X-214.4208 Y-7.3814 I-2.6376 J-11.6761
G1 X-214.6102 Y-7.3516
G3 X-216.3628 Y-7.2204 I-1.7396 J-11.4587
G3 X-218.3709 Y-7.4315 I0.0197 J-9.8427
G3 X-220.5723 Y-8.1844 I2.0604 J-9.6196
G3 X-221.6652 Y-8.7868 I4.9795 J-10.3271
G2 X-221.7464 Y-8.4453 I2.3811 J0.7463
G2 X-221.7745 Y-8.0955 I1.7288 J0.3147
G2 X-221.6039 Y-7.4168 I1.4877 J-0.0131
G2 X-221.3385 Y-7.0298 I1.8994 J-1.018
G2 X-220.9104 Y-6.5823 I4.9129 J-4.271
G1 X-220.7928 Y-6.4669
G1 X-220.6689 Y-6.3434
G3 X-220.5397 Y-6.2098 I-1.9709 J2.0352
G3 X-220.2634 Y-5.8919 I-4.1755 J3.9078
G1 X-220.1974 Y-5.8058
G1 X-220.132 Y-5.7151
G3 X-219.6495 Y-4.6438 I-2.5478 J1.7917
G3 X-219.7688 Y-4.271 I-1.7939 J-0.3685
G3 X-219.9684 Y-3.9342 I-1.5464 J-0.6888
G3 X-220.5914 Y-3.4682 I-1.1522 J-0.891
G3 X-221.1013 Y-3.3555 I-0.6274 J-1.6293
G3 X-221.788 Y-3.4145 I-0.143 J-2.3614
G3 X-222.8635 Y-3.6031 I0.2262 J-4.4507
G3 X-223.8624 Y-4.0444 I1.3847 J-4.485
G3 X-224.4701 Y-4.4459 I3.5968 J-6.1049
G3 X-225.2211 Y-5.0572 I6.8169 J-9.1428
G1 X-225.315 Y-5.1396
G1 X-225.5141 Y-5.3165
G1 X-225.9673 Y-5.7204
G2 X-226.2119 Y-5.9319 I-6.1725 J6.8917
G2 X-226.7911 Y-6.3885 I-5.5792 J6.4822
G1 X-226.8676 Y-6.4425
G1 X-227.0281 Y-6.5503
G2 X-227.8133 Y-6.9575 I-2.4092 J3.6847
G2 X-228.8097 Y-7.1783 I-1.2169 J3.133
G2 X-228.6049 Y-6.3011 I5.0257 J-0.7107
G2 X-228.2562 Y-5.4704 I5.3642 J-1.7628
G2 X-227.957 Y-4.9496 I5.5526 J-2.8437
G2 X-227.4922 Y-4.2982 I6.2908 J-3.9968
G2 X-226.785 Y-3.5018 I7.7705 J-6.1884
G2 X-225.7392 Y-2.548 I10.2584 J-10.198
G2 X-224.2419 Y-1.4145 I15.0172 J-18.2821
G1 X-223.8304 Y-1.1298
G2 X-222.8822 Y-0.4967 I26.4898 J-38.6499
G1 X-221.795 Y0.2142
G1 X-221.7266 Y0.2592
G3 X-221.1465 Y0.6458 I-22.3987 J34.2419
G1 X-221.1103 Y0.6703
G1 X-221.074 Y0.695
G1 X-221.2144 Y0.7798
G1 X-221.3548 Y0.8647
G1 X-221.6355 Y1.0348
G1 X-222.1971 Y1.3747
G1 X-222.5722 Y1.6
G1 X-223.0745 Y1.8969
G3 X-223.3628 Y2.0641 I-7.6754 J-12.9042
G1 X-223.6941 Y2.2525
G3 X-224.5876 Y2.7363 I-12.6692 J-22.3313
G1 X-224.8288 Y2.8597
G1 X-225.0877 Y2.9883
G1 X-225.3657 Y3.1216
G3 X-226.8852 Y3.7516 I-7.2555 J-15.3523
G3 X-227.7825 Y4.0344 I-4.2412 J-11.8915
G3 X-228.8327 Y4.2705 I-3.0955 J-11.3161
G3 X-229.4016 Y4.3529 I-1.583 J-8.9264
G3 X-232.4729 Y4.2023 I-1.0895 J-9.1746
G3 X-233.3918 Y3.9047 I3.19 J-11.4185
G3 X-234.2757 Y3.5155 I2.6705 J-7.2633
G3 X-234.8274 Y3.1824 I2.4611 J-4.6992
G3 X-235.4668 Y2.6052 I1.825 J-2.6647
G3 X-235.878 Y1.8607 I1.6294 J-1.3856
G0 Z5.0
G0 X-235.4597 Y-25.9819
G1 Z0.0
G3 X-237.5569 Y-26.0899 I0.4335 J-28.8559
G1 X-240.5099 Y-30.8169
G2 X-236.8891 Y-31.3098 I-6.6318 J-62.2539
G2 X-236.6489 Y-31.3509 I-2.9675 J-18.0904
G2 X-235.3717 Y-31.5906 I-8.0509 J-46.4193
G2 X-233.6816 Y-31.9722 I-8.4026 J-41.1458
G2 X-231.4629 Y-32.6177 I-7.0217 J-28.269
G2 X-230.223 Y-33.0736 I-6.6057 J-19.8808
G1 X-230.1458 Y-33.1047
G1 X-230.0681 Y-33.1365
G2 X-228.6729 Y-33.7757 I-6.9104 J-16.9248
G2 X-227.1562 Y-34.6617 I-6.9196 J-13.5878
G2 X-225.5769 Y-35.9111 I-6.7383 J-10.1396
G2 X-224.8292 Y-36.6874 I-7.5421 J-8.0127
G2 X-223.4368 Y-38.7387 I-7.8873 J-6.8524
G2 X-222.8989 Y-39.9557 I-10.1279 J-5.203
G2 X-222.48 Y-41.3176 I-11.9471 J-4.4206
G2 X-222.1934 Y-42.8146 I-13.6371 J-3.387
G3 X-219.8186 Y-42.3412 I-0.9895 J11.1576
G3 X-217.5838 Y-41.4087 I-4.0785 J12.9173
G3 X-216.1921 Y-40.59 I-7.7939 J14.8429
G3 X-214.4613 Y-39.3149 I-11.0288 J16.7824
G3 X-214.7068 Y-38.0437 I-9.7347 J-1.2206
G3 X-215.1151 Y-36.8151 I-9.715 J-2.5463
G3 X-216.3335 Y-34.5365 I-11.3612 J-4.6102
G3 X-216.4277 Y-34.3986 I-2.7829 J-1.7987
G3 X-217.5273 Y-33.0008 I-12.3847 J-8.6119
G3 X-218.2249 Y-32.2623 I-12.2157 J-10.8403
G3 X-220.278 Y-30.5075 I-12.9418 J-13.063
G3 X-223.3382 Y-28.6381 I-12.5357 J-17.0816
G3 X-227.7762 Y-26.94 I-10.8311 J-21.6576
G3 X-227.8482 Y-26.9202 I-0.241 J-0.7374
G3 X-230.5064 Y-26.3424 I-6.7517 J-24.6581
G3 X-233.5863 Y-26.0147 I-4.4676 J-27.3503
G1 X-233.9792 Y-25.9977
G3 X-235.4597 Y-25.9819 I-1.047 J-28.8402
G0 Z5.0
G0 X-215.195 Y-19.9437
G1 Z0.0
G3 X-215.1334 Y-20.1256 I2.4789 J0.7386
G3 X-214.8244 Y-20.704 I2.5232 J0.9763
G3 X-214.3547 Y-21.2411 I2.7509 J1.9318
G3 X-213.7472 Y-21.7162 I3.263 J3.5465
G3 X-209.7233 Y-22.2078 I4.3139 J18.5941
G3 X-208.37 Y-22.1875 I0.332 J22.8781
G3 X-203.0496 Y-21.2771 I-1.1062 J22.4684
G3 X-199.6902 Y-19.9773 I-6.2237 J21.0762
G3 X-197.8895 Y-18.9759 I-8.121 J16.7227
G3 X-197.6696 Y-18.8339 I-17.9949 J28.1056
G3 X-199.6065 Y-17.2793 I-12.7804 J-13.9402
G3 X-201.7204 Y-15.9755 I-12.2686 J-17.5258
G3 X-206.3191 Y-14.1232 I-10.4563 J-19.3245
G3 X-209.5697 Y-13.5029 I-5.3913 J-19.4268
G3 X-209.7791 Y-13.4821 I-0.5486 J-4.4568
G3 X-210.5392 Y-13.7789 I2.3138 J-7.0496
G3 X-211.2688 Y-14.1447 I4.0275 J-8.9431
G3 X-211.7376 Y-14.4208 I5.6388 J-10.1101
G3 X-213.4537 Y-15.7518 I5.5312 J-8.9037
G3 X-214.4095 Y-16.8418 I5.5569 J-5.8362
G3 X-214.8484 Y-17.5469 I4.8856 J-3.5306
G3 X-215.036 Y-17.9494 I4.0145 J-2.116
G3 X-215.2891 Y-18.9394 I3.2385 J-1.3551
G3 X-215.195 Y-19.9437 I2.5729 J-0.2656
G0 Z5.0
M5
M30
