( Made using CamBam - http://www.cambam.co.uk )
( _2014_1_20_car 1/20/2014 11:53:46 PM )
( T0 : 0.0 )
G21 G90 G64 G40
G0 Z5.0
( T0 : 0.0 )
T0 M6
( 175 )
G17
M3 S1000
G0 X-229.5199 Y185.43
G1 F1.0 Z0.0
G1 X-228.0814 Y184.901
G1 X-226.689 Y184.3856
G2 X-223.9935 Y183.3809 I-224.3445 J-606.0
G1 X-218.9428 Y181.4871
G3 X-214.5206 Y179.8365 I506.4848 J1350.2356
G3 X-206.7557 Y177.017 I179.9943 J483.5905
G1 X-206.0251 Y176.7598
G3 X-203.1886 Y175.7785 I110.7409 J315.5122
G3 X-201.9448 Y175.3576 I237.8322 J700.8985
G1 X-200.7769 Y174.9683
G1 X-199.6804 Y174.608
G1 X-198.651 Y174.2748
G1 X-197.6847 Y173.9665
G3 X-190.3924 Y171.7982 I62.8782 J198.1224
G1 X-189.9339 Y171.672
G1 X-189.5037 Y171.5549
G1 X-189.1002 Y171.446
G1 X-188.7217 Y171.3449
G1 X-188.3666 Y171.2508
G1 X-188.0335 Y171.1632
G1 X-187.721 Y171.0818
G1 X-187.1349 Y170.9307
G1 X-186.1077 Y170.6714
G1 X-185.7221 Y170.5759
G1 X-185.3845 Y170.4931
G1 X-185.0889 Y170.4212
G1 X-184.0535 Y170.1742
G1 X-183.0164 Y169.9343
G3 X-182.4395 Y170.5338 I-4.2735 J4.6892
G3 X-181.51 Y171.839 I-7.5381 J6.3526
G3 X-180.8036 Y173.1572 I-13.007 J7.8181
G1 X-180.7289 Y173.3154
G3 X-180.4462 Y173.9494 I-26.4306 J12.1636
G3 X-179.52 Y176.4725 I-26.1793 J11.0422
G1 X-179.4977 Y176.5426
G3 X-179.1619 Y177.6638 I-39.2621 J12.3729
G3 X-178.6114 Y179.7876 I-52.0937 J14.6352
G3 X-177.8383 Y183.5474 I-67.5793 J15.8547
G1 X-177.715 Y184.2563
G1 X-177.6046 Y184.9219
G1 X-177.5546 Y185.2343
G1 X-177.5308 Y185.3856
G3 X-177.3513 Y186.5785 I-75.1967 J11.923
G3 X-176.8273 Y190.7678 I-120.3948 J17.1851
G3 X-176.6185 Y192.8684 I-141.8788 J15.1678
G1 X-176.5252 Y193.9198
G1 X-176.5139 Y194.0513
G1 X-176.4942 Y194.2813
G2 X-176.4647 Y194.6264 I18.0119 J-1.3667
G1 X-176.4629 Y194.648
G1 X-176.4486 Y194.8097
G2 X-176.4336 Y194.9713 I4.4669 J-0.335
G3 X-176.3731 Y195.7243 I-21.2884 J2.0896
G3 X-176.3571 Y197.144 I-13.0456 J0.8562
G3 X-176.4955 Y198.3824 I-8.8369 J-0.3608
G3 X-176.7843 Y199.4322 I-6.3486 J-1.1816
G3 X-177.7434 Y201.0609 I-5.0935 J-1.9026
G1 X-177.801 Y201.1278
G3 X-177.9172 Y201.2569 I-1.9412 J-1.6293
G3 X-178.3976 Y201.7275 I-5.1991 J-4.8273
G3 X-179.3227 Y202.4523 I-6.5098 J-7.3566
G1 X-179.4133 Y202.515
G3 X-180.1301 Y202.9779 I-9.077 J-13.2684
G3 X-180.6806 Y203.3043 I-14.6059 J-24.0058
G1 X-181.0983 Y203.5408
G3 X-181.4135 Y203.7147 I-12.9999 J-23.1986
G1 X-181.8886 Y203.9713
G1 X-182.0077 Y204.0348
G1 X-182.3656 Y204.2244
G3 X-182.525 Y204.3067 I-1.4895 J-2.6881
G1 X-182.6849 Y204.3866
G1 X-183.0059 Y204.5406
G1 X-183.3269 Y204.6878
G3 X-183.9693 Y204.9677 I-22.837 J-51.5408
G1 X-184.009 Y204.9845
G1 X-184.3269 Y205.117
G1 X-184.6433 Y205.2461
G1 X-185.2736 Y205.4962
G3 X-187.776 Y206.4262 I-34.0457 J-87.777
G1 X-188.0708 Y206.531
G3 X-189.2428 Y206.9404 I-31.9244 J-89.5059
G1 X-190.3811 Y207.3286
G1 X-191.4861 Y207.698
G1 X-191.754 Y207.7866
G1 X-192.8182 Y208.1351
G1 X-193.3342 Y208.3022
G1 X-194.351 Y208.6285
G1 X-194.5975 Y208.707
G1 X-194.8421 Y208.7847
G3 X-198.732 Y209.9939 I-101.5723 J-319.8753
G1 X-200.4377 Y210.5107
G1 X-200.8378 Y210.6308
G1 X-201.6258 Y210.8663
G1 X-203.1535 Y211.3188
G1 X-204.587 Y211.7386
G1 X-205.932 Y212.1285
G1 X-207.194 Y212.4908
G3 X-216.6868 Y215.1055 I-134.8432 J-471.0128
G3 X-217.282 Y215.2621 I-28.4913 J-107.0799
G1 X-217.8403 Y215.4081
G1 X-218.3639 Y215.544
G1 X-219.3462 Y215.7966
G3 X-222.792 Y216.65 I-54.4994 J-212.6511
G3 X-222.8999 Y216.6757 I-0.6292 J-2.4046
G1 X-223.3184 Y216.7745
G1 X-223.5015 Y216.8173
G1 X-224.1888 Y216.9755
G1 X-224.3178 Y217.0047
G1 X-224.8019 Y217.1125
G3 X-226.2583 Y217.416 I-13.3286 J-60.3178
G1 X-226.367 Y217.437
G3 X-228.101 Y217.7247 I-6.5272 J-33.9643
G3 X-229.6387 Y217.897 I-3.9456 J-28.2714
G3 X-230.998 Y217.9713 I-1.9091 J-22.4458
G3 X-231.1477 Y217.9744 I-0.1292 J-2.6476
G3 X-231.7372 Y217.9756 I-0.3455 J-25.3042
G3 X-232.8435 Y217.9257 I0.2035 J-16.8211
G3 X-233.8099 Y217.817 I1.025 J-13.4554
G1 X-234.0207 Y217.7839
G3 X-235.6272 Y217.3941 I1.6682 J-10.3826
G3 X-236.7768 Y216.9164 I2.5939 J-7.8646
G3 X-237.5788 Y216.4346 I3.1354 J-6.1267
G3 X-238.6255 Y215.5017 I3.4289 J-4.9007
G3 X-239.4164 Y214.344 I4.2941 J-3.7829
G3 X-239.8268 Y213.3649 I6.5213 J-3.3091
G3 X-240.1038 Y212.4126 I10.4966 J-3.5699
G3 X-240.3006 Y211.5052 I14.1656 J-3.5457
G3 X-240.3204 Y211.3983 I4.6335 J-0.9172
G3 X-240.3396 Y211.2921 I2.0397 J-0.4227
G3 X-240.5776 Y209.5963 I25.139 J-4.3934
G1 X-240.6157 Y209.2238
G3 X-240.7867 Y206.3276 I41.8841 J-3.9261
G3 X-240.8027 Y204.1519 I60.1341 J-1.5305
G3 X-240.4244 Y197.6378 I70.7852 J0.8436
G1 X-240.3634 Y197.0788
G3 X-240.3596 Y197.0449 I0.2557 J0.0119
G3 X-240.3557 Y197.011 I0.2552 J0.012
G3 X-240.3518 Y196.9772 I0.2547 J0.0121
G3 X-240.3479 Y196.9435 I0.2541 J0.0122
G3 X-240.344 Y196.9098 I0.2536 J0.0124
G3 X-240.3401 Y196.8762 I0.2531 J0.0125
G3 X-240.0324 Y194.7396 I34.674 J3.9027
G1 X-239.9891 Y194.5059
G3 X-239.9835 Y194.4772 I0.2213 J0.0275
G3 X-239.978 Y194.4484 I0.221 J0.0278
G3 X-239.9724 Y194.4198 I0.2207 J0.0281
G3 X-239.9668 Y194.3912 I0.2205 J0.0284
G3 X-239.7648 Y193.4845 I15.2864 J2.9298
G3 X-239.6519 Y193.0636 I19.4456 J4.9908
G1 X-239.5923 Y192.8611
G3 X-238.986 Y191.3158 I9.3087 J2.761
G3 X-237.2259 Y189.0394 I6.5846 J3.2723
G3 X-236.3791 Y188.3803 I6.0195 J6.8598
G3 X-235.9882 Y188.1215 I7.3889 J10.7393
G1 X-235.895 Y188.0632
G1 X-235.8028 Y188.0065
G1 X-235.7116 Y187.9516
G1 X-235.6214 Y187.8982
G1 X-235.4427 Y187.7953
G3 X-234.7374 Y187.4201 I8.6625 J15.4335
G3 X-233.4669 Y186.8377 I10.3895 J20.9874
G3 X-231.5099 Y186.0876 I13.8572 J33.2246
G3 X-229.5199 Y185.43 I19.7243 J56.3463
G0 Z5.0
M5
M30
