( Made using CamBam - http://www.cambam.co.uk )
( _2014_1_20_car 1/20/2014 11:22:32 PM )
( T0 : 0.0 )
G21 G90 G64 G40
G0 Z5.0
( T0 : 0.0 )
T0 M6
( sidewall )
G17
M3 S1000
G0 X287.4045 Y242.1647
G1 F1.0 Z0.0
G3 X285.351 Y242.0454 I0.4237 J-25.0222
G3 X283.3115 Y241.7775 I3.2561 J-32.6891
G3 X281.9614 Y241.5367 I7.0982 J-43.7103
G1 X281.6027 Y241.4658
G1 X281.2205 Y241.3875
G3 X281.1235 Y241.3671 I0.437 J-2.3265
G3 X281.025 Y241.3463 I0.468 J-2.4572
G3 X278.9327 Y240.8689 I16.5523 J-77.3675
G3 X278.3767 Y240.7333 I17.0114 J-70.9402
G1 X277.7844 Y240.5861
G3 X277.4789 Y240.5093 I2.9871 J-12.5384
G1 X276.0835 Y240.1552
G1 X275.7234 Y240.0637
G1 X275.3516 Y239.9696
G1 X274.5581 Y239.7709
G1 X273.7104 Y239.5642
G1 X273.2723 Y239.4605
G1 X273.0495 Y239.4088
G2 X272.0971 Y239.1971 I-14.87 J64.6635
G1 X271.8546 Y239.1461
G1 X271.3531 Y239.0448
G2 X271.2266 Y239.0202 I-0.4488 J1.9733
G2 X273.6407 Y240.36 I16.6437 J-27.1456
G1 X273.9938 Y240.5359
G1 X274.3993 Y240.7332
G1 X274.8647 Y240.9544
G1 X275.3989 Y241.2022
G1 X276.0118 Y241.4799
G1 X276.7148 Y241.7919
G1 X277.0906 Y241.9564
G1 X279.0974 Y242.8257
G3 X279.2248 Y242.881 I-2.7326 J6.469
G1 X279.7679 Y243.1179
G1 X280.3461 Y243.373
G1 X280.9611 Y243.6489
G1 X281.2776 Y243.7932
G1 X281.6036 Y243.9438
G3 X283.0816 Y244.6582 I-25.6528 J54.9612
G3 X284.7358 Y245.544 I-16.502 J32.8045
G1 X285.1544 Y245.7877
G1 X285.3655 Y245.9141
G3 X287.2368 Y247.1658 I-12.0043 J19.9713
G1 X287.4652 Y247.3382
G1 X287.6947 Y247.5165
G3 X284.6087 Y246.9415 I8.1534 J-52.3218
G3 X283.5873 Y246.7134 I15.5004 J-71.8183
G3 X283.5225 Y246.6984 I0.1962 J-0.9946
G3 X283.4568 Y246.6831 I0.199 J-1.0048
G3 X283.3899 Y246.6675 I0.2018 J-1.015
G3 X282.78 Y246.5222 I10.6593 J-46.0914
G3 X282.7026 Y246.5034 I0.2313 J-1.1208
G1 X281.9962 Y246.3283
G1 X281.1905 Y246.1213
G3 X279.0497 Y245.5407 I36.934 J-140.4072
G1 X278.7742 Y245.4633
G1 X278.4898 Y245.3829
G1 X278.1965 Y245.2994
G1 X277.5711 Y245.1199
G1 X276.1436 Y244.7038
G1 X274.5139 Y244.2226
G1 X274.0935 Y244.0982
G1 X272.1709 Y243.5315
G2 X271.1444 Y243.2331 I-40.6527 J137.9166
G1 X270.6141 Y243.0807
G1 X269.4815 Y242.7606
G2 X268.271 Y242.4282 I-24.4926 J86.8352
G2 X266.9762 Y242.0867 I-35.6407 J132.4993
G1 X266.6467 Y242.0024
G1 X266.3117 Y241.918
G2 X263.2334 Y241.2083 I-19.2747 J76.5752
G2 X259.6774 Y240.577 I-11.7553 J55.885
G2 X255.5639 Y240.1847 I-5.9937 J41.0875
G2 X253.3571 Y240.1614 I-1.4492 J32.7656
G2 X251.0036 Y240.3087 I0.6495 J29.2619
G2 X248.5104 Y240.687 I2.7067 J26.2424
G2 X245.8979 Y241.366 I4.8013 J23.8405
G2 X240.2723 Y244.0299 I7.2862 J22.6586
G2 X240.2374 Y244.0824 I0.0474 J0.0693
G2 X240.2395 Y244.1453 I0.1297 J0.0272
G2 X240.2882 Y244.2551 I0.3552 J-0.0919
G2 X240.4384 Y244.4236 I0.6077 J-0.3907
G2 X240.5662 Y244.4995 I0.2756 J-0.3184
G2 X240.6517 Y244.5097 I0.0628 J-0.1633
G1 X241.1179 Y244.4089
G1 X241.5826 Y244.3018
G2 X242.5085 Y244.0723 I-9.5649 J-40.5817
G1 X243.1237 Y243.9113
G1 X243.9423 Y243.6905
G1 X245.0326 Y243.3921
G3 X246.4885 Y243.0022 I31.5178 J114.785
G1 X246.8779 Y242.9024
G3 X248.9684 Y242.4278 I9.3283 J36.2495
G1 X249.2403 Y242.3766
G1 X249.5216 Y242.3268
G3 X250.8158 Y242.1495 I3.2084 J18.6058
G1 X250.8977 Y242.1416
G3 X252.4039 Y242.0887 I1.1803 J12.1265
G3 X253.2073 Y242.1512 I-0.3154 J9.2415
G1 X253.2575 Y242.1578
G1 X253.3079 Y242.1647
G1 X253.7167 Y242.2344
G1 X254.1255 Y242.3043
G1 X254.9432 Y242.4443
G1 X256.578 Y242.7267
G3 X256.6835 Y242.745 I-0.4801 J3.0699
G3 X256.7924 Y242.764 I-0.4965 J3.1707
G3 X256.9048 Y242.7836 I-0.5142 J3.2785
G3 X257.0208 Y242.8039 I-0.5333 J3.3939
G3 X257.1406 Y242.8248 I-0.5539 J3.518
G3 X257.2642 Y242.8465 I-0.5763 J3.6522
G3 X257.3918 Y242.8689 I-0.6008 J3.7977
G3 X257.5235 Y242.8921 I-0.6277 J3.9566
G3 X257.6595 Y242.916 I-0.6574 J4.1308
G1 X259.1086 Y243.1742
G3 X264.8909 Y244.2839 I-41.1479 J230.0154
G1 X265.2629 Y244.3612
G3 X269.2178 Y245.2432 I-29.1882 J140.188
G1 X269.468 Y245.3032
G3 X271.7491 Y245.8783 I-24.6536 J102.6114
G3 X272.9602 Y246.206 I-23.7105 J90.0368
G3 X274.2473 Y246.5734 I-21.0165 J76.0466
G1 X274.409 Y246.6211
G1 X274.5719 Y246.6695
G3 X275.2436 Y246.8728 I-12.9808 J44.0953
G3 X276.6704 Y247.3265 I-23.9325 J77.7366
G1 X277.0314 Y247.4463
G1 X277.3974 Y247.5699
G3 X278.9511 Y248.1209 I-23.2382 J67.9949
G3 X278.7286 Y248.2034 I-2.2298 J-5.6684
G3 X278.5039 Y248.28 I-2.3194 J-6.442
G3 X278.051 Y248.422 I-3.7505 J-11.1689
G3 X278.0365 Y248.4263 I-0.0294 J-0.0716
G1 X277.7282 Y248.5167
G1 X277.5515 Y248.5669
G3 X276.1316 Y248.9433 I-16.624 J-59.8535
G3 X275.7244 Y249.045 I-5.7338 J-22.0901
G1 X275.6192 Y249.0709
G1 X275.5106 Y249.0976
G1 X275.3984 Y249.125
G3 X275.2826 Y249.1531 I-0.5077 J-1.8374
G3 X275.163 Y249.182 I-0.5155 J-1.8707
G3 X275.0395 Y249.2117 I-0.5262 J-1.9163
G3 X275.0084 Y249.2192 I-0.0635 J-0.1962
G3 X274.977 Y249.2267 I-0.064 J-0.1978
G3 X274.9453 Y249.2343 I-0.0644 J-0.1993
G3 X274.9134 Y249.2419 I-0.0649 J-0.2009
G1 X274.8486 Y249.2573
G1 X274.7828 Y249.273
G1 X274.716 Y249.2888
G1 X274.4308 Y249.3561
G1 X273.7785 Y249.5074
G1 X273.4302 Y249.5869
G1 X273.0587 Y249.6709
G1 X272.6621 Y249.7597
G1 X271.7551 Y249.9593
G1 X270.7176 Y250.1827
G1 X269.5307 Y250.4326
G1 X268.173 Y250.7118
G1 X267.8224 Y250.7829
G3 X264.0788 Y251.5177 I-59.9251 J-295.3908
G3 X263.5952 Y251.6097 I-5.6116 J-28.1872
G1 X262.5632 Y251.8039
G1 X262.0303 Y251.903
G1 X261.4802 Y252.0047
G3 X255.6041 Y253.0431 I-83.5082 J-455.3806
G3 X247.7485 Y254.2996 I-71.3194 J-420.7017
G3 X237.2371 Y255.7169 I-50.0883 J-331.8021
G1 X237.0719 Y255.7363
G1 X235.7069 Y255.8929
G3 X229.4558 Y256.508 I-25.1529 J-223.5193
G3 X226.1143 Y256.7522 I-13.7968 J-165.8584
G1 X225.2649 Y256.8024
G1 X224.8367 Y256.8256
G1 X224.405 Y256.8476
G3 X222.6217 Y256.9216 I-7.0822 J-149.2153
G3 X218.8133 Y256.9667 I-2.8714 J-81.5556
G1 Y256.355
G1 X219.1788 Y256.1489
G1 X219.5429 Y255.9405
G1 X219.785 Y255.8002
G2 X220.7469 Y255.2288 I-25.1177 J-43.3719
G2 X222.6412 Y254.0379 I-32.0932 J-53.1559
G2 X226.314 Y251.4822 I-40.0716 J-61.5024
G2 X228.6798 Y249.6649 I-48.9261 J-66.1428
G1 X228.9804 Y249.4245
G1 X229.2897 Y249.1751
G1 X229.6079 Y248.9161
G1 X229.9351 Y248.6473
G2 X231.4156 Y247.4007 I-68.9749 J-83.4195
G2 X235.2503 Y243.9487 I-75.3702 J-87.582
G1 X235.7343 Y243.4914
G1 X236.2314 Y243.017
G1 X236.7421 Y242.5246
G1 X237.2668 Y242.0137
G1 X237.5323 Y241.7532
G1 X237.8015 Y241.488
G1 X238.0742 Y241.2179
G2 X240.5393 Y238.7215 I-123.2759 J-124.1982
G1 X240.6931 Y238.5627
G1 X240.848 Y238.4025
G1 X241.0038 Y238.2409
G2 X243.8274 Y235.2631 I-197.268 J-189.8799
G1 X244.5497 Y234.4887
G1 X245.2931 Y233.6876
G1 X246.0588 Y232.859
G1 X246.8478 Y232.0027
G1 X248.5288 Y230.1744
G1 X250.2693 Y229.2892
G1 X274.5848 Y234.9088
G1 X275.2878 Y234.2915
G2 X271.7925 Y232.7088 I-32.6724 J67.5076
G2 X268.2223 Y231.3031 I-30.694 J72.7171
G2 X265.8062 Y230.4626 I-26.4743 J72.2114
G2 X265.1576 Y230.2513 I-20.6804 J62.3924
G2 X261.6706 Y229.2143 I-26.7725 J83.6424
G2 X256.9601 Y228.0598 I-23.6064 J86.13
G1 X256.348 Y227.9292
G2 X249.7734 Y226.7842 I-20.2498 J96.8242
G1 X249.3536 Y226.7263
G1 X248.9268 Y226.6691
G3 X248.5437 Y227.0979 I-3.8456 J-3.0503
G3 X248.101 Y227.4647 I-2.012 J-1.9779
G3 X247.7563 Y227.6354 I-0.8216 J-1.2263
G3 X247.2386 Y227.6696 I-0.3209 J-0.9211
G3 X246.9536 Y227.5683 I0.2549 J-1.1684
G3 X246.6608 Y227.3829 I0.8361 J-1.6448
G3 X246.3621 Y227.1292 I2.3215 J-3.0354
G1 X246.2886 Y227.0601
G1 X246.1356 Y226.9117
G1 X245.794 Y226.5776
G2 X245.3944 Y226.2268 I-4.0016 J4.1549
G1 X245.2857 Y226.1444
G2 X245.0464 Y225.9866 I-1.392 J1.8511
G2 X244.4564 Y225.7447 I-1.0879 J1.8129
G2 X243.7348 Y225.717 I-0.4326 J1.8604
G3 X236.6061 Y232.0863 I-38.7952 J-36.2472
G3 X228.4609 Y237.0904 I-32.6195 J-43.9638
G3 X222.6112 Y239.6287 I-26.378 J-52.7786
G3 X222.5173 Y239.6635 I-0.9631 J-2.4567
G3 X214.3341 Y242.0668 I-22.0028 J-59.7848
G3 X209.5426 Y242.9596 I-14.8776 J-66.5476
G3 X204.0108 Y243.5777 I-11.0408 J-73.7462
G3 X203.9238 Y243.5841 I-0.1831 J-1.8922
G3 X203.8367 Y243.5904 I-0.1811 J-1.8938
G3 X200.8613 Y243.7472 I-5.5643 J-77.2709
G1 X200.2358 Y243.7652
G3 X199.6102 Y243.7777 I-3.3832 J-153.5259
G1 X199.1932 Y243.7832
G1 X198.637 Y243.7873
G3 X196.4125 Y243.7701 I-0.3867 J-94.091
G1 X195.7771 Y243.7564
G3 X190.6977 Y243.5339 I3.6508 J-141.3986
G1 X190.0212 Y243.4912
G1 X189.672 Y243.4681
G1 X188.9274 Y243.4166
G3 X184.96 Y243.093 I15.8627 J-218.9892
G3 X184.8977 Y243.0873 I0.0315 J-0.688
G3 X184.8353 Y243.0816 I0.0317 J-0.6903
G3 X184.7726 Y243.0758 I0.032 J-0.6926
G3 X184.7096 Y243.07 I0.0323 J-0.6949
G3 X184.6464 Y243.0642 I0.0326 J-0.6972
G3 X184.5829 Y243.0583 I0.0329 J-0.6995
G1 X183.5011 Y242.9552
G1 X182.3477 Y242.8397
G1 X181.7526 Y242.7779
G3 X175.4151 Y242.0365 I30.1218 J-284.9062
G3 X171.8015 Y241.5516 I38.4827 J-300.5194
G3 X167.6788 Y240.9493 I43.9409 J-315.179
G1 X166.616 Y240.786
G1 X165.5195 Y240.6142
G3 X153.8579 Y238.5924 I63.4013 J-400.3216
G1 X153.1195 Y238.453
G1 X152.3695 Y238.3101
G1 X151.608 Y238.1636
G1 X150.8346 Y238.0135
G1 X150.0492 Y237.8596
G1 X148.4287 Y237.5376
G3 X141.0363 Y235.9933 I94.8941 J-472.7042
G3 X140.9207 Y235.9682 I0.3209 J-1.7556
G3 X140.8049 Y235.943 I0.3221 J-1.7595
G3 X140.6889 Y235.9177 I0.3232 J-1.7634
G3 X120.9944 Y231.2079 I107.0349 J-491.1016
G3 X109.8301 Y228.1697 I134.1817 J-515.1102
G1 X109.1292 Y227.97
G1 X108.423 Y227.7677
G3 X95.5643 Y223.8921 I142.057 J-494.5853
G1 X93.939 Y223.3757
G1 X92.2896 Y222.8455
G1 X90.616 Y222.301
G1 X90.2961 Y220.9826
G1 X80.4182 Y216.6015
G3 X80.738 Y212.2219 I368.574 J24.7078
G1 X80.7492 Y212.0807
G1 X80.8011 Y211.4352
G1 X80.9444 Y209.7143
G3 X81.5734 Y202.8357 I667.2005 J57.5429
G1 X81.5944 Y202.6174
G1 X82.0467 Y197.9613
G1 X82.3033 Y195.3005
G1 X82.4374 Y193.8812
G1 X82.5773 Y192.367
G1 X82.6122 Y191.9824
G1 X82.7578 Y190.3409
G1 X82.8305 Y189.4935
G1 X82.9037 Y188.6186
G2 X82.9218 Y188.3981 I-13.3199 J-1.2044
G2 X82.9399 Y188.1759 I-10.9779 J-1.006
G2 X82.958 Y187.9519 I-9.5599 J-0.8852
G2 X82.9761 Y187.7261 I-8.585 J-0.8016
G2 X82.9941 Y187.4985 I-7.862 J-0.7391
G2 X83.0122 Y187.2691 I-7.2993 J-0.6901
G1 X83.085 Y186.322
G2 X83.3763 Y181.9891 I-272.6848 J-20.5074
G2 X83.4994 Y179.6762 I-168.443 J-10.1265
G2 X83.6809 Y174.3848 I-181.2293 J-8.8646
G1 X83.6872 Y174.0513
G3 X84.0672 Y174.2957 I-1.1512 J2.208
G3 X84.3894 Y174.6123 I-1.2813 J1.6257
G3 X84.7644 Y175.429 I-1.4677 J1.1683
G3 X84.8144 Y176.0281 I-2.7565 J0.5317
G1 X84.7943 Y176.5416
G1 X84.7712 Y177.055
G1 X84.7236 Y178.0817
G1 X84.6916 Y178.7661
G1 X84.649 Y179.6788
G1 X84.482 Y183.3294
G1 X84.3748 Y185.7634
G2 X84.3732 Y185.8016 I0.3845 J0.0358
G1 X84.2362 Y189.0598
G1 X84.2191 Y189.4803
G1 X84.1428 Y191.4023
G1 X84.0597 Y193.5992
G2 X84.0495 Y193.8782 I17.62 J0.7849
G1 X83.96 Y196.4289
G1 X83.9153 Y197.7895
G1 X83.8703 Y199.2407
G1 X83.8258 Y200.7889
G1 X83.7825 Y202.4404
G1 X83.7622 Y203.2929
G1 X83.7597 Y203.3999
G2 X83.6884 Y207.3126 I431.2721 J9.8126
G1 X83.6771 Y208.3224
G1 X83.6727 Y208.8353
G1 X83.6694 Y209.3565
G1 X83.6662 Y210.4324
G1 X83.6663 Y210.7035
G1 X83.6711 Y211.8228
G1 X83.6735 Y212.1048
G1 X83.6766 Y212.3891
G1 X83.6803 Y212.6756
G1 X83.6824 Y212.8194
G1 X83.6872 Y213.1094
G2 X84.2253 Y214.0319 I3.2262 J-1.2636
G2 X85.0184 Y214.7469 I2.8438 J-2.3568
G2 X85.6362 Y215.1017 I2.7628 J-4.0959
G1 X85.8077 Y215.1832
G2 X86.2061 Y215.3536 I2.8399 J-6.0883
G1 X86.4212 Y215.4374
G2 X86.6517 Y215.5229 I2.0181 J-5.0858
G2 X86.771 Y215.5659 I0.6976 J-1.7488
G1 X87.0257 Y215.6559
G1 X87.6055 Y215.8603
G3 X87.7544 Y215.9148 I-1.1185 J3.2903
G3 X88.0695 Y216.0357 I-4.3906 J11.9069
G1 X88.1489 Y216.0679
G1 X88.2294 Y216.1012
G3 X88.9418 Y216.449 I-2.6143 J6.2595
G3 X89.6724 Y216.9866 I-1.9152 J3.3682
G3 X90.2961 Y217.8307 I-2.0805 J2.1896
G2 X118.6753 Y226.194 I331.4177 J-1072.27
G2 X128.1869 Y228.8002 I226.5505 J-808.171
G1 X128.7919 Y228.9617
G1 X130.0414 Y229.2934
G1 X131.3318 Y229.6333
G1 X132.6646 Y229.9814
G1 X133.3419 Y230.157
G1 X133.6834 Y230.2452
G2 X139.9364 Y231.8172 I119.2751 J-461.2396
G2 X143.281 Y232.617 I82.364 J-337.0451
G1 X143.3859 Y232.6415
G1 X143.4909 Y232.666
G1 X144.3451 Y232.8639
G1 X144.7758 Y232.9628
G1 X145.6513 Y233.1614
G1 X145.8711 Y233.2108
G2 X149.6303 Y234.0211 I46.9086 J-208.5064
G1 X150.105 Y234.118
G2 X150.224 Y234.1421 I0.9022 J-4.153
G2 X152.1915 Y234.5259 I25.1715 J-123.7954
G2 X154.2288 Y234.889 I22.3171 J-119.3307
G1 X154.7433 Y234.9737
G2 X156.8745 Y235.2846 I10.1963 J-62.434
G1 X157.1427 Y235.3181
G2 X157.2772 Y235.3343 I0.3864 J-2.6431
G1 X157.5473 Y235.3655
G2 X158.6475 Y235.4725 I4.3326 J-38.8448
G1 X158.7855 Y235.4832
G2 X159.9103 Y235.5392 I1.5281 J-19.3758
G2 X160.1777 Y235.5397 I0.1418 J-4.5223
G1 X160.2669 Y235.5371
G2 X160.6224 Y235.5114 I-0.2387 J-5.7734
G2 X161.3199 Y235.3646 I-0.3359 J-3.325
G2 X161.7562 Y235.1734 I-0.8438 J-2.5193
G2 X162.2576 Y234.7804 I-0.9953 J-1.7862
G2 X162.7087 Y234.0566 I-1.7142 J-1.5707
G2 X162.8556 Y233.5904 I-3.1461 J-1.2482
G2 X163.5709 Y229.468 I-135.4333 J-25.6198
G2 X164.176 Y225.3279 I-161.1309 J-25.6661
G2 X164.1936 Y225.1962 I-3.7685 J-0.5702
G2 X164.2113 Y225.0624 I-3.8021 J-0.5729
G2 X164.2293 Y224.9265 I-3.8363 J-0.5757
G2 X164.2474 Y224.7884 I-3.871 J-0.5784
G2 X164.2657 Y224.648 I-3.9062 J-0.5812
G2 X164.2842 Y224.5055 I-3.9417 J-0.5839
G2 X164.4484 Y223.2018 I-151.2169 J-19.7002
G1 X164.5324 Y222.5061
G1 X164.6194 Y221.7636
G2 X165.0413 Y217.7996 I-210.6146 J-24.4237
G2 X165.1429 Y216.7414 I-105.8547 J-10.6989
G2 X165.6207 Y211.0922 I-326.0266 J-30.4166
G1 X165.7327 Y209.5845
G1 X165.8464 Y207.976
G1 X165.9621 Y206.2598
G1 X166.08 Y204.429
G2 X166.0945 Y204.1982 I-9.2176 J-0.6958
G2 X166.1091 Y203.9657 I-9.4239 J-0.7069
G2 X166.1237 Y203.7313 I-9.6432 J-0.7187
G2 X166.1383 Y203.4951 I-9.8771 J-0.7314
G2 X166.153 Y203.257 I-10.1272 J-0.745
G2 X166.1678 Y203.017 I-10.3958 J-0.7597
G1 X166.2914 Y200.9696
G1 X166.4201 Y198.7855
G2 X166.4525 Y198.2308 I-48.9577 J-3.1354
G1 X166.5191 Y197.0856
G1 X164.9794 Y195.5031
G1 X150.5454 Y191.5073
G1 X145.7356 Y190.1696
G1 X142.9883 Y189.4016
G3 X142.6395 Y189.3038 I5.4153 J-19.9917
G3 X142.2851 Y189.2044 I5.5758 J-20.5619
G3 X134.7307 Y187.0677 I406.205 J-1450.5509
G3 X133.7567 Y186.7893 I43.1598 J-152.8344
G1 X131.6796 Y186.1929
G1 X129.465 Y185.5529
G1 X127.1043 Y184.8655
G1 X125.8864 Y184.5086
G1 X123.2897 Y183.7422
G1 X121.9504 Y183.3439
G1 X120.5684 Y182.9305
G1 X119.1426 Y182.5015
G1 X117.6716 Y182.056
G1 X116.9247 Y181.8287
G1 X116.1662 Y181.597
G1 X115.3959 Y181.3609
G3 X108.365 Y179.1632 I202.8724 J-661.3806
G1 X106.5545 Y178.5839
G3 X98.3007 Y175.8636 I178.9855 J-556.9451
G1 X97.7822 Y175.688
G1 X97.2598 Y175.5105
G1 X96.7335 Y175.3311
G1 X96.2031 Y175.1496
G1 X95.6688 Y174.9662
G1 X95.1305 Y174.7807
G1 X94.5881 Y174.5932
G1 X94.0417 Y174.4036
G1 X93.4912 Y174.2119
G1 X92.9366 Y174.0179
G3 X92.6072 Y173.8964 I2.6304 J-7.639
G3 X92.2881 Y173.7498 I0.8875 J-2.3524
G3 X92.208 Y173.6885 I0.1406 J-0.2667
G3 X92.2057 Y173.6596 I0.0147 J-0.0157
G3 X92.258 Y173.6441 I0.0527 J0.0814
G3 X92.325 I0.0337 J0.3992
G1 X92.3957 Y173.6501
G1 X92.4556 Y173.6578
G3 X92.5377 Y173.6708 I-0.1092 J0.9553
G3 X92.7211 Y173.7065 I-0.3827 J2.4596
G3 X93.0372 Y173.7808 I-1.0462 J5.1575
G1 X93.2863 Y173.8468
G3 X102.5831 Y176.4508 I-902.0892 J3238.5183
G1 X105.6805 Y177.3242
G1 X109.8098 Y178.4909
G1 X110.3426 Y178.6416
G1 X110.8925 Y178.7972
G1 X128.4898 Y183.7792
G1 X130.8364 Y184.4424
G1 X133.3397 Y185.1492
G1 X133.9755 Y185.3285
G1 X139.7892 Y186.9654
G1 X142.8906 Y187.8356
G1 X143.6783 Y188.0563
G1 X147.04 Y188.9959
G1 X148.7755 Y189.4796
G1 X150.5671 Y189.9778
G1 X152.417 Y190.4908
G1 X156.3646 Y191.5804
G1 X158.4029 Y192.1397
G1 X159.4385 Y192.4229
G1 X161.5771 Y193.0055
G1 X163.7856 Y193.6035
G1 X164.9078 Y193.9057
G1 X166.0481 Y194.2116
G1 X168.4034 Y194.839
G1 X168.9971 Y194.9961
G1 X169.5957 Y195.154
G1 X170.8121 Y195.4733
G1 X172.0484 Y195.7955
G1 X173.305 Y196.1201
G1 X174.5823 Y196.4468
G2 X180.0455 Y197.789 I75.9146 J-297.1981
G1 X180.736 Y197.9491
G1 X181.4326 Y198.1074
G1 X182.1355 Y198.2629
G1 X182.3118 Y198.3012
G2 X183.7474 Y198.598 I13.7992 J-63.1179
G1 X183.7925 Y198.6068
G1 X183.9729 Y198.6416
G2 X184.0633 Y198.6587 I0.3291 J-1.4862
G1 X184.1537 Y198.6757
G1 X184.3351 Y198.7092
G1 X184.6997 Y198.7738
G1 X185.0666 Y198.8342
G2 X185.8097 Y198.9354 I2.5088 J-15.6413
G2 X185.9031 Y198.9451 I0.1874 J-1.3534
G1 X186.3931 Y198.9931
G3 X186.5565 Y199.0091 I-0.4787 J5.7217
G1 X186.7743 Y199.0306
G3 X187.6451 Y199.1203 I-4.7659 J50.5582
G3 X189.3821 Y199.3386 I-4.598 J43.5917
G3 X190.5327 Y199.5357 I-3.318 J22.8347
G3 X192.0467 Y199.8986 I-3.5299 J18.0669
G1 X192.1417 Y199.9264
G3 X194.1088 Y200.6936 I-3.3303 J11.4451
G3 X194.6056 Y200.9609 I-4.7534 J9.429
G3 X195.028 Y201.2252 I-6.3138 J10.5576
G1 X195.4431 Y201.5007
G1 X195.7182 Y201.6867
G1 X196.0841 Y201.9363
G1 X196.5706 Y202.2708
G1 X197.2182 Y202.7183
G1 X197.588 Y202.9744
G3 X197.7853 Y203.111 I-14.2756 J20.8189
G2 X200.9471 Y205.2872 I246.8241 J-355.2279
G1 X201.8559 Y205.9012
G2 X201.9716 Y205.9788 I3.2006 J-4.6488
G2 X204.4636 Y207.5965 I48.3229 J-71.7079
G1 X204.7904 Y207.797
G1 X204.9572 Y207.8975
G1 X205.1273 Y207.9987
G1 X205.3008 Y208.1002
G2 X206.0531 Y208.5125 I8.0454 J-13.7879
G1 X207.007 Y208.9929
G1 X207.9621 Y209.4712
G2 X209.8756 Y210.421 I113.6756 J-226.6246
G1 X210.1311 Y210.5469
G1 X210.4038 Y210.681
G2 X214.7805 Y212.7966 I144.3518 J-293.0463
G1 X215.0639 Y212.931
G1 X216.361 Y213.5418
G1 X217.0539 Y213.8652
G1 X217.794 Y214.2081
G1 X218.5844 Y214.5716
G2 X222.8196 Y216.4673 I119.6258 J-261.5674
G2 X225.2553 Y217.515 I79.1722 J-180.7091
G1 X225.8858 Y217.7808
G1 X226.5375 Y218.0531
G2 X233.5468 Y220.8168 I75.6663 J-181.6341
G2 X237.6014 Y222.266 I57.5571 J-154.6391
G2 X239.7791 Y222.9954 I42.8448 J-124.3057
G1 X240.3339 Y223.1756
G1 X240.8981 Y223.3564
G1 X241.4721 Y223.5378
G1 X242.0559 Y223.7197
G2 X247.4292 Y225.2667 I42.2892 J-136.7834
G1 X248.116 Y225.4474
G2 X248.4069 Y225.2441 I-1.4705 J-2.4146
G2 X248.6592 Y224.9944 I-1.217 J-1.4816
G2 X248.9428 Y224.3465 I-0.9739 J-0.8123
G2 X248.9268 Y223.8705 I-1.6084 J-0.1844
G1 X248.5566 Y223.5837
G1 X248.1834 Y223.3006
G1 X247.9331 Y223.1139
G1 X247.5975 Y222.8676
G1 X247.1468 Y222.5435
G2 X245.3101 Y221.2964 I-31.5424 J44.4769
G2 X241.5009 Y219.0166 I-34.1207 J52.6899
G1 X240.9819 Y218.7319
G1 X240.4258 Y218.4327
G2 X237.424 Y216.9077 I-41.2469 J77.4753
G2 X237.3285 Y216.8614 I-1.3698 J2.7022
G2 X233.2221 Y214.9654 I-56.2624 J116.4573
G2 X233.0917 Y214.9077 I-1.8659 J4.042
G2 X232.9604 Y214.8497 I-1.8931 J4.111
G2 X232.8279 Y214.7914 I-1.9218 J4.1835
G1 X231.6961 Y214.2976
G1 X230.4863 Y213.7775
G2 X230.3336 Y213.7123 I-2.9554 J6.7139
G2 X227.5397 Y212.5322 I-168.73 J395.57
G1 X226.0483 Y211.9064
G1 X224.4585 Y211.2372
G1 X224.055 Y211.0665
G3 X220.3798 Y209.4785 I88.6504 J-210.215
G1 X220.1493 Y209.3761
G1 X219.9171 Y209.2726
G1 X219.6832 Y209.1679
G1 X218.7198 Y208.7314
G1 X218.2317 Y208.5069
G1 X217.7369 Y208.2768
G3 X215.6384 Y207.268 I43.5709 J-93.3314
G1 X215.3756 Y207.1375
G1 X215.1111 Y207.0052
G1 X214.8451 Y206.8709
G1 X214.5774 Y206.7347
G1 X214.308 Y206.5964
G1 X214.0371 Y206.4561
G3 X212.9241 Y205.8659 I57.0383 J-108.9025
G1 X212.6452 Y205.7143
G1 X212.3648 Y205.5602
G1 X212.0828 Y205.4037
G1 X211.7993 Y205.2446
G1 X211.5144 Y205.0829
G3 X209.1173 Y203.6432 I30.9202 J-54.1987
G3 X206.6412 Y201.9766 I27.0492 J-42.8582
G3 X204.1166 Y200.0305 I26.9543 J-37.5777
G3 X201.5896 Y197.7459 I25.0604 J-30.2595
G3 X200.3655 Y196.4802 I26.5708 J-26.9236
G3 X197.9601 Y193.5804 I26.1729 J-24.157
G3 X184.1469 Y193.0657 I-3.8967 J-81.0444
G3 X182.1882 Y192.7966 I8.1418 J-66.5332
G1 X181.94 Y192.7587
G3 X176.6834 Y191.7338 I9.9102 J-64.8161
G3 X167.2865 Y189.4192 I125.0058 J-527.7334
G1 X166.6615 Y189.259
G1 X165.995 Y189.0874
G3 X162.4438 Y188.1592 I175.8725 J-680.0928
G1 X160.4171 Y187.6191
G3 X144.2673 Y183.0684 I180.1846 J-670.3872
G1 X143.2289 Y182.7621
G3 X132.1785 Y179.4134 I242.693 J-820.7665
G1 X130.7556 Y178.9714
G3 X115.6149 Y174.1439 I375.0981 J-1202.6044
G1 X113.6654 Y173.5084
G1 X111.6537 Y172.8501
G1 X109.578 Y172.1681
G1 X107.436 Y171.4619
G3 X102.8687 Y169.9486 I641.5912 J-1944.1099
G1 X100.5123 Y169.1647
G1 X98.0805 Y168.3538
G1 X92.8941 Y166.6199
G1 X81.0414 Y162.6524
G2 X80.2947 Y162.403 I-32.9269 J97.3364
G2 X79.5419 Y162.1517 I-30.2223 J89.2765
G2 X78.7832 Y161.8986 I-28.098 J82.9515
G2 X78.0185 Y161.6436 I-26.3718 J77.8167
G2 X77.6347 Y161.5157 I-17.7741 J52.6927
G2 X77.2493 Y161.3873 I-17.3066 J51.3058
G2 X76.8624 Y161.2584 I-16.8746 J50.025
G2 X76.4739 Y161.1291 I-16.4734 J48.8363
G2 X76.0839 Y160.9993 I-16.0994 J47.7291
G2 X75.6924 Y160.8691 I-15.7496 J46.6946
G2 X75.2993 Y160.7384 I-15.4213 J45.7244
G2 X74.9047 Y160.6072 I-15.1125 J44.8127
G2 X74.5085 Y160.4756 I-14.8213 J43.9538
G2 X74.1107 Y160.3435 I-14.5458 J43.1423
G2 X73.7113 Y160.211 I-14.2848 J42.3741
G2 X73.3104 Y160.078 I-14.0368 J41.645
G2 X72.9078 Y159.9445 I-13.801 J40.9526
G2 X72.5037 Y159.8106 I-13.5762 J40.293
G2 X72.0979 Y159.6762 I-13.3615 J39.6641
G2 X71.6906 Y159.5414 I-13.1561 J39.0633
G2 X71.2816 Y159.4061 I-12.9594 J38.4884
G1 X67.9034 Y158.2918
G1 X66.7876 Y159.2642
G1 X64.958 Y157.6799
G3 X59.3598 Y156.9622 I8.4287 J-87.9298
G1 X58.5641 Y156.8315
G3 X52.2401 Y155.5631 I18.0889 J-106.5891
G1 X51.4028 Y155.3666
G3 X46.9607 Y154.2244 I30.9763 J-129.6739
G3 X41.0979 Y152.4884 I44.6977 J-161.7208
G1 X40.346 Y152.2493
G1 X39.571 Y151.9992
G3 X36.041 Y150.8178 I75.3193 J-230.9111
G1 X35.1332 Y150.5035
G1 X34.1975 Y150.1755
G3 X29.9359 Y148.6335 I104.0689 J-294.2879
G1 X29.3964 Y148.4333
G3 X24.4791 Y146.5651 I127.6946 J-343.5165
G1 X24.1701 Y146.4454
G1 X22.8952 Y145.9492
G1 X22.5741 Y145.8237
G1 X22.2506 Y145.697
G1 X21.9246 Y145.5691
G1 X21.5961 Y145.44
G1 X20.2409 Y144.9051
G1 X18.8431 Y144.3501
G1 X18.1336 Y144.0672
G1 X17.413 Y143.7792
G1 X15.9263 Y143.183
G1 X14.3925 Y142.5656
G1 X11.1228 Y141.244
G1 X9.4359 Y140.5606
G2 X1.7251 Y137.4434 I-1136.4836 J2800.1828
G1 X-0.2668 Y136.6444
G2 X-1.2791 Y136.2399 I-111.0138 J276.3563
G1 X-3.3701 Y135.4083
G1 X-4.4329 Y134.9878
G1 X-5.6833 Y134.499
G1 X-6.9347 Y134.0127
G1 X-7.7692 Y133.6889
G1 X-8.8819 Y133.2576
G1 X-13.3337 Y131.5345
G1 X-22.2387 Y128.0925
G1 X-24.7833 Y127.1096
G1 X-45.1411 Y119.2504
G1 X-46.4546 Y118.7435
G1 X-88.488 Y102.5294
G1 X-137.6881 Y83.577
G1 X-138.123 Y83.4103
G1 X-138.5576 Y83.2426
G1 X-139.4259 Y82.9051
G1 X-139.6739 Y82.8082
G1 X-140.3348 Y82.5491
G1 X-140.5109 Y82.4798
G1 X-141.4499 Y82.109
G1 X-142.7007 Y81.6116
G1 X-143.4149 Y81.3259
G1 X-144.2305 Y80.9981
G1 X-145.1621 Y80.6219
G1 X-145.6586 Y80.4205
G1 X-146.7929 Y79.9585
G1 X-146.9369 Y79.8997
G3 X-156.1166 Y76.0532 I220.146 J-538.2649
G3 X-156.1884 Y76.0224 I0.2788 J-0.7483
G1 X-156.7806 Y75.7676
G1 X-158.0429 Y75.2218
G1 X-159.3878 Y74.636
G3 X-166.5316 Y71.4461 I192.7755 J-441.3112
G1 X-167.4495 Y71.0259
G1 X-168.396 Y70.5899
G1 X-169.3719 Y70.1375
G1 X-169.8672 Y69.9067
G3 X-174.3804 Y67.7652 I167.9913 J-359.8639
G3 X-174.5216 Y67.697 I2.2165 J-4.7697
G3 X-174.6633 Y67.6285 I2.3656 J-5.0735
G3 X-174.8055 Y67.5597 I2.5468 J-5.4427
G3 X-177.2271 Y66.375 I225.9609 J-464.9714
G3 X-179.7992 Y65.089 I116.0389 J-235.3028
G1 X-181.1218 Y64.4155
G3 X-187.1175 Y61.2389 I106.1 J-207.5066
G3 X-190.2733 Y59.467 I90.576 J-165.0077
G3 X-193.5967 Y57.5016 I74.5008 J-129.7751
G3 X-195.2903 Y56.451 I65.2536 J-107.0745
G3 X-195.5016 Y56.3172 I39.5745 J-62.7197
G1 X-195.9266 Y56.046
G1 X-196.3538 Y55.7706
G1 X-196.783 Y55.491
G1 X-196.9979 Y55.3499
G1 X-197.2133 Y55.2076
G1 X-197.4292 Y55.0641
G3 X-201.0445 Y52.5124 I42.7378 J-64.3887
G3 X-201.1552 Y52.4289 I2.762 J-3.774
G1 X-201.5992 Y52.0897
G1 X-202.0434 Y51.7433
G2 X-198.4404 Y52.0025 I9.5839 J-108.0828
G2 X-194.8304 Y52.1272 I4.7777 J-85.9428
G1 X-194.3488 Y52.1321
G2 X-193.835 Y52.1338 I0.3386 J-23.8447
G2 X-193.287 Y52.1317 I0.134 J-35.288
G2 X-190.3655 Y52.0402 I-0.4639 J-61.501
G1 X-189.989 Y52.0172
G2 X-188.2706 Y51.8734 I-2.6336 J-41.7939
G1 X-188.0528 Y51.8501
G1 X-187.6036 Y51.798
G2 X-185.5603 Y51.4812 I-3.8341 J-31.4815
G2 X-178.3097 Y55.635 I121.061 J-202.9083
G2 X-170.9257 Y59.5468 I133.2374 J-242.5806
G2 X-165.9413 Y62.0346 I131.8836 J-257.9904
G1 X-164.6049 Y62.6835
G1 X-163.1764 Y63.3692
G1 X-162.4379 Y63.7207
G2 X-159.0525 Y65.3073 I209.4964 J-442.6197
G2 X-149.9621 Y69.3991 I208.9671 J-452.0963
G2 X-149.8189 Y69.462 I1.4325 J-3.0696
G2 X-149.6751 Y69.525 I1.4308 J-3.0671
G2 X-149.5307 Y69.5883 I1.4292 J-3.0646
G2 X-149.3857 Y69.6518 I1.4275 J-3.0621
G2 X-149.2402 Y69.7155 I1.4259 J-3.0596
G2 X-149.0941 Y69.7794 I1.4243 J-3.0572
G2 X-148.9473 Y69.8436 I1.4227 J-3.0549
G2 X-148.8 Y69.9079 I1.4212 J-3.0526
G1 X-147.5832 Y70.4379
G2 X-142.0096 Y72.8343 I299.4338 J-688.7274
G1 X-65.3888 Y103.7493
G2 X-60.788 Y105.6779 I193.4124 J-454.9533
G1 X-59.2504 Y106.3113
G1 X-58.8401 Y106.4796
G1 X-58.4023 Y106.6587
G2 X-51.3833 Y109.489 I291.2918 J-712.2684
G1 X-50.4457 Y109.862
G1 X-48.3012 Y110.7113
G1 X-47.1569 Y111.1625
G1 X-45.9357 Y111.6425
G1 X-43.1426 Y112.7352
G1 X-42.4214 Y113.0162
G1 X-41.6768 Y113.3059
G1 X-40.9081 Y113.6045
G1 X-40.1143 Y113.9124
G1 X-39.2948 Y114.2297
G1 X-37.546 Y114.9052
G1 X-35.6798 Y115.6237
G2 X-35.6213 Y115.6462 I0.466 J-1.125
G2 X-35.5627 Y115.6687 I0.467 J-1.1276
G2 X-35.504 Y115.6913 I0.468 J-1.1302
G2 X-35.4452 Y115.7139 I0.469 J-1.1328
G1 X-34.474 Y116.0868
G1 X-33.4713 Y116.4711
G1 X-31.3317 Y117.2891
G2 X-31.2646 Y117.3147 I0.547 J-1.3324
G2 X-28.9769 Y118.1864 I318.4534 J-832.3662
G1 X-27.7957 Y118.6353
G1 X-25.2751 Y119.5908
G1 X-22.5854 Y120.6071
G1 X-21.1966 Y121.1304
G1 X-19.7627 Y121.6699
G1 X-19.0343 Y121.9436
G1 X-17.5302 Y122.508
G1 X-16.7661 Y122.7944
G1 X-15.1884 Y123.3849
G1 X-11.8216 Y124.6419
G2 X-11.7161 Y124.6812 I1.312 J-3.3593
G2 X-11.6104 Y124.7206 I1.322 J-3.3863
G1 X-9.8653 Y125.3703
G2 X8.7693 Y132.2447 I1260.3014 J-3387.6251
G1 X9.3569 Y132.4597
G1 X10.5506 Y132.8963
G1 X13.0154 Y133.7966
G2 X39.3379 Y143.3117 I1593.1703 J-4366.1786
G1 X42.7385 Y144.5278
G1 X46.2498 Y145.7801
G2 X53.7448 Y148.4407 I1220.8969 J-3427.5034
G1 X54.6895 Y148.7747
G1 X55.6417 Y149.111
G1 X59.5747 Y150.496
G1 X60.5661 Y150.844
G1 X61.0638 Y151.0185
G2 X69.5666 Y153.9703 I415.102 J-1182.0023
G1 X70.6399 Y154.336
G1 X70.909 Y154.4272
G1 X71.9944 Y154.792
G1 X72.9836 Y155.1203
G1 X73.9734 Y155.4471
G1 X75.9546 Y156.0956
G1 X76.5211 Y156.2795
G1 X78.033 Y156.7663
G1 X78.8978 Y157.0419
G1 X79.3593 Y157.1881
G1 X80.4147 Y157.52
G1 X80.9781 Y157.6956
G1 X81.5793 Y157.8819
G2 X84.7925 Y158.8541 I93.3547 J-302.7465
G1 X85.208 Y158.9767
G1 X85.6371 Y159.1026
G2 X87.6014 Y159.6678 I59.5491 J-203.2484
G1 X88.1092 Y159.8109
G1 X89.1935 Y160.112
G2 X95.0047 Y161.6129 I49.6013 J-180.0511
G1 X95.3753 Y161.7015
G1 X95.7521 Y161.7907
G1 X96.135 Y161.8803
G1 X96.5242 Y161.9705
G1 X96.9199 Y162.061
G2 X76.1756 Y152.7958 I-272.1161 J581.4019
G2 X55.1274 Y144.2437 I-267.7042 J628.6875
G2 X54.7937 Y144.1145 I-8.9034 J22.4987
G1 X-22.1469 Y113.1995
G1 X-30.1248 Y109.8469
G1 X-38.1003 Y106.4885
G1 X-40.3786 Y105.5278
G1 X-42.982 Y104.4291
G1 X-49.9227 Y101.4956
G1 X-53.8878 Y99.8167
G1 X-58.4181 Y97.8954
G1 X-60.8339 Y96.8695
G1 X-63.4103 Y95.7743
G1 X-66.158 Y94.605
G1 X-69.0883 Y93.3566
G1 X-72.2133 Y92.0233
G1 X-75.546 Y90.5995
G1 X-79.0999 Y89.0786
G1 X-82.8898 Y87.454
G1 X-86.931 Y85.7181
G1 X-91.2401 Y83.8632
G1 X-95.8348 Y81.8805
G1 X-100.7338 Y79.761
G1 X-105.9569 Y77.4945
G1 X-108.6518 Y76.3223
G1 X-111.4327 Y75.1105
G1 X-114.3026 Y73.8579
G1 X-117.2642 Y72.5627
G1 X-120.3203 Y71.2236
G1 X-123.474 Y69.8388
G1 X-126.7282 Y68.4067
G1 X-130.0861 Y66.9255
G1 X-133.5509 Y65.3935
G1 X-137.126 Y63.8086
G1 X-140.8148 Y62.1688
G3 X-148.6783 Y58.6577 I1686.0314 J-3786.588
G1 X-152.7338 Y56.8383
G1 X-156.9177 Y54.955
G1 X-161.2339 Y53.0051
G1 X-165.6866 Y50.9861
G1 X-170.2798 Y48.8951
G1 X-172.6115 Y47.8303
G1 X-174.9795 Y46.7467
G2 X-173.0492 Y45.5162 I-114.3186 J-181.4534
G1 X-172.4095 Y45.1001
G2 X-169.876 Y43.3977 I-59.4207 J-91.1653
G2 X-169.1611 Y42.8983 I-254.8757 J-365.6865
G1 X-168.7816 Y42.6293
G2 X-168.3784 Y42.3402 I-21.8688 J-30.9284
G2 X-166.258 Y40.7574 I-46.3468 J-64.2983
G1 X-165.9885 Y40.5477
G2 X-163.1867 Y38.2204 I-35.5862 J-45.6915
G1 X-162.8364 Y37.9069
G1 X-162.478 Y37.5799
G2 X-160.8834 Y36.037 I-31.9499 J-34.615
G2 X-159.1678 Y34.1682 I-25.2674 J-24.9172
G1 X-159.0643 Y34.0464
G2 X-158.643 Y33.5381 I-21.3603 J-18.1343
G2 X-156.8637 Y31.0968 I-21.6752 J-17.6667
G2 X-155.2078 Y28.0569 I-18.61 J-12.1082
G2 X-154.5386 Y26.3298 I-16.658 J-7.4472
G2 X-153.7099 Y22.1487 I-15.9639 J-5.3366
G2 X-153.8746 Y21.8005 I-1.5995 J0.5436
G2 X-154.0998 Y21.488 I-1.9635 J1.1773
G2 X-154.6811 Y20.9876 I-1.7937 J1.4958
G2 X-155.1578 Y20.796 I-0.8404 J1.4019
G2 X-155.8484 Y20.8358 I-0.2753 J1.2334
G3 X-155.9203 Y21.2615 I-10.4723 J-1.5496
G1 X-155.9478 Y21.4028
G3 X-156.0744 Y21.9645 I-15.3938 J-3.1755
G3 X-156.3983 Y23.0693 I-15.2122 J-3.8599
G3 X-157.2686 Y25.1986 I-18.0844 J-6.1487
G3 X-157.2842 Y25.2313 I-0.3545 J-0.1496
G3 X-157.3001 Y25.2643 I-0.3564 J-0.151
G3 X-158.0214 Y26.6448 I-20.7594 J-9.9687
G3 X-158.0455 Y26.6876 I-0.44 J-0.2197
G3 X-158.0699 Y26.7307 I-0.4427 J-0.222
G3 X-159.1746 Y28.5257 I-26.2974 J-14.9465
G3 X-160.8144 Y30.8034 I-31.2017 J-20.7335
G3 X-160.8414 Y30.8382 I-0.5389 J-0.3909
G3 X-160.8686 Y30.8731 I-0.5416 J-0.3938
G3 X-163.3068 Y33.7412 I-36.4415 J-28.5089
G3 X-163.3873 Y33.8283 I-1.3703 J-1.1848
G3 X-166.9932 Y37.3589 I-38.5811 J-35.7975
G3 X-169.1994 Y39.2124 I-33.3073 J-37.4062
G3 X-170.4184 Y40.1474 I-32.9056 J-41.6398
G1 X-170.7328 Y40.3784
G3 X-172.0962 Y41.3321 I-24.7645 J-33.9516
G1 X-172.2707 Y41.4485
G3 X-172.6269 Y41.6819 I-8.9702 J-13.3018
G1 X-172.9914 Y41.9149
G1 X-173.1762 Y42.0308
G3 X-173.3631 Y42.1465 I-4.5714 J-7.1774
G3 X-174.9872 Y43.0832 I-16.8567 J-27.3507
G3 X-176.7842 Y43.9632 I-12.303 J-22.849
G3 X-178.7877 Y44.7106 I-7.1272 J-16.0471
G3 X-180.3077 Y45.0823 I-4.2293 J-14.0012
G3 X-181.8635 Y45.2486 I-1.8321 J-9.7785
G3 X-182.311 Y45.246 I-0.1721 J-9.0937
G3 X-182.8217 Y45.2116 I0.1789 J-6.4541
G3 X-184.1603 Y44.943 I0.6941 J-6.9299
G3 X-185.8216 Y44.1939 I2.1864 J-7.0659
G3 X-186.6797 Y43.6004 I4.6877 J-7.6931
G2 X-182.5334 Y41.766 I-61.9698 J-145.6805
G1 X-182.4006 Y41.7047
G2 X-178.1941 Y39.6527 I-45.6515 J-98.9203
G2 X-177.6407 Y39.3643 I-16.9099 J-33.1235
G2 X-176.3837 Y38.6898 I-45.4396 J-86.1908
G2 X-173.0979 Y36.7726 I-32.5303 J-59.5246
G2 X-172.8932 Y36.6443 I-4.8256 J-7.9278
G2 X-171.0481 Y35.4298 I-26.3094 J-41.9793
G1 X-170.8175 Y35.2699
G1 X-170.5843 Y35.106
G1 X-170.3484 Y34.9382
G2 X-168.2443 Y33.3305 I-23.2956 J-32.6694
G1 X-168.18 Y33.2778
G2 X-165.9166 Y31.2471 I-21.5198 J-26.2618
G2 X-163.5935 Y28.6538 I-18.8224 J-19.1991
G2 X-162.5053 Y27.1443 I-19.259 J-15.0298
G2 X-162.377 Y26.9479 I-4.4327 J-3.0372
G1 X-162.2497 Y26.7486
G2 X-161.7469 Y25.9105 I-16.5155 J-10.4785
G2 X-161.2685 Y25.4412 I-3.1379 J-3.6771
G2 X-160.8692 Y24.903 I-2.8484 J-2.5307
G2 X-160.4175 Y23.6455 I-2.7859 J-1.7107
G2 X-160.3984 Y22.751 I-3.7972 J-0.5284
G2 X-160.4676 Y22.2445 I-6.0298 J0.5656
G2 X-160.4927 Y22.1151 I-2.8444 J0.4854
G2 X-160.6368 Y21.5324 I-7.892 J1.6427
G2 X-160.7291 Y21.2267 I-7.6127 J2.1307
G2 X-160.7538 Y21.1495 I-0.8323 J0.2242
G2 X-160.7795 Y21.0712 I-0.9144 J0.256
G2 X-160.8059 Y20.992 I-1.0304 J0.2997
G2 X-160.8248 Y20.9363 I-0.8545 J0.2587
G2 X-160.8439 Y20.8806 I-0.946 J0.2932
G2 X-160.8826 Y20.7693 I-1.6606 J0.5155
G1 X-160.9617 Y20.5475
G1 X-161.0154 Y20.4
G1 X-161.2326 Y19.8108
G3 X-161.3744 Y19.417 I32.739 J-12.004
G1 X-161.452 Y19.1906
G3 X-161.492 Y19.0694 I2.5681 J-0.9139
G3 X-161.5784 Y18.7908 I11.3035 J-3.6572
G3 X-161.621 Y18.6412 I5.469 J-1.6384
G3 X-161.7872 Y17.8277 I5.5202 J-1.5514
G3 X-161.8125 Y17.3525 I3.7958 J-0.4402
G3 X-161.7469 Y16.8099 I2.5482 J0.0324
G3 X-161.1334 Y17.1337 I-6.5224 J13.1021
G3 X-161.0471 Y17.1825 I-0.6688 J1.2841
G3 X-160.9487 Y17.2389 I-0.7271 J1.3805
G3 X-160.8965 Y17.2693 I-0.5535 J1.013
G3 X-160.0728 Y17.7752 I-10.7948 J18.4996
G1 X-159.532 Y18.1257
G1 X-158.8128 Y18.5956
G1 X-158.3991 Y18.8597
G1 X-158.2916 Y18.9268
G1 X-158.1803 Y18.9956
G2 X-157.6661 Y19.3006 I7.3099 J-11.7378
G1 X-157.3874 Y19.4555
G1 X-157.2422 Y19.5328
G1 X-157.0911 Y19.6106
G2 X-156.3848 Y19.9347 I4.8949 J-9.7362
G2 X-155.5434 Y20.224 I2.8882 J-7.0318
G2 X-155.2521 Y20.0445 I-1.4735 J-2.7174
G2 X-154.9928 Y19.8212 I-1.0603 J-1.493
G2 X-154.6931 Y19.2083 I-0.7552 J-0.749
G2 X-154.729 Y18.7473 I-1.2803 J-0.1321
G2 X-154.7629 Y18.6284 I-1.944 J0.489
G2 X-154.8643 Y18.3666 I-2.6392 J0.872
G2 X-155.0073 Y18.0832 I-3.9772 J1.8287
G2 X-155.0911 Y17.9374 I-2.3707 J1.266
G2 X-155.5612 Y17.2209 I-10.8072 J6.5773
G3 X-155.832 Y16.8268 I16.9479 J-11.9371
G1 X-155.9719 Y16.6169
G3 X-156.1146 Y16.3923 I5.1053 J-3.4029
G3 X-156.4025 Y15.8707 I4.9149 J-3.0521
G3 X-156.6248 Y15.2369 I2.4919 J-1.2301
G3 X-156.6629 Y14.8798 I1.6445 J-0.3561
G2 X-154.6454 Y16.3343 I31.3702 J-41.3848
G2 X-152.569 Y17.7033 I35.5642 J-51.6828
G1 X-151.9666 Y18.0803
G2 X-150.3436 Y19.0584 I41.8209 J-67.562
G1 X-149.9072 Y19.313
G1 X-149.4401 Y19.582
G1 X-148.9401 Y19.866
G1 X-148.4052 Y20.1658
G1 X-147.8328 Y20.4824
G1 X-147.5366 Y20.6445
G1 X-147.2305 Y20.811
G1 X-146.914 Y20.982
G1 X-146.2374 Y21.3441
G2 X-142.6046 Y23.2272 I111.1076 J-209.8954
G1 X-142.373 Y23.345
G1 X-141.3844 Y23.8461
G1 X-139.1244 Y24.9902
G1 X-138.5418 Y25.2866
G1 X-137.3009 Y25.9228
G3 X-136.9863 Y26.0855 I-6.5994 J13.1465
G1 X-136.3379 Y26.4231
G1 X-135.67 Y26.7744
G1 X-135.3314 Y26.9542
G1 X-134.988 Y27.1378
G2 X-135.5041 Y27.2419 I0.4878 J3.7474
G2 X-135.9977 Y27.4249 I0.7569 J2.7991
G2 X-136.843 Y28.0474 I1.1688 J2.4722
G2 X-137.255 Y28.6163 I2.3789 J2.1562
G2 X-137.6215 Y29.4733 I3.7328 J2.1034
G2 X-137.8795 Y30.6734 I7.0477 J2.1428
G2 X-137.9514 Y31.3659 I10.6096 J1.4518
G2 X-137.9637 Y31.5447 I3.8616 J0.3551
G1 X-137.9741 Y31.7291
G2 X-137.9975 Y32.5643 I19.6507 J0.9677
G2 X-137.9906 Y33.5085 I41.0346 J0.172
G1 X-137.9783 Y34.0091
G1 X-137.9746 Y34.1361
G1 X-137.9708 Y34.2649
G1 X-137.9536 Y34.8114
G1 X-137.9449 Y35.0927
G3 X-137.9229 Y36.3646 I-35.2724 J1.2483
G3 X-137.9261 Y36.6921 I-8.72 J0.0771
G3 X-137.9471 Y37.1602 I-6.4737 J-0.0558
G1 X-137.9498 Y37.1914
G3 X-138.021 Y37.6861 I-4.8904 J-0.451
G3 X-138.0351 Y37.7513 I-0.6971 J-0.1169
G3 X-138.134 Y38.0931 I-2.9322 J-0.6636
G3 X-138.3463 Y38.5182 I-1.8369 J-0.6516
G2 X-138.5955 Y38.5759 I0.7779 J3.93
G1 X-138.6779 Y38.5983
G2 X-139.0033 Y38.7008 I1.1584 J4.2477
G2 X-139.6319 Y38.965 I1.6183 J4.7309
G2 X-140.0175 Y39.207 I1.0229 J2.0579
G2 X-140.1962 Y39.399 I0.4885 J0.6336
G2 X-140.2451 Y39.5346 I0.2667 J0.1728
G2 X-140.2015 Y39.698 I0.2447 J0.0223
G2 X-140.0528 Y39.8376 I0.4245 J-0.3032
G2 X-139.849 Y39.944 I0.6945 J-1.0818
G2 X-139.6209 Y40.0264 I0.8596 J-2.0243
G2 X-139.3691 Y40.0951 I0.9911 J-3.1341
G3 X-139.2524 Y40.1397 I-0.6992 J2.0062
G3 X-139.1364 Y40.1859 I-1.0831 J2.8846
G3 X-139.1033 Y40.1995 I-0.0844 J0.2533
G1 X-138.8408 Y40.3119
G3 X-138.806 Y40.3275 I-0.1003 J0.2715
G1 X-138.7266 Y40.3634
G3 X-138.1007 Y40.6682 I-5.249 J11.5749
G3 X-137.6898 Y40.8837 I-52.4154 J100.421
G1 X-137.1462 Y41.1793
G1 X-136.8365 Y41.3497
G1 X-136.4822 Y41.5438
G2 X-136.3905 Y41.5936 I1.0648 J-1.851
G1 X-135.9702 Y41.8181
G1 X-135.7445 Y41.935
G1 X-135.6275 Y41.9943
G1 X-135.3766 Y42.1183
G2 X-134.7949 Y42.3846 I5.5398 J-11.3322
G2 X-134.1129 Y42.6489 I4.2975 J-10.0804
G1 X-133.9335 Y42.708
G2 X-133.0942 Y42.9169 I1.986 J-6.189
G2 X-132.1039 Y42.9932 I0.8784 J-4.9358
G2 X-130.9726 Y42.8055 I-0.1095 J-4.162
G2 X-129.776 Y42.2256 I-1.4258 J-4.4669
G2 X-129.4949 Y42.0254 I-2.7757 J-4.1943
G2 X-129.2386 Y41.6062 I-3.6998 J-2.5504
G2 X-129.0278 Y41.1624 I-4.5796 J-2.4466
G1 X-128.9745 Y41.0326
G2 X-128.632 Y39.9652 I-8.326 J-3.2601
G2 X-128.5564 Y39.6539 I-11.6982 J-3.0042
G1 X-128.5195 Y39.4872
G2 X-128.3571 Y38.5919 I-15.8931 J-3.3444
G2 X-128.34 Y38.4758 I-2.3381 J-0.4036
G2 X-128.3232 Y38.3557 I-4.4322 J-0.6818
G2 X-128.1788 Y34.5063 I-20.3492 J-2.6911
G2 X-128.2161 Y33.9935 I-12.7053 J0.667
G2 X-128.2415 Y33.7293 I-13.3233 J1.1494
G2 X-128.4238 Y32.5305 I-12.4262 J1.2761
G1 X-128.4622 Y32.3525
G1 X-128.5054 Y32.1758
G2 X-128.6042 Y31.8256 I-6.1581 J1.5493
G2 X-128.8417 Y31.1379 I-9.7677 J2.9879
G2 X-129.0218 Y30.6874 I-14.3842 J5.4905
G1 X-129.1305 Y30.4325
G1 X-129.1899 Y30.2972
G3 X-128.3941 Y30.3873 I-0.0014 J3.5693
G3 X-127.632 Y30.6332 I-1.0731 J4.6297
G3 X-127.1482 Y30.8591 I-2.5964 J6.1929
G1 X-127.0222 Y30.9253
G3 X-126.3667 Y31.3047 I-6.9219 J12.7121
G2 X-125.507 Y31.8284 I22.0695 J-35.2647
G2 X-124.9989 Y32.0965 I3.1923 J-5.4341
G2 X-124.7158 Y32.2144 I1.4915 J-3.1827
G2 X-125.3168 Y33.3873 I5.1058 J3.3568
G2 X-125.6772 Y34.655 I7.1787 J2.726
G2 X-125.7425 Y35.0261 I11.4916 J2.2129
G2 X-125.8528 Y36.0235 I11.3212 J1.7572
G2 X-125.8974 Y37.3577 I21.1433 J1.3739
G2 X-125.8976 Y37.4425 I0.948 J0.0447
G1 X-125.8962 Y37.804
G1 X-125.8915 Y38.1893
G2 X-125.89 Y38.2871 I1.4324 J0.0262
G2 X-125.8883 Y38.3865 I1.54 J0.0236
G2 X-125.8865 Y38.4875 I1.6743 J0.0206
G1 X-125.8699 Y39.4084
G1 X-125.8669 Y39.646
G1 X-125.8645 Y40.1525
G1 X-125.8663 Y40.4138
G3 X-125.8791 Y40.9707 I-35.7801 J-0.5467
G1 X-125.8847 Y41.112
G3 X-125.8999 Y41.4036 I-7.4874 J-0.2438
G3 X-126.0475 Y42.7288 I-11.9187 J-0.6561
G3 X-126.1942 Y43.4255 I-8.6097 J-1.4502
G1 X-126.2407 Y43.6004
G2 X-127.1446 Y43.6652 I0.0658 J7.2437
G1 X-127.444 Y43.7065
G1 X-127.8419 Y43.7692
G1 X-128.3717 Y43.857
G2 X-127.696 Y44.6841 I5.5495 J-3.8439
G2 X-126.9105 Y45.4079 I6.2049 J-5.9462
G1 X-126.7994 Y45.497
G2 X-126.1864 Y45.9455 I7.5459 J-9.6679
G2 X-125.3279 Y46.4809 I7.6235 J-11.2686
G2 X-125.2721 Y46.5128 I0.3386 J-0.5278
G2 X-124.0572 Y47.1421 I9.1464 J-16.1694
G2 X-122.3886 Y47.8691 I13.3224 J-28.2986
G1 X-121.9382 Y48.049
G1 X-121.4564 Y48.2368
G1 X-121.3338 Y48.284
G1 X-120.2136 Y48.7107
G1 X-119.6169 Y48.9391
G2 X-119.0162 Y48.5811 I-0.5619 J-1.6258
G2 X-118.5662 Y48.0456 I-1.7837 J-1.9557
G2 X-118.3351 Y47.6414 I-3.1111 J-2.0469
G2 X-118.2221 Y47.4009 I-3.2069 J-1.6537
G2 X-118.1949 Y47.338 I-0.6147 J-0.3034
G1 X-118.1393 Y47.2029
G2 X-117.8917 Y46.4701 I-6.8187 J-2.7116
G2 X-117.8647 Y46.374 I-1.372 J-0.4374
G2 X-117.6326 Y45.3448 I-11.855 J-3.2147
G2 X-117.4402 Y43.9638 I-17.831 J-3.1873
G2 X-117.3286 Y42.1249 I-24.0579 J-2.3833
G2 X-117.3907 Y39.6898 I-23.4776 J-0.6198
G2 X-117.4598 Y39.0445 I-10.7054 J0.8207
G2 X-117.7532 Y37.8219 I-5.6077 J0.6993
G2 X-118.334 Y36.7068 I-4.6295 J1.7022
G2 X-118.8679 Y36.0589 I-4.1654 J2.8888
G2 X-119.711 Y35.3255 I-4.5796 J4.4137
G2 X-120.2393 Y34.9677 I-4.2921 J5.7667
G2 X-120.8703 Y34.6058 I-5.393 J8.673
G3 X-120.9538 Y34.5515 I0.1956 J-0.3924
G3 X-121.0109 Y34.4698 I0.0986 J-0.1297
G3 X-120.9929 Y34.4021 I0.0727 J-0.017
G3 X-120.9106 Y34.3538 I0.1281 J0.124
G3 X-120.7944 Y34.3361 I0.1379 J0.5168
G3 X-120.517 Y34.3752 I0.0072 J0.9545
G3 X-119.649 Y34.6494 I-2.3145 J8.8352
G3 X-118.8052 Y34.991 I-5.1023 J13.8159
G3 X-117.1722 Y35.793 I-10.9104 J24.2793
G1 X-116.7134 Y36.0372
G2 X-115.4925 Y36.6916 I107.8305 J-199.7192
G1 X-115.1651 Y36.8627
G1 X-114.9956 Y36.9497
G1 X-114.6321 Y37.1319
G2 X-114.241 Y37.3196 I7.0875 J-14.2704
G1 X-114.141 Y37.3659
G2 X-113.9337 Y37.4596 I3.0681 J-6.513
G1 X-113.7185 Y37.5531
G2 X-114.2871 Y38.9709 I7.1716 J3.6992
G2 X-114.6166 Y40.4626 I10.6857 J3.1426
G1 X-114.6462 Y40.6643
G2 X-114.7603 Y41.7441 I16.0649 J2.2446
G2 X-114.8328 Y43.1881 I32.444 J2.3514
G1 X-114.8533 Y44.0134
G1 X-114.8745 Y44.9558
G1 X-114.89 Y45.458
G3 X-114.9524 Y46.6036 I-25.729 J-0.8284
G3 X-115.1062 Y47.9053 I-14.9852 J-1.1099
G3 X-115.2433 Y48.5914 I-9.8466 J-1.6117
G1 X-117.3893 Y49.2088
G2 X-115.5325 Y50.6792 I19.3144 J-22.4813
G2 X-113.5484 Y51.9728 I13.5331 J-18.5895
G2 X-113.4832 Y52.0103 I0.6143 J-0.9932
G2 X-113.2033 Y52.1674 I5.6106 J-9.663
G2 X-111.6667 Y52.9221 I8.3454 J-15.0508
G2 X-109.5069 Y53.6645 I5.8456 J-13.4932
G2 X-108.2254 Y53.9227 I3.0116 J-11.6349
G2 X-107.4803 Y53.4706 I-1.463 J-3.2511
G2 X-106.8606 Y52.8576 I-2.5688 J-3.2166
G2 X-106.5225 Y52.3846 I-3.5906 J-2.9242
G2 X-106.1586 Y51.7019 I-4.5514 J-2.864
G1 X-106.1182 Y51.6105
G2 X-105.7703 Y50.6088 I-6.9453 J-2.9736
G2 X-105.5007 Y49.23 I-9.8695 J-2.6459
G2 X-105.4037 Y47.3759 I-12.8452 J-1.6009
G2 X-105.6571 Y44.9402 I-13.8186 J0.2065
G2 X-106.02 Y43.5928 I-9.2101 J1.7576
G2 X-106.3168 Y42.9092 I-4.6753 J1.6238
G1 X-106.3621 Y42.8268
G2 X-107.087 Y41.8214 I-5.2693 J3.0348
G2 X-107.9732 Y40.9546 I-6.627 J5.889
G2 X-108.62 Y40.4406 I-7.0107 J8.1584
G1 X-108.7981 Y40.3109
G1 X-108.8922 Y40.2393
G1 X-108.9225 Y40.214
G3 X-109.0293 Y40.0979 I0.286 J-0.37
G3 X-109.0213 Y40.0493 I0.0238 J-0.0211
G3 X-108.9847 Y40.0435 I0.0331 J0.0903
G3 X-108.9414 Y40.0478 I0.0031 J0.1867
G3 X-108.7963 Y40.0881 I-0.1323 J0.7589
G3 X-108.657 Y40.1428 I-0.6792 J1.9331
G1 X-108.5601 Y40.1862
G1 X-100.0896 Y44.1692
G1 X-91.6184 Y48.1504
G1 X-85.9719 Y50.8065
G1 X-84.4664 Y51.5154
G1 X-82.8606 Y52.2719
G1 X-81.148 Y53.0793
G1 X-79.3216 Y53.941
G1 X-77.3737 Y54.8609
G1 X-75.2963 Y55.8429
G1 X-73.081 Y56.8915
G1 X-68.0196 Y59.2931
G1 X-65.3217 Y60.577
G1 X-63.9297 Y61.2406
G3 X-57.5704 Y64.2831 I-988.2725 J2073.8127
G1 X-55.9305 Y65.0708
G1 X-54.2382 Y65.8852
G1 X-52.492 Y66.7272
G1 X-50.6902 Y67.5979
G1 X-48.8311 Y68.4983
G1 X-46.9129 Y69.4295
G1 X-44.9338 Y70.3928
G1 X-45.0381 Y70.3808
G1 X-45.1425 Y70.3684
G1 X-45.3511 Y70.3424
G1 X-45.4901 Y70.3244
G1 X-46.0456 Y70.2497
G2 X-46.0815 Y70.2448 I-0.0542 J0.2636
G1 X-46.4638 Y70.1932
G1 X-46.9739 Y70.1277
G1 X-47.2658 Y70.0934
G1 X-47.5998 Y70.0579
G2 X-47.6862 Y70.0495 I-0.1434 J1.0273
G2 X-48.6087 Y69.9857 I-1.5479 J15.6787
G2 X-48.8552 Y69.9784 I-0.4456 J10.9582
G2 X-50.1701 Y70.0404 I-0.2262 J9.1897
G2 X-50.9112 Y70.1798 I0.7635 J6.0982
G2 X-51.7265 Y70.4696 I1.1237 J4.4526
G2 X-52.5654 Y71.0101 I1.5183 J3.2776
G2 X-51.5735 Y72.5865 I6.8037 J-3.1809
G2 X-50.2366 Y73.8834 I6.463 J-5.3246
G2 X-49.2109 Y74.5844 I6.1594 J-7.912
G2 X-47.7437 Y75.345 I6.9559 J-11.6233
G2 X-47.3394 Y75.5204 I6.0223 J-13.3263
G2 X-46.4032 Y75.8863 I7.4894 J-17.7834
G1 X-46.1591 Y75.974
G1 X-45.9065 Y76.0619
G2 X-44.7458 Y76.4362 I9.9325 J-28.8137
G2 X-44.6722 Y76.4586 I0.3731 J-1.0944
G1 X-44.0447 Y76.6447
G1 X-43.3744 Y76.8362
G1 X-43.0282 Y76.9333
G1 X-41.4508 Y77.3732
G1 X-41.3516 Y77.4014
G1 X-40.9426 Y77.5188
G1 X-40.5216 Y77.6426
G3 X-38.6225 Y78.2661 I-9.1632 J31.1175
G1 Y79.1456
G2 X-36.796 Y81.0173 I38.0907 J-35.3446
G2 X-34.8607 Y82.7761 I27.3198 J-28.1159
G1 X-34.5932 Y83.0
G2 X-33.1249 Y84.1419 I20.0545 J-24.2707
G2 X-31.049 Y85.5001 I14.2816 J-19.563
G2 X-29.7983 Y86.1697 I10.1568 J-17.4688
G1 X-29.6361 Y86.2482
G1 X-29.4705 Y86.3264
G1 X-29.3015 Y86.4041
G1 X-29.129 Y86.4813
G1 X-28.9528 Y86.5578
G1 X-28.7731 Y86.6336
G1 X-28.5896 Y86.7084
G2 X-26.8711 Y87.2883 I5.8999 J-14.6482
G2 X-24.8322 Y87.6881 I3.705 J-13.4969
G1 X-24.5696 Y87.7166
G2 X-22.1469 Y87.7275 I1.2685 J-12.6545
G1 Y86.4146
G3 X-20.9912 Y86.8739 I-3.3009 J9.9907
G3 X-19.8833 Y87.4385 I-7.503 J16.0935
G1 X-19.5736 Y87.6127
G3 X-18.758 Y88.0944 I-14.1584 J24.9006
G1 X-17.6816 Y88.7537
G2 X-16.2309 Y89.605 I18.2664 J-29.4653
G1 X-16.0399 Y89.7083
G1 X-15.8416 Y89.8126
G2 X-15.4136 Y90.0256 I5.3325 J-10.1759
G2 X-14.4057 Y90.4496 I4.9412 J-10.3364
G1 X-14.3407 Y90.4727
G1 X-14.275 Y90.4954
G1 X-14.2086 Y90.5177
G2 X-13.6341 Y90.685 I2.3882 J-7.1331
G2 X-12.2727 Y90.8738 I1.5266 J-6.0032
G1 X-14.8203 Y87.032
G1 X-4.63 Y92.7185
G2 X-4.3988 Y92.5402 I-1.1593 J-1.7428
G2 X-4.2034 Y92.3231 I-0.7905 J-0.9078
G2 X-4.0801 Y91.7547 I-0.5676 J-0.4208
G2 X-4.2343 Y91.3896 I-1.1154 J0.2559
G2 X-4.3623 Y91.2046 I-1.6027 J0.9725
G2 X-4.7437 Y90.7741 I-3.6857 J2.881
G2 X-4.9697 Y90.5471 I-11.4146 J11.1389
G1 X-5.2216 Y90.2959
G1 X-5.3521 Y90.1617
G1 X-5.4863 Y90.0172
G3 X-5.7637 Y89.6758 I2.9965 J-2.7185
G1 X-5.7797 Y89.6531
G3 X-6.0112 Y89.2114 I1.4356 J-1.0341
G3 X-6.0655 Y88.9492 I1.022 J-0.3483
G2 X-5.4174 Y89.2365 I33.6819 J-75.1063
G2 X-4.7691 Y89.5234 I33.252 J-74.2477
G2 X-4.3368 Y89.7145 I26.8393 J-60.127
G2 X-3.7603 Y89.9691 I30.7263 J-68.8044
G2 X-2.9914 Y90.3081 I35.0838 J-78.5338
G2 X-2.5519 Y90.5016 I26.1966 J-58.9041
G2 X-2.0496 Y90.7225 I27.7936 J-62.5133
G2 X-1.4754 Y90.9747 I29.4622 J-66.2911
G2 X-0.819 Y91.2627 I31.2012 J-70.2366
G2 X-0.0687 Y91.5913 I33.0104 J-74.3517
G2 X0.3316 Y91.7663 I23.8471 J-53.9755
G2 X0.7586 Y91.953 I24.485 J-55.4491
G2 X1.2141 Y92.1518 I25.1334 J-56.9504
G2 X1.7001 Y92.3638 I25.7921 J-58.4795
G2 X2.2187 Y92.5896 I26.461 J-60.0363
G2 X2.7718 Y92.8303 I27.1399 J-61.6211
G2 X3.362 Y93.0868 I27.8283 J-63.2332
G2 X3.9917 Y93.36 I28.5267 J-64.8742
G2 X4.6634 Y93.6511 I29.2352 J-66.5448
G2 X5.3802 Y93.9612 I29.9535 J-68.2451
G2 X5.7502 Y94.1211 I21.3266 J-48.8406
G2 X6.1322 Y94.2861 I21.5776 J-49.4454
G2 X6.5265 Y94.4562 I21.83 J-50.0554
G2 X19.1728 Y99.8376 I593.8556 J-1378.0286
G2 X19.5751 Y100.0065 I19.7089 J-46.3835
G2 X19.9839 Y100.1779 I19.8166 J-46.6693
G2 X20.3991 Y100.352 I19.9251 J-46.9579
G2 X20.8211 Y100.5287 I20.0344 J-47.2491
G2 X21.2498 Y100.708 I20.1445 J-47.5431
G2 X21.6853 Y100.8901 I20.2555 J-47.8401
G2 X22.1278 Y101.0749 I20.3674 J-48.1401
G2 X22.5774 Y101.2626 I20.4801 J-48.4431
G2 X23.0342 Y101.453 I20.5939 J-48.7495
G2 X23.4983 Y101.6464 I20.7084 J-49.0584
G2 X33.4134 Y105.7356 I595.4554 J-1429.7146
G2 X34.0438 Y105.993 I23.1756 J-55.8531
G2 X34.6844 Y106.2543 I23.3213 J-56.2614
G2 X35.3352 Y106.5195 I23.4694 J-56.6767
G2 X35.9965 Y106.7885 I23.6197 J-57.0992
G2 X36.3298 Y106.924 I16.6854 J-40.5643
G2 X36.6657 Y107.0605 I16.7391 J-40.7171
G2 X37.0044 Y107.198 I16.7932 J-40.8714
G2 X37.3457 Y107.3365 I16.8478 J-41.0271
G2 X37.6897 Y107.4761 I16.9028 J-41.184
G2 X38.0365 Y107.6166 I16.9584 J-41.3427
G2 X38.386 Y107.7582 I17.0143 J-41.5025
G2 X38.7383 Y107.9008 I17.0708 J-41.6643
G2 X39.0934 Y108.0445 I17.1279 J-41.8275
G2 X39.4514 Y108.1892 I17.1855 J-41.9924
G2 X39.8122 Y108.335 I17.2436 J-42.1588
G2 X40.1758 Y108.4818 I17.3023 J-42.327
G2 X40.5424 Y108.6297 I17.3616 J-42.4969
G2 X40.9119 Y108.7787 I17.4214 J-42.6686
G2 X41.2843 Y108.9288 I17.4819 J-42.8421
G2 X41.6597 Y109.08 I17.5429 J-43.0174
G2 X57.7063 Y115.4549 I689.663 J-1712.6041
G2 X58.2126 Y115.6534 I20.4686 J-51.4628
G2 X58.723 Y115.8534 I20.5696 J-51.7545
G2 X59.2374 Y116.0547 I20.6721 J-52.0506
G2 X59.7559 Y116.2575 I20.7766 J-52.3523
G2 X60.2786 Y116.4618 I20.8828 J-52.659
G2 X60.8054 Y116.6676 I20.991 J-52.971
G2 X61.3364 Y116.8748 I21.101 J-53.2885
G2 X61.8717 Y117.0835 I21.2131 J-53.6117
G2 X62.4112 Y117.2937 I21.3271 J-53.9406
G2 X62.9551 Y117.5054 I21.4433 J-54.2754
G2 X63.5033 Y117.7187 I21.5616 J-54.6164
G2 X64.0558 Y117.9335 I21.6822 J-54.9637
G2 X64.6128 Y118.1498 I21.8051 J-55.3177
G2 X65.1742 Y118.3677 I21.9304 J-55.6785
G2 X65.7401 Y118.5871 I22.0581 J-56.0461
G2 X66.3105 Y118.8081 I22.1885 J-56.4211
G2 X66.8855 Y119.0307 I22.3215 J-56.8034
G2 X67.465 Y119.2549 I22.4572 J-57.1937
G2 X68.0492 Y119.4807 I22.5958 J-57.5919
G2 X68.638 Y119.7081 I22.7374 J-57.9983
G2 X69.2315 Y119.9371 I22.8819 J-58.4132
G2 X94.6074 Y129.5718 I987.547 J-2562.7636
G2 X95.4082 Y129.8714 I32.5889 J-85.8902
G2 X110.0624 Y135.3145 I1262.8535 J-3377.5028
G2 X110.9863 Y135.6553 I47.5751 J-127.5158
G2 X111.9175 Y135.9987 I49.1793 J-131.9466
G2 X112.8561 Y136.3445 I50.9611 J-136.8647
G2 X113.8022 Y136.6929 I52.9562 J-142.368
G2 X114.7558 Y137.0437 I55.2103 J-148.5815
G2 X115.717 Y137.3972 I57.7848 J-155.6735
G2 X116.6859 Y137.7532 I60.7634 J-163.8735
G2 X134.4133 Y144.2303 I1855.849 J-5051.7891
G1 X138.991 Y145.8938
G1 X143.7172 Y147.6086
G1 X200.1919 Y168.1027
G1 X200.3083 Y168.4828
G1 X200.4321 Y168.8605
G1 X200.5187 Y169.111
G2 X200.5423 Y169.1777 I0.7378 J-0.224
G1 X200.6719 Y169.5316
G1 X200.7488 Y169.7329
G2 X201.4314 Y171.3145 I21.3378 J-8.2719
G2 X201.9483 Y172.3402 I25.5376 J-12.2258
G2 X201.9827 Y172.4046 I0.6511 J-0.3063
G1 X202.1313 Y172.678
G2 X202.4824 Y173.2965 I28.2966 J-15.6558
G1 X202.676 Y173.6226
G1 X202.8871 Y173.9677
G1 X203.1175 Y174.3326
G2 X204.4271 Y176.2235 I28.1342 J-18.0877
G2 X206.3537 Y178.6067 I31.2898 J-23.3243
G2 X209.1689 Y181.5613 I36.3155 J-31.7828
G2 X210.8764 Y183.1479 I40.5541 J-41.9321
G2 X212.8977 Y184.8796 I44.4801 J-49.8729
G1 X213.4301 Y185.3134
G1 X213.9838 Y185.7559
G2 X214.5595 Y186.2069 I22.9543 J-28.7093
G2 X217.2399 Y188.1988 I53.8055 J-69.6012
G2 X220.3877 Y190.3476 I55.3119 J-77.6474
G1 X220.5887 Y190.4789
G1 X220.7917 Y190.6107
G1 X220.9966 Y190.743
G1 X221.2033 Y190.8759
G2 X225.0278 Y193.2205 I59.4109 J-92.6184
G2 X227.1011 Y194.4109 I75.3331 J-128.8125
G2 X227.1664 Y194.4475 I0.5807 J-0.9578
G2 X229.4046 Y195.6754 I67.3351 J-120.0863
G2 X234.5895 Y198.3269 I70.4911 J-131.4495
G2 X234.6715 Y198.3668 I0.6576 J-1.2449
G2 X245.8607 Y203.5908 I167.1968 J-343.5204
G2 X246.2243 Y203.7535 I11.9718 J-26.2652
G2 X246.5998 Y203.9212 I11.9673 J-26.3065
G2 X246.9876 Y204.0938 I11.9665 J-26.3575
G2 X247.3881 Y204.2716 I11.9691 J-26.4177
G2 X247.8016 Y204.4547 I11.9754 J-26.4874
G2 X252.2245 Y206.3822 I179.9851 J-406.9715
G2 X252.506 Y206.503 I8.5674 J-19.5708
G2 X255.083 Y207.5995 I175.8218 J-409.6402
G2 X255.4107 Y207.7377 I8.7544 J-20.2985
G2 X262.4227 Y210.6344 I219.7701 J-522.058
G2 X262.6442 Y210.7241 I6.6295 J-16.0468
G1 X264.5354 Y211.4862
G2 X274.6596 Y215.4557 I275.4956 J-687.7643
G2 X277.3684 Y216.4909 I218.6676 J-568.109
G2 X283.5708 Y218.8279 I405.8548 J-1067.7556
G2 X283.962 Y218.9739 I10.1833 J-26.6805
G2 X284.3563 Y219.121 I10.3133 J-27.0508
G2 X284.7537 Y219.269 I10.4492 J-27.437
G2 X285.1544 Y219.4182 I10.5915 J-27.8407
G2 X285.5582 Y219.5683 I10.7403 J-28.2624
G2 X285.9652 Y219.7196 I10.8963 J-28.7038
G2 X286.3755 Y219.8719 I11.0601 J-29.1664
G2 X286.7891 Y220.0253 I11.2322 J-29.6519
G2 X287.2059 Y220.1797 I11.4134 J-30.1622
G2 X287.6261 Y220.3353 I11.6045 J-30.6994
G2 X288.0497 Y220.4919 I11.8062 J-31.266
G2 X288.4766 Y220.6497 I12.0196 J-31.8645
G2 X288.9069 Y220.8086 I12.246 J-32.4984
G2 X289.3406 Y220.9687 I12.4863 J-33.1707
G1 X293.0433 Y222.3303
G1 X296.9951 Y223.7764
G2 X297.4931 Y223.9582 I22.9265 J-62.0123
G2 X297.995 Y224.1414 I24.6674 J-66.7976
G2 X298.501 Y224.326 I26.8735 J-72.859
G2 X299.0109 Y224.5121 I29.7972 J-80.8888
G2 X299.5248 Y224.6995 I33.9372 J-92.2555
G2 X300.569 Y225.0802 I64.8168 J-176.1598
G1 X305.0244 Y226.7039
G1 X309.7759 Y228.4379
G1 X312.2275 Y229.3353
G1 X314.7571 Y230.2641
G1 X316.0415 Y230.7371
G1 X317.346 Y231.2185
G1 X318.6708 Y231.7087
G1 X320.0161 Y232.2079
G1 X321.3823 Y232.7164
G2 X322.0325 Y234.5794 I30.2422 J-9.5091
G1 X322.134 Y234.8424
G1 X322.2521 Y235.1421
G1 X322.3894 Y235.4837
G1 X322.549 Y235.873
G1 X322.7343 Y236.3168
G1 X322.949 Y236.8227
G1 X323.1968 Y237.3998
G3 X323.8588 Y238.938 I-196.5368 J85.4967
G1 X323.9434 Y239.137
G3 X324.8049 Y241.2745 I-50.0256 J21.4051
G3 X325.016 Y241.8518 I-44.7885 J16.703
G1 X325.1207 Y242.1513
G1 X325.2254 Y242.4616
G1 X325.3296 Y242.7833
G1 X325.4326 Y243.1168
G3 X325.6357 Y243.8334 I-16.7446 J5.1321
G1 X325.7306 Y244.206
G3 X325.8208 Y244.5926 I-40.0144 J9.5367
G3 X326.1169 Y246.3857 I-15.6633 J3.5077
G3 X326.1724 Y248.4686 I-12.8767 J1.3851
G3 X325.1728 Y248.3134 I2.5148 J-19.4879
G1 X324.8409 Y248.2536
G1 X324.3992 Y248.1696
G1 X323.8116 Y248.0514
G3 X321.4711 Y247.5324 I16.9531 J-81.9779
G3 X319.917 Y247.1596 I34.8131 J-148.5593
G1 X319.0305 Y246.94
G1 X318.5581 Y246.8213
G1 X318.0546 Y246.6936
G1 X316.9046 Y246.3978
G1 X316.608 Y246.3206
G1 X315.9756 Y246.155
G1 X315.3015 Y245.9771
G1 X313.7619 Y245.5654
G1 X312.9414 Y245.3434
G1 X311.0677 Y244.8304
G1 X310.0692 Y244.554
G1 X309.0047 Y244.2571
G3 X292.0368 Y239.302 I228.5918 J-814.2998
G1 X290.9458 Y238.9696
G1 X290.809 Y238.9277
G1 X289.6794 Y238.58
G1 X289.395 Y238.4917
G1 X289.2522 Y238.4473
G1 X288.6727 Y238.2653
G2 X285.0717 Y237.1789 I-37.0699 J116.3634
G2 X281.4322 Y236.2292 I-22.5321 J78.8968
G1 X280.9436 Y236.1163
G2 X279.8233 Y235.8725 I-20.385 J90.9836
G2 X276.8142 Y235.3321 I-11.295 J54.2471
G2 X276.0068 Y235.2183 I-4.9576 J32.2476
G2 X275.8014 Y235.1916 I-1.2708 J8.9724
G2 X275.5926 Y235.1654 I-1.0841 J7.7974
G2 X276.0942 Y235.7452 I8.0342 J-6.444
G2 X276.634 Y236.2894 I8.6283 J-8.0186
G2 X277.8057 Y237.2768 I9.3252 J-9.8773
G2 X278.6391 Y237.8677 I10.9874 J-14.6137
G1 X278.8668 Y238.0171
G2 X280.1115 Y238.7644 I11.4835 J-17.7159
G2 X280.192 Y238.8094 I0.5386 J-0.8708
G2 X280.2327 Y238.8319 I0.3753 J-0.6288
G2 X280.2737 Y238.8546 I0.3776 J-0.6351
G2 X280.3151 Y238.8774 I0.3799 J-0.6416
G2 X280.3568 Y238.9002 I0.3824 J-0.6482
G2 X282.1633 Y239.8182 I16.9732 J-31.167
G2 X282.221 Y239.8456 I0.6005 J-1.1879
G2 X282.2792 Y239.8732 I0.6153 J-1.2224
G1 X282.7763 Y240.1054
G1 X283.3086 Y240.3483
G1 X283.878 Y240.6031
G1 X284.4867 Y240.8715
G1 X285.1364 Y241.1557
G3 X286.6185 Y241.808 I-69.5408 J159.9916
G3 X287.4045 Y242.1647 I-23.4289 J52.6779
G0 Z5.0
M5
M30
