( Made using CamBam - http://www.cambam.co.uk )
( _2014_1_20_car 1/20/2014 11:53:52 PM )
( T0 : 0.0 )
G21 G90 G64 G40
G0 Z5.0
( T0 : 0.0 )
T0 M6
( 194195 )
G17
M3 S1000
G0 X-161.0402 Y201.4537
G1 F1.0 Z0.0
G2 X-160.543 Y201.9813 I3.595 J-2.89
G2 X-160.4771 Y202.0404 I0.827 J-0.8557
G2 X-159.9239 Y202.4787 I4.2607 J-4.809
G1 X-159.7824 Y202.5782
G2 X-158.6019 Y203.2873 I6.9685 J-10.265
G1 X-158.4546 Y203.3646
G2 X-157.2585 Y203.9334 I9.8911 J-19.258
G1 X-156.9642 Y204.0603
G2 X-156.3761 Y204.3017 I19.016 J-45.4961
G1 X-156.0849 Y204.4158
G1 X-155.9401 Y204.4714
G2 X-153.6041 Y205.2801 I15.4903 J-40.9686
G1 X-153.535 Y205.3019
G1 X-153.466 Y205.3236
G1 X-152.9148 Y205.4933
G1 X-152.3706 Y205.6551
G1 X-152.1022 Y205.7329
G1 X-151.8356 Y205.809
G1 X-151.3058 Y205.9569
G2 X-149.2098 Y206.5026 I23.9444 J-87.6582
G1 X-148.7168 Y206.623
G1 X-148.4739 Y206.6814
G1 X-148.2327 Y206.7386
G1 X-147.9933 Y206.7948
G1 X-147.5178 Y206.9048
G1 X-147.2836 Y206.9581
G2 X-147.0511 Y207.0105 I1.7646 J-7.2865
G1 X-146.1275 Y207.2137
G1 X-145.2313 Y207.4038
G1 X-144.3618 Y207.5819
G1 X-143.9402 Y207.6661
G1 X-143.5249 Y207.7478
G1 X-142.7068 Y207.9051
G1 X-142.5085 Y207.9425
G1 X-142.1149 Y208.016
G2 X-135.8948 Y209.0526 I32.6505 J-176.7449
G2 X-131.2096 Y209.6976 I32.8469 J-221.2637
G1 X-130.3295 Y209.8067
G1 X-129.504 Y209.9056
G1 X-129.3104 Y209.9283
G1 X-129.1198 Y209.9505
G1 X-128.3694 Y210.0361
G1 X-127.6656 Y210.1139
G2 X-125.024 Y210.3828 I21.8938 J-201.9645
G1 X-124.0324 Y210.4739
G1 X-123.1643 Y210.5489
G1 X-122.7844 Y210.5803
G1 X-122.0719 Y210.6366
G1 X-121.4483 Y210.683
G1 X-120.9024 Y210.7214
G1 X-119.9468 Y210.783
G2 X-118.5123 Y210.8602 I4.9297 J-78.1764
G1 X-117.7946 Y210.8908
G1 X-117.0768 Y210.9151
G1 X-117.3965 Y210.7635
G1 X-117.7146 Y210.6151
G2 X-118.9855 Y210.0452 I-23.9685 J51.7567
G2 X-124.0137 Y208.0906 I-28.7492 J66.5133
G1 X-124.5714 Y207.8985
G2 X-126.7793 Y207.178 I-26.1328 J76.3421
G1 X-127.2992 Y207.0172
G1 X-127.5554 Y206.939
G2 X-128.5744 Y206.6358 I-17.4733 J56.843
G2 X-132.5497 Y205.5562 I-29.9779 J102.531
G1 X-132.9868 Y205.4468
G2 X-139.917 Y203.9269 I-31.8285 J128.566
G2 X-150.4323 Y202.2952 I-28.1567 J146.7568
G1 X-151.0931 Y202.2181
G1 X-151.7129 Y202.1485
G2 X-156.3701 Y201.7141 I-15.6409 J142.5213
G1 X-156.6616 Y201.6924
G1 X-157.2084 Y201.6535
G1 X-158.1656 Y201.5913
G1 X-158.8839 Y201.5498
G1 X-159.1533 Y201.5354
G1 X-159.3892 Y201.5233
G1 X-159.8019 Y201.5034
G2 X-160.421 Y201.4767 I-1.98 J38.622
G1 X-160.7306 Y201.4647
G1 X-161.0402 Y201.4537
G0 Z5.0
G0 X-161.113 Y199.2465
G1 Z0.0
G3 X-160.7783 Y199.2367 I1.5129 J45.8974
G3 X-159.9401 Y199.2214 I1.681 J69.0213
G1 X-159.7338 Y199.2196
G1 X-159.5283 Y199.2185
G1 X-159.1189 Y199.2186
G1 X-158.7128 Y199.2213
G3 X-155.4915 Y199.3281 I-0.9434 J77.1006
G3 X-152.4781 Y199.5427 I-5.0442 J92.1056
G3 X-146.8497 Y200.1762 I-10.1293 J115.311
G1 X-146.2359 Y200.2611
G3 X-145.632 Y200.3475 I-10.6128 J76.3797
G3 X-140.8901 Y201.1169 I-20.4568 J141.0778
G3 X-132.654 Y202.8143 I-28.1019 J157.1845
G3 X-126.5375 Y204.3761 I-34.0629 J146.1523
G3 X-121.9965 Y205.7308 I-32.8714 J118.4747
G1 X-121.1506 Y206.0053
G3 X-120.9527 Y206.0707 I-1.9046 J6.0999
G3 X-120.7579 Y206.1354 I-1.7532 J5.5988
G3 X-120.5663 Y206.1996 I-1.6346 J5.2022
G3 X-119.0625 Y206.7184 I-28.1867 J84.1311
G1 X-118.4073 Y206.9538
G3 X-115.9694 Y207.8882 I-27.0764 J74.2943
G1 X-115.5162 Y208.0737
G3 X-113.8308 Y208.8047 I-19.078 J46.294
G3 X-113.6742 Y208.8764 I-1.5853 J3.6701
G3 X-113.5226 Y208.9465 I-1.8446 J4.1887
G3 X-113.3761 Y209.0149 I-2.3894 J5.3084
G3 X-113.2344 Y209.0817 I-4.5375 J9.8078
G3 X-112.9606 Y209.2127 I-5.0746 J10.9603
G1 X-112.7048 Y209.3374
G1 X-112.466 Y209.456
G1 X-112.2427 Y209.569
G1 X-111.8265 Y209.7853
G3 X-110.4001 Y210.5972 I-11.8044 J22.397
G1 X-110.2259 Y210.7059
G3 X-109.0473 Y211.5268 I-7.9528 J12.6746
G3 X-108.8592 Y211.7338 I-0.295 J0.4571
G3 X-108.7917 Y211.9616 I-0.5848 J0.2972
G3 X-108.8428 Y212.3675 I-0.907 J0.0919
G3 X-109.1955 Y212.8621 I-1.0536 J-0.3782
G3 X-109.7502 Y213.1094 I-0.7503 J-0.9372
G3 X-112.963 Y213.2663 I-6.3322 J-96.663
G3 X-118.9924 Y213.2775 I-3.2018 J-101.1719
G3 X-124.2598 Y213.008 I3.0721 J-111.6611
G3 X-133.4294 Y211.9801 I9.5925 J-126.9875
G3 X-140.2479 Y210.8005 I21.5186 J-144.6826
G1 X-140.8842 Y210.6737
G3 X-145.7966 Y209.6037 I30.9651 J-153.9677
G3 X-153.1011 Y207.7302 I41.6352 J-177.511
G3 X-160.3262 Y205.5707 I53.308 J-191.5208
G3 X-160.8331 Y205.3926 I4.9067 J-14.7723
G3 X-162.7032 Y204.6004 I6.4648 J-17.8657
G1 X-162.7478 Y204.5784
G1 X-162.792 Y204.5563
G1 X-162.8359 Y204.5343
G1 X-163.0092 Y204.4453
G1 X-163.093 Y204.4012
G1 X-163.2576 Y204.3124
G3 X-163.884 Y203.9434 I5.5662 J-10.1645
G1 X-164.0198 Y203.8556
G3 X-164.1504 Y203.7681 I1.6744 J-2.6382
G3 X-164.3996 Y203.5911 I9.8509 J-14.1389
G3 X-165.2606 Y202.8266 I3.4361 J-4.7367
G3 X-165.279 Y202.806 I0.1322 J-0.1374
G3 X-165.4207 Y202.6385 I2.5774 J-2.3232
G3 X-165.4367 Y202.6183 I0.1318 J-0.121
G3 X-165.854 Y201.9169 I2.2686 J-1.8245
G3 X-166.0014 Y201.3202 I1.9428 J-0.7965
G3 X-165.8712 Y200.4145 I2.0186 J-0.1719
G3 X-165.6723 Y200.0011 I2.7645 J1.0753
G3 X-165.4139 Y199.622 I3.0395 J1.7941
G3 X-163.6019 Y199.3996 I4.4801 J29.0023
G1 X-163.1619 Y199.3612
G1 X-162.9434 Y199.3441
G1 X-162.5081 Y199.3137
G3 X-161.113 Y199.2465 I2.908 J45.8302
G0 Z5.0
M5
M30
