( Made using CamBam - http://www.cambam.co.uk )
( _2014_1_20_car 1/20/2014 11:31:38 PM )
( T0 : 0.0 )
G21 G90 G64 G40
G0 Z5.0
( T0 : 0.0 )
T0 M6
( 204 )
G17
M3 S1000
G0 X205.1343 Y120.5206
G1 F1.0 Z0.0
G1 X200.3652 Y117.6541
G1 X195.8923 Y114.9699
G1 X191.6975 Y112.4559
G2 X191.4516 Y112.3086 I-6.3471 J10.3179
G1 X183.614 Y107.6183
G1 X176.7538 Y103.5179
G1 X164.7468 Y96.3454
G1 X155.7426 Y90.9641
G1 X152.3667 Y88.9449
G1 X149.4134 Y87.1772
G1 X144.2464 Y84.0817
G1 X143.2778 Y83.5009
G3 X128.759 Y74.772 I3591.187 J-5989.6316
G1 X109.243 Y63.4429
G1 X79.9723 Y46.444
G1 X78.1431 Y45.3812
G1 X71.2838 Y41.3953
G1 X60.9964 Y35.4137
G1 X60.8357 Y35.3202
G1 X55.7739 Y32.3735
G1 X53.244 Y30.8984
G3 X53.0859 Y30.8061 I2.0823 J-3.7484
G1 X51.9008 Y30.1134
G1 X51.3087 Y29.7663
G1 X50.7175 Y29.4176
G1 X50.4457 Y29.9586
G1 X49.9416 Y30.9756
G1 X49.7231 Y31.4215
G2 X48.1296 Y34.7881 I128.6918 J62.973
G2 X48.1055 Y34.8411 I0.5004 J0.2592
G2 X47.3694 Y36.5207 I59.6658 J27.1508
G2 X47.0262 Y37.3712 I22.8149 J9.7019
G1 X46.9449 Y37.5856
G2 X46.828 Y37.9091 I13.009 J4.8837
G1 X46.7999 Y37.9904
G1 X46.7793 Y38.0515
G1 X46.749 Y38.1434
G2 X46.7416 Y38.1665 I0.0771 J0.0376
G2 X46.7197 Y38.2356 I1.0389 J0.3673
G2 X46.5485 Y38.8757 I8.1503 J2.5216
G2 X46.4516 Y39.4505 I4.9857 J1.1369
G2 X46.461 Y40.4713 I3.9036 J0.4742
G2 X47.0482 Y41.8741 I3.0296 J-0.4438
G2 X47.5637 Y42.4367 I3.0823 J-2.3065
G2 X48.1663 Y42.9049 I3.6597 J-4.0883
G1 X47.0542 Y43.857
G1 X46.9262 Y43.7481
G2 X46.3815 Y43.3919 I-1.8766 J2.2754
G2 X45.8432 Y43.2195 I-0.8185 J1.6289
G2 X45.3571 Y43.2231 I-0.2315 J1.5391
G2 X44.9539 Y43.3406 I0.2734 J1.6884
G2 X44.6293 Y43.5076 I1.0099 J2.3614
G2 X44.1194 Y43.889 I2.0279 J3.2432
G2 X43.4504 Y44.5686 I5.1165 J5.7055
G2 X43.1411 Y44.9316 I10.4535 J9.2215
G1 X42.9901 Y45.1161
G2 X42.9152 Y45.2089 I2.0481 J1.7296
G1 X42.8779 Y45.2554
G1 X42.8406 Y45.3019
G3 X39.2062 Y49.2632 I-30.7832 J-24.595
G3 X31.6654 Y54.8374 I-26.4891 J-27.9468
G3 X30.8964 Y55.2628 I-18.9394 J-33.3341
G3 X29.3816 Y56.0396 I-18.0394 J-33.3101
G1 X29.0221 Y56.2128
G3 X26.1396 Y57.4591 I-18.8327 J-39.5976
G1 X25.8194 Y57.5831
G3 X25.1862 Y57.8201 I-11.8685 J-30.7349
G3 X20.1801 Y59.3574 I-17.3147 J-47.4645
G3 X16.3419 Y60.1871 I-14.3743 J-57.2057
G1 X16.2513 Y60.2035
G1 X16.1613 Y60.2196
G3 X10.4152 Y60.9871 I-11.8454 J-66.7936
G3 X4.6269 Y61.3052 I-7.4242 J-82.2746
G1 X3.8503 Y61.3171
G3 X0.7926 Y61.2935 I-0.9208 J-78.9809
G3 X-10.6069 Y60.1673 I2.0128 J-78.6248
G3 X-18.9792 Y58.2631 I14.3135 J-82.2929
G3 X-25.1134 Y56.3104 I26.1938 J-92.8964
G1 X-25.6817 Y56.1074
G1 X-26.2312 Y55.9077
G3 X-30.4546 Y54.2684 I43.8493 J-119.2276
G3 X-33.5841 Y52.9452 I54.5921 J-133.4869
G1 X-33.876 Y52.8176
G3 X-38.3708 Y50.7751 I75.2962 J-171.6613
G1 X-38.65 Y50.6439
G1 X-38.9118 Y50.5206
G3 X-42.8213 Y48.6379 I117.3797 J-248.7535
G3 X-43.4191 Y48.3152 I3.162 J-6.573
G3 X-43.5655 Y48.2208 I1.1929 J-2.0092
G3 X-43.6824 Y48.1359 I1.1101 J-1.6528
G1 X-43.7102 Y48.1138
G3 X-43.8147 Y48.0185 I0.9942 J-1.1945
G3 X-43.8857 Y47.9215 I0.2861 J-0.2839
G3 X-43.8907 Y47.8302 I0.0847 J-0.0505
G3 X-43.8374 Y47.7868 I0.0926 J0.0592
G3 X-43.7128 Y47.7614 I0.1488 J0.4128
G3 X-43.4771 Y47.7717 I0.0679 J1.1538
G3 X-43.0724 Y47.848 I-0.4635 J3.5723
G1 X-42.9228 Y47.8862
G3 X-42.7927 Y47.9226 I-1.8094 J6.7163
G1 X-42.6794 Y47.9564
G3 X-41.899 Y48.2306 I-3.532 J11.2991
G1 X-40.6694 Y48.7073
G1 X-38.3622 Y49.5968
G1 X-37.3517 Y49.9833
G1 X-36.4036 Y50.3436
G1 X-35.9589 Y50.5117
G1 X-35.5279 Y50.6741
G1 X-35.1102 Y50.831
G2 X-28.6056 Y53.1792 I92.1576 J-245.0895
G1 X-27.7876 Y53.4591
G1 X-27.0709 Y53.7009
G1 X-26.443 Y53.91
G1 X-25.3421 Y54.2703
G2 X-24.5149 Y54.5354 I34.2157 J-105.3371
G2 X-23.8934 Y54.7313 I13.4095 J-41.4606
G2 X-23.4268 Y54.8765 I9.2749 J-28.9921
G2 X-23.0765 Y54.9843 I7.1416 J-22.5691
G2 X-22.8137 Y55.0646 I5.754 J-18.362
G2 X-22.4191 Y55.1842 I6.6125 J-21.1178
G2 X-22.0242 Y55.3025 I6.1938 J-19.9456
G1 X-21.5977 Y55.4276
G2 X-14.741 Y57.0776 I21.9778 J-76.2584
G2 X-2.4866 Y58.596 I17.1714 J-88.3744
G2 X2.1571 Y58.7264 I4.8309 J-89.2642
G1 X2.6657 Y58.7255
G2 X6.6694 Y58.6082 I-0.4234 J-82.8633
G2 X6.7789 Y58.6022 I-0.1156 J-3.0993
G2 X13.7277 Y57.8852 I-3.9281 J-72.098
G2 X16.3122 Y57.433 I-9.7527 J-63.3621
G2 X20.7797 Y56.3692 I-10.8501 J-55.4789
G2 X20.8834 Y56.3398 I-0.3764 J-1.5239
G2 X24.1383 Y55.2912 I-13.3568 J-47.0366
G2 X25.3384 Y54.8376 I-15.8067 J-43.6288
G2 X29.4184 Y52.9665 I-14.7965 J-37.6499
G2 X33.2415 Y50.6146 I-15.8879 J-30.1086
G1 X33.65 Y50.32
G2 X36.7328 Y47.8273 I-24.1207 J-32.9835
G2 X41.5236 Y42.8181 I-29.3812 J-32.8962
G2 X47.1669 Y34.1002 I-36.6202 J-29.8905
G2 X49.2321 Y29.326 I-40.6747 J-20.4281
G2 X50.7175 Y24.3411 I-38.9635 J-14.3244
G1 X199.779 Y116.0893
G1 X205.5174 Y120.1078
G3 X205.711 Y120.2963 I-3.1835 J3.4628
G3 X205.7992 Y120.3859 I-1.5113 J1.576
G1 X205.8326 Y120.4205
G3 X205.8627 Y120.4521 I-0.2243 J0.244
G1 X205.9678 Y120.5658
G3 X206.1703 Y120.8139 I-2.2583 J2.0494
G1 X206.1936 Y120.8488
G3 X206.2335 Y120.9212 I-0.5794 J0.3666
G3 X206.2491 Y120.9858 I-0.124 J0.0641
G3 X206.2212 Y121.0231 I-0.0397 J-0.0007
G3 X206.1445 Y121.0234 I-0.0391 J-0.1536
G3 X206.0089 Y120.9823 I0.1199 J-0.639
G3 X205.8949 Y120.9342 I0.4691 J-1.2721
G3 X205.5094 Y120.7369 I2.0403 J-4.4597
G1 X205.321 Y120.6302
G1 X205.1343 Y120.5206
G0 Z5.0
M5
M30
