( Made using CamBam - http://www.cambam.co.uk )
( _2014_1_20_car 1/20/2014 11:51:35 PM )
( T0 : 0.0 )
G21 G90 G64 G40
G0 Z5.0
( T0 : 0.0 )
T0 M6
( 2-8 )
G17
M3 S1000
G0 X266.4325 Y272.732
G1 F1.0 Z0.0
G3 X263.173 Y272.9118 I-3.7279 J-37.9433
G3 X259.91 Y272.8105 I-0.4794 J-37.1633
G3 X253.4754 Y271.7412 I2.8076 J-36.7907
G3 X251.6804 Y271.2315 I9.7695 J-37.8157
G3 X247.0264 Y269.4832 I12.988 J-41.643
G1 X246.7378 Y269.355
G1 X246.4454 Y269.2229
G1 X246.1493 Y269.0868
G3 X244.8961 Y268.4855 I19.9599 J-43.2059
G3 X242.0908 Y266.999 I28.0873 J-56.394
G1 X241.74 Y266.8003
G1 X241.3849 Y266.5965
G1 X241.0253 Y266.3875
G3 X239.5044 Y265.475 I45.341 J-77.299
G1 X239.1212 Y265.2384
G1 X238.7331 Y264.9961
G1 X238.3401 Y264.7483
G1 X237.942 Y264.4948
G1 X237.5388 Y264.2357
G1 X244.2488 Y263.0386
G1 X250.9577 Y261.8356
G1 X255.4297 Y261.0303
G1 X261.3915 Y259.9515
G1 X262.1607 Y259.8118
G1 X262.5514 Y259.7408
G1 X266.123 Y259.0902
G1 X268.0277 Y258.7418
G1 X272.3804 Y257.941
G1 X273.5035 Y257.7331
G1 X275.8989 Y257.2875
G1 X278.4532 Y256.8078
G1 X279.7712 Y256.5579
G1 X280.1032 Y256.4946
G1 X281.4738 Y256.2316
G1 X281.6458 Y256.1983
G1 X283.0653 Y255.9214
G1 X283.7859 Y255.7785
G2 X284.9028 Y256.4386 I4.4093 J-6.185
G2 X286.1136 Y256.9047 I3.6891 J-7.7774
G2 X286.952 Y257.1183 I2.7028 J-8.8601
G2 X288.0895 Y257.3025 I2.6423 J-12.7128
G2 X289.6192 Y257.411 I1.9909 J-17.2235
G2 X291.6573 Y257.3988 I0.8271 J-31.968
G2 X292.8189 Y257.3482 I-2.8204 J-78.0741
G1 X294.143 Y257.2784
G1 X294.8487 Y257.2437
G1 X295.028 Y257.2358
G1 X295.3979 Y257.2211
G1 X295.7796 Y257.2086
G1 X295.8758 Y257.206
G1 X295.9728 Y257.2036
G1 X296.3729 Y257.1963
G3 X298.1987 Y257.2387 I0.39 J22.5337
G3 X299.1681 Y257.334 I-0.9308 J14.4418
G3 X300.1921 Y257.5153 I-1.5017 J11.465
G3 X300.7129 Y257.6482 I-2.2117 J9.7491
G3 X301.7946 Y258.04 I-2.218 J7.8132
G3 X302.8739 Y258.6432 I-2.8112 J6.2977
G3 X303.8913 Y259.5069 I-3.799 J5.5063
G3 X303.1447 Y259.7892 I-6.0096 J-14.765
G2 X302.4008 Y260.0788 I3.9428 J11.2297
G2 X301.9232 Y260.3141 I2.1468 J4.9589
G1 X301.8011 Y260.3869
G2 X301.536 Y260.5754 I1.4853 J2.3694
G2 X301.2727 Y260.8406 I0.9977 J1.2534
G2 X301.0708 Y261.2245 I0.9361 J0.7375
G2 X301.0408 Y261.7359 I1.1217 J0.3224
G2 X301.2321 Y262.3055 I1.9202 J-0.3279
G2 X301.7102 Y262.8362 I9.9088 J-8.4463
G2 X301.7811 Y262.9097 I0.9658 J-0.8604
G2 X302.3693 Y263.476 I9.249 J-9.0196
G2 X303.6482 Y264.49 I8.8767 J-9.8817
G1 X303.8279 Y264.613
G2 X306.9252 Y266.1843 I8.0141 J-11.9592
G2 X309.1551 Y266.8154 I5.3974 J-14.815
G2 X312.2223 Y267.1421 I3.2353 J-15.8134
G2 X316.2983 Y266.6847 I0.1931 J-16.6691
G1 X317.1412 Y267.1211
G1 X317.4241 Y267.2626
G2 X318.5834 Y267.7697 I5.5616 J-11.1379
G2 X318.7424 Y267.8264 I1.0948 J-2.8156
G2 X319.612 Y268.0618 I2.1209 J-6.1106
G2 X320.1235 Y268.1292 I0.8341 J-4.3599
G2 X320.7149 Y268.126 I0.2754 J-3.8378
G2 X321.3823 Y267.9976 I-0.2733 J-3.2183
G1 X318.5408 Y266.0748
G3 X322.7488 Y265.9639 I2.5302 J16.1208
G3 X324.1414 Y266.1615 I-1.7132 J17.0821
G1 X324.5099 Y266.2322
G3 X326.4478 Y266.7237 I-4.2902 J20.98
G3 X328.9519 Y267.628 I-7.9786 J26.0155
G3 X329.605 Y267.9066 I-10.3689 J25.206
G3 X331.0761 Y268.5872 I-18.7705 J42.5027
G1 X331.2612 Y268.6774
G1 X331.4489 Y268.7696
G1 X331.6391 Y268.8641
G3 X333.3621 Y269.7518 I-34.7082 J69.4794
G1 X333.47 Y269.8089
G1 X333.5787 Y269.8665
G3 X333.7995 Y269.9838 I-4.2641 J8.2915
G1 X334.7391 Y270.486
G2 X336.8876 Y271.6209 I67.0229 J-124.2784
G1 X337.1623 Y271.7613
G3 X335.2179 Y271.5117 I2.8099 J-29.5902
G3 X333.2971 Y271.1205 I4.0517 J-24.8014
G3 X329.592 Y269.8465 I4.9736 J-20.489
G3 X327.288 Y268.6093 I8.2907 J-18.2045
G2 X325.1422 Y268.2334 I-2.4625 J7.7433
G2 X324.414 Y268.2482 I-0.2324 J6.4798
G2 X324.0006 Y268.2989 I0.459 J5.4534
G2 X323.5357 Y268.4045 I0.6085 J3.7548
G2 X323.0268 Y268.6039 I0.8846 J3.0073
G2 X322.5091 Y268.9627 I1.0077 J2.0069
G2 X322.7349 Y269.834 I3.2157 J-0.3686
G2 X323.1629 Y270.6257 I4.2394 J-1.7803
G2 X323.5223 Y271.1061 I4.7508 J-3.1791
G2 X323.7467 Y271.3649 I7.3289 J-6.1288
G2 X324.0167 Y271.6477 I7.3814 J-6.7761
G2 X324.7898 Y272.3415 I6.8113 J-6.8124
G1 X325.0066 Y272.5137
G2 X326.2121 Y273.3521 I8.9168 J-11.5346
G2 X327.911 Y274.2997 I10.5048 J-16.8377
G2 X330.2758 Y275.319 I10.9357 J-22.1189
G2 X333.5443 Y276.2849 I8.572 J-22.9922
G2 X335.4602 Y276.6117 I4.346 J-19.7025
G2 X336.4929 Y276.6984 I1.7208 J-14.2904
G1 X336.9739 Y276.7178
G1 X337.4552 Y276.73
G2 X338.418 Y276.7349 I0.6994 J-42.063
G2 X340.3428 Y276.683 I-0.4049 J-50.7138
G1 X340.8924 Y276.6567
G1 X341.5202 Y276.622
G1 X342.2374 Y276.5777
G1 X342.6199 Y276.5525
G1 X343.4937 Y276.4925
G3 X345.8236 Y276.3332 I25.7501 J359.5717
G1 X346.4452 Y276.2956
G1 X346.7661 Y276.2777
G1 X347.451 Y276.2436
G3 X348.1818 Y276.2147 I1.6736 J33.0371
G1 X348.3675 Y276.2087
G3 X350.0658 Y276.1874 I1.4256 J45.8706
G3 X350.9716 Y276.2053 I-0.1069 J28.3563
G3 X351.9371 Y276.252 I-0.7248 J24.9933
G3 X354.1355 Y276.49 I-1.546 J24.5553
G3 X356.607 Y277.0432 I-2.8622 J18.5837
G3 X359.3054 Y278.126 I-4.415 J14.9062
G3 X362.0878 Y279.988 I-6.9042 J13.3267
G2 X363.5237 Y280.2482 I2.1927 J-8.0062
G2 X364.983 Y280.2659 I0.8504 J-9.9475
G1 X365.1773 Y280.254
G2 X366.2109 Y280.1666 I-2.9569 J-41.1368
G1 X366.3442 Y280.1551
G1 X366.6288 Y280.1325
G1 X366.9325 Y280.1133
G3 X367.2568 Y280.1006 I0.586 J10.8659
G3 X367.2978 Y280.0997 I0.0291 J0.3951
G1 X367.4666 Y280.0979
G3 X367.6408 Y280.0994 I0.0557 J3.7393
G3 X367.6847 Y280.1003 I0.015 J0.3261
G1 X367.774 Y280.103
G3 X368.154 Y280.1262 I-0.2102 J6.5652
G3 X370.132 Y280.6053 I-0.6118 J6.8476
G3 X369.5119 Y280.9693 I-2.5669 J-3.6624
G3 X368.8453 Y281.2389 I-2.4296 J-5.049
G3 X367.4432 Y281.5403 I-2.2109 J-6.8726
G3 X366.4896 Y281.6053 I-1.1683 J-10.1173
G3 X365.9439 Y281.6049 I-0.2607 J-16.5789
G1 X365.8031 Y281.601
G3 X364.3117 Y281.477 I0.5052 J-15.1138
G3 X362.3552 Y281.1331 I2.8968 J-22.2145
G1 X362.1052 Y281.0772
G3 X359.4842 Y280.3613 I7.7344 J-33.477
G1 X359.4025 Y280.3357
G2 X359.2479 Y280.2866 I-1.1118 J3.2322
G2 X359.0932 Y280.2381 I-10.4057 J32.9195
G1 X358.783 Y280.1433
G2 X358.1592 Y279.9657 I-5.9538 J19.7382
G2 X356.8915 Y279.6909 I-3.1903 J11.6551
G1 X356.8087 Y279.6784
G2 X355.9188 Y279.6 I-1.0883 J7.267
G2 X354.7296 Y279.7012 I-0.1594 J5.167
G2 X353.2469 Y280.3044 I0.8892 J4.3098
G2 X352.5185 Y280.8694 I2.8468 J4.4224
G2 X354.5963 Y282.5996 I10.8042 J-10.8624
G2 X356.9337 Y283.9588 I9.7075 J-14.0046
G2 X357.6369 Y284.2804 I7.3426 J-15.1231
G2 X359.5666 Y285.0021 I8.279 J-19.196
G2 X359.6285 Y285.0218 I0.3289 J-0.9272
G2 X362.3086 Y285.7015 I7.2737 J-23.0576
G2 X365.9551 Y286.1837 I5.8391 J-30.1274
G2 X366.0707 Y286.192 I0.1749 J-1.612
G2 X368.1851 Y286.2802 I2.5329 J-35.3557
G2 X369.3129 I0.565 J-33.9003
G2 X371.8833 Y286.1707 I-0.6026 J-44.3637
G2 X374.8021 Y285.8794 I-3.7633 J-52.4814
G1 X375.1713 Y285.8309
G2 X376.7408 Y285.5964 I-7.5204 J-55.7103
G3 X377.1612 Y285.7787 I-2.1303 J5.4877
G3 X377.5669 Y285.9916 I-3.192 J6.577
G3 X378.3503 Y286.4658 I-7.8523 J13.8557
G1 X378.8669 Y286.7909
G2 X379.1652 Y286.9714 I4.8926 J-7.7472
G1 X379.243 Y287.0168
G2 X379.41 Y287.1115 I3.9806 J-6.83
G1 X379.5903 Y287.2084
G1 X379.6366 Y287.2323
G2 X380.0683 Y287.4324 I2.999 J-5.9057
G1 X380.1244 Y287.455
G1 X380.1817 Y287.4772
G2 X380.7209 Y287.638 I1.3385 J-3.504
G2 X382.2377 Y287.5209 I0.5672 J-2.5352
G2 X381.7976 Y287.2137 I-2.0714 J2.4984
G2 X381.3274 Y286.9551 I-6.0851 J10.5057
G1 X381.0107 Y286.7888
G1 X380.831 Y286.6916
G1 X380.6286 Y286.5753
G3 X380.1221 Y286.2126 I1.6293 J-2.8107
G3 X380.0034 Y286.0956 I0.7879 J-0.9172
G3 X379.7851 Y285.7795 I0.9562 J-0.894
G3 X379.6865 Y285.3397 I0.8977 J-0.4321
G1 X380.0171 Y285.3351
G1 X380.3476 Y285.3333
G1 X380.568 Y285.3338
G3 X380.694 Y285.3347 I0.0411 J3.0059
G1 X381.0297 Y285.3395
G1 X381.4773 Y285.3516
G3 X383.2639 Y285.4752 I-0.8306 J24.9675
G3 X386.7733 Y286.1827 I-1.9468 J18.7151
G3 X389.0181 Y287.0005 I-6.6643 J21.7826
G1 X389.3018 Y287.1214
G3 X390.5841 Y287.7053 I-14.7518 J34.0936
G1 X390.9119 Y287.8628
G1 X391.0779 Y287.9436
G3 X392.5843 Y288.7018 I-35.1504 J71.7135
G3 X391.2486 Y288.7381 I-0.8749 J-7.5931
G3 X389.925 Y288.556 I0.5212 J-8.6882
G3 X389.0597 Y288.3445 I3.1832 J-14.8987
G1 X387.918 Y288.0241
G1 X387.6122 Y287.9439
G2 X386.9067 Y287.79 I-2.567 J10.0732
G2 X386.0864 Y287.6945 I-1.156 J6.361
G2 X385.1401 Y287.7317 I-0.2714 J5.1521
G2 X384.0803 Y287.9806 I0.6992 J5.3569
G2 X382.9369 Y288.4861 I2.411 J7.0001
G2 X383.667 Y289.2278 I8.1352 J-7.2771
G2 X384.4643 Y289.8966 I7.9457 J-8.6625
G2 X386.2075 Y291.0297 I8.5882 J-11.3047
G2 X387.4453 Y291.6536 I8.4344 J-15.1948
G2 X387.7826 Y291.8048 I14.8187 J-32.6062
G2 X388.145 Y291.9597 I4.2938 J-9.547
G2 X388.9823 Y292.2908 I11.2281 J-27.1669
G2 X389.9515 Y292.6347 I8.718 J-23.0287
G2 X392.5743 Y293.4125 I13.0816 J-39.3057
G2 X392.6577 Y293.4344 I0.5429 J-1.8901
G2 X392.7417 Y293.4565 I0.5683 J-1.9972
G2 X392.8265 Y293.4785 I0.5985 J-2.1238
G2 X392.9119 Y293.5006 I0.6352 J-2.2768
G2 X393.0855 Y293.5452 I1.0295 J-3.6507
G2 X393.2619 Y293.59 I1.2696 J-4.6339
G2 X393.4412 Y293.635 I1.9395 J-7.3509
G1 X393.8117 Y293.7264
G1 X394.1944 Y293.8189
G1 X395.0114 Y294.0111
G1 X395.4335 Y294.1082
G1 X397.3616 Y294.5432
G3 X399.5578 Y295.0548 I-32.4911 J144.4359
G3 X400.1222 Y295.1959 I-50.7571 J204.225
G1 X400.7029 Y295.3478
G2 X402.3967 Y296.4944 I19.9051 J-27.5781
G1 X402.6441 Y296.6499
G1 X402.9286 Y296.8248
G1 X403.0811 Y296.9169
G2 X403.9028 Y297.3938 I13.0634 J-21.5639
G2 X407.3204 Y299.0507 I15.8992 J-28.441
G2 X409.6901 Y299.9448 I15.4243 J-37.2934
G2 X411.0655 Y300.3949 I20.2563 J-59.5755
G1 X411.4223 Y300.5053
G1 X411.7911 Y300.6171
G1 X411.9788 Y300.6732
G1 X412.1695 Y300.7296
G1 X412.3634 Y300.7864
G1 X412.7641 Y300.9023
G3 X413.0734 Y301.0076 I-0.8636 J3.0446
G3 X413.3644 Y301.1561 I-0.6752 J1.6823
G3 X413.5292 Y301.2999 I-0.3777 J0.5989
G3 X413.5873 Y301.413 I-0.221 J0.1851
G3 X413.5509 Y301.5673 I-0.1711 J0.041
G3 X413.4819 Y301.6292 I-0.2551 J-0.2147
G3 X413.3913 Y301.6766 I-0.3888 J-0.6335
G3 X413.1651 Y301.7355 I-0.3419 J-0.8494
G3 X412.6487 Y301.7439 I-0.2951 J-2.25
G3 X412.1988 Y301.6777 I0.3523 J-3.9569
G3 X410.3551 Y301.2352 I5.1057 J-25.329
G3 X408.544 Y300.6738 I9.4824 J-33.7942
G1 X408.0319 Y300.497
G3 X407.4491 Y300.2882 I8.7602 J-25.368
G1 X407.1392 Y300.1743
G1 X406.8091 Y300.0512
G3 X405.0563 Y299.3776 I72.6022 J-191.5244
G2 X404.8304 Y299.2897 I-3.3292 J8.2258
G1 X403.7975 Y298.8904
G1 X403.2453 Y298.6807
G2 X402.6548 Y298.4613 I-14.9018 J39.2062
G2 X402.5045 Y298.4064 I-1.1882 J3.0226
G2 X402.3516 Y298.3511 I-1.1508 J2.9412
G2 X402.2745 Y298.3234 I-0.7774 J2.0415
G2 X402.1967 Y298.2956 I-0.7645 J2.0141
G2 X402.1183 Y298.2676 I-0.7517 J1.9871
G2 X401.4476 Y298.0349 I-29.9734 J85.3044
G2 X401.3628 Y298.0063 I-0.639 J1.7556
G2 X399.8011 Y297.52 I-11.2424 J33.3495
G2 X399.7019 Y297.492 I-0.4452 J1.3856
G2 X399.6019 Y297.464 I-0.4356 J1.3682
G2 X399.1877 Y297.3527 I-6.055 J21.6875
G2 X398.2983 Y297.1372 I-7.4814 J28.9392
G2 X397.8362 Y297.0388 I-4.2854 J18.9918
G2 X395.6987 Y296.7147 I-4.3128 J21.2292
G2 X393.2239 Y296.6272 I-1.9226 J19.3425
G3 X392.1124 Y296.1329 I6.3016 J-15.6687
G3 X391.0345 Y295.5689 I9.6492 J-19.753
G1 X390.7314 Y295.3988
G1 X390.387 Y295.2009
G1 X389.9957 Y294.9708
G1 X389.5507 Y294.7043
G1 X389.314 Y294.561
G1 X388.7741 Y294.232
G2 X387.331 Y293.3612 I-70.5537 J115.2907
G1 X386.9427 Y293.135
G1 X386.5257 Y292.8984
G2 X385.5587 Y292.3829 I-11.4741 J20.3619
G2 X384.4224 Y291.8551 I-8.3819 J16.5569
G2 X383.0733 Y291.3699 I-5.1701 J12.2563
G2 X381.4628 Y291.0381 I-2.7299 J9.176
G2 X379.569 Y291.0523 I-0.8898 J7.632
G2 X377.4587 Y291.6436 I1.0728 J7.8888
G2 X377.1977 Y291.787 I0.7042 J1.5916
G2 X376.9876 Y291.9981 I0.419 J0.6273
G2 X376.9165 Y292.1859 I0.4062 J0.2611
G2 X376.9426 Y292.455 I0.5802 J0.0796
G2 X377.106 Y292.7707 I1.1803 J-0.4107
G2 X377.3971 Y293.1168 I2.461 J-1.7741
G2 X377.8066 Y293.4975 I4.5891 J-4.526
G1 X377.9186 Y293.5923
G2 X378.4874 Y294.0492 I13.857 J-16.6689
G3 X378.8047 Y294.3036 I-7.1738 J9.2757
G1 X378.9686 Y294.4422
G3 X377.9981 Y294.3153 I0.4099 J-6.9068
G3 X377.0532 Y294.0606 I1.4887 J-7.4055
G3 X376.4422 Y293.831 I2.8515 J-8.5145
G3 X375.6529 Y293.4661 I5.0444 J-11.9465
G3 X375.553 Y293.4149 I0.7901 J-1.666
G3 X374.5124 Y292.8271 I7.9019 J-15.2044
G1 X374.2409 Y292.6603
G3 X373.6268 Y292.27 I13.982 J-22.6703
G1 X372.9308 Y291.8168
G2 X372.1331 Y291.3049 I-20.7034 J31.3889
G2 X371.2028 Y290.7526 I-11.7831 J18.7875
G1 X370.9572 Y290.6197
G2 X369.7945 Y290.0935 I-4.629 J8.6797
G2 X368.3716 Y289.7435 I-2.1718 J5.7632
G2 X367.5845 Y289.7134 I-0.5886 J5.0762
G3 X363.9137 Y289.6221 I-0.9774 J-34.5522
G3 X360.2708 Y289.162 I3.1022 J-39.2144
G3 X357.8703 Y288.6808 I8.1864 J-47.0672
G3 X354.7087 Y287.874 I14.405 J-63.0427
G3 X352.919 Y287.3526 I21.9478 J-78.674
G3 X350.884 Y286.7251 I38.9876 J-130.0519
G1 X349.8012 Y286.3835
G3 X349.5263 Y286.2965 I4.1939 J-13.7287
G2 X349.247 Y286.2081 I-3.6147 J10.9356
G2 X349.1062 Y286.1636 I-2.2518 J6.873
G2 X348.9643 Y286.1187 I-2.1151 J6.4424
G2 X348.8213 Y286.0735 I-2.0014 J6.0852
G1 X347.601 Y285.6904
G2 X347.4471 Y285.6425 I-1.4254 J4.3117
G1 X346.8114 Y285.4463
G1 X346.1545 Y285.2467
G2 X345.9888 Y285.197 I-1.1416 J3.5008
G2 X344.572 Y284.7833 I-39.777 J133.6137
G2 X343.0534 Y284.369 I-20.8707 J73.5097
G3 X338.1909 Y284.8801 I-3.9903 J-14.5798
G3 X336.5645 Y284.7035 I1.0105 J-16.891
G1 X336.3562 Y284.6692
G3 X334.1648 Y284.1608 I3.4918 J-20.0288
G3 X332.9401 Y283.7712 I7.958 J-27.1324
G3 X332.7859 Y283.7175 I0.9131 J-2.8685
G3 X331.3919 Y283.1907 I10.7341 J-30.5151
G3 X331.3048 Y283.1556 I0.7339 J-1.9457
G3 X331.2171 Y283.12 I0.743 J-1.9565
G3 X331.1288 Y283.0839 I0.7528 J-1.9689
G3 X331.0399 Y283.0474 I0.7632 J-1.9829
G1 X330.6739 Y282.8946
G3 X329.8977 Y282.5597 I25.9001 J-61.0969
G3 X329.8003 Y282.5168 I0.9885 J-2.3748
G3 X328.9718 Y282.1452 I23.6965 J-53.9453
G3 X328.8677 Y282.0979 I1.3756 J-3.1619
G3 X328.7628 Y282.05 I1.4492 J-3.3165
G1 X327.8702 Y281.6395
G1 X327.4102 Y281.4267
G1 X326.4293 Y280.9753
G2 X325.9221 Y280.7451 I-12.1957 J26.1997
G1 X325.3974 Y280.5108
G1 X325.1302 Y280.3935
G1 X324.8583 Y280.2755
G1 X324.5816 Y280.1572
G2 X323.3938 Y279.6735 I-19.5755 J46.3686
G2 X322.1099 Y279.2052 I-12.8003 J33.093
G1 X321.7805 Y279.0958
G2 X320.3593 Y278.6826 I-6.7866 J20.6897
G2 X319.3826 Y278.4594 I-6.9846 J28.3186
G1 X319.0554 Y278.3922
G2 X318.868 Y278.3559 I-0.9054 J4.1663
G2 X317.357 Y278.1376 I-2.9455 J15.0532
G2 X316.3394 Y278.0965 I-0.9159 J10.0491
G1 X316.208 Y278.0996
G1 X316.0723 Y278.1053
G1 X315.9325 Y278.1137
G2 X315.2958 Y278.1905 I0.4011 J6.0013
G2 X314.5829 Y278.3683 I0.8311 J4.8518
G2 X313.8117 Y278.7106 I1.3922 J4.1758
G2 X313.0329 Y279.2925 I1.9879 J3.4729
G2 X313.9699 Y280.6953 I5.4182 J-2.6047
G2 X314.359 Y281.1032 I5.4298 J-4.7895
G2 X314.9196 Y281.6033 I6.6447 J-6.8837
G2 X315.2569 Y281.8687 I6.8872 J-8.4082
G2 X316.1993 Y282.5143 I7.9311 J-10.5654
G2 X317.5166 Y283.2702 I11.3213 J-18.2046
G1 X317.8751 Y283.4583
G1 X318.259 Y283.6549
G1 X318.6699 Y283.8616
G1 X319.6079 Y284.3311
G3 X319.8489 Y284.454 I-3.8871 J7.9212
G3 X320.3593 Y284.7224 I-8.6744 J17.1156
G3 X320.0002 Y284.7685 I-1.0094 J-6.4411
G1 X319.8799 Y284.7799
G3 X319.3979 Y284.8066 I-0.722 J-8.68
G3 X318.4334 Y284.7721 I-0.1881 J-8.243
G3 X316.5423 Y284.4043 I1.0118 J-10.2466
G3 X316.0163 Y284.2405 I3.0237 J-10.6379
G3 X314.649 Y283.7101 I5.1244 J-15.2393
G1 X314.2923 Y283.5498
G3 X312.442 Y282.6024 I11.3704 J-24.4877
G3 X311.4134 Y282.012 I21.9041 J-39.354
G3 X311.349 Y281.974 I0.8565 J-1.5237
G3 X311.2842 Y281.9356 I0.9227 J-1.6319
G3 X310.1083 Y281.225 I62.0366 J-103.985
G1 X309.9596 Y281.1339
G1 X308.6032 Y280.3019
G1 X308.2522 Y280.0892
G2 X308.0735 Y279.9818 I-3.3283 J5.3346
G2 X306.4241 Y279.0359 I-21.3035 J35.2369
G3 X303.5625 Y278.773 I3.403 J-52.7482
G1 X303.3723 Y278.7497
G3 X302.3597 Y278.6122 I4.3461 J-35.7786
G1 X302.0903 Y278.5714
G3 X300.6584 Y278.3226 I6.2064 J-39.9683
G1 X300.4744 Y278.2865
G1 X300.2846 Y278.2481
G1 X300.0889 Y278.2074
G1 X299.8871 Y278.1642
G3 X297.7543 Y277.623 I6.6611 J-30.7227
G1 X297.6202 Y277.5834
G1 X297.4842 Y277.5424
G1 X297.3463 Y277.5001
G1 X297.2065 Y277.4564
G3 X294.2877 Y276.3372 I7.6117 J-24.215
G3 X292.6936 Y275.5266 I9.0386 J-19.7488
G3 X288.8253 Y272.732 I10.0204 J-17.9447
G3 X286.7027 Y272.8503 I-2.9206 J-33.2962
G1 X286.3991 Y272.8566
G3 X285.5891 Y272.86 I-0.5203 J-27.6167
G3 X282.3557 Y272.6726 I0.2132 J-31.6753
G1 X282.1479 Y272.649
G1 X281.9337 Y272.6232
G1 X281.7128 Y272.5949
G3 X279.3723 Y272.1867 I3.7043 J-28.1537
G3 X276.3253 Y271.3194 I5.3402 J-24.5472
G3 X274.644 Y270.6437 I7.437 J-20.9359
G3 X272.7993 Y269.6997 I8.2293 J-18.3558
G1 X272.5723 Y269.5664
G3 X271.6243 Y268.9627 I9.4211 J-15.8392
G3 X270.7516 Y268.709 I9.3392 J-33.7628
G1 X270.462 Y268.62
G1 X270.2968 Y268.5683
G1 X269.8568 Y268.4284
G1 X268.1008 Y267.8574
G2 X267.5984 Y267.6964 I-12.1862 J37.1694
G2 X266.2525 Y267.2866 I-15.0799 J47.1133
G2 X266.1666 Y267.2619 I-0.6744 J2.1843
G2 X265.9892 Y267.2116 I-1.2041 J3.9073
G2 X264.0787 Y266.7419 I-7.6239 J26.8875
G2 X263.5631 Y266.6432 I-3.0981 J14.7858
G2 X262.3748 Y266.4739 I-3.1129 J17.5979
G2 X261.0031 Y266.4006 I-1.3931 J13.2086
G2 X259.4333 Y266.5208 I-0.0269 J9.966
G2 X257.6852 Y266.9897 I1.3151 J8.3949
G2 X255.8555 Y267.9976 I2.9326 J7.4887
G2 X256.8411 Y269.1579 I5.2885 J-3.4935
G2 X258.0553 Y270.0762 I5.2222 J-5.6433
G1 X258.2293 Y270.1812
G2 X259.19 Y270.6797 I5.3532 J-9.1405
G2 X260.5282 Y271.2112 I6.3315 J-13.9904
G2 X262.361 Y271.7572 I8.0321 J-23.6149
G2 X263.4196 Y272.0196 I14.0175 J-54.2859
G1 X263.9853 Y272.1519
G1 X264.5885 Y272.2906
G1 X265.231 Y272.439
G3 X265.394 Y272.4772 I-1.2751 J5.809
G1 X265.73 Y272.5571
G1 X266.0762 Y272.6417
G1 X266.4325 Y272.732
G0 Z5.0
G0 X263.2224 Y257.0742
G1 Z0.0
G3 X261.5232 Y257.4174 I-60.4131 J-294.6738
G1 X260.6174 Y257.597
G1 X259.682 Y257.7799
G3 X249.6782 Y259.5894 I-78.2621 J-404.1328
G1 X248.3844 Y259.8064
G1 X247.0484 Y260.0271
G1 X245.6688 Y260.2514
G1 X244.2441 Y260.4797
G3 X241.2033 Y260.956 I-110.4213 J-694.9954
G3 X241.0124 Y260.9854 I-1.2164 J-7.2519
G3 X240.8208 Y261.0149 I-1.2216 J-7.2953
G3 X240.6284 Y261.0445 I-1.2268 J-7.3393
G3 X240.4352 Y261.0742 I-1.2322 J-7.3841
G3 X233.3682 Y262.129 I-151.933 J-993.6536
G3 X233.1464 Y262.1614 I-1.5136 J-9.609
G3 X232.9236 Y262.1938 I-1.5257 J-9.7003
G3 X232.7 Y262.2263 I-1.5381 J-9.7942
G3 X232.4756 Y262.2589 I-1.5509 J-9.8904
G3 X232.2502 Y262.2916 I-1.5641 J-9.9894
G3 X232.024 Y262.3244 I-1.5776 J-10.091
G1 X230.1556 Y262.5938
G1 X228.2267 Y262.8699
G1 X226.2354 Y263.1534
G1 X217.1332 Y264.4441
G1 X214.7847 Y264.7802
G1 X213.592 Y264.9521
G1 X211.1303 Y265.3099
G1 X209.8801 Y265.4935
G1 X208.6103 Y265.6815
G1 X205.9898 Y266.0748
G3 X205.6004 Y266.0296 I0.3709 J-4.8933
G3 X205.2172 Y265.9472 I0.5504 J-3.4926
G3 X204.9712 Y265.8582 I0.4615 J-1.6607
G3 X204.6825 Y265.6593 I0.3292 J-0.7866
G3 X204.5814 Y265.4802 I0.3314 J-0.3053
G3 X204.5805 Y265.2335 I0.4584 J-0.1249
G3 X204.6993 Y264.9677 I0.8713 J0.2299
G3 X204.9014 Y264.7111 I1.56 J1.0209
G3 X205.1622 Y264.4662 I2.489 J2.389
G3 X205.3093 Y264.3491 I1.7943 J2.1028
G1 X205.3868 Y264.2917
G3 X205.7345 Y264.0628 I2.7939 J3.8653
G3 X206.5357 Y263.6759 I2.397 J3.9407
G3 X206.9871 Y263.5536 I0.8839 J2.3698
G3 X207.1054 Y263.5403 I0.1587 J0.8739
G3 X214.2556 Y262.4521 I349.1061 J2269.9482
G1 X221.4071 Y261.3736
G1 X226.1747 Y260.6538
G1 X228.8988 Y260.2406
G2 X236.1611 Y259.1257 I-344.9848 J-2271.4285
G1 X237.0979 Y258.98
G2 X247.0843 Y257.3885 I-196.5524 J-1265.4612
G1 X247.718 Y257.2847
G1 X248.3616 Y257.1788
G1 X251.1069 Y256.7226
G1 X251.804 Y256.6054
G1 X252.512 Y256.4859
G1 X253.2311 Y256.3639
G1 X254.7154 Y256.1101
G1 X256.2471 Y255.8454
G1 X257.8278 Y255.5691
G1 X259.4588 Y255.2804
G1 X261.1417 Y254.9785
G1 X262.8782 Y254.6626
G1 X263.7599 Y254.5005
G1 X265.5795 Y254.1619
G1 X266.5034 Y253.988
G2 X274.9372 Y252.3288 I-109.5879 J-579.3224
G1 X276.0062 Y252.1086
G1 X277.0917 Y251.8826
G2 X286.9917 Y249.6978 I-96.5722 J-461.1212
G1 X289.2381 Y250.3152
G3 X279.5795 Y253.2047 I-62.4461 J-191.1463
G3 X269.7987 Y255.6488 I-63.8555 J-234.7447
G3 X269.6438 Y255.6842 I-1.1856 J-4.831
G3 X269.4878 Y255.7198 I-1.1882 J-4.8523
G3 X269.3305 Y255.7555 I-1.1907 J-4.8737
G3 X269.1719 Y255.7915 I-1.1932 J-4.8953
G3 X269.0121 Y255.8276 I-1.1957 J-4.9168
G3 X268.8509 Y255.8639 I-1.1983 J-4.9388
G3 X268.6885 Y255.9005 I-1.2008 J-4.9609
G3 X268.5248 Y255.9372 I-1.2034 J-4.9832
G3 X263.2224 Y257.0742 I-65.7155 J-293.5368
G0 Z5.0
G0 X289.9245 Y246.8406
G1 Z0.0
G3 X289.8647 Y246.5615 I0.8634 J-0.3309
G3 X289.9372 Y246.1981 I0.7933 J-0.0307
G1 X295.4342 Y245.5863
G2 X295.7355 Y245.718 I1.03 J-1.947
G2 X296.0492 Y245.817 I1.9157 J-5.5185
G1 X296.2603 Y245.8756
G1 X296.5418 Y245.9537
G1 X296.7015 Y246.0021
G3 X297.1151 Y246.1667 I-0.7795 J2.5609
G1 X297.1658 Y246.1941
G3 X297.3803 Y246.3484 I-0.5189 J0.9481
G3 X297.5565 Y246.6012 I-0.4695 J0.5149
G3 X297.6031 Y246.9659 I-0.7337 J0.2792
G3 X297.5688 Y247.1632 I-1.3036 J-0.1251
G3 X296.3285 Y247.6363 I-12.6809 J-31.3859
G3 X295.9096 Y247.7789 I-4.8505 J-13.5646
G3 X294.1972 Y248.2257 I-4.2338 J-12.72
G3 X293.0264 Y248.3795 I-2.0038 J-10.7183
G3 X291.4509 Y248.3775 I-0.7746 J-10.4397
G2 X291.0894 Y248.0859 I-8.354 J9.9847
G3 X290.7272 Y247.7954 I9.0337 J-11.6339
G3 X290.4943 Y247.5914 I2.6194 J-3.2257
G3 X290.2071 Y247.2946 I2.5938 J-2.7968
G3 X290.0644 Y247.1061 I1.6851 J-1.4241
G3 X289.9353 Y246.8674 I1.2416 J-0.8258
G3 X289.9245 Y246.8406 I0.8527 J-0.3577
G0 Z5.0
G0 X304.1963 Y261.6937
G1 Z0.0
G3 X306.1698 Y262.0096 I-0.5335 J9.655
G3 X308.0444 Y262.7032 I-3.0426 J11.1038
G3 X309.2286 Y263.314 I-7.2486 J15.5065
G3 X309.3024 Y263.3555 I-0.8223 J1.5498
G1 X309.6155 Y263.5349
G3 X310.3235 Y263.9566 I-16.8244 J29.0521
G3 X310.413 Y264.011 I-0.6691 J1.2017
G1 X310.7938 Y264.2437
G1 X311.1994 Y264.4923
G3 X311.458 Y264.6422 I-0.4468 J1.0692
G3 X311.6609 Y264.8616 I-0.4952 J0.6614
G3 X311.7311 Y265.0501 I-0.4037 J0.2575
G3 X311.6168 Y265.3072 I-0.2522 J0.0418
G3 X311.451 Y265.3671 I-0.232 J-0.3826
G3 X311.2521 Y265.3723 I-0.122 J-0.8553
G3 X311.0409 Y265.3378 I0.1575 J-1.6293
G3 X310.8199 Y265.2733 I0.4934 J-2.1022
G1 X310.3891 Y265.191
G1 X309.9594 Y265.1028
G1 X309.6738 Y265.04
G3 X308.541 Y264.7487 I4.2848 J-19.0113
G3 X307.7991 Y264.5084 I4.1687 J-14.1334
G1 X307.7044 Y264.474
G3 X307.5036 Y264.398 I3.0442 J-8.342
G1 X307.2911 Y264.3124
G1 X307.0666 Y264.2157
G3 X305.9223 Y263.5899 I3.0676 J-6.9684
G3 X305.3293 Y263.1352 I3.3599 J-4.9961
G3 X304.7341 Y262.5186 I3.4335 J-3.9098
G3 X304.1963 Y261.6937 I3.6982 J-2.9989
G0 Z5.0
G0 X357.3125 Y281.8344
G1 Z0.0
G3 X358.7746 Y281.6367 I1.5268 J5.7853
G3 X360.2453 Y281.7563 I0.0754 J8.1776
G3 X361.2078 Y281.9583 I-2.1856 J12.8057
G3 X361.7509 Y282.1016 I-5.5744 J22.2336
G3 X362.3666 Y282.2802 I-5.3649 J19.6404
G1 X362.6936 Y282.3791
G1 X363.042 Y282.4856
G1 X363.2219 Y282.5403
G1 X363.6057 Y282.6554
G2 X364.4872 Y282.8979 I5.6784 J-18.9179
G2 X364.7166 Y282.9529 I1.5645 J-6.0196
G2 X365.7785 Y283.1371 I2.0167 J-8.4753
G2 X366.056 Y283.1603 I0.5029 J-4.3349
G1 X366.2387 Y283.1683
G1 X366.4215 Y283.1722
G2 X366.7871 Y283.1688 I0.0931 J-9.7453
G1 X367.0307 Y283.1594
G2 X368.0021 Y283.0795 I-0.9356 J-17.3329
G2 X368.0647 Y283.0727 I-0.1136 J-1.3324
G2 X368.198 Y283.0577 I-0.1941 J-2.3271
G1 X368.5025 Y283.0217
G1 X369.3138 Y282.9217
G3 X370.3978 Y282.8132 I2.7201 J21.7205
G1 X370.6879 Y282.7961
G3 X371.3524 Y282.7878 I0.4593 J10.1294
G3 X371.7065 Y282.8058 I-0.1106 J5.661
G1 X371.8889 Y282.8226
G3 X372.7138 Y282.9776 I-0.5008 J4.938
G3 X373.608 Y283.3439 I-1.1143 J3.9943
G3 X374.4984 Y284.0195 I-2.0584 J3.6378
G3 X373.352 Y284.3119 I-3.8017 J-12.5084
G3 X372.1863 Y284.5146 I-3.5639 J-17.0427
G3 X369.8296 Y284.706 I-2.9187 J-21.3302
G3 X369.5143 Y284.7132 I-0.3622 J-9.0031
G3 X364.4956 Y284.3465 I-0.3828 J-29.2903
G3 X361.2199 Y283.6213 I4.1012 J-26.2831
G1 X361.1693 Y283.6064
G1 X361.1186 Y283.5914
G3 X359.2955 Y282.9463 I5.0611 J-17.2037
G3 X359.1833 Y282.8985 I0.9699 J-2.4279
G3 X358.2465 Y282.4437 I4.7821 J-11.0437
G3 X357.3125 Y281.8344 I3.1701 J-5.8802
G0 Z5.0
G0 X380.4041 Y293.2131
G1 Z0.0
G3 X381.4043 Y293.2422 I0.3435 J5.3894
G3 X382.3889 Y293.4199 I-0.9114 J7.8643
G3 X384.2748 Y294.0719 I-2.6426 J10.698
G3 X385.4534 Y294.6886 I-4.3834 J9.8111
G3 X386.0786 Y295.122 I-3.1163 J5.1632
G3 X386.2289 Y295.2488 I-1.4811 J1.9089
G3 X386.516 Y295.5572 I-1.2405 J1.4425
G3 X386.6151 Y295.755 I-0.5021 J0.3752
G3 X385.7957 Y295.7588 I-0.4349 J-5.5633
G3 X385.5233 Y295.7352 I0.2613 J-4.6109
G3 X385.162 Y295.688 I0.7235 J-6.9435
G3 X384.6842 Y295.6 I1.6005 J-10.0316
G3 X382.8393 Y295.0096 I2.1398 J-9.8636
G3 X381.6936 Y294.4124 I3.2438 J-7.6216
G3 X381.4067 Y294.2209 I2.4665 J-4.0047
G3 X380.8006 Y293.7148 I2.6376 J-3.7748
G3 X380.7309 Y293.6424 I0.7949 J-0.8345
G3 X380.4623 Y293.3061 I1.8153 J-1.7256
G3 X380.4041 Y293.2131 I1.3449 J-0.9059
G0 Z5.0
G0 X396.1058 Y246.7282
G1 Z0.0
G3 X396.0704 Y246.715 I0.1999 J-0.5919
G3 X395.8157 Y246.5905 I0.6071 J-1.5649
G3 X395.5744 Y246.4399 I1.5079 J-2.683
G2 X394.1093 Y245.5749 I-9.5075 J14.4303
G2 X392.5837 Y244.8218 I-13.6361 J25.7043
G2 X391.55 Y244.3551 I-22.1409 J47.6636
G1 X390.1663 Y243.746
G3 X389.3785 Y243.392 I34.5744 J-78.0022
G3 X388.4857 Y242.9712 I14.7684 J-32.4864
G3 X388.0147 Y242.7361 I9.8823 J-20.3896
G1 X387.8957 Y242.6749
G1 X387.7753 Y242.6121
G3 X386.6933 Y242.0019 I9.4553 J-18.0291
G3 X385.5175 Y241.2037 I7.0798 J-11.695
G3 X384.9292 Y240.7238 I5.9276 J-7.8661
G1 X384.7853 Y240.5953
G3 X386.5321 Y240.4512 I1.4855 J7.3473
G3 X388.2662 Y240.7064 I-0.3055 J8.0926
G3 X389.3785 Y241.0666 I-2.5392 J9.7401
G3 X389.4476 Y241.0939 I-0.3546 J0.9999
G3 X390.8714 Y241.7799 I-4.2479 J10.6355
G3 X391.6425 Y242.2487 I-7.1007 J12.5503
G3 X393.5502 Y243.6948 I-9.703 J14.7812
G3 X395.8016 Y245.9249 I-16.2721 J18.6789
G1 X395.8348 Y245.9621
G1 X395.868 Y245.9995
G1 X396.0021 Y246.1516
G3 X396.1743 Y246.3606 I-2.5768 J2.2988
G3 X396.3153 Y246.5919 I-0.8749 J0.6921
G3 X396.3356 Y246.6672 I-0.2286 J0.1021
G3 X396.2845 Y246.7515 I-0.0689 J0.0159
G3 X396.2186 Y246.7549 I-0.0417 J-0.1647
G3 X396.1058 Y246.7282 I0.0871 J-0.6187
G0 Z5.0
M5
M30
