( Made using CamBam - http://www.cambam.co.uk )
( _2014_1_20_car 1/20/2014 11:53:57 PM )
( T0 : 0.0 )
G21 G90 G64 G40
G0 Z5.0
( T0 : 0.0 )
T0 M6
( 115162173189193 )
G17
M3 S1000
G0 X-213.4423 Y2.2719
G1 F1.0 Z0.0
G1 Y3.4992
G1 X-214.2578 Y3.9844
G1 X-215.8603 Y4.945
G2 X-222.0442 Y8.7107 I465.719 J771.7402
G1 X-223.3939 Y9.5402
G1 X-228.6207 Y12.7606
G1 X-229.7645 Y13.4652
G1 X-231.9816 Y14.8287
G1 X-233.0218 Y15.4669
G1 X-235.0387 Y16.7009
G1 X-235.5119 Y16.9895
G3 X-242.9921 Y21.4904 I-346.019 J-566.6056
G1 X-244.4036 Y22.3218
G1 X-244.7349 Y22.5159
G1 X-246.0416 Y23.2771
G1 X-247.2696 Y23.9856
G1 X-248.424 Y24.6449
G3 X-252.7846 Y27.0631 I-105.2987 J-184.7404
G1 X-253.6095 Y27.5048
G3 X-254.3853 Y27.9147 I-63.5557 J-119.3617
G1 X-254.7498 Y28.1053
G1 X-255.1035 Y28.2889
G3 X-255.4467 Y28.4658 I-9.5493 J-18.103
G3 X-255.4884 Y28.4872 I-0.2376 J-0.4116
G1 X-256.1524 Y28.8255
G1 X-256.7769 Y29.1388
G3 X-257.9537 Y29.7151 I-59.8428 J-120.7036
G3 X-258.9904 Y30.2055 I-44.4538 J-92.6353
G1 X-259.1043 Y30.2583
G1 X-259.2164 Y30.31
G3 X-260.1029 Y30.7105 I-18.3467 J-39.4237
G3 X-260.2977 Y30.7964 I-6.0117 J-13.3719
G1 X-260.3922 Y30.8378
G3 X-261.89 Y31.4647 I-19.0094 J-43.3119
G3 X-263.0289 Y31.8981 I-14.0034 J-35.087
G1 X-263.46 Y32.05
G1 X-263.8392 Y32.1772
G3 X-265.1834 Y32.5686 I-5.9688 J-17.9947
G3 X-266.5584 Y32.8317 I-2.7954 J-10.8862
G3 X-259.9739 Y28.917 I1291.1101 J2164.1607
G3 X-259.6134 Y28.7036 I12.5817 J20.8415
G3 X-236.6298 Y15.3095 I971.4967 J1640.6164
G1 X-235.1869 Y14.4834
G1 X-232.4793 Y12.9385
G1 X-230.1078 Y11.5908
G1 X-228.0308 Y10.4147
G1 X-226.2121 Y9.3883
G1 X-224.6197 Y8.4921
G1 X-223.2253 Y7.7094
G3 X-222.9202 Y7.5384 I7.8683 J13.6801
G1 X-220.5543 Y6.2154
G1 X-218.7783 Y5.2259
G1 X-217.4454 Y4.4853
G1 X-215.4447 Y3.3771
G1 X-213.4423 Y2.2719
G0 Z5.0
G0 X-212.2109 Y1.9034
G1 Z0.0
G3 X-212.2177 Y1.7089 I0.3682 J-0.1102
G3 X-212.1318 Y1.5262 I0.5415 J0.1431
G3 X-211.9274 Y1.3055 I1.1536 J0.8632
G3 X-211.6943 Y1.1153 I3.0677 J3.5207
G1 X-211.3316 Y0.8437
G1 X-211.1524 Y0.7109
G1 X-210.4382 Y0.1882
G1 X-209.7433 Y-0.314
G1 X-209.6589 Y-0.3747
G1 X-209.3228 Y-0.6159
G3 X-206.6691 Y-2.5052 I380.6606 J531.8468
G2 X-202.027 Y-5.8148 I-468.5391 J-662.1007
G2 X-200.2937 Y-7.0667 I-204.469 J-284.919
G1 X-200.1045 Y-7.2042
G1 X-199.3603 Y-7.7466
G1 X-199.1861 Y-7.874
G1 X-198.5009 Y-8.3768
G1 X-197.8599 Y-8.8498
G2 X-197.7098 Y-8.961 I-3.1898 J-4.4642
G1 X-197.1197 Y-9.3995
G1 X-196.5676 Y-9.8122
G1 X-195.5357 Y-10.5904
G2 X-195.4793 Y-10.6332 I-0.6002 J-0.8493
G2 X-195.4234 Y-10.6756 I-0.591 J-0.8361
G1 X-194.5388 Y-11.3517
G1 X-194.3459 Y-11.5003
G1 X-194.1591 Y-11.6445
G2 X-191.2944 Y-13.9174 I-79.3394 J-102.9406
G1 X-190.9411 Y-14.2075
G1 X-190.3261 Y-14.7193
G2 X-189.4128 Y-15.4978 I-39.7511 J-47.5586
G1 X-189.2995 Y-15.5961
G1 X-189.1019 Y-15.7688
G1 X-189.0279 Y-15.8338
G2 X-188.8987 Y-15.9478 I-2.6958 J-3.1856
G1 X-188.802 Y-16.0335
G1 X-188.5132 Y-16.2919
G2 X-188.2603 Y-16.5587 I-26.3651 J-25.244
G2 X-186.4027 Y-18.7186 I-26.8434 J-24.9657
G2 X-186.361 Y-18.7708 I-0.7362 J-0.6302
G2 X-185.7087 Y-19.606 I-48.0027 J-38.163
G2 X-185.6734 Y-19.6521 I-0.7998 J-0.6494
G2 X-185.3949 Y-20.0181 I-35.7034 J-27.4526
G1 X-184.8775 Y-20.7083
G1 X-183.9795 Y-21.9217
G3 X-183.8953 Y-22.0354 I2.3386 J1.643
G3 X-182.5737 Y-23.7862 I72.9413 J53.6829
G1 X-182.4049 Y-24.0024
G3 X-181.1865 Y-25.4855 I31.9093 J24.9707
G3 X-181.7643 Y-22.8162 I-16.6157 J-2.1994
G3 X-182.6777 Y-20.4455 I-16.8139 J-5.1169
G3 X-183.2127 Y-19.388 I-16.2016 J-7.533
G3 X-183.788 Y-18.3971 I-17.7049 J-9.6154
G3 X-185.0414 Y-16.5699 I-20.0098 J-12.3819
G3 X-186.3537 Y-14.9654 I-21.5078 J-16.2529
G1 X-186.4341 Y-14.8745
G3 X-187.7607 Y-13.4689 I-24.1117 J-21.4296
G1 X-188.0828 Y-13.1509
G1 X-188.4037 Y-12.8418
G3 X-189.7003 Y-11.661 I-30.0917 J-31.7414
G3 X-192.2496 Y-9.5871 I-33.6589 J-38.7693
G1 X-192.536 Y-9.3702
G3 X-193.6763 Y-8.533 I-40.8206 J-54.4025
G3 X-194.7614 Y-7.7708 I-36.9294 J-51.4234
G1 X-195.2747 Y-7.4206
G1 X-195.5244 Y-7.2524
G1 X-195.7708 Y-7.0878
G3 X-197.7308 Y-5.8216 I-52.2189 J-78.6769
G1 X-198.1636 Y-5.5511
G1 X-198.5842 Y-5.2911
G1 X-199.4023 Y-4.7926
G3 X-199.4985 Y-4.7346 I-1.8288 J-2.9235
G3 X-200.2633 Y-4.2774 I-29.6147 J-48.6773
G1 X-200.6229 Y-4.0649
G1 X-200.9719 Y-3.86
G1 X-201.6494 Y-3.4656
G3 X-204.205 Y-2.0126 I-107.9238 J-186.8415
G3 X-206.1321 Y-0.9414 I-174.1009 J-310.9213
G1 X-209.0282 Y0.6559
G1 X-209.7514 Y1.0567
G1 X-210.0224 Y1.2074
G1 X-210.9695 Y1.7371
G2 X-211.9137 Y2.2719 I52.3596 J93.55
G3 X-211.9505 Y2.2422 I0.7771 J-1.0005
G3 X-212.0833 Y2.1153 I0.8633 J-1.035
G3 X-212.1771 Y1.9827 I0.5159 J-0.4644
G3 X-212.2109 Y1.9034 I0.3343 J-0.1895
G0 Z5.0
G0 X-187.3901 Y14.2754
G1 Z0.0
G3 X-186.0063 Y13.8365 I12.8769 J38.1973
G3 X-183.5385 Y13.2146 I8.4178 J28.1953
G3 X-182.5958 Y13.044 I4.223 J20.6418
G3 X-180.9284 Y12.8558 I2.7921 J17.262
G3 X-180.2983 Y12.8292 I0.9551 J15.1066
G3 X-179.1946 Y12.8534 I0.2533 J13.6215
G3 X-178.7817 Y12.889 I-0.5909 J9.2658
G3 X-177.3558 Y13.1491 I-0.9176 J9.0674
G3 X-175.9984 Y13.6578 I-1.856 J7.0171
G3 X-176.097 Y14.4735 I-1.9095 J0.183
G3 X-176.3715 Y15.0233 I-2.1796 J-0.7446
G3 X-177.0089 Y15.6845 I-2.2298 J-1.5118
G3 X-177.8283 Y16.0995 I-1.6576 J-2.2563
G2 X-178.8903 Y15.4517 I-3.2408 J4.119
G2 X-179.9049 Y15.0777 I-2.9786 J6.5157
G2 X-180.3619 Y14.96 I-2.0053 J6.8418
G1 X-180.5778 Y14.9129
G2 X-181.4222 Y14.7707 I-2.4255 J11.8295
G2 X-181.794 Y14.7254 I-3.7317 J29.0579
G2 X-182.4931 Y14.6613 I-2.9147 J27.9183
G2 X-183.7197 Y14.5915 I-2.5796 J34.5513
G1 X-184.1801 Y14.572
G1 X-184.5831 Y14.555
G3 X-184.6272 Y14.5531 I-0.0021 J-0.4583
G3 X-184.6706 Y14.5512 I-0.002 J-0.4483
G3 X-184.7134 Y14.5492 I-0.0018 J-0.4387
G3 X-184.7555 Y14.5473 I-0.0016 J-0.4295
G3 X-186.0781 Y14.4632 I1.0697 J-27.2552
G1 X-186.4079 Y14.4298
G3 X-186.6547 Y14.3997 I0.565 J-5.6607
G3 X-187.3901 Y14.2754 I1.1926 J-9.2964
G0 Z5.0
G0 X-251.4961 Y18.6415
G1 Z0.0
G3 X-254.6575 Y20.6537 I-136.9985 J-211.7552
G3 X-254.8692 Y20.7864 I-5.8169 J-9.0468
G3 X-255.0952 Y20.9277 I-6.185 J-9.6376
G1 X-256.3024 Y21.6779
G3 X-261.1657 Y24.622 I-173.1968 J-280.61
G1 X-261.8182 Y25.008
G1 X-262.5152 Y25.4179
G1 X-263.2597 Y25.8534
G3 X-275.3132 Y32.5695 I-183.3016 J-314.796
G3 X-275.263 Y32.2775 I0.8529 J-0.004
G3 X-275.1414 Y32.0073 I1.3804 J0.459
G3 X-274.8045 Y31.5255 I2.748 J1.5631
G1 X-274.6955 Y31.3977
G1 X-274.5668 Y31.2558
G1 X-274.4152 Y31.0983
G3 X-273.9949 Y30.6987 I7.1068 J7.0542
G1 X-273.7465 Y30.4803
G1 X-273.6122 Y30.3662
G1 X-273.4677 Y30.2462
G3 X-272.6824 Y29.6314 I16.562 J20.3451
G3 X-272.5793 Y29.5544 I1.6145 J2.0547
G3 X-272.4726 Y29.4755 I1.9733 J2.5562
G3 X-271.3205 Y28.6626 I21.0802 J28.6537
G1 X-271.1699 Y28.5607
G3 X-269.5479 Y27.509 I29.5196 J43.7528
G1 X-269.1104 Y27.2371
G1 X-268.6419 Y26.9504
G1 X-268.3995 Y26.8038
G3 X-265.7939 Y25.2884 I49.5173 J82.1447
G3 X-264.2885 Y24.4548 I63.515 J112.9228
G3 X-264.1933 Y24.403 I1.9045 J3.3849
G3 X-260.103 Y22.2662 I68.2093 J125.5835
G1 X-259.5702 Y22.0004
G1 X-259.0191 Y21.7286
G1 X-258.4489 Y21.4509
G1 X-257.859 Y21.1674
G1 X-257.2484 Y20.8784
G3 X-254.4314 Y19.6171 I33.1637 J70.2926
G1 X-254.252 Y19.5421
G1 X-253.8865 Y19.3922
G1 X-253.5136 Y19.2437
G3 X-252.7371 Y18.9546 I9.5612 J24.4927
G3 X-252.3376 Y18.8219 I3.8938 J11.0514
G3 X-252.1342 Y18.7611 I1.8313 J5.7554
G3 X-251.7139 Y18.6617 I1.1693 J4.0056
G3 X-251.4961 Y18.6415 I0.2175 J1.1622
G0 Z5.0
G0 X-396.1987 Y148.4882
G1 Z0.0
G2 X-398.7156 Y147.7546 I-7.139 J19.8108
G2 X-401.3044 Y147.3407 I-4.505 J19.8734
G2 X-403.0517 Y147.27 I-1.5792 J17.393
G1 X-403.1628 Y147.2719
G1 X-403.2757 Y147.2747
G2 X-404.3056 Y147.3416 I0.3337 J13.1031
G2 X-405.4726 Y147.5192 I1.1636 J11.5676
G2 X-406.7758 Y147.8763 I2.072 J10.1164
G2 X-406.2255 Y148.2837 I2.1449 J-2.322
G2 X-405.6076 Y148.5786 I1.9854 J-3.3648
G2 X-405.1751 Y148.7248 I2.1911 J-5.771
G2 X-404.5868 Y148.8765 I2.8033 J-9.6536
G1 X-404.2478 Y148.9492
G1 X-403.3434 Y149.1273
G1 X-403.1029 Y149.1775
G3 X-402.5575 Y149.3074 I-2.0754 J9.9224
G3 X-401.9463 Y149.4985 I-1.8174 J6.8857
G3 X-401.279 Y149.801 I-1.7134 J4.6676
G3 X-401.4682 Y150.0099 I-1.6335 J-1.2889
G1 X-401.5352 Y150.0757
G1 X-401.5741 Y150.1128
G1 X-401.679 Y150.2101
G3 X-402.1123 Y150.5837 I-7.7941 J-8.6018
G1 X-402.2389 Y150.6872
G3 X-403.2782 Y151.479 I-15.7257 J-19.5629
G3 X-405.4627 Y152.9075 I-16.1144 J-22.2582
G1 X-405.6084 Y152.9921
G3 X-407.2068 Y153.8122 I-8.4409 J-14.4839
G3 X-408.1672 Y154.1784 I-3.7313 J-8.3421
G3 X-408.6985 Y154.3178 I-1.6251 J-5.1112
G2 X-409.3232 Y154.4935 I1.2615 J5.6849
G2 X-409.9235 Y154.7402 I1.5425 J4.6073
G2 X-410.9982 Y155.4642 I2.0093 J4.1423
G2 X-411.589 Y156.0968 I3.3561 J3.7264
G2 X-412.2265 Y157.0554 I5.8847 J4.6047
G1 X-412.2991 Y157.1851
G1 X-412.3721 Y157.3199
G2 X-412.687 Y157.9435 I15.6969 J8.3162
G2 X-413.024 Y158.6636 I31.4651 J15.1636
G1 X-413.1096 Y158.8499
G1 X-413.1981 Y159.0418
G1 X-413.2899 Y159.2394
G1 X-413.3855 Y159.4428
G3 X-413.8417 Y160.3568 I-22.0274 J-10.4248
G3 X-414.1061 Y160.8318 I-10.5175 J-5.5424
G3 X-414.2677 Y158.2687 I18.8969 J-2.478
G3 X-414.0468 Y155.7099 I15.7818 J0.0731
G3 X-413.6522 Y154.0422 I13.7447 J2.3719
G3 X-412.7863 Y151.9263 I11.8068 J3.5964
G3 X-411.0163 Y149.44 I9.8611 J5.147
G3 X-407.7146 Y147.048 I7.9628 J7.5164
G3 X-402.3756 Y145.9981 I4.7552 J10.0817
G3 X-399.298 Y146.63 I-0.5363 J10.4217
G3 X-396.1987 Y148.4882 I-3.3582 J9.1153
G0 Z5.0
M5
M30
