( Made using CamBam - http://www.cambam.co.uk )
( _2014_1_20_car 1/20/2014 11:31:25 PM )
( T0 : 0.0 )
G21 G90 G64 G40
G0 Z5.0
( T0 : 0.0 )
T0 M6
( 113117 )
G17
M3 S1000
G0 X-419.4356 Y162.0536
G1 F1.0 Z0.0
G3 X-419.162 Y159.5752 I74.293 J6.9483
G3 X-418.7874 Y157.11 I51.3738 J6.5456
G1 X-418.759 Y156.9516
G3 X-418.421 Y155.2691 I42.4491 J7.6544
G3 X-418.1955 Y154.3146 I52.7654 J11.958
G3 X-417.4612 Y151.8044 I31.7977 J7.9399
G1 X-417.3508 Y151.4853
G1 X-417.2329 Y151.1574
G3 X-416.6386 Y149.6787 I22.6432 J8.2421
G3 X-415.8405 Y148.0403 I20.906 J9.1695
G3 X-415.3595 Y147.1949 I21.0456 J11.4144
G3 X-414.8021 Y146.319 I17.2093 J10.3368
G3 X-411.0416 Y142.2407 I14.9642 J10.0252
G3 X-408.3803 Y140.4834 I11.456 J14.4555
G3 X-408.3364 Y140.4595 I0.2581 J0.4219
G3 X-408.2923 Y140.4357 I0.2569 J0.4221
G3 X-408.248 Y140.4119 I0.2557 J0.4224
G3 X-406.7045 Y139.6653 I9.8439 J18.3848
G1 X-406.5058 Y139.5802
G3 X-404.7793 Y138.9306 I9.0225 J21.3621
G3 X-402.89 Y138.3813 I8.1361 J24.4616
G1 X-402.6494 Y138.3219
G3 X-400.5795 Y137.8969 I7.3379 J30.4843
G3 X-398.3509 Y137.5903 I6.2001 J36.8102
G3 X-398.2105 Y137.5756 I0.4633 J3.7498
G3 X-398.0695 Y137.5614 I0.4465 J3.7165
G3 X-396.9052 Y137.4629 I3.493 J34.3683
G3 X-396.2104 Y137.4522 I0.4118 J4.195
G3 X-395.5247 Y137.5646 I-0.2367 J3.5934
G3 X-394.2793 Y138.1688 I-0.9444 J3.5326
G3 X-393.5981 Y138.7947 I-2.7015 J3.6234
G3 X-393.2654 Y139.205 I-3.6945 J3.336
G3 X-392.5546 Y140.4052 I-5.9758 J4.3493
G3 X-392.2417 Y141.1342 I-8.2579 J3.9771
G3 X-392.0976 Y141.5307 I-7.1386 J2.8181
G3 X-391.8214 Y142.4466 I-11.3554 J3.9241
G3 X-391.5846 Y143.5041 I-14.5307 J3.8085
G3 X-391.4122 Y144.7189 I-13.2511 J2.5004
G3 X-392.5348 Y144.077 I2.64 J-5.9201
G3 X-393.5212 Y143.2408 I4.6069 J-6.4344
G1 X-393.6431 Y143.1186
G3 X-394.2652 Y142.4419 I12.8533 J-12.438
G3 X-394.343 Y142.3524 I1.5304 J-1.4098
G1 X-394.6954 Y141.9408
G2 X-394.74 Y141.8884 I-0.7511 J0.5942
G2 X-395.1495 Y141.4119 I-30.7166 J25.9776
G1 X-395.3716 Y141.1612
G1 X-395.4879 Y141.0334
G2 X-396.0388 Y140.4681 I-8.5187 J7.7523
G1 X-396.1873 Y140.3287
G2 X-396.9052 Y139.7353 I-5.6516 J6.1068
G2 X-398.0185 Y139.6228 I-1.4021 J8.3138
G2 X-399.1373 Y139.6327 I-0.4503 J12.3399
G2 X-401.3515 Y139.9328 I0.7875 J14.1286
G2 X-402.7855 Y140.3383 I2.4339 J11.3449
G2 X-403.5735 Y140.6633 I3.09 J8.6106
G2 X-404.4174 Y141.1549 I2.3387 J4.9845
G2 X-404.8176 Y141.4926 I1.9281 J2.6911
G2 X-405.1654 Y141.938 I1.5174 J1.5437
G2 X-405.355 Y142.532 I1.2046 J0.7117
G2 X-404.7487 Y142.7855 I1.1498 J-1.8986
G2 X-404.0982 Y142.8787 I0.7564 J-2.9626
G2 X-403.6603 Y142.8773 I0.2039 J-4.8754
G2 X-403.0802 Y142.8278 I-0.2917 J-6.8331
G1 X-402.7509 Y142.7851
G1 X-401.8792 Y142.6567
G3 X-401.8238 Y142.6489 I0.119 J0.6419
G3 X-401.3176 Y142.5854 I3.1109 J22.7656
G1 X-401.0469 Y142.5601
G3 X-400.4269 Y142.5364 I0.6135 J7.9315
G1 X-400.2668 Y142.5401
G3 X-399.539 Y142.6245 I-0.1264 J4.27
G3 X-398.7388 Y142.8872 I-0.6797 J3.4213
G1 X-396.6003 Y145.0666
G2 X-397.8145 Y144.7958 I-5.4676 J21.6598
G1 X-398.222 Y144.7183
G2 X-398.7667 Y144.6234 I-4.8107 J26.009
G2 X-400.9598 Y144.3395 I-5.0472 J30.3794
G2 X-402.4308 Y144.241 I-2.4544 J25.6252
G2 X-404.3968 Y144.2425 I-0.9648 J23.6893
G2 X-405.5178 Y144.3244 I0.8293 J19.0746
G2 X-406.7902 Y144.5051 I1.6172 J15.9556
G2 X-408.2199 Y144.8488 I2.2957 J12.6975
G2 X-409.7888 Y145.4638 I2.8613 J9.6074
G2 X-410.5746 Y145.9068 I3.7913 J7.6432
G2 X-411.354 Y146.478 I3.8783 J6.1089
G2 X-411.8972 Y147.0028 I3.7211 J4.3947
G2 X-412.3845 Y147.5799 I7.5955 J6.9096
G1 X-412.5157 Y147.7514
G2 X-413.4627 Y149.1916 I12.1493 J9.0204
G2 X-414.0121 Y150.2004 I17.4354 J10.1489
G2 X-415.6836 Y154.458 I21.9128 J11.0597
G2 X-416.3413 Y157.4347 I22.0703 J6.4372
G2 X-416.5271 Y159.1672 I20.3717 J3.0612
G2 X-416.5493 Y159.6165 I12.7858 J0.858
G2 X-416.4973 Y161.6728 I16.3381 J0.6158
G1 X-416.4849 Y161.802
G2 X-416.0322 Y164.134 I12.4765 J-1.2119
G2 X-415.5967 Y165.3293 I9.9171 J-2.9358
G2 X-414.9661 Y166.538 I8.7413 J-3.7916
G2 X-412.867 Y168.8944 I7.7166 J-4.761
G2 X-411.4435 Y169.833 I6.3068 J-8.0159
G1 X-411.2536 Y169.9343
G3 X-412.0995 Y170.2972 I-14.9261 J-33.6261
G1 X-412.385 Y170.4098
G3 X-412.7706 Y170.5469 I-5.3097 J-14.3221
G3 X-412.8208 Y170.5632 I-0.1983 J-0.5236
G3 X-412.8728 Y170.5798 I-0.2092 J-0.5678
G3 X-412.9266 Y170.5964 I-0.2215 J-0.62
G3 X-413.5085 Y170.7444 I-1.7719 J-5.7497
G3 X-414.3056 Y170.8297 I-0.8607 J-4.2785
G3 X-414.5199 Y170.8245 I0.0806 J-7.7335
G3 X-415.6347 Y170.5517 I0.1553 J-3.049
G1 X-415.7853 Y170.277
G1 X-415.9375 Y170.0031
G1 X-416.0394 Y169.8208
G1 X-416.0666 Y169.7721
G3 X-416.1287 Y169.661 I4.9223 J-2.8234
G1 X-416.2935 Y169.3641
G1 X-416.3372 Y169.2847
G3 X-416.5646 Y168.8586 I10.6051 J-5.9349
G3 X-416.5931 Y168.8032 I0.7442 J-0.4177
G1 X-416.7198 Y168.5481
G3 X-417.016 Y167.8482 I6.3123 J-3.0837
G3 X-417.2524 Y166.8605 I4.2939 J-1.55
G1 X-417.7049 Y167.0857
G2 X-417.7693 Y167.1184 I0.307 J0.6852
G2 X-418.2818 Y167.3849 I14.9422 J29.3573
G2 X-419.2876 Y167.9534 I9.0526 J17.1898
G2 X-421.1697 Y169.2926 I7.5216 J12.563
G2 X-422.2974 Y170.3435 I10.3637 J12.2513
G2 X-423.6716 Y171.8701 I19.7858 J19.1934
G3 X-423.8719 Y171.8931 I-0.4147 J-2.7208
G3 X-424.073 Y171.9084 I-0.4634 J-4.7851
G3 X-424.4763 Y171.9054 I-0.1808 J-2.8947
G1 X-424.5909 Y171.8929
G3 X-424.8893 Y171.8168 I0.1748 J-1.3086
G3 X-425.044 Y171.7297 I0.2278 J-0.5856
G3 X-425.1769 Y171.5703 I0.2679 J-0.3583
G3 X-425.2204 Y171.3248 I0.4334 J-0.2035
G3 X-425.1475 Y171.0396 I0.9321 J0.0863
G3 X-424.9879 Y170.7509 I1.4513 J0.614
G3 X-424.4366 Y170.1646 I2.2739 J1.5857
G3 X-424.077 Y169.9343 I1.2219 J1.5123
G2 X-423.0721 Y169.3354 I-4.5543 J-8.7837
G2 X-422.155 Y168.6091 I-4.6747 J-6.8456
G2 X-420.7051 Y166.7792 I-4.9529 J-5.4134
G2 X-420.0746 Y165.3518 I-7.4422 J-4.1404
G2 X-419.8251 Y164.4958 I-11.1032 J-3.7007
G2 X-419.6199 Y163.4995 I-12.9764 J-3.1927
G2 X-419.5784 Y163.2403 I-7.0092 J-1.2552
G2 X-419.4356 Y162.0536 I-19.7908 J-2.9827
G0 Z5.0
G0 X-414.1061 Y161.8044
G1 Z0.0
G1 X-412.2726
G1 X-411.2933 Y160.7881
G1 X-410.9641 Y160.452
G1 X-410.7746 Y160.2613
G1 X-410.5566 Y160.0448
G1 X-410.3051 Y159.7997
G1 X-410.0144 Y159.5231
G3 X-409.2176 Y158.8086 I14.5514 J15.4255
G3 X-408.999 Y158.625 I16.0205 J18.8444
G3 X-407.7815 Y157.7104 I9.8315 J11.8201
G3 X-406.0016 Y156.7283 I6.1538 J9.0491
G3 X-405.9425 Y156.7031 I0.4613 J1.0008
G3 X-404.8325 Y156.3185 I3.4867 J8.2692
G3 X-401.6918 Y156.1049 I2.1032 J7.7258
G3 X-401.7684 Y155.264 I2.127 J-0.6178
G3 X-401.5493 Y154.4485 I2.6981 J0.2878
G3 X-401.2796 Y153.9541 I3.1234 J1.383
G3 X-400.8134 Y153.3701 I3.6194 J2.4112
G3 X-400.0607 Y152.7297 I3.4832 J3.3313
G3 X-398.9019 Y152.1325 I2.9019 J4.208
G3 X-398.1834 Y151.9407 I1.4604 J4.0307
G3 X-397.3369 Y151.888 I0.649 J3.5983
G3 X-396.3868 Y152.0985 I-0.1581 J2.9632
G3 X-395.4539 Y152.7351 I-1.0434 J2.531
G3 X-395.0755 Y153.2151 I-2.2235 J2.1421
G3 X-394.8914 Y153.4093 I-1.3771 J1.4896
G3 X-394.7429 Y153.6318 I-1.0297 J0.8481
G3 X-394.701 Y154.1632 I-0.5592 J0.3115
G3 X-394.8961 Y154.471 I-0.9186 J-0.3665
G3 X-395.0422 Y154.6178 I-1.5792 J-1.4257
G3 X-395.4573 Y154.945 I-2.9593 J-3.3266
G1 X-395.5707 Y155.0259
G3 X-395.5996 Y155.0463 I-0.1861 J-0.2328
G1 X-395.8546 Y155.2275
G2 X-396.1305 Y155.4378 I3.8185 J5.2949
G1 X-396.1987 Y155.4949
G2 X-396.2789 Y155.791 I10.6706 J3.0496
G2 X-396.3511 Y156.089 I19.3389 J4.8407
G2 X-396.3951 Y156.2887 I5.2933 J1.2723
G2 X-396.5335 Y157.0946 I9.297 J2.0119
G2 X-396.5792 Y157.638 I5.9924 J0.7774
G2 X-396.5783 Y157.9499 I3.09 J0.1463
G2 X-396.5371 Y158.3047 I2.0964 J-0.0635
G3 X-396.5323 Y158.6006 I-1.0046 J0.1643
G3 X-396.584 Y158.892 I-2.7845 J-0.3444
G3 X-396.6046 Y158.974 I-1.2526 J-0.2705
G3 X-396.6305 Y159.067 I-1.213 J-0.2873
G3 X-396.9024 Y159.7852 I-4.904 J-1.4465
G3 X-397.685 Y161.0939 I-6.283 J-2.8684
G3 X-398.38 Y161.836 I-3.8222 J-2.8834
G3 X-398.5945 Y162.0031 I-1.9589 J-2.2932
G3 X-399.1421 Y162.3026 I-1.4311 J-1.9664
G3 X-399.862 Y162.4087 I-0.5863 J-1.4818
G3 X-399.796 Y162.7651 I-1.2356 J0.4131
G3 X-399.8089 Y163.1272 I-2.5477 J0.0904
G3 X-399.8202 Y163.2301 I-10.7055 J-1.1229
G3 X-399.8269 Y163.2849 I-0.7011 J-0.0581
G1 X-399.8643 Y163.5763
G1 X-399.873 Y163.6541
G2 X-399.8832 Y164.0708 I2.2358 J0.2636
G2 X-399.8375 Y164.3059 I1.1077 J-0.0937
G2 X-399.7122 Y164.5532 I0.8125 J-0.256
G2 X-399.4789 Y164.777 I0.8249 J-0.6265
G2 X-399.148 Y164.9508 I0.887 J-1.2874
G2 X-397.2775 Y164.0131 I-15.9351 J-34.12
G2 X-395.4908 Y162.9243 I-8.9383 J-16.6788
G2 X-394.3885 Y162.0677 I-7.4312 J-10.6999
G2 X-393.8082 Y161.5191 I-5.9871 J-6.9141
G2 X-393.2029 Y160.8348 I-6.9974 J-6.799
G2 X-391.9731 Y158.7252 I-6.5863 J-5.2528
G2 X-391.5499 Y157.3883 I-9.026 J-3.5924
G2 X-391.2909 Y155.8056 I-11.5032 J-2.6953
G2 X-391.2287 Y153.9771 I-15.73 J-1.4508
G1 X-391.2352 Y153.7449
G2 X-391.4122 Y151.6401 I-22.4024 J0.8242
G3 X-389.5396 Y152.6298 I-0.4292 J3.0786
G3 X-389.1086 Y153.2044 I-2.8477 J2.5847
G3 X-388.9101 Y153.5634 I-4.3987 J2.6659
G3 X-388.5281 Y154.5794 I-4.987 J2.4552
G3 X-388.2782 Y155.987 I-7.706 J2.0942
G3 X-388.2868 Y157.8602 I-9.7254 J0.8915
G3 X-388.4629 Y158.909 I-7.3081 J-0.6878
G3 X-389.7192 Y161.2386 I-14.2507 J-6.1816
G3 X-391.3302 Y163.3386 I-14.9196 J-9.777
G3 X-392.5559 Y164.6083 I-16.901 J-15.0896
G3 X-392.5962 Y164.6467 I-0.681 J-0.6732
G3 X-394.3854 Y166.1999 I-18.1014 J-19.0447
G3 X-396.9372 Y168.0525 I-23.2297 J-29.3143
G3 X-397.0199 Y168.1076 I-0.8211 J-1.1423
G3 X-397.1034 Y168.163 I-0.8279 J-1.157
G3 X-397.1876 Y168.2186 I-0.8349 J-1.1723
G3 X-397.2726 Y168.2745 I-0.8423 J-1.1881
G3 X-398.8421 Y169.2674 I-31.9179 J-48.7214
G1 X-399.2517 Y169.516
G1 X-399.6759 Y169.7699
G1 X-400.1152 Y170.0294
G3 X-402.1345 Y171.1885 I-58.2811 J-99.1908
G1 X-403.2162 Y171.7962
G1 X-403.4912 Y171.9501
G2 X-405.9951 Y173.3621 I153.2626 J274.7155
G1 X-406.6373 Y173.7327
G1 X-407.2971 Y174.1199
G2 X-407.6309 Y174.3188 I16.5429 J28.1402
G2 X-408.3163 Y174.7349 I20.2081 J34.061
G1 X-408.6624 Y174.9494
G2 X-409.3715 Y175.4003 I19.3609 J31.2387
G2 X-409.7288 Y175.6338 I12.0238 J18.7804
G1 X-413.392 Y173.7036
G1 X-411.2867 Y172.7801
G2 X-409.1951 Y171.8257 I-38.7675 J-87.7222
G1 X-408.6033 Y171.5406
G2 X-408.4512 Y171.4659 I-2.9617 J-6.2224
G2 X-406.8462 Y170.6327 I-20.3751 J-41.2103
G1 X-406.642 Y170.5197
G2 X-404.5209 Y169.216 I-13.3713 J-24.1317
G2 X-403.372 Y168.3751 I-12.1208 J-17.766
G1 X-403.0854 Y168.1451
G2 X-401.8373 Y167.0177 I-10.7314 J-13.1358
G2 X-400.5686 Y165.5681 I-10.1972 J-10.2042
G2 X-400.9535 Y165.4324 I-0.7871 J1.6186
G2 X-401.3573 Y165.3739 I-0.5321 J2.2472
G2 X-402.1692 Y165.4028 I-0.2492 J4.4122
G2 X-402.2768 Y165.4168 I0.2959 J2.697
G2 X-402.3911 Y165.4337 I0.3088 J2.4834
G2 X-402.9939 Y165.5529 I1.548 J9.4151
G1 X-403.153 Y165.5916
G2 X-403.9883 Y165.8343 I2.8763 J11.457
G2 X-405.0738 Y166.2276 I5.8979 J17.9728
G1 X-405.2121 Y166.2828
G2 X-409.4238 Y168.3649 I13.3039 J32.2124
G3 X-412.1163 Y166.5729 I1.8625 J-5.7171
G3 X-412.7605 Y165.694 I5.21 J-4.4938
G3 X-413.4101 Y164.3985 I6.9365 J-4.2889
G1 X-413.4782 Y164.2241
G3 X-414.0143 Y162.3159 I11.1367 J-4.1584
G3 X-414.0617 Y162.0645 I20.0038 J-3.9011
G1 X-414.1061 Y161.8044
G0 Z5.0
M5
M30
