( Made using CamBam - http://www.cambam.co.uk )
( _2014_1_20_car 1/20/2014 11:45:03 PM )
( T0 : 0.0 )
G21 G90 G64 G40
G0 Z5.0
( T0 : 0.0 )
T0 M6
( 140 )
G17
M3 S1000
G0 X294.761 Y168.3705
G1 F1.0 Z0.0
G3 X297.3243 Y168.2849 I1.6518 J11.0416
G3 X299.8291 Y168.8354 I-0.8347 J9.7706
G3 X301.3831 Y169.5559 I-3.4393 J9.4543
G3 X303.2438 Y170.8745 I-5.9542 J10.3742
G3 X304.1931 Y171.7667 I-9.2017 J10.7414
G3 X305.1824 Y172.8746 I-11.78 J11.5148
G3 X305.6723 Y173.4959 I-12.901 J10.6773
G3 X306.7031 Y174.9724 I-19.873 J14.9711
G1 X306.9516 Y175.3645
G1 X307.0753 Y175.5651
G3 X308.1312 Y177.4288 I-29.6053 J18.0049
G1 X308.3854 Y177.9189
G3 X309.4634 Y180.1799 I-41.9782 J21.4022
G3 X309.4955 Y180.2517 I-1.6373 J0.7748
G1 X309.7562 Y180.8445
G3 X310.8721 Y183.5599 I-74.3413 J32.1364
G1 X311.0074 Y183.9069
G1 X311.2829 Y184.623
G1 X311.3517 Y184.8036
G1 X311.4906 Y185.1704
G1 X311.7742 Y185.927
G1 X311.9172 Y186.3114
G3 X291.1532 Y182.0228 I98.1427 J-527.5888
G1 X289.7751 Y181.7085
G1 X288.3059 Y181.3695
G1 X286.7396 Y181.0037
G1 X285.0702 Y180.6089
G1 X283.2906 Y180.1825
G1 X281.3939 Y179.7218
G3 X271.3027 Y177.1654 I153.6989 J-627.8986
G1 X270.0036 Y176.8237
G1 X268.6633 Y176.4684
G1 X267.2806 Y176.0986
G1 X265.8541 Y175.714
G3 X250.6887 Y171.4294 I196.2533 J-723.6227
G1 X248.7385 Y170.8536
G3 X228.0255 Y164.4228 I252.326 J-849.2901
G3 X216.2573 Y160.5371 I325.1273 J-1004.4282
G1 X215.5175 Y160.2878
G1 X214.772 Y160.036
G1 X214.0209 Y159.7818
G1 X213.264 Y159.525
G1 X212.5014 Y159.2656
G1 X211.7329 Y159.0037
G1 X210.172 Y158.47
G1 X208.5872 Y157.9257
G1 X206.978 Y157.3706
G1 X205.344 Y156.8044
G1 X203.6849 Y156.2271
G1 X202.0001 Y155.6384
G3 X186.6314 Y150.1624 I530.2472 J-1512.4955
G1 X186.1501 Y149.9882
G1 X185.6669 Y149.8131
G3 X168.0295 Y143.3318 I786.7134 J-2168.1232
G1 X163.4853 Y141.6393
G1 X163.2008 Y141.5331
G1 X162.9157 Y141.4266
G1 X160.5995 Y140.561
G1 X155.8193 Y138.7702
G1 X113.6188 Y122.0175
G1 X110.9508 Y120.9362
G1 X108.283 Y119.8542
G1 X102.948 Y117.6887
G1 X92.2803 Y113.3527
G1 X85.17 Y110.4583
G1 X75.6915 Y106.5944
G1 X70.2764 Y104.3838
G1 X64.0887 Y101.8549
G1 X60.789 Y100.5048
G1 X57.2698 Y99.0638
G1 X53.5164 Y97.5254
G1 X52.5633 Y97.1345
G1 X51.595 Y96.7372
G1 X49.5962 Y95.9169
G1 X45.3328 Y94.1653
G1 X40.7862 Y92.2945
G1 X35.9378 Y90.2958
G1 X33.4359 Y89.2627
G1 X33.122 Y89.133
G1 X31.8464 Y88.6057
G1 X26.4056 Y86.3522
G1 X23.5986 Y85.1864
G3 X10.7809 Y79.8224 I940.2876 J-2264.8584
G1 X9.1558 Y79.1351
G1 X7.5058 Y78.4348
G1 X7.0918 Y78.2586
G3 X3.6768 Y76.7959 I306.8446 J-721.1453
G1 X1.9453 Y76.0458
G3 X1.3461 Y75.7701 I7.0889 J-16.1951
G3 X0.7545 Y75.4784 I12.7929 J-26.6959
G1 X0.3629 Y75.2785
G1 X-0.1569 Y75.0072
G1 X-0.8472 Y74.6405
G1 X-3.6003 Y73.1595
G1 X-4.3889 Y72.74
G1 X-5.2925 Y72.2651
G2 X-6.3289 Y71.7297 I-36.675 J69.7195
G1 X-6.5971 Y71.5929
G1 X-6.8744 Y71.4523
G1 X-7.1608 Y71.3079
G1 X-7.457 Y71.1596
G1 X-7.7631 Y71.0074
G1 X-8.4175 Y70.6856
G1 X-9.1179 Y70.3469
G1 X-9.8675 Y69.9912
G2 X-13.9132 Y68.1969 I-41.3043 J87.6757
G2 X-15.0056 Y67.75 I-27.7683 J66.3125
G2 X-20.9271 Y65.6119 I-32.5557 J80.8933
G1 X-21.5749 Y65.4229
G1 X-22.2207 Y65.2268
G1 X-22.6501 Y65.0926
G3 X-22.7645 Y65.0563 I0.4976 J-1.7693
G3 X-24.5873 Y64.454 I29.189 J-91.398
G1 X-25.1057 Y64.2751
G3 X-29.2232 Y62.7605 I44.7678 J-128.0602
G3 X-31.9442 Y61.6879 I64.725 J-168.1733
G1 X-32.6672 Y61.3952
G1 X-33.0399 Y61.2432
G1 X-33.8342 Y60.9167
G1 X-34.2437 Y60.7471
G3 X-38.5943 Y58.8978 I113.3508 J-272.7013
G3 X-38.7308 Y58.8384 I3.2506 J-7.6692
G1 X-39.2944 Y58.5928
G1 X-39.8758 Y58.3383
G1 X-41.1144 Y57.7919
G1 X-41.7529 Y57.5082
G1 X-43.1134 Y56.8992
G1 X-43.8147 Y56.583
G3 X-51.2625 Y53.1412 I199.4322 J-441.3354
G1 X-53.2397 Y52.2045
G1 X-53.7413 Y51.9655
G1 X-54.2506 Y51.7223
G1 X-54.7679 Y51.4747
G3 X-55.0285 Y51.3498 I6.4406 J-13.7665
G1 X-56.1037 Y50.8327
G3 X-56.2386 Y50.7677 I1.3602 J-2.9938
G1 X-57.3518 Y50.2297
G1 X-57.6321 Y50.0938
G1 X-58.789 Y49.5315
G1 X-59.9823 Y48.9493
G1 X-62.5268 Y47.7049
G2 X-62.6067 Y47.6663 I-0.5157 J0.9658
G2 X-62.9305 Y47.5147 I-3.3131 J6.6531
G1 X-64.3115 Y46.9422
G1 X-65.6902 Y46.3645
G1 X-66.6082 Y45.9765
G1 X-67.8308 Y45.4557
G1 X-69.4584 Y44.7556
G1 X-70.3872 Y44.3527
G1 X-71.4477 Y43.89
G1 X-72.6583 Y43.3581
G1 X-74.0404 Y42.7465
G1 X-75.6178 Y42.0431
G3 X-79.815 Y40.1465 I249.6369 J-558.0364
G3 X-80.3557 Y39.8998 I37.226 J-82.3117
G3 X-80.9136 Y39.6448 I34.7593 J-76.7764
G3 X-86.8547 Y36.9022 I443.3774 J-968.2741
G3 X-87.2315 Y36.727 I19.4266 J-42.2527
G3 X-87.6141 Y36.5488 I19.3943 J-42.1609
G3 X-88.0028 Y36.3678 I19.3726 J-42.0932
G3 X-88.3976 Y36.1837 I19.361 J-42.0484
G3 X-88.7986 Y35.9967 I19.3588 J-42.0253
G3 X-89.2059 Y35.8065 I19.3652 J-42.0217
G3 X-89.6197 Y35.6133 I19.3799 J-42.0375
G3 X-90.04 Y35.4169 I19.4021 J-42.0709
G1 X-93.881 Y33.6186
G3 X-94.3687 Y33.39 I19.8676 J-43.0214
G3 X-94.8641 Y33.1578 I19.9294 J-43.1604
G2 X-95.3674 Y32.9219 I-20.4937 J43.0645
G2 X-95.8786 Y32.6823 I-20.5608 J43.1995
G1 X-100.554 Y30.494
G2 X-100.8487 Y30.3564 I-14.6717 J31.0412
G2 X-101.1457 Y30.2178 I-14.6635 J31.0339
G2 X-101.445 Y30.0782 I-14.6526 J31.0214
G2 X-101.7467 Y29.9375 I-14.6387 J31.0033
G2 X-102.0509 Y29.7958 I-14.6216 J30.9792
G2 X-107.6185 Y27.2176 I-434.5257 J931.0863
G2 X-107.9697 Y27.0563 I-13.6807 J29.3168
G2 X-108.3237 Y26.8938 I-13.5911 J29.1511
G2 X-108.6806 Y26.7303 I-13.4979 J28.9781
G2 X-109.0404 Y26.5656 I-13.401 J28.7979
G2 X-109.4031 Y26.3997 I-13.3005 J28.6105
G2 X-109.7688 Y26.2328 I-13.1965 J28.4162
G2 X-110.1374 Y26.0647 I-13.0892 J28.2152
G2 X-110.509 Y25.8955 I-12.9785 J28.0074
G2 X-110.8836 Y25.7251 I-12.8646 J27.7934
G2 X-111.2612 Y25.5536 I-12.748 J27.5737
G2 X-111.6419 Y25.381 I-12.6285 J27.3484
G2 X-112.0258 Y25.2073 I-12.5063 J27.1178
G2 X-112.4127 Y25.0324 I-12.3815 J26.8819
G2 X-119.51 Y21.8829 I-220.2666 J486.7974
G2 X-119.7335 Y21.7858 I-6.9671 J15.7183
G2 X-119.9578 Y21.6884 I-6.9166 J15.6227
G2 X-128.1995 Y18.2139 I-167.6987 J386.2807
G2 X-128.4594 Y18.1079 I-5.2316 J12.4592
G2 X-128.7203 Y18.0018 I-5.1874 J12.3772
G2 X-133.1873 Y16.2232 I-123.0825 J302.6289
G2 X-143.5024 Y12.4264 I-102.0675 J261.3895
G2 X-143.6652 Y12.3703 I-2.263 J6.2995
G1 X-144.9888 Y11.9186
G2 X-150.6663 Y10.0778 I-72.8833 J215.1097
G2 X-150.8449 Y10.0225 I-1.8205 J5.5647
G2 X-156.9678 Y8.2279 I-65.0735 J210.6852
G1 X-157.6819 Y8.9235
G2 X-155.1272 Y9.9942 I566.9229 J-1348.9856
G1 X-154.2748 Y10.3491
G1 X-153.1376 Y10.8209
G1 X-151.6203 Y11.4476
G1 X-149.5959 Y12.2795
G1 X-146.8944 Y13.3834
G1 X-143.2897 Y14.8489
G1 X-138.4815 Y16.7977
G3 X-138.1762 Y16.9214 I-5.5716 J14.1842
G3 X-131.6667 Y19.5689 I-954.1246 J2355.2607
G1 X-129.9326 Y20.2792
G1 X-128.0841 Y21.0398
G1 X-127.1306 Y21.4337
G1 X-126.1467 Y21.8414
G1 X-125.1317 Y22.2636
G1 X-122.9681 Y23.1687
G1 X-121.8527 Y23.6386
G1 X-121.2864 Y23.8781
G1 X-120.7113 Y24.1219
G1 X-120.1274 Y24.3701
G1 X-119.5344 Y24.6229
G1 X-118.9324 Y24.8804
G1 X-117.6904 Y25.4141
G3 X-115.0453 Y26.5633 I-142.7822 J332.2564
G1 X-113.6827 Y27.1626
G1 X-112.9913 Y27.4686
G1 X-112.2894 Y27.7808
G1 X-111.577 Y28.0991
G1 X-110.8539 Y28.4239
G3 X-107.776 Y29.8256 I-206.8141 J458.2057
G3 X-100.7917 Y33.1403 I-142.0788 J308.3795
G1 X-100.3544 Y33.3549
G1 X-99.9141 Y33.5718
G1 X-99.4707 Y33.7913
G1 X-33.1518 Y63.8917
G1 X-33.5311 Y64.961
G3 X-34.01 Y64.7453 I17.9081 J-40.3978
G3 X-34.4888 Y64.5295 I17.9371 J-40.4327
G3 X-34.808 Y64.3855 I14.7038 J-33.0265
G3 X-35.2336 Y64.1935 I16.9726 J-38.1777
G3 X-35.8009 Y63.9372 I19.5971 J-44.1506
G3 X-36.1251 Y63.7907 I14.8956 J-33.3945
G3 X-36.4955 Y63.6233 I15.9355 J-35.7397
G3 X-36.9189 Y63.4318 I17.0515 J-38.2575
G1 X-40.3039 Y61.8966
G3 X-40.7551 Y61.6915 I17.9639 J-40.1156
G3 X-41.2363 Y61.4726 I18.5987 J-41.5294
G3 X-41.7496 Y61.2391 I19.261 J-43.0038
G3 X-42.297 Y60.9898 I19.9531 J-44.5438
G3 X-42.8808 Y60.7238 I20.677 J-46.1538
G3 X-43.1821 Y60.5864 I14.9608 J-33.2186
G3 X-43.4931 Y60.4446 I15.2307 J-33.8128
G3 X-43.8141 Y60.2982 I15.5071 J-34.4212
G3 X-44.1455 Y60.147 I15.7902 J-35.0443
G1 X-47.6789 Y58.5318
G3 X-61.7994 Y52.0431 I2869.9001 J-6264.0086
G3 X-62.2476 Y51.8368 I22.2519 J-48.9177
G2 X-62.7028 Y51.6272 I-23.0234 J49.4044
G2 X-63.1653 Y51.4143 I-23.3554 J50.1163
G2 X-63.6351 Y51.1979 I-23.6963 J50.8481
G2 X-64.1124 Y50.9782 I-24.0465 J51.6006
G2 X-64.5972 Y50.755 I-24.4061 J52.3742
G2 X-65.0898 Y50.5282 I-24.7758 J53.1702
G1 X-69.5935 Y48.4561
G2 X-81.6123 Y42.9501 I-1701.9343 J3699.2051
G2 X-82.3761 Y42.602 I-40.7367 J88.3863
G2 X-83.1521 Y42.2487 I-41.5484 J90.2267
G2 X-83.9406 Y41.89 I-42.369 J92.0935
G2 X-84.7417 Y41.5259 I-43.1951 J93.98
G2 X-85.5557 Y41.1563 I-44.0229 J95.8782
G2 X-86.3827 Y40.7812 I-44.8471 J97.777
G2 X-87.2231 Y40.4005 I-45.6624 J99.665
G2 X-88.0769 Y40.0141 I-46.462 J101.5276
G2 X-88.9444 Y39.6219 I-47.2383 J103.3489
G2 X-89.8259 Y39.224 I-47.9831 J105.1105
G2 X-90.7216 Y38.8201 I-48.687 J106.7921
G2 X-91.6318 Y38.4104 I-49.3399 J108.3717
G2 X-92.5566 Y37.9946 I-49.9313 J109.8259
G2 X-93.0227 Y37.7853 I-35.4616 J78.343
G2 X-93.4926 Y37.5744 I-35.6312 J78.7771
G2 X-93.9662 Y37.3621 I-35.7858 J79.1798
G2 X-94.4436 Y37.1482 I-35.9246 J79.5492
G2 X-94.9249 Y36.9328 I-36.0463 J79.8825
G2 X-95.41 Y36.7158 I-36.1505 J80.1788
G2 X-95.899 Y36.4973 I-36.2359 J80.4351
G2 X-96.3919 Y36.2772 I-36.3019 J80.6497
G2 X-96.8888 Y36.0556 I-36.3482 J80.8222
G2 X-97.3897 Y35.8324 I-36.374 J80.9506
G2 X-97.8946 Y35.6076 I-36.3787 J81.0337
G2 X-98.4036 Y35.3812 I-36.3616 J81.0694
G2 X-98.9166 Y35.1533 I-36.3231 J81.0587
G2 X-99.4338 Y34.9237 I-36.2622 J80.9994
G2 X-99.9551 Y34.6925 I-36.179 J80.8913
G2 X-100.4807 Y34.4598 I-36.0741 J80.7359
G2 X-101.0104 Y34.2254 I-35.9472 J80.5321
G2 X-101.5445 Y33.9894 I-35.7987 J80.281
G2 X-111.3286 Y29.7166 I-499.7087 J1130.9241
G2 X-111.9462 Y29.4504 I-30.2311 J69.2914
G2 X-112.5689 Y29.1825 I-29.8235 J68.4554
G2 X-113.1966 Y28.9128 I-29.4119 J67.6094
G2 X-113.8294 Y28.6415 I-28.9979 J66.757
G2 X-114.4674 Y28.3684 I-28.582 J65.8996
G2 X-115.1106 Y28.0937 I-28.1649 J65.0384
G2 X-120.607 Y25.7672 I-372.8876 J873.3196
G2 X-120.9524 Y25.6224 I-17.2326 J40.6058
G2 X-121.2992 Y25.4771 I-17.0916 J40.3135
G2 X-121.6474 Y25.3314 I-16.9513 J40.0225
G2 X-121.997 Y25.1853 I-16.8118 J39.7333
G2 X-122.3481 Y25.0387 I-16.6729 J39.4452
G2 X-122.7006 Y24.8917 I-16.5348 J39.1589
G2 X-123.0545 Y24.7443 I-16.3976 J38.8744
G2 X-123.4099 Y24.5965 I-16.2612 J38.5915
G2 X-123.7668 Y24.4482 I-16.1255 J38.3101
G2 X-124.1251 Y24.2996 I-15.9907 J38.0306
G2 X-124.4849 Y24.1505 I-15.8568 J37.7531
G2 X-124.8462 Y24.0009 I-15.7238 J37.4772
G2 X-125.2089 Y23.851 I-15.5914 J37.2028
G2 X-125.5732 Y23.7006 I-15.4601 J36.9308
G2 X-125.9389 Y23.5498 I-15.3297 J36.6605
G2 X-139.365 Y18.1587 I-299.9357 J727.5588
G2 X-139.7879 Y17.9938 I-11.3375 J28.4413
G2 X-147.0219 Y15.2216 I-235.446 J603.5763
G2 X-147.2489 Y15.1362 I-6.861 J17.8858
G2 X-147.4764 Y15.0507 I-6.8311 J17.826
G2 X-147.7044 Y14.965 I-6.8014 J17.7667
G2 X-147.9329 Y14.8794 I-6.7718 J17.7076
G2 X-151.7109 Y13.4769 I-177.5829 J472.5781
G2 X-151.9478 Y13.3898 I-6.2805 J16.7317
G2 X-152.1852 Y13.3027 I-6.2531 J16.6776
G1 X-152.5038 Y13.3699
G1 X-152.6105 Y13.3906
G1 X-152.6715 Y13.402
G1 X-152.8343 Y13.4311
G3 X-153.4893 Y13.5245 I-1.8114 J-10.352
G3 X-154.8111 Y13.5788 I-1.0324 J-9.0247
G3 X-155.6894 Y13.4888 I0.2381 J-6.6583
G3 X-156.824 Y13.1695 I0.9197 J-5.4435
G3 X-158.1756 Y12.3584 I1.9024 J-4.7017
G3 X-158.8257 Y11.7292 I3.7541 J-4.5292
G3 X-159.4607 Y10.9143 I6.0503 J-5.3694
G3 X-160.0741 Y9.9115 I10.5268 J-7.1283
G1 X-160.2183 Y9.645
G2 X-161.4452 Y7.3917 I-103.8861 J55.1024
G2 X-162.7372 Y5.1751 I-57.8149 J32.2154
G1 X-162.9162 Y4.8837
G2 X-163.907 Y3.3514 I-37.9716 J23.4667
G1 X-164.1833 Y2.9508
G1 X-164.3283 Y2.7456
G1 X-164.4797 Y2.5351
G2 X-165.198 Y1.5919 I-21.113 J15.3329
G2 X-165.6011 Y1.1044 I-21.826 J17.6373
G1 X-165.6269 Y1.0742
G2 X-165.7325 Y0.9523 I-2.5249 J2.0786
G1 X-165.9539 Y0.7036
G2 X-167.0353 Y-0.3703 I-10.3675 J9.3593
G2 X-167.3349 Y-0.6259 I-7.1577 J8.0867
G2 X-168.8326 Y-1.6362 I-5.7609 J6.9245
G2 X-170.7933 Y-2.3491 I-3.4829 J6.5266
G2 X-171.9061 Y-2.5018 I-1.6267 J7.7253
G2 X-173.1117 Y-2.5077 I-0.6521 J9.9803
G2 X-174.3951 Y-2.372 I0.7186 J12.9357
G1 X-174.4753 Y-2.3596
G1 X-174.8 Y-2.3048
G2 X-176.172 Y-2.0086 I3.7321 J20.612
G2 X-176.5172 Y-1.9201 I2.9521 J12.2287
G2 X-176.8664 Y-1.8258 I5.8136 J22.2095
G2 X-177.582 Y-1.619 I11.5696 J41.3891
G1 X-177.9434 Y-1.5086
G1 X-178.309 Y-1.3932
G1 X-178.6788 Y-1.2732
G2 X-179.4371 Y-1.0178 I41.0411 J123.1329
G2 X-180.2139 Y-0.7456 I13.6294 J40.1274
G2 X-180.6066 Y-0.6045 I13.8322 J39.1284
G1 X-181.0044 Y-0.4597
G2 X-182.1695 Y-0.0136 I13.0141 J35.7355
G2 X-183.3224 Y0.4634 I15.2401 J38.4713
G1 X-183.4753 Y0.5291
G1 X-183.8239 Y0.6811
G1 X-184.0094 Y0.7631
G2 X-186.9369 Y2.1614 I25.8244 J57.8306
G2 X-186.9824 Y2.1847 I0.2342 J0.5147
G2 X-192.6456 Y5.4496 I29.5145 J57.7377
G2 X-196.2152 Y7.9511 I30.5425 J47.3814
G2 X-197.1324 Y8.6658 I27.5652 J36.3205
G2 X-198.0916 Y9.4519 I29.6487 J37.1578
G2 X-199.0911 Y10.319 I24.9214 J29.7325
G2 X-200.1266 Y11.2785 I23.7099 J26.6278
G1 X-200.2546 Y11.402
G2 X-202.4818 Y13.7745 I22.7992 J23.6351
G2 X-203.5621 Y15.1354 I21.3551 J18.0614
G1 X-203.6268 Y15.2232
G1 X-203.6915 Y15.3116
G2 X-203.8205 Y15.4907 I4.277 J3.217
G2 X-204.8504 Y17.0711 I18.5633 J13.2226
G2 X-205.0888 Y17.4871 I11.6945 J6.9796
G2 X-205.3203 Y17.916 I41.4651 J22.6558
G2 X-206.1701 Y19.8214 I14.5235 J7.6193
G2 X-206.7711 Y21.9793 I12.5731 J4.6648
G2 X-206.9674 Y24.3875 I11.2517 J2.1292
G2 X-206.9556 Y24.7729 I23.6327 J-0.5305
G1 X-206.941 Y25.158
G1 X-206.9052 Y25.9282
G1 X-206.8776 Y26.4414
G1 X-206.7584 Y28.4938
G1 X-206.7275 Y29.0804
G1 X-206.7201 Y29.2318
G3 X-206.6662 Y30.8478 I-55.5976 J2.6622
G1 X-206.6623 Y31.279
G3 X-206.6646 Y31.739 I-16.5236 J0.1473
G3 X-206.7007 Y32.7899 I-23.1158 J-0.2667
G3 X-206.7088 Y32.9233 I-2.0697 J-0.0597
G3 X-206.8298 Y34.139 I-16.1883 J-0.9966
G2 X-206.8883 Y34.193 I0.7333 J0.8532
G2 X-206.9467 Y34.2473 I0.7456 J0.8615
G2 X-206.9856 Y34.2836 I0.622 J0.7054
G2 X-207.0373 Y34.3321 I0.7238 J0.8237
G2 X-207.2427 Y34.5273 I12.8278 J13.7022
G2 X-207.3011 Y34.5835 I0.8347 J0.9246
G2 X-207.3675 Y34.648 I0.908 J1.0026
G2 X-207.8908 Y35.1719 I14.1362 J14.6437
G2 X-208.8921 Y36.2628 I19.1535 J18.5849
G2 X-210.6962 Y38.6099 I18.5529 J16.1276
G1 X-210.8027 Y38.7687
G2 X-211.8524 Y40.5157 I19.0721 J12.6484
G2 X-212.9736 Y42.9917 I16.9465 J9.166
G2 X-213.4423 Y44.4744 I16.3466 J5.9826
G3 X-212.6377 Y46.0298 I-12.8738 J7.6452
G3 X-212.029 Y47.672 I-12.5272 J5.5774
G1 X-211.9646 Y47.8966
G3 X-211.5463 Y51.6007 I-11.271 J3.1487
G3 X-211.923 Y54.0644 I-12.2073 J-0.6061
G3 X-212.3496 Y55.4245 I-13.9557 J-3.63
G3 X-212.9946 Y56.9184 I-14.8388 J-5.5201
G3 X-213.0402 Y57.0103 I-1.5267 J-0.7012
G3 X-213.9622 Y58.6371 I-16.665 J-8.3706
G3 X-214.0255 Y58.7365 I-1.7643 J-1.0535
G3 X-214.0899 Y58.8363 I-1.8034 J-1.0921
G3 X-214.66 Y59.6718 I-16.704 J-10.7862
G3 X-216.084 Y61.479 I-20.7062 J-14.8506
G1 X-216.2754 Y61.6995
G3 X-218.1042 Y63.6207 I-26.0144 J-22.9322
G3 X-219.131 Y64.5869 I-27.1629 J-27.8395
G1 X-219.3966 Y64.8266
G3 X-221.878 Y66.9108 I-35.7315 J-40.0205
G3 X-222.2007 Y67.1654 I-10.2755 J-12.6917
G1 X-222.3638 Y67.293
G1 X-222.6958 Y67.5506
G3 X-222.7793 Y67.615 I-1.6288 J-2.0266
G1 X-223.1189 Y67.8753
G1 X-223.2044 Y67.9404
G3 X-223.5516 Y68.2037 I-20.5168 J-26.6868
G1 X-224.2686 Y68.7433
G3 X-225.2383 Y69.4306 I-16.8125 J-22.6939
G1 X-225.5658 Y69.6536
G1 X-225.7534 Y69.7803
G1 X-225.8536 Y69.8477
G1 X-226.3891 Y70.2052
G1 X-227.1056 Y70.6784
G1 X-227.5159 Y70.9475
G1 X-227.735 Y71.0906
G1 X-228.9052 Y71.8508
G3 X-233.6068 Y74.8593 I-357.7124 J-553.8462
G1 X-233.9108 Y75.0522
G1 X-235.3015 Y75.9332
G1 X-236.8921 Y76.9378
G1 X-238.7114 Y78.0838
G1 X-239.6823 Y78.6941
G1 X-240.7182 Y79.3446
G1 X-243.0872 Y80.8293
G3 X-243.1243 Y80.8526 I-0.3666 J-0.5443
G3 X-243.1615 Y80.8759 I-0.3675 J-0.5458
G1 X-244.4306 Y81.6699
G1 X-247.3326 Y83.4824
G1 X-250.6511 Y85.5506
G1 X-254.4459 Y87.9109
G1 X-258.7851 Y90.6045
G1 X-263.7468 Y93.6788
G1 X-265.0276 Y94.4716
G1 X-270.8844 Y98.0927
G1 X-277.581 Y102.2259
G1 X-281.1538 Y104.4284
G1 X-289.3231 Y109.4577
G1 X-289.8378 Y109.7744
G1 X-294.2308 Y112.4748
G1 X-298.9182 Y115.3529
G3 X-300.0097 Y113.3775 I24.4366 J-14.7905
G1 X-300.154 Y113.0891
G3 X-300.3161 Y112.7582 I10.997 J-5.5908
G3 X-300.7349 Y111.8691 I34.3605 J-16.7266
G3 X-300.9667 Y111.3576 I40.3618 J-18.5989
G1 X-301.0884 Y111.084
G1 X-301.2171 Y110.7916
G1 X-301.3531 Y110.4791
G1 X-301.497 Y110.1453
G1 X-301.6494 Y109.7888
G1 X-301.8109 Y109.4081
G1 X-301.9825 Y109.0017
G1 X-302.3737 Y108.0728
G1 X-302.8242 Y107.0127
G1 X-303.0682 Y106.4489
G1 X-303.3328 Y105.8495
G2 X-303.9606 Y104.4899 I-46.551 J20.6702
G2 X-304.0432 Y104.3185 I-6.0756 J2.8219
G2 X-304.1278 Y104.1448 I-6.1113 J2.8698
G2 X-304.2146 Y103.9687 I-6.0754 J2.8846
G2 X-304.3036 Y103.7902 I-5.9684 J2.8657
G1 X-304.4799 Y103.4463
G1 X-304.6613 Y103.1049
G1 X-304.6859 Y103.0596
G1 X-304.7123 Y103.0113
G2 X-305.1493 Y102.2478 I-24.2299 J13.3608
G2 X-305.4576 Y101.749 I-14.6629 J8.7173
G2 X-305.8916 Y101.0984 I-13.7066 J8.6735
G1 X-306.0119 Y100.9281
G2 X-306.2948 Y100.5444 I-10.4803 J7.428
G2 X-307.1045 Y99.5644 I-12.1179 J9.188
G2 X-308.3206 Y98.3829 I-9.2643 J8.319
G1 X-308.3615 Y98.3485
G1 X-308.403 Y98.314
G2 X-310.3259 Y97.0521 I-6.4734 J7.7683
G2 X-313.2642 Y96.1406 I-4.2527 J8.5167
G2 X-315.0272 Y96.0312 I-1.5861 J11.3047
G2 X-317.0365 Y96.2032 I0.2533 J14.7856
G2 X-319.281 Y96.6782 I3.2927 J21.0989
G2 X-319.851 Y96.8358 I4.3693 J16.9093
G2 X-321.0516 Y97.2064 I9.4815 J32.8515
G1 X-321.3541 Y97.3069
G1 X-321.6603 Y97.4112
G2 X-321.7371 Y97.4377 I0.333 J1.0882
G2 X-321.814 Y97.4644 I0.3409 J1.1055
G2 X-321.8912 Y97.4914 I0.3492 J1.1238
G2 X-321.9687 Y97.5186 I0.3579 J1.1431
G2 X-322.0464 Y97.546 I0.3669 J1.1635
G2 X-322.6845 Y97.7761 I9.8361 J28.2764
G1 X-323.3388 Y98.0199
G2 X-323.4208 Y98.0509 I0.683 J1.9294
G2 X-324.0943 Y98.3088 I20.0732 J53.4257
G1 X-324.4353 Y98.4411
G1 X-324.7809 Y98.5761
G2 X-326.8618 Y99.4202 I42.1729 J106.9429
G1 X-327.5513 Y99.7115
G1 X-327.9446 Y99.8799
G1 X-328.3932 Y100.0741
G2 X-328.4502 Y100.0989 I0.2239 J0.5921
G2 X-332.0699 Y101.7361 I55.7681 J128.1135
G1 X-332.5494 Y101.9613
G1 X-333.6429 Y102.4811
G1 X-334.2248 Y102.7611
G1 X-334.8444 Y103.0619
G1 X-335.5043 Y103.385
G2 X-339.0057 Y105.1436 I101.2796 J206.013
G1 X-339.4555 Y105.3745
G1 X-339.9193 Y105.6138
G1 X-340.9073 Y106.1271
G1 X-341.959 Y106.6787
G2 X-347.5324 Y109.6859 I163.6566 J309.9814
G2 X-354.8826 Y113.8404 I196.2842 J355.8451
G1 X-355.1127 Y113.9737
G1 X-356.0621 Y114.5253
G1 X-357.0407 Y115.0971
G1 X-358.0494 Y115.6899
G1 X-358.1759 Y115.7645
G1 X-358.3028 Y115.8394
G1 X-359.3502 Y116.4596
G2 X-370.4138 Y123.2493 I221.3307 J373.0574
G1 X-371.8254 Y124.1509
G1 X-372.5407 Y124.6116
G1 X-372.9008 Y124.8444
G1 X-373.6312 Y125.319
G1 X-373.9988 Y125.5591
G1 X-374.7444 Y126.0485
G2 X-376.2781 Y127.0674 I103.6766 J157.7254
G2 X-377.0539 Y127.5899 I40.5664 J61.0582
G1 X-377.2482 Y127.7217
G2 X-377.6392 Y127.9881 I13.9295 J20.8726
G1 X-378.4314 Y128.5328
G1 X-379.2321 Y129.092
G1 X-379.4324 Y129.2334
G2 X-381.0701 Y130.4237 I44.0161 J62.2843
G1 X-381.4762 Y130.7325
G1 X-381.6785 Y130.8896
G1 X-381.8802 Y131.049
G2 X-382.2816 Y131.3773 I12.0779 J15.1773
G1 X-382.4791 Y131.5468
G2 X-382.8619 Y131.9065 I3.7927 J4.4199
G2 X-383.393 Y132.5708 I3.1756 J3.083
G2 X-383.7629 Y133.3366 I2.7873 J1.819
G2 X-383.8736 Y133.8947 I2.229 J0.732
G2 X-383.7806 Y134.6512 I1.8996 J0.1505
G3 X-382.0037 Y136.7022 I-12.2802 J12.4342
G3 X-380.549 Y138.993 I-15.7288 J11.5958
G3 X-380.1889 Y139.6803 I-25.7225 J13.9125
G3 X-379.8043 Y140.4789 I-20.661 J10.4433
G1 X-379.7092 Y140.6871
G3 X-378.7862 Y142.9429 I-34.3966 J15.3909
G1 X-378.5617 Y143.5527
G3 X-378.0688 Y144.9526 I-66.9946 J24.3732
G3 X-377.9444 Y145.3147 I-23.0298 J8.1154
G3 X-377.8164 Y145.6886 I-24.1357 J8.4671
G2 X-377.6845 Y146.0746 I26.5668 J-8.8651
G2 X-377.5481 Y146.4728 I28.9416 J-9.6939
G2 X-377.4065 Y146.8834 I28.6909 J-9.662
G2 X-377.2591 Y147.3067 I24.4065 J-8.2644
G2 X-376.5535 Y149.2281 I53.198 J-18.4446
G2 X-375.6357 Y151.3779 I31.8196 J-12.314
G2 X-372.2693 Y156.9051 I32.0254 J-15.717
G2 X-367.9783 Y161.7496 I30.4459 J-22.6446
G2 X-366.6112 Y162.9974 I29.3874 J-30.8219
G2 X-364.985 Y164.3495 I27.0022 J-30.8213
G2 X-364.8805 Y164.4321 I1.8192 J-2.1957
G2 X-362.929 Y165.889 I27.9313 J-35.3787
G2 X-360.6164 Y167.4354 I30.4035 J-42.9658
G2 X-357.885 Y169.0586 I31.5946 J-50.0547
G2 X-354.6725 Y170.7437 I33.2768 J-59.5354
G2 X-352.9269 Y171.5761 I36.8119 J-74.9421
G2 X-348.8758 Y173.3269 I37.9618 J-82.2785
G1 X-348.3559 Y173.5358
G2 X-343.5664 Y175.325 I45.6718 J-114.9537
G1 X-342.9535 Y175.5387
G1 X-342.33 Y175.753
G2 X-336.6091 Y177.6008 I62.7188 J-184.4014
G2 X-333.5432 Y178.5253 I117.7711 J-385.0108
G1 X-332.7635 Y178.7555
G1 X-331.1536 Y179.2262
G1 X-329.4917 Y179.7073
G1 X-325.9501 Y180.7263
G1 X-324.1243 Y181.2542
G1 X-323.1978 Y181.5241
G3 X-319.2585 Y182.6993 I-99.5586 J340.9055
G3 X-318.2613 Y183.0069 I-822.0904 J2666.7057
G3 X-317.6368 Y183.2338 I-1.7741 J5.8554
G3 X-317.5504 Y183.2732 I-0.4492 J1.0993
G3 X-317.3301 Y183.3985 I-0.5627 J1.2461
G3 X-317.278 Y183.4419 I-0.2563 J0.3605
G3 X-317.2363 Y183.5025 I-0.1058 J0.1175
G3 X-317.24 Y183.5442 I-0.0508 J0.0165
G3 X-317.2824 Y183.5788 I-0.0741 J-0.0474
G3 X-317.3468 Y183.599 I-0.1245 J-0.2842
G3 X-317.5053 Y183.6143 I-0.1829 J-1.0659
G3 X-317.6698 Y183.6107 I-0.032 J-2.2852
G3 X-317.8144 Y183.5991 I0.0485 J-1.513
G1 X-317.9861 Y183.5786
G3 X-318.1015 Y183.5616 I0.1454 J-1.3904
G1 X-318.2012 Y183.5453
G1 X-318.3286 Y183.5224
G3 X-318.3997 Y183.5087 I0.2899 J-1.7018
G1 X-318.57 Y183.4737
G3 X-324.7416 Y182.1308 I158.6553 J-743.9653
G3 X-325.1526 Y182.0394 I5.5264 J-25.8254
G3 X-325.591 Y181.9417 I5.7338 J-26.7609
G3 X-326.0586 Y181.8372 I5.9534 J-27.7487
G3 X-326.2999 Y181.7832 I4.3485 J-19.9971
G3 X-326.549 Y181.7274 I4.4331 J-20.3684
G3 X-326.8061 Y181.6697 I4.5203 J-20.7511
G3 X-327.0715 Y181.6101 I4.6103 J-21.1458
G3 X-327.3455 Y181.5485 I4.7033 J-21.553
G3 X-327.6282 Y181.4848 I4.7995 J-21.9744
G1 X-330.643 Y180.8016
G3 X-334.6609 Y179.8817 I826.7209 J-3620.161
G3 X-335.1792 Y179.7625 I7.714 J-34.7433
G3 X-335.4425 Y179.702 I5.6194 J-25.0369
G3 X-335.71 Y179.6404 I5.7111 J-25.4386
G3 X-335.9817 Y179.5779 I5.8059 J-25.8545
G3 X-336.2577 Y179.5144 I5.9041 J-26.2855
G3 X-336.5381 Y179.4499 I6.0057 J-26.7325
G3 X-336.8229 Y179.3843 I6.1109 J-27.1961
G1 X-342.8995 Y177.9873
G2 X-343.2854 Y177.899 I-9.6587 J41.3142
G2 X-343.6775 Y177.8093 I-9.9199 J42.4801
G2 X-344.0758 Y177.7183 I-10.1945 J43.7102
G2 X-344.4805 Y177.626 I-10.4834 J45.0091
G2 X-344.8916 Y177.5323 I-10.7873 J46.3807
G2 X-345.3092 Y177.4372 I-11.107 J47.8288
G2 X-354.2276 Y175.449 I-202.6017 J887.7911
G2 X-354.7946 Y175.3261 I-17.7605 J80.6006
G2 X-355.3707 Y175.2018 I-17.6053 J80.2094
G2 X-355.9561 Y175.0761 I-17.3408 J79.3234
G2 X-356.5509 Y174.949 I-16.9755 J77.9743
G2 X-357.1553 Y174.8205 I-16.5225 J76.2179
G2 X-357.7694 Y174.6906 I-15.9982 J74.124
G2 X-363.3914 Y173.5379 I-100.2334 J474.5617
G2 X-363.746 Y173.4676 I-7.2926 J35.8568
G2 X-364.1035 Y173.397 I-7.1041 J35.0542
G2 X-364.4638 Y173.3262 I-6.9204 J34.2719
G2 X-364.8271 Y173.2552 I-6.7415 J33.5101
G2 X-365.1933 Y173.1839 I-6.5672 J32.7684
G2 X-365.5624 Y173.1124 I-6.3977 J32.0472
G2 X-372.3246 Y171.8709 I-69.1053 J357.3557
G2 X-372.7514 Y171.7972 I-4.0343 J22.0928
G2 X-380.574 Y170.5587 I-47.8964 J277.1881
G2 X-389.557 Y169.4344 I-34.6334 J240.2658
G2 X-394.3651 Y168.9823 I-21.1355 J198.9845
G2 X-392.5853 Y167.7869 I-8.8264 J-15.0651
G1 X-392.472 Y167.6996
G2 X-390.7483 Y166.1969 I-13.3246 J-17.0239
G2 X-390.2835 Y165.7374 I-35.7444 J-36.6247
G2 X-389.0901 Y164.4687 I-28.0412 J-27.5737
G1 X-388.7801 Y164.1229
G1 X-388.7018 Y164.0346
G1 X-388.6223 Y163.9449
G1 X-388.5417 Y163.8536
G1 X-388.4599 Y163.7608
G1 X-388.3769 Y163.6664
G1 X-388.024 Y163.2633
G1 X-387.2175 Y162.3426
G1 X-386.7833 Y161.8554
G1 X-386.557 Y161.6059
G1 X-386.3214 Y161.3503
G3 X-385.2087 Y160.2163 I18.4982 J17.0393
G2 X-385.134 Y159.2495 I-11.2 J-1.3519
G2 X-385.1268 Y158.2799 I-16.87 J-0.6107
G2 X-385.2419 Y156.3453 I-26.4376 J0.6029
G2 X-385.3877 Y155.0616 I-41.9406 J4.1115
G1 X-385.4098 Y154.8964
G2 X-386.4404 Y149.6733 I-46.4312 J6.4486
G1 X-386.5266 Y149.3406
G2 X-387.593 Y145.8368 I-45.1045 J11.8138
G2 X-388.3338 Y143.8793 I-36.2082 J12.5827
G2 X-389.3213 Y141.7004 I-29.5489 J12.0786
G1 X-389.4592 Y141.4296
G2 X-389.754 Y140.8756 I-20.4616 J10.5337
G2 X-390.0735 Y140.312 I-22.9836 J12.66
G2 X-390.8143 Y139.1439 I-17.5083 J10.2837
G2 X-390.9139 Y139.0008 I-15.239 J10.5035
G2 X-391.833 Y137.8276 I-11.902 J8.3775
G2 X-392.9784 Y136.7137 I-7.2234 J6.2822
G2 X-393.6511 Y136.2282 I-4.2455 J5.173
G2 X-395.4001 Y135.7261 I-3.3454 J8.3562
G2 X-397.2099 Y135.537 I-2.1683 J11.998
G2 X-398.423 Y135.5471 I-0.4742 J15.8831
G2 X-400.0315 Y135.697 I0.9275 J18.6559
G1 X-400.2379 Y135.7264
G1 X-400.4506 Y135.7589
G2 X-402.6906 Y136.2348 I3.5069 J22.0177
G2 X-405.5815 Y137.1914 I6.4882 J24.4541
G2 X-407.1739 Y137.8891 I9.344 J23.4902
G2 X-408.9254 Y138.8222 I9.7812 J20.4703
G3 X-409.3636 Y139.0748 I-6.3683 J-10.5448
G1 X-409.5118 Y139.1549
G3 X-410.1211 Y139.4437 I-3.5536 J-6.7101
G3 X-410.5455 Y139.5926 I-1.4732 J-3.5203
G1 X-410.6615 Y139.6237
G3 X-411.2982 Y139.7009 I-0.6088 J-2.3558
G3 X-412.1319 Y139.4708 I0.027 J-1.7228
G3 X-412.5318 Y139.1658 I1.0227 J-1.7557
G3 X-412.623 Y139.0729 I2.7267 J-2.7675
G3 X-412.9837 Y138.6007 I2.4721 J-2.2628
G1 X-413.0638 Y138.4699
G3 X-413.3747 Y137.8509 I4.7962 J-2.7966
G1 X-413.392 Y137.8107
G1 X-411.3652 Y137.5484
G2 X-407.8405 Y136.5537 I-23.6773 J-90.6402
G2 X-404.3583 Y135.4193 I-26.1866 J-86.2914
G1 X-403.8975 Y135.2579
G2 X-396.6369 Y132.3776 I-35.1273 J-99.1372
G2 X-394.6021 Y131.46 I-54.5096 J-123.5994
G2 X-392.2978 Y130.3659 I-53.4091 J-115.4544
G2 X-386.2578 Y127.2408 I-65.1508 J-133.3208
G2 X-386.0698 Y127.1381 I-4.5131 J-8.4785
G2 X-385.8805 Y127.0342 I-4.4209 J-8.2868
G2 X-385.6898 Y126.9294 I-4.3372 J-8.1116
G2 X-382.2264 Y124.9724 I-94.0676 J-170.5268
G2 X-382.1183 Y124.9099 I-2.545 J-4.5208
G1 X-381.2278 Y124.3912
G1 X-380.3111 Y123.8515
G1 X-379.3674 Y123.2901
G1 X-378.3959 Y122.7064
G2 X-373.9836 Y119.9933 I-165.277 J-273.7302
G1 X-372.8511 Y119.2835
G1 X-371.684 Y118.5478
G2 X-370.4812 Y117.7857 I-157.6455 J-250.1515
G1 X-369.8707 Y117.3977
G1 X-369.251 Y117.0032
G1 X-368.6217 Y116.6019
G1 X-367.9826 Y116.194
G1 X-365.2577 Y114.452
G1 X-362.3503 Y112.5968
G3 X-362.2592 Y112.5388 I1.831 J2.7778
G3 X-362.1679 Y112.4808 I1.8311 J2.7785
G3 X-362.0763 Y112.4226 I1.8311 J2.7791
G3 X-361.9847 Y112.3643 I1.8312 J2.7797
G3 X-361.8928 Y112.3059 I1.8312 J2.7803
G3 X-361.8007 Y112.2474 I1.8312 J2.7809
G1 X-297.6946 Y69.6898
G2 X-297.6819 Y70.0108 I2.0466 J0.0796
G2 X-297.6282 Y70.3275 I2.2705 J-0.2223
G2 X-297.4029 Y70.9277 I2.2916 J-0.5178
G2 X-296.4798 Y71.8026 I1.7966 J-0.9712
G2 X-295.6602 Y72.0454 I1.2023 J-2.5535
G2 X-295.4335 Y72.0718 I0.4009 J-2.4617
G2 X-294.9165 Y72.0857 I0.3912 J-4.9033
G2 X-294.7834 Y72.0805 I0.0043 J-1.5852
G2 X-294.7159 Y72.0766 I-0.0452 J-1.3769
G2 X-294.6475 Y72.0719 I-0.0644 J-1.4273
G2 X-294.0333 Y71.9968 I-0.5174 J-6.7788
G2 X-293.3519 Y71.8557 I-1.357 J-8.2719
G2 X-292.6009 Y71.6445 I-2.5812 J-10.6199
G1 X-292.5066 Y71.6145
G2 X-287.8378 Y70.1561 I-28.8963 J-100.711
G2 X-286.2958 Y69.6264 I-34.8688 J-104.0042
G2 X-285.4175 Y69.3154 I-36.6456 J-104.8904
G2 X-278.4592 Y66.6466 I-58.819 J-163.7654
G2 X-276.491 Y65.8338 I-82.4668 J-202.4795
G1 X-275.4446 Y65.3924
G1 X-274.331 Y64.9158
G2 X-271.7948 Y63.8052 I-88.0013 J-204.4121
G2 X-271.7154 Y63.7699 I-0.5017 J-1.2347
G2 X-264.9873 Y60.6624 I-109.8728 J-246.7223
G1 X-264.5629 Y60.459
G1 X-264.1322 Y60.2517
G1 X-263.6949 Y60.0404
G2 X-254.4514 Y55.3675 I-133.103 J-274.7688
G1 X-253.2702 Y54.742
G1 X-252.0539 Y54.0911
G1 X-251.4371 Y53.7584
G2 X-245.8349 Y50.6516 I-144.8517 J-267.8031
G1 X-245.1283 Y50.2485
G2 X-238.723 Y46.4696 I-142.294 J-248.508
G1 X-237.9172 Y45.9771
G2 X-230.6438 Y41.3247 I-117.8243 J-192.2152
G1 X-230.5314 Y41.2495
G1 X-229.6202 Y40.6356
G1 X-228.6984 Y40.0065
G1 X-228.2353 Y39.6873
G2 X-224.3293 Y36.8976 I-84.3156 J-122.1849
G1 X-224.0872 Y36.7183
G1 X-223.8446 Y36.5377
G2 X-219.7765 Y33.3602 I-65.3493 J-87.8584
G1 X-219.2754 Y32.9453
G2 X-217.2415 Y31.1898 I-47.3926 J-56.9642
G1 X-216.9908 Y30.9642
G2 X-215.9846 Y30.0334 I-42.7478 J-47.2267
G1 X-215.9223 Y29.9744
G1 X-215.86 Y29.9152
G1 X-215.6112 Y29.6766
G1 X-215.3629 Y29.4354
G2 X-213.3824 Y27.3692 I-28.4385 J-29.2405
G1 X-213.145 Y27.0994
G2 X-212.2136 Y25.9723 I-19.7162 J-17.2413
G2 X-211.3387 Y24.7678 I-16.5822 J-12.9644
G2 X-210.9355 Y24.1334 I-13.1896 J-8.8298
G2 X-210.2283 Y22.7697 I-9.7385 J-5.9153
G2 X-210.084 Y22.4109 I-8.8708 J-3.7759
G1 X-210.0851 Y22.0696
G1 X-210.0789 Y21.7285
G3 X-210.0444 Y21.0471 I13.4003 J0.3382
G3 X-210.0043 Y20.594 I18.2776 J1.3881
G3 X-209.7013 Y18.8007 I14.3572 J1.5034
G3 X-208.3986 Y15.4121 I13.2117 J3.1343
G3 X-207.07 Y13.3847 I13.3034 J7.2688
G3 X-206.1821 Y12.3215 I14.0087 J10.7968
G3 X-205.0789 Y11.1886 I15.3692 J13.8631
G1 X-204.7813 Y10.9094
G3 X-203.3685 Y9.6981 I17.4381 J18.9081
G1 X-203.1835 Y9.5511
G3 X-201.4519 Y8.2711 I22.1641 J28.1734
G3 X-199.4051 Y6.9229 I27.4033 J39.3749
G1 X-198.868 Y6.5898
G3 X-196.394 Y5.1282 I50.2622 J82.2543
G2 X-193.6333 Y3.4741 I-41.1605 J-71.8262
G2 X-193.5453 Y3.419 I-0.71 J-1.2305
G2 X-193.144 Y3.1656 I-13.5495 J-21.904
G2 X-193.0931 Y3.1332 I-0.5714 J-0.955
G2 X-193.0414 Y3.1003 I-0.5782 J-0.9652
G1 X-192.5702 Y2.798
G2 X-191.3229 Y1.9779 I-44.6301 J-69.238
G2 X-186.4615 Y-1.4869 I-57.0455 J-85.1815
G2 X-186.3865 Y-1.5437 I-1.7119 J-2.3404
G1 X-185.7486 Y-2.0304
G2 X-176.0142 Y-10.3858 I-73.3759 J-95.3332
G2 X-173.4022 Y-12.9591 I-80.499 J-84.3236
G2 X-172.0435 Y-14.3657 I-77.1347 J-75.8672
G1 X-171.9591 Y-14.4548
G2 X-170.5349 Y-15.9902 I-76.9326 J-72.7876
G2 X-170.3578 Y-16.1857 I-5.8945 J-5.5189
G2 X-168.8682 Y-17.8741 I-63.5782 J-57.5931
G1 X-168.4966 Y-18.3087
G1 X-168.1221 Y-18.7528
G2 X-167.9346 Y-18.9776 I-7.2621 J-6.2498
G1 X-167.556 Y-19.4364
G1 X-167.175 Y-19.9054
G1 X-167.1275 Y-19.9644
G1 X-166.7441 Y-20.4453
G2 X-165.1572 Y-22.5363 I-53.8954 J-42.5508
G1 X-165.0135 Y-22.7294
G1 X-164.8649 Y-22.919
G1 X-164.7631 Y-23.0431
G3 X-164.6235 Y-23.2054 I2.929 J2.3787
G3 X-164.0162 Y-23.8085 I4.7656 J4.191
G3 X-162.5539 Y-24.6927 I3.3152 J3.8313
G3 X-161.4564 Y-25.0109 I2.3272 J5.9764
G3 X-160.8123 Y-25.1168 I2.0414 J10.402
G3 X-160.7919 Y-25.1194 I0.0287 J0.142
G3 X-160.0485 Y-25.1917 I1.5076 J11.6566
G1 X-159.8562 Y-25.2038
G3 X-158.9795 Y-25.2341 I1.0664 J18.182
G1 X-158.8681 Y-25.2355
G1 X-158.755 Y-25.2364
G1 X-158.6402 Y-25.2369
G1 X-158.1515 Y-25.2341
G1 X-157.6316 Y-25.2242
G1 X-157.0786 Y-25.2073
G3 X-156.4907 Y-25.1839 I-0.7796 J27.0041
G1 X-156.1877 Y-25.1701
G1 X-155.5434 Y-25.1378
G3 X-151.2293 Y-24.3526 I-26.3533 J157.0401
G1 X-150.6148 Y-24.231
G3 X-145.7152 Y-23.1781 I-35.7109 J178.1106
G3 X-145.6383 Y-23.1604 I-0.3419 J1.664
G3 X-145.5607 Y-23.1426 I-0.3444 J1.673
G3 X-145.4826 Y-23.1246 I-0.347 J1.6821
G3 X-145.4038 Y-23.1063 I-0.3495 J1.6913
G3 X-135.395 Y-20.5059 I-45.0478 J193.9422
G3 X-128.8005 Y-18.4951 I-61.4534 J213.3611
G3 X-120.1112 Y-15.4981 I-69.0348 J214.2542
G3 X-117.8149 Y-14.6404 I-91.9435 J249.6595
G3 X-117.2331 Y-14.4188 I-16.0708 J43.0476
G3 X-111.9427 Y-12.3204 I-79.6112 J208.4332
G3 X-98.1058 Y-6.0942 I-86.3826 J210.4633
G2 X-97.1791 Y-5.7073 I3.5934 J-7.3041
G2 X-96.2059 Y-5.4596 I1.9538 J-5.641
G2 X-95.9208 Y-5.4237 I0.5634 J-3.3211
G2 X-95.1538 Y-5.4385 I0.324 J-3.0965
G2 X-94.7273 Y-5.5515 I-0.3158 J-2.0533
G2 X-94.2984 Y-5.8332 I-0.4231 J-1.1113
G2 X-94.0581 Y-6.4097 I-0.6411 J-0.6056
G2 X-94.095 Y-6.7613 I-1.2043 J-0.0514
G2 X-94.2284 Y-7.126 I-1.683 J0.4086
G2 X-94.4396 Y-7.4883 I-2.7604 J1.3672
G1 X-94.501 Y-7.5754
G2 X-94.7842 Y-7.9231 I-3.3776 J2.4611
G1 X-94.8607 Y-8.0063
G1 X-94.9395 Y-8.0885
G2 X-95.1035 Y-8.2499 I-2.6551 J2.5331
G1 X-95.1455 Y-8.2895
G2 X-95.9003 Y-8.9113 I-5.8117 J6.2855
G1 X-97.9476 Y-10.1273
G1 X-99.9973 Y-11.3392
G1 X-101.3655 Y-12.1442
G1 X-102.1481 Y-12.603
G1 X-102.5657 Y-12.8472
G1 X-103.0114 Y-13.1074
G2 X-110.1768 Y-17.2102 I-232.5043 J397.7503
G1 X-110.6418 Y-17.4702
G1 X-111.1221 Y-17.7378
G1 X-111.6184 Y-18.0133
G1 X-112.1312 Y-18.2969
G2 X-117.6337 Y-21.261 I-139.6934 J252.7276
G1 X-118.3484 Y-21.6346
G2 X-126.0507 Y-25.4664 I-103.0017 J197.385
G2 X-127.0557 Y-25.938 I-41.1732 J86.4281
G2 X-127.5672 Y-26.1754 I-16.738 J35.4007
G2 X-129.7575 Y-27.1708 I-64.5638 J139.1623
G2 X-130.0344 Y-27.2941 I-6.281 J13.7252
G2 X-135.1354 Y-29.4636 I-68.1664 J153.1951
G2 X-135.2967 Y-29.5289 I-2.6459 J6.3019
G2 X-135.4586 Y-29.5943 I-2.6168 J6.2488
G2 X-138.2331 Y-30.6817 I-65.1408 J162.1206
G2 X-141.216 Y-31.7806 I-48.4931 J127.0388
G2 X-148.1254 Y-34.036 I-45.7183 J128.3445
G2 X-148.2346 Y-34.0683 I-0.9399 J2.9748
G2 X-151.9769 Y-35.1124 I-34.4566 J116.2797
G3 X-152.4565 Y-35.2703 I0.8498 J-3.3868
G3 X-152.6057 Y-35.3488 I0.5025 J-1.1366
G3 X-152.6752 Y-35.417 I0.1129 J-0.1846
G3 X-152.6609 Y-35.4773 I0.0393 J-0.0225
G3 X-152.5765 Y-35.5117 I0.1254 J0.1872
G3 X-152.4668 Y-35.5267 I0.1456 J0.6546
G3 X-152.2349 Y-35.5278 I0.1253 J2.0016
G1 X-152.1817 Y-35.5249
G3 X-151.724 Y-35.4731 I-0.318 J4.8595
G3 X-146.8567 Y-34.5114 I-10.8034 J67.4739
G3 X-142.0599 Y-33.2434 I-20.0933 J85.719
G3 X-141.9849 Y-33.2213 I-0.2717 J1.064
G3 X-141.9093 Y-33.1991 I-0.2742 J1.0704
G3 X-141.8332 Y-33.1766 I-0.2767 J1.077
G1 X-141.1842 Y-32.9823
G1 X-140.4935 Y-32.7704
G1 X-139.7583 Y-32.5392
G1 X-138.976 Y-32.287
G1 X-138.1435 Y-32.0117
G1 X-137.2578 Y-31.7113
G3 X-132.5738 Y-30.0 I-43.5928 J126.584
G3 X-132.5008 Y-29.9718 I-0.53 J1.4795
G3 X-132.4275 Y-29.9434 I-0.5339 J1.4875
G3 X-126.2352 Y-27.3864 I-57.6949 J148.4956
G3 X-126.1389 Y-27.3442 I-1.1145 J2.6774
G3 X-126.0422 Y-27.3018 I-1.1317 J2.7127
G3 X-125.9452 Y-27.2592 I-1.1496 J2.7495
G3 X-122.4168 Y-25.6621 I-66.2594 J151.076
G3 X-118.4267 Y-23.7477 I-78.8188 J169.3969
G3 X-116.3168 Y-22.6903 I-70.8581 J144.0223
G3 X-105.2809 Y-16.6553 I-95.3375 J187.4452
G1 X-104.5926 Y-16.25
G3 X-101.6743 Y-14.4909 I-114.3471 J193.003
G3 X-95.127 Y-10.2769 I-94.4974 J154.0115
G1 X-94.3096 Y-9.7205
G1 X-94.105 Y-9.58
G1 X-93.2761 Y-9.0056
G1 X-92.4383 Y-8.4161
G3 X-90.7233 Y-7.1783 I-72.4242 J102.1503
G3 X-89.7987 Y-5.5967 I-39.4919 J24.1483
G1 X-89.6716 Y-5.3678
G3 X-88.697 Y-3.5148 I-48.5256 J26.7033
G1 X-88.5725 Y-3.2649
G1 X-88.441 Y-2.9976
G3 X-87.762 Y-1.5619 I-64.2355 J31.2579
G1 X-87.5869 Y-1.1762
G3 X-87.1955 Y-0.2909 I-46.3446 J21.0153
G1 X-86.9915 Y0.1834
G1 X-86.7773 Y0.6907
G1 X-86.5525 Y1.2334
G3 X-85.4083 Y4.149 I-98.6166 J40.3864
G3 X-85.2661 Y4.5273 I-28.3148 J10.8521
G3 X-85.1205 Y4.9182 I-29.4735 J11.2032
G3 X-84.9712 Y5.3221 I-32.163 J12.1183
G3 X-84.8181 Y5.7394 I-37.7317 J14.0808
G3 X-84.4944 Y6.6306 I-105.0299 J38.6503
G1 X-84.1526 Y7.5824
G1 X-83.7906 Y8.5984
G1 X-82.9649 Y10.921
G1 X-82.7506 Y11.5199
G2 X-81.7517 Y14.2501 I176.4694 J-63.0183
G1 X-81.4864 Y14.9518
G1 X-81.2083 Y15.6745
G1 X-80.916 Y16.4185
G2 X-80.2723 Y17.9976 I101.7973 J-40.5752
G1 X-80.1039 Y18.3966
G1 X-79.9306 Y18.801
G2 X-79.7522 Y19.2108 I59.3955 J-25.6243
G2 X-79.5683 Y19.626 I20.7869 J-8.9589
G2 X-77.7481 Y23.3583 I54.3402 J-24.19
G1 X-77.497 Y23.8222
G2 X-76.9628 Y24.7714 I39.9698 J-21.8708
G1 X-76.683 Y25.2488
G1 X-76.3928 Y25.7304
G2 X-76.0917 Y26.2158 I22.0165 J-13.3207
G2 X-76.0535 Y26.2763 I1.3302 J-0.7965
G2 X-74.6879 Y28.3035 I36.3806 J-23.0348
G2 X-73.0935 Y30.3705 I30.3786 J-21.7841
G2 X-72.2144 Y31.3933 I30.7792 J-25.5656
G2 X-67.7158 Y35.6404 I27.1349 J-24.2356
G2 X-66.4419 Y36.6091 I25.016 J-31.5783
G2 X-65.0839 Y37.5531 I22.4749 J-30.8805
G2 X-63.1703 Y38.8551 I114.3011 J-165.9322
G2 X-61.2307 Y40.118 I50.9009 J-76.0588
G2 X-60.6698 Y40.4682 I58.9858 J-93.8441
G1 X-60.3691 Y40.6527
G2 X-58.7466 Y41.6045 I26.0174 J-42.4935
G2 X-56.5238 Y42.7669 I19.5851 J-34.7445
G2 X-55.2182 Y43.3595 I13.5186 J-28.0496
G2 X-54.8766 Y43.5023 I4.621 J-10.576
G1 X-54.5221 Y43.6448
G1 X-54.154 Y43.7865
G2 X-52.4422 Y44.3567 I8.3366 J-22.1735
G2 X-50.4306 Y44.8221 I5.2091 J-17.9333
G2 X-51.2797 Y44.015 I-12.1781 J11.9609
G2 X-52.1731 Y43.2574 I-13.9154 J15.5041
G2 X-54.0513 Y41.8585 I-20.093 J25.0168
G1 X-54.3084 Y41.6812
G2 X-54.9004 Y41.2824 I-36.8373 J54.0454
G2 X-56.5009 Y40.2536 I-39.1366 J59.1228
G1 X-56.9315 Y39.9853
G1 X-57.3919 Y39.701
G1 X-59.852 Y38.1957
G3 X-61.2485 Y37.3211 I60.3526 J-97.9173
G1 X-61.606 Y37.091
G3 X-62.3632 Y36.5915 I27.1363 J-41.9553
G1 X-62.5541 Y36.4624
G1 X-62.7473 Y36.3303
G3 X-63.1436 Y36.0541 I21.1731 J-30.8036
G1 X-63.2429 Y35.9837
G3 X-65.3737 Y34.3909 I21.2544 J-30.6566
G1 X-65.6686 Y34.151
G3 X-67.9309 Y32.1203 I21.8109 J-26.5743
G3 X-71.8787 Y27.5034 I24.132 J-24.631
G3 X-72.8555 Y26.0664 I30.0465 J-21.476
G3 X-73.8908 Y24.372 I32.817 J-21.214
G3 X-74.9733 Y22.3782 I40.7295 J-23.4035
G3 X-75.5099 Y21.2938 I43.8725 J-22.3855
G3 X-76.6416 Y18.7728 I52.5877 J-25.1226
G3 X-77.1985 Y17.4087 I66.8939 J-28.1023
G3 X-77.7626 Y15.9427 I83.186 J-32.8513
G1 X-78.0434 Y15.1824
G1 X-78.3271 Y14.3956
G3 X-78.614 Y13.5816 I70.2858 J-25.2325
G3 X-78.7577 Y13.1676 I33.7724 J-11.9588
G3 X-78.9026 Y12.7466 I30.596 J-10.7642
G3 X-79.0487 Y12.3187 I29.5375 J-10.3207
G3 X-79.196 Y11.8837 I29.8195 J-10.3465
G3 X-79.3449 Y11.4417 I31.345 J-10.7998
G1 X-80.689 Y7.4039
G1 X-81.0401 Y6.3639
G1 X-81.4082 Y5.293
G2 X-82.2226 Y3.0213 I-114.2445 J39.6764
G2 X-82.3289 Y2.7365 I-15.3028 J5.5459
G2 X-82.4369 Y2.4498 I-13.3957 J4.8842
G2 X-83.4028 Y0.0233 I-66.2468 J24.9658
G2 X-83.4665 Y-0.1277 I-4.5173 J1.8136
G1 X-83.7289 Y-0.7395
G1 X-84.0025 Y-1.3579
G2 X-85.2567 Y-3.9545 I-45.3909 J20.3238
G2 X-85.2984 Y-4.0346 I-1.7346 J0.8532
G2 X-86.0112 Y-5.3446 I-45.862 J24.105
G1 X-86.198 Y-5.6707
G2 X-87.9164 Y-8.3798 I-34.2125 J19.8021
G2 X-88.8935 Y-9.7184 I-30.5727 J21.29
G1 X-89.7316 Y-10.2273
G1 X-90.0112 Y-10.3966
G1 X-91.1308 Y-11.0716
G1 X-91.8783 Y-11.5199
G1 X-92.3058 Y-11.7754
G1 X-93.4471 Y-12.4545
G1 X-93.7518 Y-12.6351
G1 X-95.3791 Y-13.5942
G2 X-97.5548 Y-14.8626 I-464.3816 J794.0131
G1 X-98.8011 Y-15.5822
G1 X-100.2283 Y-16.3997
G1 X-101.8629 Y-17.3278
G1 X-102.7363 Y-17.82
G2 X-107.4131 Y-20.4112 I-220.1474 J391.8239
G2 X-113.7002 Y-23.7717 I-190.7545 J349.3148
G2 X-122.1842 Y-28.0579 I-152.9131 J292.1305
G1 X-123.2882 Y-28.5921
G1 X-123.8499 Y-28.8616
G1 X-124.4212 Y-29.1341
G2 X-129.6755 Y-31.5583 I-108.0412 J227.2715
G1 X-129.8414 Y-31.6322
G1 X-130.0079 Y-31.7063
G1 X-130.6853 Y-32.0058
G1 X-130.8555 Y-32.0806
G1 X-131.0265 Y-32.1555
G1 X-131.1981 Y-32.2306
G2 X-131.5444 Y-32.3814 I-16.2948 J36.9396
G1 X-132.2488 Y-32.6857
G2 X-135.2685 Y-33.9506 I-72.7524 J169.4474
G1 X-135.3635 Y-33.9893
G2 X-136.1361 Y-34.3012 I-41.7066 J102.1982
G1 X-136.233 Y-34.3399
G1 X-136.3301 Y-34.3787
G1 X-137.1202 Y-34.6913
G1 X-137.5191 Y-34.8471
G2 X-139.1714 Y-35.4768 I-49.3335 J126.9592
G2 X-142.7276 Y-36.7372 I-38.4207 J102.7586
G1 X-143.179 Y-36.8866
G1 X-143.6347 Y-37.0348
G1 X-143.8638 Y-37.1083
G2 X-145.7639 Y-37.6887 I-23.0984 J72.2196
G1 X-146.2451 Y-37.8269
G2 X-148.2442 Y-38.357 I-16.4445 J57.9724
G1 X-148.4964 Y-38.4184
G1 X-149.0058 Y-38.5383
G2 X-150.0451 Y-38.7644 I-7.9055 J33.8262
G2 X-150.571 Y-38.8687 I-5.5212 J26.4815
G2 X-152.8103 Y-39.2083 I-5.4751 J28.5517
G1 X-153.1322 Y-39.2414
G2 X-155.7186 Y-39.3388 I-2.0945 J21.2336
G2 X-157.4404 Y-39.211 I0.3951 J16.9956
G1 X-157.6614 Y-39.1818
G2 X-159.9839 Y-38.6727 I2.0648 J14.9707
G1 X-160.2766 Y-38.5797
G2 X-163.2457 Y-37.1933 I4.295 J13.0702
G1 X-163.3293 Y-37.1407
G1 X-163.357 Y-37.1229
G1 X-163.4672 Y-37.0506
G2 X-163.6831 Y-36.8997 I2.0965 J3.2299
G1 X-163.8233 Y-36.7939
G2 X-164.339 Y-36.3173 I2.2769 J2.9813
G2 X-164.6076 Y-35.9322 I1.4767 J1.316
G2 X-164.7022 Y-35.6788 I1.0851 J0.5494
G2 X-164.7124 Y-35.3644 I0.7635 J0.1822
G2 X-164.5565 Y-35.0246 I0.7674 J-0.1464
G2 X-164.2296 Y-34.7304 I1.0628 J-0.8525
G2 X-163.7898 Y-34.5004 I1.354 J-2.0531
G2 X-163.2732 Y-34.3215 I1.8599 J-4.5364
G2 X-162.9953 Y-34.2483 I1.3336 J-4.4983
G2 X-162.852 Y-34.2151 I0.7775 J-3.0311
G2 X-162.2226 Y-34.0976 I2.3726 J-10.9604
G2 X-162.1428 Y-34.0854 I0.1959 J-1.0152
G2 X-162.0625 Y-34.0736 I0.2357 J-1.3311
G2 X-161.9816 Y-34.0623 I0.374 J-2.3778
G2 X-161.6502 Y-34.0208 I1.5625 J-11.142
G3 X-153.5122 Y-32.7696 I-11.6889 J103.11
G3 X-145.4951 Y-30.8938 I-20.935 J107.55
G3 X-140.2369 Y-29.3164 I-29.9364 J109.3441
G3 X-133.3509 Y-26.8378 I-37.4224 J114.7698
G3 X-124.4104 Y-22.9349 I-49.9878 J126.6999
G1 X-123.8522 Y-22.6662
G3 X-118.8018 Y-20.1053 I-66.7197 J137.8437
G1 X-118.1671 Y-19.7673
G1 X-117.5239 Y-19.4211
G1 X-116.872 Y-19.0665
G1 X-116.2115 Y-18.7034
G1 X-115.5421 Y-18.3316
G3 X-109.4978 Y-14.8043 I-91.9276 J164.4646
G1 X-108.7395 Y-14.3408
G1 X-107.9714 Y-13.8668
G3 X-106.3919 Y-12.8778 I-99.3351 J160.3987
G3 X-108.7554 Y-13.777 I36.641 J-99.8651
G1 X-109.5389 Y-14.0881
G3 X-110.5806 Y-14.5102 I125.3957 J-310.9243
G1 X-110.7148 Y-14.5653
G1 X-110.8532 Y-14.6222
G3 X-111.4857 Y-14.8838 I30.4724 J-74.5607
G3 X-113.1681 Y-15.5908 I133.3999 J-319.7958
G1 X-114.1277 Y-15.999
G1 X-114.3753 Y-16.1046
G1 X-114.6308 Y-16.2137
G1 X-115.7986 Y-16.7127
G1 X-117.134 Y-17.2811
G1 X-117.4789 Y-17.4271
G2 X-119.0585 Y-18.0876 I-69.8171 J164.7421
G2 X-123.3075 Y-19.7583 I-45.4393 J109.3268
G2 X-123.3748 Y-19.783 I-0.5151 J1.2955
G2 X-124.5252 Y-20.1967 I-37.0971 J101.3564
G1 X-125.1213 Y-20.4034
G1 X-127.1471 Y-21.043
G1 X-129.1732 Y-21.6821
G2 X-133.2307 Y-22.9427 I-136.1573 J431.1207
G2 X-133.3598 Y-22.982 I-1.2319 J3.8065
G2 X-136.1163 Y-23.8078 I-73.3181 J239.7309
G1 X-136.8529 Y-24.0228
G2 X-140.7952 Y-25.1216 I-49.0495 J168.3511
G2 X-143.0598 Y-25.7061 I-46.5809 J175.7976
G2 X-143.2028 Y-25.7417 I-1.0678 J3.9837
G2 X-143.3469 Y-25.7774 I-1.0653 J3.9893
G1 X-143.9424 Y-25.9233
G1 X-144.5578 Y-26.0709
G2 X-151.1697 Y-27.4367 I-25.45 J106.5201
G2 X-151.2741 Y-27.4547 I-0.5207 J2.7049
G2 X-155.1053 Y-28.0312 I-15.8061 J92.0273
G2 X-157.1584 Y-28.2685 I-9.9095 J76.7126
G1 X-157.6808 Y-28.3206
G2 X-162.4718 Y-28.632 I-7.2166 J74.0184
G2 X-163.7108 Y-28.662 I-2.5642 J80.1131
G1 X-164.0232 Y-28.6662
G1 X-164.6577 Y-28.6706
G1 X-165.3023 Y-28.6691
G3 X-165.3365 I-0.017 J-0.1388
G1 X-165.3708 Y-28.6695
G3 X-165.3936 Y-28.6698 I-0.0099 J-0.1089
G1 X-165.485 Y-28.6715
G3 X-165.5459 Y-28.6729 I-0.0159 J-0.6463
G1 X-165.7895 Y-28.6792
G1 X-166.2767 Y-28.6932
G1 X-167.251 Y-28.7227
G1 X-167.9004 Y-28.7423
G1 X-168.2716 Y-28.7534
G1 X-169.2614 Y-28.7822
G2 X-173.2208 Y-28.8809 I-15.1054 J526.1602
G2 X-174.3523 Y-28.9024 I-3.1796 J137.6474
G1 X-174.6443 Y-28.9073
G2 X-177.7593 Y-28.9369 I-3.6821 J223.7027
G2 X-179.5393 Y-28.9238 I-0.0279 J116.9534
G1 X-179.9986 Y-28.914
G2 X-180.4726 Y-28.8995 I0.4972 J24.0846
G2 X-180.6963 Y-28.2614 I8.0985 J3.1971
G2 X-180.8448 Y-27.6019 I4.1519 J1.2818
G2 X-180.8644 Y-27.1506 I2.3505 J0.3277
G2 X-180.8266 Y-26.8942 I1.2944 J-0.0596
G2 X-180.7185 Y-26.6157 I1.0299 J-0.2395
G2 X-180.4917 Y-26.3515 I0.7743 J-0.4351
G2 X-180.1272 Y-26.1661 I0.6659 J-0.8582
G2 X-179.6617 Y-26.0899 I0.5238 J-1.7383
G2 X-177.6315 Y-25.919 I3.6388 J-31.0861
G2 X-175.5955 Y-25.8435 I3.1208 J-56.7046
G1 X-175.0135 Y-25.8318
G1 X-174.703 Y-25.8267
G2 X-173.9934 Y-25.8174 I2.7122 J-179.1964
G1 X-173.1825 Y-25.8092
G1 X-172.2558 Y-25.8007
G3 X-171.7616 Y-25.7956 I-0.1456 J38.0173
G1 X-170.632 Y-25.7795
G3 X-170.0297 Y-25.7669 I-1.0267 J63.1984
G1 X-169.3874 Y-25.7487
G1 X-169.3064 Y-25.746
G3 X-167.8276 Y-25.6752 I-2.0103 J57.4545
G3 X-169.4104 Y-23.0148 I-36.4504 J-19.8848
G3 X-169.4646 Y-22.9309 I-1.1657 J-0.6946
G3 X-169.5209 Y-22.8444 I-1.1824 J-0.7071
G3 X-171.4173 Y-20.1455 I-41.7594 J-27.328
G3 X-171.4805 Y-20.0619 I-1.1352 J-0.7916
G1 X-171.7516 Y-19.7067
G1 X-172.0441 Y-19.3303
G3 X-173.6567 Y-17.3658 I-43.4541 J-34.0265
G3 X-173.7089 Y-17.305 I-0.9701 J-0.7802
G3 X-174.6761 Y-16.2062 I-48.294 J-41.5308
G3 X-174.7378 Y-16.1377 I-1.0428 J-0.8782
G3 X-174.8002 Y-16.0687 I-1.0472 J-0.8843
G3 X-174.8631 Y-15.9993 I-1.0516 J-0.8903
G3 X-174.9267 Y-15.9294 I-1.056 J-0.8965
G3 X-174.9908 Y-15.8591 I-1.0604 J-0.9027
G3 X-175.0555 Y-15.7883 I-1.0649 J-0.909
G3 X-177.9025 Y-12.852 I-55.913 J-51.3635
G1 X-178.2811 Y-12.4843
G3 X-182.4481 Y-8.7052 I-66.1944 J-68.8021
G3 X-184.9191 Y-6.6505 I-72.7256 J-84.9488
G3 X-187.806 Y-4.3827 I-79.8039 J-98.6198
G1 X-188.5606 Y-3.8099
G3 X-192.0508 Y-1.2506 I-94.7669 J-125.5768
G3 X-196.1081 Y1.5727 I-116.502 J-163.0964
G1 X-196.3658 Y1.7475
G3 X-197.4318 Y2.4656 I-125.3614 J-184.9385
G1 X-198.5357 Y3.2014
G1 X-198.8145 Y3.386
G1 X-199.9671 Y4.1446
G1 X-200.258 Y4.3349
G1 X-201.4611 Y5.1176
G1 X-202.7059 Y5.9205
G1 X-203.9934 Y6.7446
G1 X-204.1552 Y6.8477
G1 X-204.3177 Y6.9512
G1 X-205.6601 Y7.8034
G1 X-207.0477 Y8.6794
G1 X-207.7531 Y9.1234
G1 X-208.1087 Y9.3469
G1 X-208.8313 Y9.8006
G1 X-211.9137 Y11.7334
G1 X-276.7339 Y53.0506
G1 X-276.0199 Y53.668
G2 X-269.4753 Y50.1756 I-115.016 J-223.4115
G2 X-269.0426 Y49.9361 I-13.6888 J-25.2482
G2 X-262.17 Y46.0148 I-171.5722 J-308.6852
G2 X-261.9532 Y45.8879 I-8.5676 J-14.8862
G2 X-261.733 Y45.7589 I-8.6534 J-15.0166
G2 X-261.5095 Y45.6277 I-8.7429 J-15.153
G2 X-261.2824 Y45.4942 I-8.8362 J-15.2956
G2 X-261.0518 Y45.3585 I-8.9337 J-15.445
G2 X-258.9473 Y44.1121 I-162.8123 J-277.3005
G2 X-258.6804 Y43.9531 I-10.1155 J-17.2798
G2 X-258.4094 Y43.7914 I-10.2753 J-17.5306
G2 X-258.1343 Y43.627 I-10.4438 J-17.7956
G2 X-257.8548 Y43.4599 I-10.6219 J-18.0762
G2 X-257.571 Y43.2899 I-10.8102 J-18.3735
G2 X-257.2827 Y43.1171 I-11.0096 J-18.689
G2 X-254.6515 Y41.5307 I-430.7406 J-717.4162
G2 X-254.3178 Y41.3285 I-13.7273 J-23.0332
G2 X-253.9789 Y41.123 I-14.1476 J-23.7102
G2 X-253.6347 Y40.9141 I-14.6079 J-24.4528
G2 X-253.2852 Y40.7017 I-15.1149 J-25.2718
G2 X-252.9301 Y40.4858 I-15.6766 J-26.1804
G2 X-252.5695 Y40.2663 I-16.3032 J-27.1953
G2 X-252.2033 Y40.0433 I-17.0079 J-28.3382
G1 X-248.8575 Y37.9999
G1 X-245.0357 Y35.6618
G1 X-242.9959 Y34.4172
G3 X-238.3239 Y31.5887 I436.3462 J715.4739
G3 X-232.9555 Y28.4046 I280.5129 J466.8231
G1 X-231.5632 Y27.5947
G1 X-230.1225 Y26.7647
G1 X-229.3892 Y26.3458
G1 X-228.6433 Y25.922
G3 X-221.7656 Y22.1487 I135.2976 J238.448
G3 X-220.25 Y21.4277 I8.4961 J15.9073
G3 X-218.6656 Y20.8743 I4.9509 J11.6305
G3 X-217.5678 Y20.6523 I2.16 J7.8542
G3 X-216.9278 Y20.6108 I0.665 J5.2978
G3 X-216.1954 Y20.6871 I0.0274 J3.288
G3 X-215.8189 Y20.8099 I-0.4657 J2.0667
G3 X-215.4521 Y21.0326 I-0.6166 J1.4286
G3 X-215.1488 Y21.3955 I-0.7897 J0.9681
G3 X-214.9844 Y21.9001 I-1.2575 J0.6888
G3 X-214.989 Y22.4935 I-2.2084 J0.2798
G3 X-215.138 Y23.1259 I-3.6412 J-0.5244
G3 X-215.3986 Y23.7742 I-5.024 J-1.6427
G1 X-215.4762 Y23.9338
G1 X-215.5587 Y24.0936
G3 X-215.6016 Y24.1733 I-1.0619 J-0.5196
G3 X-215.9836 Y24.8136 I-9.938 J-5.4948
G1 X-216.0863 Y24.97
G1 X-216.1917 Y25.1253
G1 X-216.2453 Y25.2025
G1 X-216.2995 Y25.2794
G3 X-216.7593 Y25.8941 I-13.9262 J-9.9381
G3 X-217.8568 Y27.1788 I-17.3518 J-13.7132
G3 X-218.278 Y27.6061 I-6.8862 J-6.366
G3 X-218.7193 Y28.0126 I-8.506 J-8.7894
G3 X-219.6337 Y28.7891 I-17.241 J-19.3781
G3 X-219.9001 Y29.0048 I-9.5676 J-11.5452
G3 X-219.917 Y29.0183 I-0.1026 J-0.1106
G3 X-219.934 Y29.032 I-0.1033 J-0.1114
G3 X-219.9512 Y29.0457 I-0.104 J-0.1122
G1 X-220.2653 Y29.2949
G1 X-220.4336 Y29.4268
G1 X-220.6138 Y29.5669
G1 X-221.0274 Y29.8843
G1 X-221.249 Y30.0523
G1 X-221.7577 Y30.4331
G1 X-222.3425 Y30.8638
G1 X-223.0145 Y31.3509
G1 X-223.7865 Y31.9016
G1 X-224.6734 Y32.5245
G1 X-225.1481 Y32.8542
G1 X-225.6557 Y33.2041
G3 X-228.3797 Y35.0435 I-124.5065 J-181.4441
G1 X-229.1104 Y35.5276
G3 X-229.4881 Y35.7765 I-63.0618 J-95.2879
G1 X-229.8785 Y36.0329
G3 X-231.6677 Y37.1966 I-112.1363 J-170.4504
G3 X-236.4725 Y40.2448 I-185.5014 J-287.0864
G3 X-236.5103 Y40.2684 I-0.3776 J-0.563
G1 X-237.8016 Y41.0709
G1 X-239.1819 Y41.9218
G1 X-239.533 Y42.1371
G1 X-240.2583 Y42.5806
G1 X-241.8084 Y43.5221
G3 X-250.1331 Y48.4431 I-254.7299 J-421.4173
G1 X-251.2143 Y49.0659
G3 X-251.3501 Y49.1439 I-1.7005 J-2.8047
G1 X-252.4725 Y49.786
G1 X-253.0433 Y50.111
G3 X-258.2826 Y53.0439 I-214.6231 J-377.2623
G1 X-259.6412 Y53.7891
G1 X-260.3323 Y54.1656
G1 X-261.7614 Y54.9387
G1 X-262.4885 Y55.3291
G1 X-263.9924 Y56.1301
G1 X-264.7577 Y56.5343
G1 X-265.1438 Y56.7372
G1 X-265.5331 Y56.9413
G3 X-272.7024 Y60.5745 I-138.0425 J-263.5066
G1 X-272.8155 Y60.6297
G3 X-273.7356 Y61.0761 I-39.5118 J-80.262
G1 X-274.6723 Y61.5254
G3 X-276.6132 Y62.4384 I-81.342 J-170.4016
G1 X-277.1039 Y62.6651
G1 X-278.1028 Y63.1212
G1 X-278.354 Y63.2346
G1 X-278.8609 Y63.4621
G1 X-279.3725 Y63.6895
G1 X-279.8891 Y63.9169
G1 X-280.0187 Y63.9735
G1 X-280.0835 Y64.0018
G1 X-280.1485 Y64.0301
G3 X-280.4094 Y64.1434 I-6.0691 J-13.6172
G1 X-280.9359 Y64.3702
G1 X-281.2006 Y64.4831
G3 X-283.3966 Y65.3921 I-49.4082 J-116.267
G1 X-283.9531 Y65.6136
G3 X-286.2666 Y66.4888 I-31.4476 J-79.6332
G1 X-286.3395 Y66.515
G1 X-286.9276 Y66.7233
G1 X-287.5225 Y66.9276
G1 X-287.8219 Y67.0278
G1 X-288.4273 Y67.2246
G3 X-290.9577 Y67.9451 I-11.8263 J-36.7321
G1 X-291.2789 Y68.0219
G3 X-291.6024 Y68.0952 I-3.9097 J-16.512
G3 X-292.9291 Y68.3442 I-4.4623 J-20.1131
G1 X-293.2649 Y68.3915
G1 X-293.3491 Y68.4021
G3 X-294.0314 Y68.4682 I-1.5885 J-12.8511
G3 X-292.7398 Y67.0745 I33.3923 J29.6519
G1 X-292.2969 Y66.6217
G3 X-292.0413 Y66.3654 I14.4086 J14.1117
G1 X-291.9043 Y66.2294
G3 X-289.6532 Y64.1153 I42.0564 J42.5251
G1 X-289.3455 Y63.8415
G1 X-289.0157 Y63.5514
G1 X-288.662 Y63.2442
G3 X-286.7451 Y61.6418 I58.777 J68.3625
G3 X-286.6218 Y61.542 I2.3588 J2.789
G3 X-278.4039 Y55.5972 I62.01 J77.0686
G1 X-277.8533 Y55.243
G1 Y53.9227
G2 X-280.4988 Y54.9982 I23.9456 J62.6942
G1 X-280.8729 Y55.1609
G1 X-281.2994 Y55.3493
G2 X-284.671 Y56.9437 I36.8102 J82.2027
G2 X-286.8839 Y58.0775 I53.709 J107.5556
G2 X-287.0236 Y58.151 I2.9859 J5.8434
G2 X-287.1654 Y58.2258 I2.9985 J5.8534
G2 X-287.3095 Y58.3021 I3.0127 J5.8664
G2 X-287.4557 Y58.3797 I3.0286 J5.8827
G2 X-290.5555 Y60.069 I83.9409 J157.7138
G2 X-290.7514 Y60.1781 I3.7251 J6.9219
G2 X-290.9503 Y60.289 I3.7888 J7.0267
G2 X-291.1522 Y60.4019 I3.8565 J7.1389
G2 X-291.3573 Y60.5167 I3.9285 J7.259
G1 X-291.945 Y60.85
G1 X-292.5304 Y61.1874
G1 X-292.6974 Y61.2843
G1 X-293.1421 Y61.5435
G1 X-293.7342 Y61.8908
G2 X-293.8105 Y61.9358 I0.5654 J1.048
G1 X-294.6239 Y62.4163
G2 X-297.8671 Y64.3554 I230.3994 J389.0287
G1 X-298.7916 Y64.9131
G1 X-298.9089 Y64.9841
G2 X-299.1511 Y65.1306 I7.0849 J11.9864
G1 X-299.4011 Y65.2819
G1 X-300.5429 Y65.9748
G1 X-301.8465 Y66.769
G1 X-303.3345 Y67.6796
G1 X-305.0325 Y68.7242
G1 X-306.9697 Y69.9238
G1 X-307.4689 Y70.2345
G1 X-307.7223 Y70.3925
G1 X-308.8027 Y71.0684
G1 X-308.8704 Y71.1109
G1 X-309.4294 Y71.4623
G1 X-310.62 Y72.2153
G2 X-311.2332 Y72.606 I29.5932 J47.1207
G1 X-311.8649 Y73.0111
G1 X-312.5153 Y73.4318
G2 X-313.8942 Y74.3431 I52.1349 J80.3878
G1 X-314.241 Y74.5796
G1 X-314.5905 Y74.8241
G1 X-317.7275 Y77.0587
G2 X-317.9366 Y77.2078 I5.9655 J8.582
G1 X-319.0512 Y78.0035
G2 X-320.5369 Y79.0651 I232.1525 J326.4844
G2 X-320.7286 Y79.2021 I6.1165 J8.7589
G2 X-320.9264 Y79.3435 I6.244 J8.9428
G1 X-327.2557 Y83.8723
G3 X-339.9332 Y92.9034 I-1588.4712 J-2216.4136
G3 X-340.3368 Y93.1887 I-37.5241 J-52.6584
G3 X-341.1701 Y93.7771 I-75.4182 J-105.9249
G1 X-342.9493 Y95.0304
G1 X-344.8495 Y96.364
G1 X-346.8792 Y97.7824
G1 X-347.928 Y98.5127
G1 X-349.0117 Y99.2652
G1 X-350.1314 Y100.0403
G1 X-351.2883 Y100.8388
G1 X-352.484 Y101.6611
G1 X-353.7196 Y102.5078
G1 X-354.9968 Y103.3795
G1 X-356.317 Y104.2766
G3 X-362.3778 Y108.3396 I-389.552 J-574.547
G1 X-363.1507 Y108.8507
G1 X-363.9367 Y109.3686
G1 X-364.7359 Y109.8936
G3 X-368.1559 Y112.1183 I-269.1057 J-409.9465
G1 X-369.0271 Y112.6793
G3 X-377.0465 Y117.7237 I-260.1103 J-404.6125
G3 X-379.1328 Y118.9986 I-152.1631 J-246.6579
G1 X-379.6596 Y119.318
G1 X-380.1911 Y119.6391
G1 X-380.7272 Y119.9619
G1 X-381.268 Y120.2864
G1 X-381.8136 Y120.6127
G1 X-382.3641 Y120.9406
G1 X-382.9194 Y121.2703
G3 X-387.6805 Y124.0453 I-201.0092 J-339.3934
G1 X-388.2833 Y124.39
G1 X-388.8914 Y124.7361
G1 X-389.5051 Y125.0838
G3 X-394.7705 Y127.9996 I-159.2727 J-281.4054
G1 X-395.0885 Y128.1663
G2 X-395.1339 Y128.1902 I0.218 J0.4691
G1 X-395.4967 Y128.382
G2 X-395.5451 Y128.4077 I0.2378 J0.5063
G1 X-396.3174 Y128.8201
G2 X-396.3673 Y128.8469 I0.2709 J0.5651
G1 X-397.9604 Y129.701
G1 X-398.4164 Y129.9435
G1 X-398.9385 Y130.2188
G3 X-399.0049 Y130.2535 I-0.5418 J-0.9534
G3 X-399.0724 Y130.2889 I-0.5532 J-0.9756
G1 X-399.6905 Y130.6092
G1 X-400.3999 Y130.9693
G3 X-401.2156 Y131.3712 I-31.6649 J-63.2486
G3 X-401.3197 Y131.4214 I-1.8152 J-3.6302
G3 X-403.5659 Y132.4331 I-19.2291 J-39.6921
G1 X-403.7106 Y132.4929
G3 X-405.045 Y133.0085 I-11.4348 J-27.6104
G3 X-405.7663 Y133.2577 I-10.8881 J-30.3486
G3 X-407.4422 Y133.7455 I-7.1145 J-21.3197
G1 X-407.6575 Y133.7981
G3 X-409.6539 Y134.1636 I-4.2695 J-17.6896
G3 X-411.9777 Y134.2721 I-1.8406 J-14.4793
G3 X-414.6253 Y133.8948 I0.4237 J-12.4517
G3 X-417.4896 Y132.7477 I3.0168 J-11.6829
G3 X-418.8851 Y131.8545 I6.4995 J-11.691
G2 X-416.2636 Y132.3356 I4.3224 J-16.1699
G2 X-413.5992 Y132.4043 I1.788 J-17.644
G2 X-411.8292 Y132.2406 I-0.9716 J-20.1538
G2 X-409.5024 Y131.7995 I-3.1616 J-23.0358
G2 X-409.3563 Y131.7639 I-0.5482 J-2.5689
G2 X-409.208 Y131.7269 I-0.5634 J-2.5727
G2 X-406.1027 Y130.7586 I-7.7905 J-30.4462
G2 X-404.3743 Y130.0793 I-13.8407 J-37.7544
G1 X-403.9332 Y129.8923
G1 X-403.4798 Y129.6949
G1 X-403.0139 Y129.4868
G2 X-402.0269 Y129.03 I-19.223 J-42.8313
G1 X-401.5207 Y128.7881
G1 X-401.4692 Y128.7631
G2 X-401.452 Y128.7547 I-0.037 J-0.0975
G2 X-401.3833 Y128.7209 I-0.3667 J-0.8319
G2 X-401.2465 Y128.6526 I-3.4577 J-7.093
G2 X-400.9744 Y128.513 I-7.9431 J-15.8146
G1 X-400.7939 Y128.418
G1 X-400.5545 Y128.2893
G1 X-400.2369 Y128.1145
G1 X-399.8161 Y127.8768
G2 X-398.1554 Y126.8877 I-28.9239 J-50.4512
G2 X-397.0627 Y126.2049 I-56.2336 J-91.2113
G2 X-396.7727 Y126.0205 I-30.6798 J-48.5586
G1 X-396.112 Y125.5959
G1 X-395.9419 Y125.4857
G1 X-395.7664 Y125.3716
G1 X-395.5855 Y125.2536
G1 X-394.7606 Y124.7112
G2 X-393.8217 Y124.0857 I-73.9283 J-111.9873
G1 X-392.753 Y123.3646
G2 X-389.9213 Y121.4157 I-162.1627 J-238.6478
G1 X-389.1698 Y120.8907
G1 X-388.7825 Y120.6189
G1 X-388.3831 Y120.3379
G1 X-387.5322 Y119.7368
G2 X-387.4788 Y119.699 I-0.3783 J-0.5905
G1 X-387.0385 Y119.3866
G1 X-386.5844 Y119.0636
G1 X-385.6171 Y118.3727
G1 X-384.5872 Y117.6331
G1 X-383.4907 Y116.8415
G2 X-377.6737 Y112.5789 I-378.9735 J-523.2758
G1 X-376.13 Y111.4319
G1 X-374.4867 Y110.2043
G2 X-370.7425 Y107.3828 I-582.1006 J-776.3674
G1 X-368.7521 Y105.8696
G2 X-358.2144 Y97.7007 I-492.3236 J-645.9683
G1 X-357.5501 Y97.176
G1 X-356.8758 Y96.642
G2 X-350.7488 Y91.7148 I-329.0642 J-415.4736
G2 X-347.5182 Y89.0413 I-227.0948 J-277.7028
G1 X-346.704 Y88.3548
G1 X-345.8804 Y87.6532
G1 X-345.0481 Y86.9353
G1 X-344.9442 Y86.845
G1 X-344.7359 Y86.6632
G1 X-344.3173 Y86.2956
G2 X-344.1757 Y86.1193 I-0.404 J-0.4698
G2 X-344.1344 Y85.8971 I-0.3392 J-0.178
G2 X-344.4461 Y85.5886 I-0.3566 J0.0487
G2 X-344.7412 Y85.6652 I-0.0477 J0.4229
G2 X-347.5693 Y87.6204 I62.1934 J92.9823
G2 X-347.9691 Y87.9058 I15.6656 J22.3651
G1 X-348.425 Y88.2334
G1 X-348.6677 Y88.4087
G1 X-349.2215 Y88.8106
G1 X-349.5164 Y89.0257
G2 X-351.0837 Y90.18 I106.8859 J146.7706
G2 X-353.1624 Y91.7336 I166.1801 J224.5223
G1 X-354.3463 Y92.6269
G1 X-354.9766 Y93.1046
G1 X-355.6484 Y93.6149
G1 X-356.3644 Y94.16
G1 X-357.9992 Y95.4083
G1 X-358.2067 Y95.567
G1 X-362.6285 Y98.957
G1 X-365.1559 Y100.8933
G3 X-371.9173 Y106.0278 I-600.457 J-783.7152
G1 X-373.7293 Y107.3851
G3 X-373.8432 Y107.47 I-2.7593 J-3.5795
G3 X-373.9575 Y107.5553 I-2.8637 J-3.7208
G3 X-378.1543 Y110.652 I-281.3911 J-376.965
G1 X-378.6896 Y111.0419
G3 X-380.9811 Y112.6954 I-211.225 J-290.2948
G1 X-381.5651 Y113.1126
G3 X-384.0669 Y114.8784 I-232.803 J-327.1915
G1 X-384.2245 Y114.9883
G1 X-384.8654 Y115.4341
G1 X-385.5179 Y115.885
G1 X-385.8472 Y116.1116
G1 X-386.1795 Y116.3394
G3 X-392.3275 Y120.3984 I-115.943 J-168.9279
G1 X-393.1196 Y120.8965
G1 X-393.2191 Y120.9586
G1 X-394.0287 Y121.46
G3 X-397.5235 Y123.5347 I-62.5625 J-101.4038
G1 X-397.9688 Y123.7874
G1 X-398.419 Y124.04
G1 X-398.6455 Y124.1659
G3 X-402.5698 Y126.2085 I-38.1441 J-68.4919
G3 X-404.6461 Y127.1623 I-23.6936 J-48.8367
G3 X-405.1756 Y127.3886 I-16.4673 J-37.8169
G3 X-406.2608 Y127.8276 I-13.5494 J-31.9326
G1 X-406.5351 Y127.9329
G3 X-407.6591 Y128.3388 I-11.404 J-29.8238
G3 X-410.032 Y129.0347 I-8.7182 J-25.3321
G3 X-411.2654 Y129.2889 I-4.1657 J-17.0956
G3 X-411.8941 Y129.3832 I-2.325 J-13.3591
G3 X-413.1874 Y129.4862 I-1.7164 J-13.374
G3 X-414.5149 Y129.4311 I-0.2618 J-9.7087
G1 X-414.5563 Y129.4262
G3 X-415.2219 Y129.3144 I0.8198 J-6.9192
G3 X-416.2655 Y128.894 I1.2297 J-4.5583
G3 X-417.1747 Y128.231 I2.1391 J-3.8882
G3 X-418.3523 Y126.3336 I3.0932 J-3.2339
G3 X-418.5802 Y124.8552 I4.7053 J-1.4821
G2 X-418.0968 Y125.3897 I4.3794 J-3.4739
G2 X-417.5601 Y125.8706 I5.9025 J-6.0481
G2 X-416.3691 Y126.6785 I5.2294 J-6.4276
G2 X-413.6502 Y127.585 I3.7636 J-6.7574
G2 X-411.7337 Y127.6144 I1.0822 J-8.071
G2 X-410.6515 Y127.4402 I-1.0284 J-9.8387
G2 X-409.4492 Y127.0976 I-2.2347 J-10.1239
G1 X-409.3748 Y127.0715
G2 X-409.07 Y126.9584 I-2.7522 J-7.8854
G2 X-407.7226 Y126.3474 I-5.1074 J-13.0539
G2 X-407.0333 Y125.9667 I-8.5348 J-16.2701
G2 X-405.5381 Y124.9889 I-9.3537 J-15.9342
G1 X-405.355 Y124.8552
G2 X-405.158 Y124.6041 I-0.6338 J-0.7001
G2 X-405.0464 Y124.3051 I-0.9939 J-0.5414
G2 X-405.0685 Y123.6748 I-1.1858 J-0.2739
G2 X-405.2764 Y123.3055 I-0.9627 J0.2988
G2 X-405.7605 Y123.0105 I-0.7458 J0.6791
G3 X-409.9152 Y122.9441 I-1.2128 J-54.1422
G3 X-414.0516 Y122.549 I2.8167 J-51.3384
G3 X-416.7844 Y122.092 I6.6465 J-48.1412
G3 X-417.5081 Y121.9428 I6.8609 J-35.1256
G1 X-417.8807 Y121.8613
G3 X-421.8051 Y120.7913 I9.3587 J-42.0593
G3 X-426.8382 Y118.7686 I11.9519 J-37.0135
G3 X-428.1274 Y118.1095 I15.9274 J-32.7441
G1 X-428.4506 Y117.9339
G2 X-427.3988 Y117.0915 I-5.0681 J-7.4059
G2 X-426.4707 Y116.1144 I-7.2405 J-7.8063
G2 X-425.9172 Y115.4066 I-8.6901 J-7.3667
G2 X-425.2544 Y114.4095 I-12.2001 J-8.8275
G1 X-425.0914 Y114.1349
G2 X-424.3129 Y112.6231 I-15.1739 J-8.7697
G2 X-423.9326 Y111.7294 I-20.4946 J-9.2498
G2 X-423.1302 Y109.2734 I-19.96 J-7.8795
G2 X-422.5172 Y105.8942 I-21.4187 J-5.6311
G2 X-422.4092 Y103.9356 I-20.377 J-2.1056
G2 X-422.5348 Y101.6987 I-17.7151 J-0.1276
G2 X-422.7307 Y100.5189 I-13.7014 J1.6695
G2 X-423.0605 Y99.2847 I-11.733 J2.4741
G1 X-423.0859 Y99.2086
G2 X-423.1389 Y99.0557 I-2.4381 J0.7596
G2 X-423.701 Y97.7897 I-8.2833 J2.9199
G2 X-424.077 Y97.1777 I-6.2583 J3.4233
G1 X-423.9456 Y97.1347
G1 X-423.814 Y97.0924
G1 X-423.5501 Y97.0099
G3 X-423.02 Y96.8528 I18.7413 J62.2565
G3 X-422.9491 Y96.8326 I0.2648 J0.7955
G3 X-422.8734 Y96.8112 I0.2786 J0.8433
G3 X-422.7925 Y96.7887 I0.2938 J0.897
G3 X-421.4919 Y96.4572 I9.0058 J32.614
G1 X-421.118 Y96.372
G3 X-418.0988 Y95.8336 I8.0145 J36.2027
G3 X-416.0655 Y95.6176 I4.509 J32.7718
G1 X-415.9359 Y95.6082
G3 X-416.6949 Y94.0284 I6.3126 J-4.0046
G3 X-417.0409 Y92.3101 I6.5229 J-2.2075
G3 X-417.0401 Y91.14 I7.95 J-0.5797
G3 X-417.0346 Y91.0658 I0.7172 J0.0159
G3 X-416.7953 Y89.5033 I11.6116 J0.9785
G1 X-416.7504 Y89.3043
G3 X-415.2994 Y84.0028 I83.3807 J19.9718
G1 X-415.0647 Y83.2533
G3 X-412.9572 Y77.336 I88.7102 J28.2624
G3 X-411.3396 Y73.4731 I89.5401 J35.2249
G3 X-408.9453 Y68.4293 I98.4356 J43.6364
G1 X-408.618 Y67.7875
G1 X-408.2761 Y67.127
G1 X-407.9187 Y66.4476
G1 X-407.5452 Y65.7487
G1 X-407.155 Y65.0298
G3 X-402.716 Y57.5234 I117.5466 J64.4472
G3 X-399.9782 Y53.3602 I127.9703 J81.1733
G3 X-399.8901 Y53.2309 I3.6876 J2.4165
G3 X-399.8017 Y53.1012 I3.6991 J2.4291
G3 X-399.7127 Y52.9711 I3.7108 J2.4417
G1 X-399.3501 Y52.4434
G1 X-398.9797 Y51.9088
G1 X-398.6013 Y51.3671
G1 X-398.2149 Y50.8184
G1 X-397.8202 Y50.2624
G3 X-394.1215 Y45.2487 I154.8749 J110.382
G3 X-389.7194 Y39.6567 I179.3948 J136.6932
G3 X-389.5786 Y39.4833 I6.9179 J5.4742
G1 X-388.4669 Y38.203
G3 X-388.3926 Y38.1177 I2.7456 J2.3148
G1 X-387.2034 Y36.7549
G3 X-387.1266 Y36.667 I2.8381 J2.4053
G3 X-387.0472 Y36.5763 I2.8872 J2.4466
G3 X-386.9653 Y36.4828 I2.9373 J2.4887
G1 X-386.0907 Y35.4857
G1 X-384.9217 Y34.1588
G3 X-384.2522 Y33.4019 I104.0732 J91.3849
G3 X-378.8533 Y27.3844 I465.3029 J412.0389
G1 X-378.1274 Y26.5876
G1 X-377.3515 Y25.7391
G3 X-373.183 Y21.2417 I401.1839 J367.6586
G1 X-372.6413 Y20.6649
G1 X-372.0812 Y20.0705
G1 X-371.502 Y19.4578
G1 X-370.9029 Y18.8264
G1 X-370.2834 Y18.1758
G3 X-363.5963 Y11.3117 I319.6889 J304.7549
G3 X-363.4902 Y11.2052 I4.5206 J4.3969
G3 X-363.3837 Y11.0983 I4.5367 J4.4157
G3 X-363.2766 Y10.991 I4.5528 J4.4346
G3 X-353.9967 Y1.9895 I276.2169 J275.4757
G3 X-353.8487 Y1.8508 I6.0267 J6.2851
G3 X-353.7 Y1.7117 I6.0503 J6.317
G3 X-353.5507 Y1.5721 I6.0741 J6.3491
G3 X-353.4007 Y1.4321 I6.0979 J6.3814
G3 X-353.25 Y1.2916 I6.1218 J6.4139
G3 X-353.0986 Y1.1506 I6.1458 J6.4467
G3 X-352.9466 Y1.0091 I6.1699 J6.4796
G3 X-352.7939 Y0.8672 I6.1942 J6.5128
G3 X-350.1748 Y-1.5403 I273.5052 J294.9102
G3 X-344.0931 Y-6.938 I225.592 J248.0531
G3 X-343.9001 Y-7.1049 I7.5028 J8.4837
G3 X-343.7062 Y-7.2723 I7.5272 J8.5254
G3 X-343.5113 Y-7.4401 I7.5514 J8.5671
G3 X-343.3156 Y-7.6085 I7.5755 J8.6088
G3 X-343.119 Y-7.7773 I7.5994 J8.6505
G3 X-342.9215 Y-7.9467 I7.6231 J8.6923
G3 X-342.723 Y-8.1165 I7.6466 J8.734
G3 X-342.5236 Y-8.2869 I7.6699 J8.7756
G3 X-342.3233 Y-8.4577 I7.693 J8.8173
G3 X-342.1221 Y-8.629 I7.7159 J8.8588
G3 X-341.9199 Y-8.8009 I7.7385 J8.9004
G3 X-341.7168 Y-8.9732 I7.7608 J8.9418
G3 X-341.5127 Y-9.146 I7.7829 J8.9832
G3 X-341.3077 Y-9.3193 I7.8048 J9.0244
G3 X-341.1017 Y-9.4932 I7.8263 J9.0656
G3 X-340.8947 Y-9.6675 I7.8475 J9.1066
G3 X-340.6868 Y-9.8423 I7.8685 J9.1476
G3 X-340.4779 Y-10.0176 I7.8891 J9.1883
G3 X-340.268 Y-10.1934 I7.9094 J9.2288
G3 X-340.0572 Y-10.3697 I7.9293 J9.2692
G3 X-339.8453 Y-10.5465 I7.9489 J9.3094
G3 X-339.6325 Y-10.7238 I7.968 J9.3494
G3 X-339.4186 Y-10.9016 I7.9869 J9.3892
G3 X-339.2037 Y-11.0799 I8.0053 J9.4287
G3 X-338.9879 Y-11.2587 I8.0233 J9.4679
G3 X-338.771 Y-11.438 I8.0408 J9.5069
G3 X-338.5531 Y-11.6177 I8.0579 J9.5456
G3 X-338.3341 Y-11.798 I8.0747 J9.584
G3 X-338.1141 Y-11.9788 I8.0908 J9.6221
G3 X-337.8931 Y-12.16 I8.1066 J9.6598
G3 X-337.6711 Y-12.3418 I8.1218 J9.6972
G3 X-337.4479 Y-12.524 I8.1365 J9.7341
G3 X-329.1611 Y-19.0297 I172.4812 J211.1724
G3 X-328.8971 Y-19.2286 I8.2357 J10.6596
G3 X-328.6317 Y-19.4279 I8.2245 J10.6719
G3 X-318.7512 Y-26.4778 I150.0193 J199.8049
G3 X-318.5938 Y-26.5843 I5.1647 J7.4666
G3 X-318.4359 Y-26.6909 I5.1516 J7.4599
G3 X-318.2777 Y-26.7975 I5.1384 J7.453
G3 X-312.8252 Y-30.3601 I132.5275 J196.8785
G3 X-312.6529 Y-30.4691 I4.6502 J7.1582
G3 X-300.698 Y-37.568 I260.3745 J424.8663
G3 X-288.5443 Y-44.3208 I230.5356 J400.6057
G3 X-280.3294 Y-48.6146 I216.5484 J404.2995
G1 X-279.2628 Y-49.1559
G1 X-278.1602 Y-49.7115
G1 X-277.0205 Y-50.2817
G1 X-275.8421 Y-50.8667
G1 X-274.6238 Y-51.4667
G3 X-273.3642 Y-52.0819 I138.9332 J282.8695
G3 X-259.7995 Y-58.3733 I176.6318 J363.0586
G3 X-259.5849 Y-58.4679 I7.3845 J16.4592
G3 X-259.3693 Y-58.5628 I7.3305 J16.3622
G3 X-240.7688 Y-66.1639 I151.7778 J344.8534
G3 X-240.4738 Y-66.2751 I4.7176 J12.0678
G3 X-240.1775 Y-66.3865 I4.693 J12.0325
G3 X-239.88 Y-66.4981 I4.6685 J11.9975
G1 X-238.6701 Y-66.9487
G1 X-237.4395 Y-67.402
G3 X-232.1701 Y-69.2856 I120.8685 J329.8291
G1 X-230.8272 Y-69.7507
G1 X-229.461 Y-70.2177
G3 X-223.6106 Y-72.1467 I105.5088 J310.1464
G3 X-210.1138 Y-76.1609 I104.2126 J325.6958
G3 X-209.9011 Y-76.2193 I2.0417 J7.019
G1 X-209.0437 Y-76.4532
G3 X-193.2586 Y-80.3252 I86.8436 J319.9257
G1 X-192.2581 Y-80.543
G3 X-183.6932 Y-82.2735 I69.366 J321.2542
G1 X-182.611 Y-82.4752
G3 X-168.4043 Y-83.486 I14.0337 J96.8968
G3 X-154.1979 Y-82.47 I-0.182 J102.3764
G3 X-150.1776 Y-81.8216 I-14.0945 J100.1718
G3 X-148.0446 Y-81.4125 I-16.8341 J93.5368
G3 X-146.947 Y-81.1843 I-56.8083 J275.9813
G1 X-146.3905 Y-81.064
G3 X-112.7776 Y-67.4964 I-23.3519 J106.2738
G3 X-108.7013 Y-64.8588 I-54.1912 J88.2174
G1 X-108.1965 Y-64.5133
G1 X-107.6898 Y-64.1622
G3 X-107.3863 Y-63.936 I-2.5311 J3.7142
G3 X-107.1076 Y-63.68 I-1.9881 J2.4437
G3 X-106.9542 Y-63.479 I-0.8584 J0.8137
G3 X-106.9017 Y-63.3428 I-0.3953 J0.2308
G3 X-106.9709 Y-63.1735 I-0.154 J0.0359
G3 X-107.077 Y-63.1315 I-0.1613 J-0.2528
G3 X-107.2039 Y-63.118 I-0.1379 J-0.6893
G3 X-107.4954 Y-63.146 I0.0043 J-1.5771
G3 X-107.7598 Y-63.2085 I0.6845 J-3.4824
G3 X-108.3087 Y-63.4027 I1.5635 J-5.2908
G1 X-108.4314 Y-63.455
G1 X-108.5452 Y-63.5059
G1 X-109.535 Y-63.9541
G2 X-110.5279 Y-64.3949 I-52.2947 J116.4375
G2 X-110.6605 Y-64.4532 I-2.4614 J5.4277
G2 X-112.791 Y-65.3657 I-56.5651 J129.1234
G2 X-112.929 Y-65.4233 I-1.9774 J4.5429
G2 X-117.3803 Y-67.1781 I-45.7871 J109.6198
G1 X-117.9791 Y-67.3983
G2 X-121.1938 Y-68.5133 I-36.5468 J100.1825
G2 X-125.5347 Y-69.8325 I-31.627 J96.2662
G2 X-128.0418 Y-70.4939 I-22.9471 J81.9068
G2 X-128.1208 Y-70.5135 I-0.4714 J1.7287
G2 X-131.0197 Y-71.1819 I-21.1115 J84.939
G1 X-131.7301 Y-70.5703
G3 X-126.0188 Y-68.4279 I-53.85 J152.2439
G3 X-120.3999 Y-66.0538 I-50.8106 J128.0917
G3 X-120.0412 Y-65.8917 I-10.3244 J23.32
G3 X-119.6715 Y-65.7232 I-13.0645 J29.1455
G3 X-118.8848 Y-65.3594 I-36.0338 J78.9805
G1 X-118.0486 Y-64.9652
G3 X-116.1493 Y-64.0387 I-56.8118 J118.8738
G1 X-115.662 Y-63.7938
G1 X-115.1604 Y-63.5383
G3 X-109.9004 Y-60.6418 I-45.58 J88.9949
G1 X-109.2353 Y-60.2441
G1 X-108.5523 Y-59.8276
G1 X-107.8512 Y-59.3912
G1 X-107.4967 Y-59.167
G1 X-107.1377 Y-58.9374
G1 X-106.7742 Y-58.7024
G3 X-103.5085 Y-56.4654 I-42.7041 J65.8449
G3 X-99.9206 Y-53.7078 I-43.9246 J60.8627
G3 X-99.2477 Y-53.1169 I-6.4066 J7.9737
G3 X-99.0411 Y-52.9012 I-2.8532 J2.9389
G1 X-98.9896 Y-52.8404
G3 X-98.8849 Y-52.691 I-0.809 J0.6785
G3 X-98.853 Y-52.5977 I-0.1963 J0.1193
G3 X-98.8832 Y-52.5473 I-0.0493 J0.0046
G3 X-98.9202 Y-52.5399 I-0.0372 J-0.0904
G3 X-99.0167 Y-52.5534 I-0.0021 J-0.3374
G3 X-99.0697 Y-52.5691 I0.2257 J-0.8611
G3 X-99.1255 Y-52.589 I0.0925 J-0.3464
G3 X-99.3721 Y-52.7019 I0.8289 J-2.1367
G3 X-99.7046 Y-52.8887 I2.0281 J-3.9998
G3 X-100.1151 Y-53.1498 I5.1247 J-8.5116
G1 X-100.3484 Y-53.3086
G1 X-100.4301 Y-53.3657
G2 X-102.4374 Y-54.7198 I-34.446 J48.899
G2 X-104.4868 Y-56.0091 I-45.5521 J70.134
G1 X-105.0783 Y-56.3679
G2 X-109.8818 Y-59.1146 I-67.541 J112.5457
G2 X-113.1426 Y-60.8394 I-72.0165 J132.2043
G2 X-117.5528 Y-63.0158 I-69.9613 J136.2117
G1 X-118.1269 Y-63.2861
G2 X-124.3265 Y-66.0013 I-54.8997 J116.9191
G2 X-124.7252 Y-66.162 I-8.6537 J20.8885
G1 X-125.5502 Y-66.4886
G2 X-129.3602 Y-67.8811 I-30.9807 J78.8584
G1 X-129.8489 Y-68.0441
G2 X-130.8619 Y-68.3686 I-17.0274 J51.411
G2 X-133.0428 Y-68.9982 I-16.0478 J51.4907
G2 X-135.4032 Y-69.5455 I-9.8476 J37.1103
G2 X-136.637 Y-69.7571 I-5.0846 J25.9396
G2 X-137.2679 Y-69.8398 I-2.7468 J18.5224
G1 X-137.5869 Y-69.8738
G2 X-138.9123 Y-69.9473 I-1.4652 J14.4352
G1 X-139.0789
G2 X-139.7504 Y-69.9058 I0.0156 J5.7091
G2 X-140.4118 Y-69.7824 I0.5917 J5.0046
G2 X-141.6356 Y-69.2291 I0.966 J3.7663
G2 X-142.3146 Y-68.6399 I2.2207 J3.2451
G2 X-142.4357 Y-68.1984 I1.2249 J0.5736
G2 X-142.4063 Y-67.7415 I1.4778 J0.1343
G2 X-142.322 Y-67.4481 I1.8607 J-0.3757
G2 X-142.2588 Y-67.2858 I10.4582 J-3.9811
G2 X-142.1779 Y-67.1044 I2.6652 J-1.0801
G1 X-141.9471 Y-66.6333
G1 X-141.8886 Y-66.5066
G3 X-141.8321 Y-66.369 I-1.3703 J0.6434
G3 X-141.7507 Y-66.0394 I-1.194 J0.4699
G3 X-141.851 Y-65.6504 I-0.5664 J0.0613
G3 X-142.0096 Y-65.4881 I-0.6336 J-0.4603
G3 X-143.7323 Y-66.834 I7.5506 J-11.4393
G3 X-143.9584 Y-67.0499 I3.8784 J-4.2883
G3 X-144.5213 Y-67.6651 I5.3777 J-5.4862
G3 X-144.8044 Y-68.0491 I3.4753 J-2.8584
G3 X-145.0696 Y-68.5272 I2.7709 J-1.8494
G3 X-145.2316 Y-69.1371 I1.6601 J-0.7674
G3 X-145.0482 Y-69.8682 I1.1647 J-0.0964
G3 X-144.769 Y-70.1859 I1.216 J0.7869
G3 X-144.3884 Y-70.4509 I1.4362 J1.657
G3 X-143.9355 Y-70.6644 I1.9004 J3.4443
G3 X-143.4303 Y-70.8344 I2.0955 J5.3909
G3 X-141.2131 Y-71.265 I2.9248 J9.137
G3 X-138.9563 Y-71.1746 I0.7332 J9.9141
G2 X-138.8417 Y-71.1796 I0.0448 J-0.2877
G2 X-138.7325 Y-71.2149 I-0.1229 J-0.5671
G2 X-138.6635 Y-71.2475 I-0.2889 J-0.7011
G2 X-138.4119 Y-71.4139 I-0.8416 J-1.5466
G2 X-137.9854 Y-71.8283 I-1.7896 J-2.2682
G2 X-137.7528 Y-72.1478 I-1.7906 J-1.5481
G2 X-137.6557 Y-72.3521 I-0.7857 J-0.4986
G2 X-137.6353 Y-72.4726 I-0.3389 J-0.1195
G2 X-137.7215 Y-72.5935 I-0.1204 J-0.0052
G2 X-141.7769 Y-73.8117 I-15.818 J45.2963
G2 X-145.9157 Y-74.7075 I-14.4302 J56.6627
G2 X-154.3242 Y-75.6618 I-11.4447 J63.3204
G2 X-156.7429 Y-75.7244 I-2.7158 J58.136
G2 X-159.5075 Y-75.665 I-0.2232 J53.9055
G2 X-162.6574 Y-75.3974 I1.9972 J42.1862
G1 X-163.0556 Y-75.3459
G1 X-163.4596 Y-75.289
G2 X-165.1754 Y-74.9913 I5.0269 J34.0604
G2 X-165.6082 Y-74.9002 I3.8262 J19.2686
G2 X-167.4382 Y-74.4304 I5.5437 J25.39
G2 X-168.3669 Y-74.1294 I6.1311 J20.499
G2 X-169.252 Y-73.7943 I5.266 J15.2486
G2 X-170.1081 Y-73.3908 I3.3538 J8.225
G2 X-170.3414 Y-73.2536 I1.5763 J2.9472
G2 X-170.5955 Y-73.0768 I2.1142 J3.3099
G2 X-170.8546 Y-72.834 I1.1832 J1.5221
G2 X-170.9636 Y-72.6773 I0.6565 J0.573
G2 X-171.0323 Y-72.4812 I0.5177 J0.2915
G2 X-171.0113 Y-72.2489 I0.493 J0.0726
G2 X-170.8748 Y-72.0187 I0.6946 J-0.2563
G2 X-170.6543 Y-71.8164 I1.0097 J-0.8792
G2 X-170.3829 Y-71.6409 I1.4441 J-1.9355
G1 X-170.2355 Y-71.5619
G2 X-169.5836 Y-71.2828 I2.632 J-5.2474
G2 X-168.8886 Y-71.054 I4.5161 J-12.548
G1 X-168.7076 Y-71.0015
G1 X-168.6153 Y-70.9756
G1 X-168.5214 Y-70.9498
G2 X-168.3273 Y-70.8981 I2.591 J-9.3462
G1 X-168.1288 Y-70.8474
G3 X-161.2825 Y-69.0226 I-51.2968 J206.2147
G3 X-159.0137 Y-68.3659 I-54.4344 J192.2847
G1 X-158.4099 Y-68.1867
G3 X-148.8171 Y-65.1019 I-67.7224 J227.0533
G1 X-147.548 Y-64.6607
G3 X-140.8192 Y-62.1966 I-87.0753 J248.1891
G1 X-139.9559 Y-61.8655
G1 X-139.0659 Y-61.5207
G1 X-138.1484 Y-61.1616
G3 X-128.4401 Y-57.1406 I-109.967 J279.2351
G1 X-127.1975 Y-56.5978
G1 X-125.9173 Y-56.0322
G1 X-124.5982 Y-55.4428
G3 X-121.7924 Y-54.167 I-136.2615 J303.3885
G1 X-120.3487 Y-53.4991
G3 X-113.7851 Y-50.3695 I-157.5615 J338.9
G1 X-112.9558 Y-49.9637
G1 X-112.1141 Y-49.5496
G1 X-111.2601 Y-49.1271
G3 X-109.4997 Y-48.249 I-197.0192 J397.1866
G3 X-101.4994 Y-44.1448 I-236.6445 J471.143
G3 X-100.9977 Y-43.8817 I-28.0643 J54.1196
G3 X-100.4924 Y-43.6161 I-28.0414 J53.9512
G3 X-99.9834 Y-43.3478 I-28.074 J53.8897
G3 X-99.4707 Y-43.077 I-28.1608 J53.9321
G3 X-98.3304 Y-42.5061 I-26.8466 J55.0464
G3 X-98.2548 Y-42.467 I-0.3828 J0.8338
G3 X-97.0552 Y-41.8259 I-28.3617 J54.5054
G3 X-94.7144 Y-40.44 I-22.0184 J39.861
G3 X-93.2084 Y-39.4292 I-19.206 J30.2398
G1 X-92.816 Y-39.1464
G3 X-91.9359 Y-38.477 I-17.4937 J23.9143
G1 X-91.8259 Y-38.3896
G3 X-91.362 Y-38.0102 I-10.5789 J13.4111
G3 X-90.3367 Y-37.1017 I-14.7631 J17.6941
G3 X-89.2383 Y-35.9848 I-13.1233 J14.0045
G3 X-88.1115 Y-34.5904 I-11.3602 J10.3322
G3 X-87.0639 Y-32.8219 I-9.4533 J6.7943
G3 X-86.8494 Y-32.3352 I-8.1502 J3.8833
G3 X-86.4861 Y-31.2557 I-8.4288 J3.4377
G3 X-86.2455 Y-28.6301 I-7.461 J2.0075
G1 X-87.645 Y-29.4689
G1 X-89.046 Y-30.3053
G2 X-89.2329 Y-30.4167 I-4.8504 J7.9267
G2 X-92.226 Y-32.1939 I-495.6534 J831.3654
G1 X-94.2244 Y-33.3734
G1 X-95.3676 Y-34.0454
G1 X-96.6753 Y-34.8112
G1 X-98.1717 Y-35.6834
G1 X-98.5582 Y-35.908
G2 X-102.6919 Y-38.2835 I-219.1468 J376.5636
G1 X-103.7988 Y-38.909
G2 X-106.3408 Y-40.3174 I-90.1773 J159.7621
G2 X-106.421 Y-40.3609 I-0.8104 J1.3966
G2 X-106.5826 Y-40.4485 I-3.7858 J6.7952
G1 X-107.2512 Y-40.8072
G2 X-107.9445 Y-41.1718 I-18.616 J34.5557
G2 X-108.0318 Y-41.2171 I-0.6968 J1.2377
G2 X-108.7558 Y-41.5844 I-19.1771 J36.9047
G1 X-108.9394 Y-41.6747
G2 X-109.706 Y-42.03 I-7.0108 J14.1188
G2 X-109.9028 Y-42.1117 I-2.3054 J5.2765
G2 X-110.4212 Y-42.2685 I-1.1485 J2.8615
G1 X-110.4972 Y-42.2836
G2 X-111.1147 Y-42.3228 I-0.4662 J2.46
G2 X-111.5211 Y-42.2441 I0.0928 J1.5684
G2 X-111.7368 Y-42.143 I0.3579 J1.0437
G2 X-111.9362 Y-41.9508 I0.3181 J0.5296
G2 X-111.982 Y-41.6112 I0.3466 J0.2196
G2 X-111.8941 Y-41.4325 I0.5684 J-0.1688
G2 X-111.747 Y-41.2676 I0.7885 J-0.5549
G2 X-111.5577 Y-41.1206 I0.9897 J-1.0792
G1 X-111.0278 Y-40.7724
G1 X-110.4953 Y-40.4279
G1 X-110.1392 Y-40.2
G2 X-108.7077 Y-39.2998 I119.2976 J-188.121
G1 X-107.7487 Y-38.7072
G1 X-106.4664 Y-37.9231
G1 X-106.1239 Y-37.7147
G1 X-104.2957 Y-36.6067
G1 X-101.8585 Y-35.1288
G1 X-101.2096 Y-34.733
G1 X-100.5182 Y-34.3095
G1 X-99.7819 Y-33.8561
G3 X-99.6892 Y-33.7988 I-2.2508 J3.7457
G1 X-98.8992 Y-33.3085
G1 X-98.0587 Y-32.7822
G3 X-97.6259 Y-32.509 I-17.8264 J28.7232
G1 X-96.7051 Y-31.9222
G3 X-96.4718 Y-31.7722 I-6.9621 J11.0858
G1 X-95.991 Y-31.4613
G3 X-93.8105 Y-30.0135 I-64.6306 J99.7072
G3 X-91.3655 Y-28.2894 I-47.5819 J70.0712
G1 X-91.2137 Y-28.1776
G1 X-91.0611 Y-28.0645
G3 X-89.7733 Y-27.0797 I-29.7278 J40.2083
G1 X-89.6934 Y-27.0166
G1 X-89.6134 Y-26.953
G1 X-89.5332 Y-26.8891
G1 X-89.2089 Y-26.6275
G3 X-87.8554 Y-25.4736 I-25.0673 J30.7726
G3 X-86.4874 Y-24.1564 I-16.6906 J18.7037
G3 X-85.8277 Y-23.4297 I-12.5811 J12.0823
G1 X-85.748 Y-23.3357
G3 X-85.1219 Y-22.5311 I-9.431 J7.9852
G1 X-84.9754 Y-22.3198
G3 X-84.436 Y-21.3997 I-6.702 J4.5475
G3 X-84.0474 Y-20.3561 I-4.4862 J2.2642
G3 X-83.9553 Y-19.7903 I-3.5245 J0.8643
G3 X-84.1145 Y-18.5642 I-2.8588 J0.2523
G3 X-85.3849 Y-18.1904 I-1.8787 J-4.0393
G3 X-85.8256 Y-18.1461 I-0.6772 J-4.5264
G3 X-86.4155 Y-18.1389 I-0.3808 J-7.0371
G3 X-87.1985 Y-18.2015 I0.2941 J-8.6108
G3 X-88.2292 Y-18.3697 I1.7786 J-14.1417
G1 X-88.3614 Y-18.396
G1 X-88.4976 Y-18.424
G3 X-89.9382 Y-18.7467 I13.8814 J-65.3314
G1 X-90.3217 Y-18.8339
G3 X-91.5322 Y-19.2451 I28.4271 J-85.6628
G1 X-91.9348 Y-19.3852
G1 X-92.4706 Y-19.5741
G1 X-92.7765 Y-19.6833
G1 X-93.1257 Y-19.809
G1 X-93.5243 Y-19.9539
G1 X-93.9793 Y-20.1211
G3 X-95.1893 Y-20.5754 I34.9416 J-94.9189
G1 X-95.8788 Y-20.8402
G3 X-101.3463 Y-23.0791 I57.5021 J-148.2159
G1 X-102.0694 Y-23.3919
G1 X-102.8393 Y-23.7287
G1 X-103.659 Y-24.0913
G1 X-104.5318 Y-24.4818
G1 X-105.4609 Y-24.9022
G1 X-106.4502 Y-25.3547
G1 X-107.5034 Y-25.8414
G1 X-108.6249 Y-26.3649
G3 X-114.5811 Y-29.2075 I250.8332 J-533.2406
G1 X-117.9765 Y-30.8484
G1 X-119.7882 Y-31.7215
G2 X-120.724 Y-32.1705 I-71.6133 J148.0567
G2 X-125.0133 Y-34.1987 I-170.937 J355.9433
G2 X-125.2844 Y-34.3247 I-10.7026 J22.6697
G2 X-125.5577 Y-34.4514 I-10.2898 J21.8335
G2 X-125.8333 Y-34.5789 I-9.9012 J21.0473
G2 X-126.1111 Y-34.7071 I-9.5348 J20.3072
G2 X-126.3914 Y-34.8359 I-9.1886 J19.6089
G2 X-126.6739 Y-34.9655 I-8.8608 J18.9487
G2 X-131.8699 Y-37.2688 I-89.8128 J195.5956
G2 X-137.8947 Y-39.6987 I-61.2422 J143.163
G1 X-138.6675 Y-39.9879
G2 X-140.2687 Y-40.569 I-40.0273 J107.7938
G1 X-141.0852 Y-40.8557
G2 X-144.5932 Y-42.0092 I-38.5643 J111.3616
G2 X-144.7037 Y-42.0434 I-0.9746 J2.9526
G2 X-144.8144 Y-42.0776 I-0.9676 J2.9412
G2 X-144.9254 Y-42.1117 I-0.9606 J2.9298
G2 X-151.0601 Y-43.7673 I-28.2341 J92.4231
G2 X-157.2898 Y-45.0197 I-22.0024 J93.3253
G1 X-157.6945 Y-45.0858
G1 X-158.1125 Y-45.1519
G1 X-158.5444 Y-45.218
G2 X-163.1715 Y-45.772 I-11.1333 J73.3903
G2 X-165.8296 Y-45.9443 I-5.2637 J60.6163
G1 X-166.1676 Y-45.9572
G1 X-166.5111 Y-45.9681
G2 X-169.6542 Y-45.949 I-1.3066 J43.6063
G2 X-170.4645 Y-45.9038 I1.0265 J25.662
G1 X-170.8756 Y-45.8734
G1 X-170.9788 Y-45.8649
G1 X-171.0823 Y-45.856
G2 X-172.8443 Y-45.6469 I2.2378 J26.3837
G2 X-173.7473 Y-45.4899 I2.9789 J19.8022
G2 X-175.6479 Y-45.0114 I3.3469 J17.3083
G1 X-175.8829 Y-44.9347
G2 X-176.8389 Y-44.5703 I3.7613 J11.3023
G2 X-176.9566 Y-44.5187 I0.7696 J1.9164
G2 X-177.429 Y-44.2939 I4.0274 J9.0743
G2 X-178.3653 Y-43.7436 I3.9807 J7.8429
G2 X-178.8113 Y-43.4143 I4.6877 J6.8178
G2 X-179.6448 Y-42.6094 I3.7582 J4.7257
G2 X-180.7775 Y-40.2726 I3.8844 J3.3258
G1 X-181.2673 Y-40.5338
G1 X-181.7534 Y-40.8019
G1 X-182.0753 Y-40.9844
G3 X-183.3447 Y-41.7456 I16.3623 J-28.727
G1 X-183.7017 Y-41.9725
G3 X-186.4462 Y-43.9496 I16.5724 J-25.8983
G3 X-188.1297 Y-45.4515 I14.2715 J-17.6912
G3 X-189.0162 Y-46.3888 I13.8187 J-13.9558
G3 X-189.9376 Y-47.5416 I10.8059 J-9.5819
G3 X-190.3002 Y-48.1067 I3.1227 J-2.4028
G3 X-190.5577 Y-48.7268 I3.1903 J-1.6885
G3 X-190.691 Y-50.0577 I3.2346 J-0.9959
G3 X-190.5043 Y-50.9327 I3.9022 J0.3749
G3 X-189.9966 Y-52.0051 I4.8354 J1.6329
G3 X-189.0177 Y-53.2243 I5.7005 J3.5744
G3 X-187.3901 Y-54.4629 I5.5273 J5.5747
G3 X-173.3332 Y-58.5977 I19.9617 J41.9012
G3 X-168.4466 Y-58.9845 I6.4258 J50.1198
G3 X-161.9177 Y-58.7932 I1.6272 J55.9839
G3 X-158.2105 Y-58.3616 I-5.6815 J64.9383
G3 X-158.0946 Y-58.3447 I-0.5773 J4.3456
G3 X-153.8821 Y-57.5932 I-10.2304 J69.5355
G3 X-153.7506 Y-57.5657 I-0.8224 J4.2587
G3 X-148.9835 Y-56.4153 I-17.9664 J84.9
G3 X-148.835 Y-56.3749 I-1.334 J5.1963
G3 X-148.686 Y-56.3341 I-1.3581 J5.2521
G3 X-143.2917 Y-54.6893 I-27.5027 J99.8691
G1 X-142.6131 Y-54.4609
G3 X-139.7352 Y-53.4442 I-44.3836 J130.2094
G1 X-139.0082 Y-53.1757
G1 X-138.6424 Y-53.039
G3 X-135.5384 Y-51.8372 I-60.3743 J160.535
G3 X-132.2565 Y-50.4945 I-78.188 J195.8023
G1 X-131.4268 Y-50.1451
G1 X-130.5856 Y-49.7872
G3 X-127.0138 Y-48.2332 I-114.295 J267.5879
G1 X-126.7903 Y-48.1344
G1 X-126.5659 Y-48.0351
G1 X-126.114 Y-47.8347
G1 X-124.2513 Y-47.0032
G1 X-122.3323 Y-46.1407
G1 X-120.3539 Y-45.2492
G1 X-119.3492 Y-44.797
G1 X-119.162 Y-44.716
G2 X-118.9726 Y-44.6403 I1.5713 J-3.6542
G2 X-118.8451 Y-44.5928 I1.021 J-2.5474
G2 X-118.3263 Y-44.4295 I2.3947 J-6.7015
G2 X-117.9731 Y-44.3472 I1.1817 J-4.2706
G2 X-117.4945 Y-44.278 I0.866 J-4.305
G2 X-116.8488 Y-44.2889 I0.2759 J-2.7789
G2 X-116.4905 Y-44.3884 I-0.191 J-1.3839
G2 X-116.32 Y-44.4957 I-0.2833 J-0.6394
G2 X-116.1934 Y-44.6814 I-0.2727 J-0.3218
G2 X-116.1972 Y-44.9499 I-0.4292 J-0.1281
G2 X-116.3458 Y-45.233 I-0.9318 J0.3085
G2 X-116.5827 Y-45.4976 I-1.5214 J1.1239
G2 X-116.8729 Y-45.7427 I-2.9279 J3.1714
G2 X-117.5122 Y-46.1641 I-3.7231 J4.954
G2 X-117.6719 Y-46.2548 I-4.7101 J8.099
G2 X-118.7131 Y-46.7976 I-9.4207 J16.8022
G2 X-118.7835 Y-46.832 I-0.4187 J0.7662
G2 X-118.8586 Y-46.8686 I-0.4468 J0.8225
G2 X-119.2603 Y-47.0611 I-9.7868 J19.9027
G1 X-119.7975 Y-47.3141
G1 X-120.1047 Y-47.4585
G1 X-120.4551 Y-47.6246
G3 X-121.3817 Y-48.0836 I13.3673 J-28.1502
G3 X-122.5774 Y-48.7708 I6.4326 J-12.5757
G1 X-123.9437 Y-49.4281
G1 X-125.3115 Y-50.0821
G1 X-126.2244 Y-50.5159
G1 X-126.7466 Y-50.7629
G2 X-130.9363 Y-52.7114 I-177.0147 J375.1582
G1 X-131.497 Y-52.9668
G1 X-132.7805 Y-53.5461
G1 X-133.1122 Y-53.6945
G1 X-133.4549 Y-53.8473
G1 X-133.8089 Y-54.0044
G1 X-134.1745 Y-54.166
G2 X-138.092 Y-55.8493 I-83.2694 J188.3951
G1 X-139.1426 Y-56.2841
G1 X-139.4099 Y-56.3935
G1 X-139.6816 Y-56.5042
G1 X-140.2431 Y-56.7313
G2 X-146.2868 Y-59.0141 I-54.3425 J134.7256
G1 X-146.4788 Y-59.0813
G1 X-146.6726 Y-59.1488
G2 X-147.4736 Y-59.4237 I-18.2591 J51.8929
G1 X-148.3026 Y-59.7015
G2 X-149.1607 Y-59.9814 I-24.8946 J74.8589
G2 X-150.999 Y-60.554 I-32.7165 J101.79
G2 X-152.972 Y-61.1251 I-30.2661 J100.8672
G2 X-153.4751 Y-61.2632 I-6.9122 J24.2084
G1 X-153.9871 Y-61.4003
G2 X-158.7085 Y-62.4978 I-19.5906 J73.5747
G2 X-159.0082 Y-62.5566 I-2.1347 J10.0926
G2 X-159.3105 Y-62.6145 I-2.2952 J11.1694
G2 X-159.6155 Y-62.6714 I-2.5161 J12.6291
G2 X-160.8778 Y-62.8914 I-10.8604 J58.5918
G2 X-163.5857 Y-63.2733 I-9.9555 J60.7967
G2 X-166.4932 Y-63.5353 I-6.4111 J54.8871
G2 X-167.9992 Y-63.6055 I-2.9621 J47.3679
G1 X-168.3789 Y-63.6157
G2 X-171.6247 Y-63.5727 I-1.0364 J44.3096
G1 X-171.8282 Y-63.5619
G1 X-172.0324 Y-63.55
G2 X-175.5108 Y-63.1845 I2.2563 J38.2094
G1 X-175.9464 Y-63.1159
G2 X-177.7375 Y-62.7765 I6.2413 J37.8283
G2 X-185.6564 Y-60.0067 I7.0113 J32.751
G2 X-189.546 Y-57.728 I15.1308 J30.2855
G2 X-191.4339 Y-56.355 I19.1163 J28.2706
G2 X-193.2923 Y-54.8106 I23.8131 J30.5442
G2 X-194.1704 Y-55.2868 I-12.0503 J21.1722
G1 X-194.4678 Y-55.4365
G2 X-194.8678 Y-55.6292 I-10.2433 J20.75
G2 X-195.0981 Y-55.7359 I-3.4307 J7.1073
G2 X-196.9784 Y-56.4984 I-10.1006 J22.2059
G2 X-200.8934 Y-57.5518 I-8.4476 J23.5938
G2 X-203.5755 Y-57.8974 I-4.4034 J23.5957
G2 X-203.9204 Y-57.8726 I-0.0938 J1.1066
G2 X-204.2326 Y-57.7238 I0.1813 J0.782
G2 X-204.3822 Y-57.5453 I0.3557 J0.4501
G2 X-204.3851 Y-57.2245 I0.2915 J0.1631
G2 X-204.245 Y-57.0829 I0.3543 J-0.2105
G1 X-203.6078 Y-56.6835
G1 X-203.5654 Y-56.6568
G1 X-203.5201 Y-56.6282
G1 X-203.279 Y-56.4756
G1 X-202.3175 Y-55.8611
G1 X-202.0434 Y-55.6846
G2 X-202.6038 Y-55.7947 I-2.2902 J10.1816
G1 X-202.7916 Y-55.8265
G1 X-202.8417 Y-55.8347
G1 X-202.8952 Y-55.8433
G1 X-203.1808 Y-55.8872
G1 X-203.5622 Y-55.9413
G1 X-204.0715 Y-56.0076
G1 X-204.2075 Y-56.0243
G2 X-206.3859 Y-56.2547 I-10.122 J85.2998
G2 X-206.4552 Y-56.2612 I-0.1145 J0.8568
G2 X-210.892 Y-56.5954 I-12.9137 J141.7982
G1 X-210.962 Y-56.5994
G2 X-212.2421 Y-56.6564 I-2.417 J39.8667
G2 X-212.3229 Y-56.6572 I-0.0566 J1.8037
G3 X-210.9616 Y-57.1308 I8.7379 J22.9193
G3 X-209.5837 Y-57.5537 I25.4067 J80.3349
G1 X-209.3997 Y-57.6092
G2 X-209.1734 Y-57.703 I-0.2867 J-1.0114
G2 X-208.9906 Y-57.866 I-0.2653 J-0.4814
G2 X-208.9413 Y-58.025 I-0.238 J-0.161
G2 X-209.0422 Y-58.2327 I-0.2867 J0.0109
G2 X-209.1537 Y-58.3087 I-0.3085 J0.3333
G2 X-209.4778 Y-58.3903 I-0.3728 J0.796
G2 X-214.8908 Y-58.6407 I-8.2195 J119.0392
G2 X-220.3095 Y-58.6387 I-2.6669 J111.5924
G1 X-220.6591 Y-58.6293
G1 X-221.0198 Y-58.6185
G1 X-221.7892 Y-58.5911
G2 X-223.5471 Y-58.5061 I5.3067 J128.0412
G2 X-228.2236 Y-58.1136 I4.8445 J85.7804
G1 X-228.3705 Y-58.097
G2 X-231.0502 Y-57.74 I8.3533 J72.94
G2 X-232.473 Y-57.5056 I9.0188 J59.186
G2 X-235.701 Y-56.8353 I9.4739 J53.7342
G2 X-235.9028 Y-56.7861 I1.5764 J6.899
G2 X-237.6155 Y-56.3271 I10.2653 J41.7321
G1 X-237.8298 Y-56.2641
G2 X-239.6434 Y-55.6727 I9.8734 J33.3561
G1 X-240.0985 Y-55.5061
G2 X-242.0086 Y-54.7082 I9.9757 J26.564
G2 X-243.965 Y-53.6732 I8.7285 J18.867
G2 X-245.9012 Y-52.3023 I7.815 J13.0896
G2 X-246.8032 Y-51.4649 I7.2702 J8.7352
G2 X-247.6354 Y-50.4936 I7.0942 J6.9203
G2 X-248.3556 Y-49.3715 I7.3306 J5.4972
G2 X-249.2609 Y-46.5839 I7.1134 J3.851
G2 X-252.8983 Y-46.7841 I-3.5693 J31.7103
G2 X-256.5356 Y-46.5827 I0.0774 J34.3459
G1 X-257.0184 Y-46.5271
G2 X-259.578 Y-46.1252 I4.8194 J39.0411
G2 X-262.941 Y-45.342 I8.4607 J43.9423
G1 X-263.3704 Y-45.2229
G2 X-265.3195 Y-44.6332 I13.7436 J48.9446
G2 X-266.3501 Y-44.2912 I15.9654 J49.8349
G1 X-267.4544 Y-43.9126
G1 X-268.557 Y-43.5295
G2 X-269.2912 Y-43.2715 I27.3889 J79.1364
G1 X-270.269 Y-42.9245
G2 X-274.167 Y-41.4993 I85.2067 J239.0871
G1 X-275.2766 Y-41.0811
G1 X-276.5424 Y-40.5971
G2 X-286.5733 Y-36.4847 I89.2644 J232.021
G1 X-287.2141 Y-36.2043
G1 X-287.8749 Y-35.913
G1 X-288.556 Y-35.6103
G1 X-289.2581 Y-35.2955
G1 X-289.9818 Y-34.9682
G1 X-290.7276 Y-34.6279
G1 X-291.4962 Y-34.2739
G2 X-299.6137 Y-30.3258 I98.4581 J212.7533
G2 X-310.1838 Y-24.5704 I102.4929 J200.8174
G2 X-323.7757 Y-16.0409 I113.9518 J196.6781
G2 X-327.2972 Y-13.6083 I128.7775 J190.1901
G2 X-327.4068 Y-13.5311 I1.5525 J2.3193
G1 X-328.2954 Y-12.9014
G2 X-336.2855 Y-6.9603 I143.9511 J201.9384
G1 X-337.2827 Y-6.1829
G1 X-338.2917 Y-5.3881
G1 X-338.7986 Y-4.9856
G2 X-347.8888 Y2.5922 I163.9381 J205.8994
G2 X-357.8705 Y11.7147 I190.6164 J218.5893
G1 X-358.4853 Y12.3044
G2 X-363.6661 Y17.4019 I227.2303 J236.1261
G1 X-363.9874 Y17.7256
G1 X-364.3095 Y18.0509
G1 X-364.6323 Y18.378
G2 X-365.9398 Y19.7116 I139.4058 J137.9848
G1 X-366.2668 Y20.0474
G2 X-371.7772 Y25.8436 I257.1736 J250.0113
G1 X-372.1187 Y26.2113
G1 X-372.461 Y26.5809
G1 X-372.8042 Y26.9524
G2 X-378.5843 Y33.3591 I281.0055 J259.3301
G1 X-379.3027 Y34.175
G1 X-380.0245 Y34.9991
G1 X-380.7498 Y35.8316
G1 X-381.4787 Y36.6725
G2 X-387.6095 Y43.9193 I340.5443 J294.3217
G2 X-387.6569 Y43.9765 I1.2361 J1.0721
G2 X-387.7042 Y44.0337 I1.2366 J1.0722
G2 X-390.6062 Y47.5691 I322.0287 J267.2906
G2 X-390.7981 Y47.8062 I13.5491 J11.1582
G1 X-391.2355 Y48.3489
G2 X-392.3943 Y49.802 I123.4876 J99.6646
G2 X-396.8982 Y55.7168 I149.8596 J118.7846
G1 X-397.0372 Y55.9076
G1 X-397.1782 Y56.1016
G1 X-397.3211 Y56.2989
G1 X-397.9276 Y57.1429
G1 X-398.0808 Y57.3579
G1 X-398.3959 Y57.8025
G1 X-398.7195 Y58.2626
G2 X-400.1766 Y60.3814 I118.4797 J83.0419
G1 X-400.5465 Y60.9325
G1 X-400.9255 Y61.5031
G2 X-404.7712 Y67.7167 I98.8741 J65.4924
G2 X-404.8284 Y67.8161 I2.7483 J1.6452
G2 X-404.8856 Y67.916 I2.8257 J1.6857
G2 X-406.8977 Y71.6138 I79.6821 J45.7541
G1 X-407.141 Y72.0898
G2 X-409.2185 Y76.5161 I69.1703 J35.1668
G1 X-409.4613 Y77.0878
G2 X-410.4356 Y79.5531 I57.3021 J24.0736
G2 X-411.3526 Y82.2296 I51.6451 J19.1888
G2 X-411.7695 Y83.6298 I43.8908 J13.8314
G2 X-412.155 Y85.0885 I52.8248 J14.7396
G1 X-412.2445 Y85.4582
G2 X-412.4162 Y86.2118 I30.4682 J7.3386
G2 X-412.9839 Y89.4653 I38.0512 J8.3154
G2 X-413.2454 Y92.9886 I31.4075 J4.1028
G2 X-413.0462 Y96.7704 I26.6545 J0.4922
G2 X-411.3252 Y97.9151 I14.3289 J-19.6767
G2 X-409.5197 Y98.9214 I14.8338 J-24.4906
G2 X-405.7229 Y100.5483 I14.3891 J-28.3386
G2 X-403.0952 Y101.3732 I12.2003 J-34.2643
G2 X-399.5163 Y102.1848 I11.0454 J-40.413
G2 X-397.4453 Y102.512 I8.2322 J-45.3875
G1 X-397.3143 Y102.5294
G2 X-397.7273 Y103.3194 I2.6033 J1.8637
G2 X-397.8185 Y103.603 I4.2284 J1.5164
G2 X-397.9096 Y103.9893 I4.1889 J1.1912
G2 X-397.9864 Y104.5122 I5.6596 J1.0986
G2 X-397.9999 Y104.6525 I2.5246 J0.3137
G2 X-398.0359 Y105.4013 I10.5624 J0.8827
G2 X-398.0372 Y105.498 I1.7429 J0.0718
G2 X-398.0379 Y105.5979 I6.6757 J0.1015
G1 X-398.036 Y106.0534
G1 X-398.0292 Y106.573
G1 X-398.0284 Y106.639
G2 X-401.0526 Y105.8712 I-69.0764 J265.7301
G1 X-402.0621 Y105.621
G2 X-402.094 Y105.6131 I-0.0715 J0.2215
G1 X-402.6757 Y105.4703
G1 X-404.2282 Y105.0943
G1 X-405.1161 Y104.8828
G2 X-405.1721 Y104.8695 I-0.1652 J0.5735
G1 X-406.1958 Y104.6297
G1 X-407.3669 Y104.3607
G1 X-407.5157 Y104.327
G1 X-408.1509 Y104.1844
G1 X-408.829 Y104.0348
G1 X-409.1792 Y103.9587
G1 X-409.927 Y103.799
G1 X-410.3133 Y103.7183
G1 X-411.1384 Y103.5506
G1 X-411.5648 Y103.4668
G2 X-412.4761 Y103.2961 I-8.7646 J44.2746
G2 X-412.9474 Y103.2134 I-3.5521 J18.8627
G2 X-413.9559 Y103.055 I-7.8913 J46.9653
G1 X-414.2129 Y103.0203
G1 X-414.4745 Y102.9884
G1 X-414.7406 Y102.9602
G2 X-415.2925 Y102.9237 I-0.9283 J9.8269
G1 X-414.9246 Y103.255
G1 X-414.5581 Y103.5879
G1 X-414.3146 Y103.8108
G1 X-413.9913 Y104.1094
G3 X-413.9053 Y104.1893 I-1.5905 J1.7978
G1 X-413.4488 Y104.6174
G1 X-413.1895 Y104.8638
G1 X-413.0518 Y104.9958
G1 X-412.9052 Y105.137
G3 X-410.6361 Y107.4713 I-32.9526 J34.3025
G3 X-409.2298 Y109.1251 I-26.5464 J23.9994
G3 X-407.5337 Y111.4716 I-23.8011 J18.9895
G3 X-405.6268 Y114.8299 I-27.1393 J17.6306
G1 X-405.409 Y115.2785
G3 X-405.355 Y115.392 I-3.6826 J1.8207
G3 X-406.0326 Y115.4556 I-0.9138 J-6.0937
G1 X-406.1298 Y115.459
G1 X-406.3891 Y115.4631
G3 X-406.5373 Y115.4625 I-0.0341 J-9.2923
G3 X-406.7066 Y115.4595 I-0.0193 J-3.7559
G3 X-407.1578 Y115.4428 I0.26 J-13.0806
G1 X-407.4154 Y115.4292
G1 X-408.1017 Y115.388
G1 X-408.4939 Y115.3667
G2 X-409.541 Y115.3503 I-0.7479 J14.3181
G2 X-410.1383 Y115.3913 I0.2145 J7.5027
G2 X-410.813 Y115.5142 I0.5385 J4.8694
G2 X-411.5485 Y115.7983 I0.8086 J3.1871
G2 X-412.2726 Y116.357 I1.3245 J2.4651
G2 X-411.8395 Y116.8053 I1.6492 J-1.1598
G2 X-411.2986 Y117.115 I1.5111 J-2.0119
G2 X-410.9075 Y117.2553 I1.5944 J-3.829
G1 X-410.8011 Y117.286
G2 X-410.228 Y117.4175 I1.8286 J-6.6537
G2 X-409.4622 Y117.5591 I23.9392 J-127.338
G1 X-409.259 Y117.6004
G3 X-408.8008 Y117.7162 I-1.3233 J6.2001
G3 X-408.2985 Y117.9142 I-0.8633 J2.9271
G3 X-408.0507 Y118.0634 I-0.8394 J1.6732
G3 X-407.5902 Y118.5514 I-0.9392 J1.3478
G3 X-411.5937 Y118.4314 I-0.4869 J-50.6268
G1 X-412.1645 Y118.3904
G1 X-412.8164 Y118.3372
G3 X-414.5522 Y118.1662 I7.5216 J-85.2649
G3 X-416.8601 Y117.8831 I12.1571 J-108.6335
G3 X-417.0064 Y117.8633 I0.8204 J-6.6303
G3 X-417.3084 Y117.822 I1.3958 J-11.3173
G3 X-417.62 Y117.7785 I2.31 J-17.6978
G3 X-420.9374 Y117.2762 I25.6852 J-180.819
G1 X-421.3649 Y117.2076
G1 X-422.2766 Y117.06
G1 X-424.3597 Y116.7197
G2 X-424.6268 Y116.7193 I-0.1347 J0.8496
G2 X-424.8839 Y116.792 I0.1713 J1.0974
G2 X-425.3214 Y117.0897 I0.5166 J1.2295
G2 X-425.5193 Y117.3833 I0.6473 J0.65
G2 X-425.5541 Y117.5866 I0.4261 J0.1775
G2 X-425.4317 Y117.8099 I0.3098 J-0.0246
G2 X-425.3042 Y117.8818 I0.3423 J-0.4573
G2 X-424.0739 Y118.3356 I10.2804 J-25.9825
G2 X-423.9911 Y118.3637 I0.6309 J-1.7173
G1 X-423.5483 Y118.5099
G2 X-421.757 Y119.0282 I10.2291 J-31.9942
G2 X-418.1095 Y119.7982 I10.7804 J-42.0446
G2 X-415.6512 Y120.1625 I10.3643 J-61.4702
G1 X-414.9937 Y120.2448
G1 X-414.654 Y120.2852
G1 X-413.9291 Y120.3674
G1 X-413.7449 Y120.3875
G2 X-412.0601 Y120.5585 I14.9011 J-138.4458
G1 X-411.161 Y120.6429
G2 X-410.9325 Y120.6638 I0.7033 J-6.4159
G1 X-410.461 Y120.7066
G1 X-408.3062 Y120.9011
G1 X-407.1577 Y121.0102
G1 X-406.8661 Y121.0392
G3 X-404.2059 Y121.345 I-7.5847 J77.7017
G3 X-403.5216 Y121.441 I-3.699 J28.841
G2 X-403.1829 Y122.9947 I36.7602 J-7.1983
G1 X-403.1711 Y123.0447
G1 X-403.1161 Y123.2727
G2 X-401.9839 Y123.1228 I-0.005 J-4.3889
G2 X-400.9197 Y122.7086 I-1.3682 J-5.0889
G2 X-400.2636 Y122.3218 I-2.9344 J-5.7278
G1 X-400.1821 Y122.2669
G1 X-400.0106 Y122.1463
G2 X-399.148 Y121.441 I-5.5336 J-7.6492
G3 X-394.6928 Y118.238 I298.3618 J410.2993
G3 X-394.0537 Y117.7841 I73.2149 J102.3896
G3 X-393.9725 Y117.7265 I1.8756 J2.5583
G3 X-393.89 Y117.668 I1.893 J2.5823
G3 X-393.8062 Y117.6085 I1.9105 J2.6065
G3 X-393.721 Y117.5482 I1.9282 J2.6309
G1 X-391.9023 Y116.2642
G1 X-390.8612 Y115.5331
G1 X-390.3055 Y115.1438
G1 X-389.7123 Y114.7291
G1 X-389.0793 Y114.2873
G1 X-388.4036 Y113.8165
G1 X-386.8579 Y112.7426
G3 X-382.7286 Y109.8897 I684.4137 J986.1926
G3 X-382.5984 Y109.8 I2.9523 J4.1469
G3 X-382.4671 Y109.7096 I2.9742 J4.1783
G3 X-382.3348 Y109.6185 I2.9965 J4.2101
G3 X-382.2015 Y109.5267 I3.0191 J4.2424
G3 X-382.0671 Y109.4342 I3.0419 J4.275
G3 X-381.9317 Y109.341 I3.0652 J4.3083
G3 X-381.7951 Y109.247 I3.0889 J4.342
G3 X-381.6575 Y109.1523 I3.1129 J4.3763
G3 X-381.5188 Y109.0569 I3.1372 J4.4111
G3 X-381.3791 Y108.9607 I3.162 J4.4464
G3 X-381.2382 Y108.8638 I3.1872 J4.4823
G1 X-375.2264 Y104.7314
G1 X-373.624 Y103.6282
G2 X-365.1023 Y97.71 I-647.3069 J-941.1695
G2 X-364.8348 Y97.5222 I-14.3263 J-20.6816
G2 X-364.5654 Y97.3328 I-15.6402 J-22.5345
G2 X-364.2939 Y97.1418 I-17.3664 J-24.9696
G2 X-364.0204 Y96.9491 I-19.7809 J-28.3767
G2 X-363.4649 Y96.5573 I-37.2625 J-53.4199
G1 X-362.9009 Y96.1588
G1 X-361.7381 Y95.3341
G1 X-360.5396 Y94.4802
G1 X-359.3047 Y93.5955
G1 X-358.0325 Y92.6788
G1 X-357.3873 Y92.2117
G1 X-356.7327 Y91.7361
G1 X-356.0684 Y91.2518
G1 X-355.3945 Y90.7587
G2 X-352.5298 Y88.6404 I-244.1511 J-333.1834
G2 X-346.0562 Y83.6989 I-211.0655 J-283.215
G1 X-345.2428 Y83.0602
G2 X-341.7968 Y80.3036 I-164.0827 J-208.6422
G1 X-341.3657 Y79.9525
G1 X-340.9319 Y79.5977
G1 X-340.4955 Y79.2392
G1 X-340.0564 Y78.8769
G2 X-332.1787 Y72.0706 I-147.0027 J-178.1023
G1 X-331.6933 Y71.6295
G1 X-331.2054 Y71.1834
G1 X-330.7152 Y70.7322
G2 X-329.7238 Y69.8103 I-72.0942 J-78.5245
G2 X-327.6975 Y67.885 I-156.3756 J-166.6103
G2 X-326.6793 Y66.8954 I-112.6833 J-116.9598
G2 X-324.6019 Y64.8266 I-108.8721 J-111.3984
G1 X-324.084 Y64.2998
G1 X-323.5643 Y63.7665
G1 X-323.043 Y63.2266
G2 X-318.6965 Y58.5195 I-115.9562 J-111.4333
G2 X-318.5575 Y58.1768 I-0.3539 J-0.3431
G2 X-318.7159 Y57.8426 I-0.4724 J0.0193
G2 X-319.3919 Y57.8036 I-0.3612 J0.383
G2 X-320.6161 Y58.7589 I10.8085 J15.1142
G2 X-321.7679 Y59.8005 I17.2539 J20.237
G1 X-321.9169 Y59.9444
G1 X-322.0748 Y60.0989
G1 X-322.2421 Y60.2648
G2 X-322.6207 Y60.6478 I21.1209 J21.2638
G1 X-322.8208 Y60.8538
G1 X-323.2745 Y61.328
G1 X-323.7892 Y61.8734
G1 X-324.0632 Y62.1648
G1 X-324.6913 Y62.8289
G3 X-324.7716 Y62.9129 I-1.9018 J-1.7372
G3 X-325.5125 Y63.6722 I-48.1494 J-46.2426
G3 X-325.5599 Y63.7195 I-0.9154 J-0.8687
G3 X-325.6076 Y63.7671 I-0.9006 J-0.8565
G3 X-325.6558 Y63.8149 I-0.8862 J-0.8449
G3 X-326.071 Y64.219 I-28.6383 J-29.0079
G3 X-327.0512 Y65.1093 I-16.3771 J-17.0462
G3 X-327.595 Y65.5603 I-19.0904 J-22.4638
G1 X-327.7357 Y65.6718
G1 X-328.0294 Y65.8976
G3 X-329.4328 Y66.8494 I-10.3866 J-13.8042
G1 X-329.6178 Y66.9598
G3 X-331.3785 Y67.8508 I-7.9308 J-13.4867
G3 X-333.7449 Y68.1552 I-2.8035 J-12.4419
G3 X-336.1279 Y68.0392 I-0.4724 J-14.8278
G3 X-337.6961 Y67.7718 I2.4641 J-19.1855
G1 X-338.1105 Y67.6808
G3 X-340.2932 Y67.1009 I8.4191 J-36.0845
G3 X-340.4308 Y67.0603 I1.0961 J-3.968
G3 X-340.5704 Y67.0188 I1.1427 J-4.0997
G3 X-340.7122 Y66.9764 I1.1983 J-4.2625
G3 X-340.8561 Y66.933 I1.2652 J-4.4636
G3 X-341.0023 Y66.8888 I1.3464 J-4.7134
G3 X-341.1507 Y66.8437 I1.4468 J-5.0275
G3 X-341.3013 Y66.7978 I1.5738 J-5.4306
G3 X-341.4543 Y66.751 I1.74 J-5.9642
G2 X-342.8515 Y66.3256 I-42.1158 J135.8017
G2 X-344.4553 Y65.8715 I-13.3443 J44.0742
G2 X-345.3178 Y65.6583 I-7.4593 J28.3292
G3 X-348.3172 Y68.1316 I-340.0887 J-409.3954
G1 X-351.324 Y70.5959
G1 X-353.3257 Y72.2422
G1 X-354.4667 Y73.1864
G1 X-355.7668 Y74.2701
G1 X-356.4581 Y74.8506
G1 X-357.1936 Y75.472
G2 X-361.0742 Y78.8357 I140.0885 J165.5373
G1 X-361.5685 Y79.277
G1 X-362.0769 Y79.7347
G1 X-362.5997 Y80.2093
G1 X-363.137 Y80.7018
G1 X-363.6891 Y81.2131
G1 X-364.256 Y81.744
G2 X-366.8062 Y84.2151 I81.1452 J86.289
G1 X-367.4518 Y84.8656
G1 X-367.7775 Y85.1981
G1 X-368.1069 Y85.5373
G2 X-369.4942 Y87.0028 I61.6607 J59.7578
G1 X-369.8415 Y87.3797
G2 X-370.0546 Y87.8733 I4.4939 J2.2333
G2 X-370.2214 Y88.3843 I5.3214 J2.02
G2 X-370.4165 Y89.4404 I5.4004 J1.5437
G2 X-370.425 Y90.1572 I4.7642 J0.415
G2 X-370.2494 Y91.0978 I3.9171 J-0.2447
G2 X-369.6475 Y92.2276 I3.3838 J-1.0777
G2 X-369.1389 Y92.7598 I3.2726 J-2.6181
G2 X-368.4582 Y93.2539 I3.1153 J-3.5757
G2 X-367.6026 Y93.6836 I3.2808 J-5.4668
G3 X-368.1531 Y93.7717 I-1.3216 J-6.4889
G3 X-368.338 Y93.7913 I-0.479 J-3.6462
G3 X-369.08 Y93.8356 I-1.0889 J-11.9971
G3 X-370.5652 Y93.8195 I-0.5161 J-20.9083
G1 X-370.989 Y93.7979
G3 X-371.0983 Y93.7914 I0.8376 J-14.9931
G1 X-371.5977 Y93.7573
G3 X-372.9261 Y93.6366 I3.1329 J-41.8731
G3 X-374.6909 Y93.4251 I6.3947 J-60.8293
G1 X-374.9181 Y93.3945
G3 X-377.3351 Y93.0303 I14.4458 J-104.0715
G1 X-377.4883 Y93.0053
G1 X-377.8045 Y92.9536
G1 X-378.1312 Y92.9025
G3 X-379.103 Y92.656 I0.4367 J-3.7601
G3 X-379.9791 Y92.1686 I1.4746 J-3.6813
G3 X-380.4935 Y91.7411 I3.0543 J-4.1986
G3 X-381.1017 Y91.0926 I5.5231 J-5.7894
G3 X-381.8193 Y90.1572 I11.8722 J-9.8503
G3 X-382.2062 Y89.6082 I24.8329 J-17.9126
G1 X-382.6453 Y88.9823
G2 X-383.1621 Y88.2818 I-21.1864 J15.0884
G2 X-383.23 Y88.1946 I-2.2993 J1.7198
G2 X-383.5269 Y87.8292 I-7.8491 J6.077
G1 X-383.6857 Y87.6455
G2 X-384.4697 Y86.8629 I-6.3949 J5.6228
G2 X-385.5063 Y86.132 I-3.9841 J4.5495
G3 X-385.667 Y86.0225 I0.4319 J-0.8065
G3 X-385.7892 Y85.8713 I0.2923 J-0.3612
G3 X-385.8151 Y85.7423 I0.2136 J-0.1101
G3 X-385.7189 Y85.5865 I0.2147 J0.025
G3 X-385.622 Y85.5386 I0.2193 J0.3215
G3 X-385.5033 Y85.514 I0.1517 J0.4325
G3 X-385.2132 Y85.5351 I0.0754 J0.9677
G3 X-384.9187 Y85.6336 I-0.3657 J1.5823
G3 X-384.2516 Y85.9964 I-1.9518 J4.3839
G1 X-384.1609 Y86.0561
G3 X-383.4729 Y86.5849 I-4.0631 J5.9983
G3 X-383.0459 Y86.9751 I-6.9984 J8.0872
G3 X-382.5062 Y87.525 I-10.1572 J10.5082
G3 X-382.4728 Y87.5608 I-0.3473 J0.3575
G3 X-382.4389 Y87.5972 I-0.3587 J0.3669
G3 X-381.7358 Y88.3883 I-26.6755 J24.4188
G1 X-381.5519 Y88.6024
G1 X-381.4572 Y88.7131
G1 X-381.2556 Y88.9493
G2 X-380.7932 Y89.487 I30.1266 J-25.4383
G1 X-380.734 Y89.5548
G1 X-380.4794 Y89.8423
G2 X-379.8778 Y90.4807 I12.1044 J-10.8016
G2 X-379.1328 Y91.1519 I5.8975 J-5.7975
G2 X-378.6966 Y91.4633 I2.8957 J-3.5949
G3 X-377.6907 Y91.6407 I-1.6596 J12.3483
G1 X-377.3583 Y91.7146
G3 X-376.9167 Y91.8202 I-3.7425 J16.6321
G1 X-376.3296 Y91.9677
G1 X-375.9943 Y92.0525
G1 X-375.8153 Y92.0973
G1 X-375.4056 Y92.1965
G1 X-375.1865 Y92.247
G1 X-374.9522 Y92.2982
G2 X-373.6888 Y92.5003 I2.3693 J-10.7657
G1 X-373.5241 Y92.5141
G2 X-372.7679 Y92.5277 I0.4915 J-6.3407
G2 X-371.9072 Y92.419 I-0.1916 J-4.982
G2 X-370.9609 Y92.1011 I-0.9686 J-4.4504
G2 X-371.0757 Y91.9182 I-1.059 J0.5373
G2 X-371.2201 Y91.7575 I-1.168 J0.9048
G2 X-371.5532 Y91.4848 I-1.7214 J1.7632
G2 X-372.2903 Y91.052 I-3.3492 J4.8596
G1 X-372.3924 Y91.0011
G1 X-372.4453 Y90.9753
G1 X-372.6884 Y90.8613
G2 X-372.7515 Y90.8328 I-0.3635 J0.7197
G2 X-373.4303 Y90.5472 I-5.6281 J12.4276
G2 X-373.8223 Y90.3958 I-4.4187 J10.8561
G1 X-374.2725 Y90.2305
G1 X-374.5135 Y90.1451
G1 X-374.7709 Y90.0558
G1 X-375.3603 Y89.8571
G2 X-375.6753 Y89.7535 I-4.0462 J11.7702
G1 X-375.7553 Y89.7274
G1 X-376.4868 Y89.491
G1 X-377.3215 Y89.2203
G3 X-378.2681 Y88.892 I8.8235 J-26.9649
G1 X-378.5089 Y88.7979
G3 X-378.6299 Y88.747 I1.2008 J-3.0263
G1 X-378.6451 Y88.7404
G3 X-378.89 Y88.6224 I1.2692 J-2.9468
G3 X-378.9495 Y88.5884 I0.2414 J-0.4922
G3 X-379.5458 Y88.1232 I1.5516 J-2.6037
G3 X-379.9688 Y87.4962 I1.4034 J-1.403
G3 X-380.078 Y86.9999 I1.2903 J-0.544
G3 X-379.9085 Y86.336 I1.2241 J-0.0411
G3 X-379.6567 Y86.0266 I1.1955 J0.7157
G3 X-379.2807 Y85.7665 I1.1124 J1.206
G3 X-378.7956 Y85.5848 I1.0409 J2.0407
G3 X-378.2232 Y85.4954 I0.784 J3.1438
G3 X-377.5846 Y85.5016 I0.2748 J4.619
G3 X-376.7512 Y85.5934 I-1.157 J14.3362
G1 X-376.4746 Y85.6335
G3 X-375.372 Y85.8178 I-7.3053 J47.1115
G2 X-374.6375 Y85.9434 I24.1335 J-138.8941
G1 X-374.5426 Y85.9588
G1 X-374.1081 Y86.0252
G1 X-373.9957 Y86.041
G2 X-372.7907 Y86.1524 I1.7073 J-11.8921
G3 X-372.2327 Y85.0192 I16.2682 J7.3062
G3 X-371.6036 Y83.9238 I21.0351 J11.3524
G3 X-370.2022 Y81.8234 I28.1799 J17.2845
G3 X-369.1939 Y80.4757 I34.2722 J24.5909
G1 X-369.0604 Y80.3044
G1 X-368.9219 Y80.128
G1 X-368.7782 Y79.9466
G1 X-368.4694 Y79.5615
G3 X-366.7751 Y77.5484 I58.9737 J47.9126
G1 X-366.5514 Y77.293
G3 X-364.1097 Y74.6219 I72.5356 J63.8562
G1 X-363.7881 Y74.2834
G1 X-363.0977 Y73.5655
G1 X-362.9214 Y73.384
