( Made using CamBam - http://www.cambam.co.uk )
( _2014_1_20_car 1/20/2014 11:23:17 PM )
( T0 : 0.0 )
G21 G90 G64 G40
G0 Z5.0
( T0 : 0.0 )
T0 M6
( 44 )
G17
M3 S1000
G0 X35.5139 Y299.0576
G1 F1.0 Z0.0
G3 X21.1442 Y298.7202 I14.1226 J-907.6149
G1 X19.0918 Y298.6548
G1 X16.7465 Y298.5754
G1 X15.4956 Y298.531
G3 X-4.5098 Y297.6421 I42.9007 J-1191.0
G1 X-7.176 Y297.4989
G1 X-10.0196 Y297.3398
G1 X-10.7417 Y297.2983
G1 X-13.8225 Y297.1166
G1 X-14.6049 Y297.0692
G1 X-15.3996 Y297.0206
G3 X-15.4992 Y297.0144 I0.1131 J-2.6478
G3 X-15.599 Y297.0083 I0.1139 J-2.6584
G3 X-32.6109 Y295.8328 I71.1163 J-1152.9318
G3 X-33.1464 Y295.7916 I2.8047 J-39.9041
G3 X-42.9346 Y294.9877 I77.8969 J-1008.5015
G3 X-48.1515 Y294.5182 I87.626 J-1002.8772
G3 X-60.0645 Y293.3246 I76.5416 J-824.0069
G1 X-60.8143 Y293.2433
G1 X-62.3375 Y293.0756
G1 X-63.1049 Y292.9898
G1 X-64.6637 Y292.8128
G1 X-66.247 Y292.6293
G1 X-67.8548 Y292.4389
G1 X-69.4877 Y292.2412
G1 X-71.146 Y292.0357
G1 X-72.83 Y291.8221
G1 X-73.6784 Y291.7125
G1 X-74.5334 Y291.6007
G3 X-81.8207 Y290.5873 I61.1435 J-466.3953
G1 X-82.0487 Y290.5537
G1 X-82.9673 Y290.4171
G1 X-83.893 Y290.2774
G1 X-84.8255 Y290.1344
G1 X-85.0591 Y290.0983
G1 X-85.2932 Y290.0619
G1 X-85.5276 Y290.0253
G1 X-86.4725 Y289.8765
G1 X-87.4244 Y289.724
G3 X-91.3507 Y289.067 I57.959 J-358.4581
G3 X-93.342 Y288.7151 I40.4567 J-234.6781
G1 X-93.4665 Y288.6926
G3 X-97.5733 Y287.9188 I46.8529 J-259.9723
G1 X-97.7017 Y287.8936
G1 X-97.8301 Y287.8682
G1 X-98.8647 Y287.6613
G3 X-99.9066 Y287.4479 I29.0642 J-144.5921
G3 X-102.0202 Y286.9988 I33.4663 J-162.6949
G1 X-103.0836 Y286.7639
G3 X-107.4594 Y285.7243 I37.3064 J-166.7472
G1 X-108.0063 Y285.5849
G1 X-108.555 Y285.4427
G3 X-110.778 Y284.8401 I27.4066 J-105.5077
G3 X-113.024 Y284.1815 I26.3023 J-93.8564
G1 X-113.5853 Y284.0079
G1 X-114.1477 Y283.8298
G3 X-114.2882 Y283.7847 I1.5018 J-4.9149
G3 X-114.5697 Y283.6934 I3.4539 J-11.1311
G1 X-115.1338 Y283.507
G1 X-115.6987 Y283.3156
G1 X-115.9811 Y283.2179
G1 X-116.5471 Y283.0182
G1 X-117.1134 Y282.8124
G3 X-117.3965 Y282.7073 I6.2938 J-17.3803
G3 X-119.6768 Y281.7948 I18.437 J-49.3767
G3 X-121.941 Y280.7356 I14.0936 J-33.0777
G3 X-123.0506 Y280.135 I12.3531 J-24.1473
G3 X-124.1378 Y279.47 I10.6687 J-18.6627
G1 X-124.4035 Y279.2925
G2 X-118.287 Y279.6299 I7.1081 J-73.2398
G1 X-118.0893 Y279.6323
G2 X-111.7687 Y279.4476 I0.841 J-79.4424
G1 X-111.3616 Y279.419
G2 X-107.0301 Y279.0001 I-6.9977 J-94.9563
G2 X-104.5648 Y278.6735 I-13.6077 J-112.1958
G1 X-103.93 Y278.5798
G2 X-102.5775 Y278.3677 I-12.5261 J-84.2791
G1 X-101.8805 Y278.2519
G2 X-98.7035 Y277.6725 I-19.5215 J-116.0445
G1 X-97.886 Y277.5106
G1 X-97.0432 Y277.3386
G1 X-96.1742 Y277.156
G2 X-92.2156 Y276.2644 I-35.5402 J-167.031
G1 X-91.1971 Y276.021
G1 X-90.1471 Y275.765
G1 X-89.0644 Y275.4961
G1 X-87.948 Y275.214
G1 X-86.7968 Y274.9187
G1 X-85.6095 Y274.6102
G1 X-82.2641 Y273.7447
G1 X-78.9179 Y272.882
G1 X-72.2248 Y271.1589
G1 X-67.7625 Y270.011
G1 X-49.913 Y265.4222
G1 X-38.0129 Y262.3644
G1 X9.5889 Y250.1385
G1 X12.6601 Y249.35
G1 Y251.628
G1 X-79.3317 Y274.5655
G2 X-80.6906 Y275.1638 I9.7321 J23.9461
G2 X-81.9919 Y275.8788 I5.3519 J11.2819
G1 X-82.1576 Y275.9874
G2 X-82.9907 Y276.6383 I3.939 J5.8995
G2 X-83.4098 Y277.0756 I3.6595 J3.9269
G2 X-83.8086 Y277.6444 I2.9704 J2.5068
G2 X-84.1992 Y279.4828 I2.6428 J1.5222
G2 X-84.1145 Y279.988 I4.0456 J-0.4189
G2 X-83.9032 Y280.2984 I3.4956 J-2.1518
G2 X-83.8883 Y280.3186 I0.1483 J-0.0938
G2 X-83.6389 Y280.632 I3.8057 J-2.7734
G2 X-83.0855 Y281.2107 I5.8024 J-4.9946
G2 X-82.6859 Y281.5645 I6.3199 J-6.7362
G1 X-82.576 Y281.6549
G2 X-81.971 Y282.1125 I8.0884 J-10.0655
G2 X-81.1258 Y282.6659 I8.1987 J-11.6003
G2 X-79.9524 Y283.3229 I9.9179 J-16.3374
G2 X-78.3356 Y284.089 I12.5817 J-24.4645
G1 X-78.1236 Y284.1805
G2 X-75.8361 Y285.0714 I14.9641 J-35.0387
G2 X-74.5101 Y285.5239 I22.2626 J-63.0702
G2 X-70.9401 Y286.5801 I21.3964 J-65.7587
G2 X-66.133 Y287.7447 I26.776 J-100.0181
G1 X-65.9808 Y287.778
G2 X-63.1956 Y288.3547 I30.242 J-139.042
G2 X-62.8412 Y288.4241 I12.3308 J-62.036
G1 X-62.4811 Y288.4937
G2 X-54.795 Y289.8072 I37.7509 J-197.7652
G1 X-54.3056 Y289.8812
G1 X-53.8083 Y289.9555
G2 X-49.2617 Y290.5906 I43.2274 J-292.8404
G2 X-44.0616 Y291.2332 I44.7229 J-340.5837
G1 X-42.7185 Y291.3864
G2 X-39.8533 Y291.6978 I34.174 J-301.1195
G1 X-38.374 Y291.8507
G2 X-38.2813 Y291.8601 I0.1926 J-1.4356
G2 X-38.1884 Y291.8695 I0.1928 J-1.4398
G2 X-38.0954 Y291.879 I0.193 J-1.444
G2 X-38.0022 Y291.8884 I0.1932 J-1.4482
G1 X-36.463 Y292.0408
G2 X-29.4292 Y292.6743 I50.6091 J-522.5711
G1 X-27.6131 Y292.8224
G1 X-25.7385 Y292.9691
G2 X-17.1721 Y293.5663 I50.7204 J-665.7552
G1 X-16.0838 Y293.6342
G1 X-14.9783 Y293.7014
G2 X-4.8763 Y294.238 I45.5492 J-762.102
G2 X-4.5592 Y294.2527 I0.9189 J-16.3956
G2 X-4.241 Y294.2673 I1.0518 J-19.4162
G1 X-2.9477 Y294.3255
G1 X-1.6341 Y294.3824
G1 X-0.972 Y294.4103
G1 X-0.3048 Y294.4379
G2 X28.1256 Y295.1368 I35.8614 J-880.2088
G1 X29.9311 Y295.1499
G1 X30.841 Y295.1551
G2 X47.4671 Y295.0596 I4.1329 J-728.0664
G2 X51.0889 Y294.9344 I-1.3869 J-92.5608
G2 X54.7015 Y294.6491 I-3.6616 J-69.365
G1 X55.1819 Y294.5961
G2 X57.7349 Y294.2439 I-6.0555 J-53.3212
G1 X57.8964 Y294.2172
G2 X61.315 Y293.5068 I-7.0446 J-42.479
G2 X63.2356 Y292.9628 I-8.6292 J-34.1273
G1 X63.3555 Y292.9247
G2 X65.5191 Y292.142 I-8.9553 J-28.1358
G2 X67.9034 Y291.0262 I-9.4572 J-23.3143
G2 X68.1643 Y290.7952 I-0.7768 J-1.14
G2 X68.3484 Y290.4994 I-0.8245 J-0.7185
G2 X68.4045 Y289.8121 I-1.0619 J-0.4327
G2 X68.2387 Y289.3812 I-1.444 J0.3082
G2 X67.86 Y288.9091 I-1.6987 J0.9746
G2 X67.2006 Y288.4861 I-1.5823 J1.7412
G2 X67.1408 Y288.4565 I-0.2843 J0.499
G2 X67.0808 Y288.4273 I-0.5613 J1.0814
G1 X66.9601 Y288.3705
G1 X66.8791 Y288.3335
G2 X66.5527 Y288.1917 I-5.5714 J12.3814
G1 X66.4587 Y288.1528
G1 X66.2071 Y288.0516
G2 X65.1896 Y287.6766 I-9.5173 J24.2562
G2 X65.1235 Y287.6536 I-0.319 J0.8119
G2 X62.9933 Y286.9681 I-19.2534 J56.1717
G1 X62.3809 Y286.7845
G1 X61.6797 Y286.5793
G1 X61.5905 Y286.5536
G1 X61.4999 Y286.5275
G1 X61.4078 Y286.501
G1 X61.3143 Y286.4742
G1 X60.9151 Y286.3606
G1 X60.0018 Y286.1048
G1 X58.9566 Y285.818
G1 X58.6866 Y285.7447
G1 X57.4518 Y285.4135
G1 X56.0392 Y285.0405
G1 X55.2853 Y284.8433
G1 X54.481 Y284.6341
G1 X52.6421 Y284.1585
G1 X50.5403 Y283.6167
G1 X48.1392 Y282.9943
G1 X46.8596 Y282.6586
G1 X46.5347 Y282.5728
G3 X45.15 Y282.2027 I44.3327 J-168.6622
G1 X45.0631 Y282.1792
G1 X44.3464 Y281.9842
G3 X41.0827 Y281.0485 I32.2668 J-118.711
G3 X40.2462 Y280.7876 I15.4205 J-50.9078
G1 X39.8229 Y280.6499
G1 X39.3945 Y280.5054
G3 X38.9612 Y280.3525 I5.3428 J-15.8329
G3 X38.5241 Y280.189 I13.2707 J-36.1295
G1 X38.3053 Y280.1024
G1 X38.196 Y280.0575
G3 X37.7567 Y279.8633 I2.8129 J-6.9576
G1 X37.5587 Y279.7659
G1 X37.3632 Y279.6636
G3 X36.9811 Y279.4429 I3.3301 J-6.2058
G1 X36.8745 Y279.3756
G3 X36.0765 Y278.7596 I2.9779 J-4.6821
G3 X34.9338 Y277.1057 I3.1203 J-3.3777
G3 X38.0234 Y275.6237 I12.0376 J21.1349
G3 X41.2723 Y274.5347 I11.7889 J29.7783
G3 X41.3773 Y274.5055 I0.443 J1.3916
G3 X41.4839 Y274.4762 I0.4447 J1.411
G3 X43.7752 Y273.9219 I11.047 J40.6521
G3 X45.0963 Y273.6591 I12.7092 J60.4273
G3 X48.6428 Y273.1122 I11.3295 J61.6966
G3 X50.6792 Y272.8788 I10.9677 J86.6832
G1 X50.9382 Y272.8524
G1 X51.4729 Y272.7999
G1 X52.025 Y272.7484
G1 X52.5951 Y272.6979
G1 X52.7388 Y272.6855
G1 X52.8837 Y272.6732
G3 X53.1779 Y272.6487 I1.4584 J15.709
G1 X53.7854 Y272.5997
G1 X54.4126 Y272.5514
G1 X54.5707 Y272.5396
G1 X54.7301 Y272.5277
G1 X55.3877 Y272.4799
G1 X55.5535 Y272.4681
G1 X58.5818 Y272.2597
G1 X59.3631 Y272.2048
G2 X59.56 Y272.1907 I-0.3799 J-6.6614
G1 X60.3723 Y272.1304
G1 X60.577 Y272.1146
G1 X66.2017 Y271.8095
G1 X68.0766 Y271.7076
G1 X75.5764 Y271.303
G1 X80.5767 Y271.0398
G1 X80.8942 Y271.0233
G1 X83.797 Y270.8749
G1 X87.1148 Y270.7098
G1 X88.8844 Y270.6242
G1 X90.772 Y270.5348
G1 X92.7857 Y270.4421
G1 X93.825 Y270.3953
G1 X94.8979 Y270.3478
G1 X96.0055 Y270.2997
G1 X97.1488 Y270.2511
G3 X109.3473 Y269.8079 I41.8096 J982.7445
G1 X110.1221 Y269.7851
G1 X110.9091 Y269.7627
G3 X118.1057 Y269.5945 I22.3029 J800.1268
G3 X126.3321 Y269.4931 I11.8097 J624.575
G3 X135.7347 Y269.5149 I3.4175 J555.4424
G3 X136.0297 Y269.5182 I0.0065 J12.6808
G3 X136.3259 Y269.5216 I0.0027 J12.4453
G3 X136.6232 Y269.5253 I-0.0011 J12.2229
G3 X136.9217 Y269.5291 I-0.0048 J12.0128
G3 X137.2213 Y269.5331 I-0.0084 J11.8137
G3 X137.5222 Y269.5373 I-0.0121 J11.6248
G1 X138.7444 Y269.5562
G1 X139.986 Y269.5784
G3 X151.3348 Y269.9296 I-9.3081 J484.299
G3 X151.5125 Y269.9373 I-0.1481 J5.4562
G3 X151.6905 Y269.9452 I-0.1494 J5.4399
G3 X151.8688 Y269.953 I-0.1507 J5.4238
G3 X152.0475 Y269.961 I-0.152 J5.4078
G3 X152.2265 Y269.9691 I-0.1533 J5.3921
G1 X152.948 Y270.0023
G1 X153.6752 Y270.037
G3 X159.8779 Y270.3832 I-18.9825 J395.9355
G1 X160.659 Y270.4332
G1 X161.4462 Y270.4852
G3 X168.159 Y270.9903 I-27.0558 J404.4432
G1 X169.8625 Y271.1365
G2 X170.0547 Y271.1516 I0.5546 J-5.8022
G2 X170.1189 Y271.1561 I0.0876 J-0.7859
G2 X170.3755 Y271.1711 I0.7213 J-10.1695
G2 X170.8896 Y271.1811 I0.4262 J-8.6632
G2 X171.232 Y271.1618 I-0.0226 J-3.4479
G2 X171.4252 Y271.127 I-0.1877 J-1.596
G2 X171.5212 Y271.0822 I-0.0526 J-0.238
G2 X171.5296 Y271.0169 I-0.0256 J-0.0365
G2 X171.4433 Y270.9524 I-0.1839 J0.1563
G2 X171.3118 Y270.8979 I-0.37 J0.7067
G1 X171.242 Y270.8752
G1 X171.1775 Y270.8564
G2 X171.053 Y270.8244 I-0.5941 J2.0519
G2 X170.9829 Y270.8082 I-0.2629 J0.9813
G2 X170.3843 Y270.7034 I-1.6288 J7.5393
G1 X170.1511 Y270.6732
G2 X170.1229 Y270.6698 I-0.0261 J0.099
G2 X155.6658 Y269.2146 I-47.0603 J394.9788
G1 X154.7004 Y269.1362
G1 X153.6702 Y269.0551
G2 X137.1661 Y268.1 I-32.9691 J426.6265
G2 X126.1488 Y267.7999 I-18.3543 J471.4466
G2 X111.4543 Y267.772 I-8.3811 J545.313
G1 X109.5584 Y267.7965
G2 X100.8927 Y267.9817 I9.1178 J629.3854
G1 X98.657 Y268.0479
G2 X96.3493 Y268.1235 I15.3756 J504.3476
G2 X96.0597 Y268.1335 I0.2816 J12.3445
G2 X95.769 Y268.1437 I0.2816 J12.2239
G2 X95.4771 Y268.154 I0.2817 J12.1077
G2 X95.1841 Y268.1645 I0.2818 J11.9953
G2 X94.8899 Y268.1751 I0.282 J11.8868
G2 X94.5946 Y268.1859 I0.2822 J11.7817
G2 X94.2981 Y268.1968 I0.2824 J11.6799
G2 X83.461 Y268.6702 I33.6662 J895.0139
G2 X83.2914 Y268.6786 I0.2476 J6.6646
G2 X83.1214 Y268.6872 I0.2478 J6.6501
G1 X80.3149 Y268.832
G1 X77.4183 Y268.9894
G1 X75.9472 Y269.0723
G1 X72.9104 Y269.2493
G1 X69.7763 Y269.4395
G1 X66.5416 Y269.6433
G1 X63.2031 Y269.8607
G1 X59.7575 Y270.0915
G1 X58.8893 Y270.1506
G2 X51.4827 Y270.6676 I203.1319 J2963.8758
G1 X49.6019 Y270.8018
G1 X48.0 Y270.9476
G1 X47.4662 Y270.9973
G1 X46.7545 Y271.0657
G2 X45.8063 Y271.1626 I10.9023 J111.3732
G1 X45.2648 Y271.2219
G1 X44.6465 Y271.2939
G1 X43.9406 Y271.3828
G2 X42.0642 Y271.6632 I7.0749 J53.7639
G2 X39.585 Y272.1688 I6.1646 J36.5627
G1 X39.429 Y272.2071
G1 X39.2707 Y272.247
G2 X38.5978 Y272.4273 I4.8122 J19.3092
G2 X37.8854 Y272.6388 I7.8844 J27.8549
G2 X36.283 Y273.2057 I6.801 J21.7746
G1 X36.0828 Y273.2866
G1 X35.8802 Y273.3709
G2 X35.4651 Y273.5522 I4.9553 J11.9152
G2 X33.626 Y274.5101 I7.2004 J16.0689
G2 X31.6832 Y275.8784 I8.0757 J13.5298
G2 X31.5259 Y277.2622 I4.2793 J1.1871
G2 X31.7825 Y278.6311 I4.815 J-0.1938
G2 X33.3414 Y280.9018 I4.8492 J-1.6585
G2 X34.9338 Y281.8344 I3.5689 J-4.268
G1 X35.1296 Y281.9069
G1 X35.3256 Y281.9789
G1 X35.7181 Y282.1215
G1 X35.9802 Y282.2154
G1 X36.3302 Y282.3394
G1 X36.7975 Y282.5023
G2 X38.6755 Y283.1288 I28.3726 J-81.9269
G1 X38.9269 Y283.2094
G1 X39.1952 Y283.2946
G2 X43.5164 Y284.5676 I36.2514 J-115.0838
G1 X44.0958 Y284.726
G1 X44.7145 Y284.8924
G1 X45.3752 Y285.0672
G1 X46.0806 Y285.2509
G2 X47.6955 Y285.6612 I40.3112 J-155.2999
G1 X48.5579 Y285.8753
G1 X49.4785 Y286.1007
G1 X50.4612 Y286.3384
G1 X51.5099 Y286.5896
G1 X52.6289 Y286.8557
G1 X55.1869 Y287.462
G1 X56.5506 Y287.7876
G1 X58.0041 Y288.1391
G3 X61.3194 Y288.9707 I-63.4485 J259.9892
G3 X61.5278 Y289.0248 I-2.5304 J10.1718
G3 X61.7377 Y289.0796 I-2.4552 J9.8381
G3 X61.9493 Y289.1351 I-2.3859 J9.5283
G3 X62.4871 Y289.2966 I-1.7818 J6.9071
G3 X63.0047 Y289.5144 I-1.2367 J3.6637
G3 X63.3158 Y289.7243 I-0.6717 J1.3307
G3 X63.4516 Y289.8935 I-0.4373 J0.4901
G3 X63.4867 Y290.1517 I-0.3154 J0.1744
G3 X63.4296 Y290.2884 I-0.4655 J-0.1141
G3 X63.3309 Y290.4183 I-0.6498 J-0.3912
G3 X63.2025 Y290.539 I-1.0805 J-1.0204
G3 X62.8816 Y290.7601 I-1.5788 J-1.9486
G3 X62.5185 Y290.9521 I-2.1575 J-3.6414
G3 X62.4952 Y290.9632 I-0.0504 J-0.0756
G3 X62.3993 Y291.0077 I-0.5623 J-1.0847
G3 X61.5217 Y291.3554 I-4.2918 J-9.5539
G3 X61.0426 Y291.5158 I-3.7083 J-10.2759
G3 X60.5587 Y291.6614 I-4.2832 J-13.361
G3 X60.4938 Y291.6797 I-0.2341 J-0.7037
G3 X59.4482 Y291.9416 I-5.1452 J-18.3234
G3 X59.1471 Y292.0064 I-1.8935 J-8.0758
G3 X59.0692 Y292.0224 I-0.2171 J-0.8568
G3 X58.2358 Y292.1774 I-4.6813 J-22.8535
G3 X57.1181 Y292.3436 I-4.6438 J-27.3831
G3 X55.6207 Y292.5076 I-4.8265 J-37.1603
G3 X55.4271 Y292.5248 I-0.5162 J-4.7025
G1 X55.0139 Y292.5591
G1 X54.573 Y292.5921
G3 X52.2199 Y292.7255 I-6.879 J-100.5438
G1 X50.875 Y292.7863
G1 X50.1578 Y292.8199
G2 X49.3933 Y292.8598 I2.3094 J51.5525
G1 X49.2969 Y292.8653
G3 X31.2487 Y292.9451 I-13.4836 J-1008.8874
G3 X31.1066 Y292.9444 I-0.0401 J-6.1068
G3 X30.9633 Y292.9436 I-0.0394 J-6.1516
G1 X28.3442 Y292.9258
G3 X28.1792 Y292.9244 I-0.0229 J-7.0823
G3 X28.0129 Y292.9229 I-0.0216 J-7.1421
G3 X27.8453 Y292.9215 I-0.0203 J-7.203
G3 X27.6764 Y292.9199 I-0.019 J-7.2649
G3 X27.5061 Y292.9184 I-0.0177 J-7.3279
G3 X27.3345 Y292.9168 I-0.0163 J-7.392
G3 X27.1616 Y292.9151 I-0.0148 J-7.4572
G3 X19.7838 Y292.8102 I6.8891 J-744.0948
G1 X17.8165 Y292.7706
G3 X7.3268 Y292.4701 I14.6314 J-693.975
G1 X5.9737 Y292.4198
G1 X4.5769 Y292.365
G1 X3.1353 Y292.3052
G1 X1.6474 Y292.2402
G1 X0.1116 Y292.1694
G1 X-0.6685 Y292.1319
G1 X-1.4609 Y292.0929
G1 X-2.2659 Y292.0522
G1 X-3.0835 Y292.0098
G1 X-3.914 Y291.9655
G1 X-4.7577 Y291.9194
G1 X-6.4992 Y291.8202
G1 X-8.2966 Y291.7124
G1 X-10.1516 Y291.5952
G3 X-18.6262 Y290.9786 I35.7291 J-549.5913
G1 X-19.7016 Y290.8904
G1 X-20.2435 Y290.8451
G1 X-20.7897 Y290.7989
G3 X-25.4474 Y290.3794 I39.7814 J-467.8404
G1 X-26.0339 Y290.3234
G3 X-31.0359 Y289.8148 I42.4555 J-442.3606
G1 X-32.3054 Y289.6767
G1 X-33.5945 Y289.5327
G1 X-34.9038 Y289.3825
G1 X-36.2332 Y289.2258
G1 X-37.5834 Y289.0623
G1 X-38.9544 Y288.8917
G1 X-39.2985 Y288.8481
G1 X-39.6438 Y288.8041
G1 X-39.9905 Y288.7596
G3 X-52.639 Y286.9184 I48.4624 J-377.2822
G1 X-53.0348 Y286.8535
G1 X-53.432 Y286.788
G3 X-54.2325 Y286.6545 I13.0009 J-80.4087
G1 X-55.8579 Y286.3774
G1 X-56.6765 Y286.2348
G1 X-57.5012 Y286.0891
G1 X-58.332 Y285.9401
G3 X-61.7586 Y285.3022 I61.7859 J-341.4508
G1 X-62.6209 Y285.1357
G3 X-69.96 Y283.6143 I58.153 J-298.9965
G1 X-70.8819 Y283.4095
G3 X-71.0147 Y283.3794 I0.4561 J-2.3148
G1 X-71.1475 Y283.349
G1 X-71.4129 Y283.2874
G3 X-71.5897 Y283.2457 I1.5997 J-7.1813
G1 X-71.6907 Y283.2216
G3 X-72.4965 Y283.0215 I14.8557 J-61.5305
G3 X-74.0933 Y282.5655 I7.9033 J-30.7021
G1 X-74.1953 Y282.5328
G1 X-74.3005 Y282.4985
G3 X-74.7789 Y282.3349 I5.3621 J-16.4584
G3 X-75.3201 Y282.1321 I9.2978 J-25.6373
G3 X-76.7181 Y281.4818 I4.2494 J-10.9632
G3 X-76.891 Y281.383 I2.4935 J-4.5642
G3 X-77.6458 Y280.8712 I3.4167 J-5.851
G3 X-78.3853 Y280.1278 I2.5019 J-3.2285
G3 X-78.539 Y279.903 I2.5297 J-1.8937
G3 X-78.9189 Y278.6826 I2.0886 J-1.3195
G3 X-44.0112 Y268.922 I428.8072 J1466.2851
G1 X-41.6759 Y268.3012
G1 X-39.1837 Y267.6431
G1 X-36.5242 Y266.9458
G3 X6.1974 Y256.4616 I372.9494 J1427.4272
G3 X6.5337 Y256.3844 I4.6402 J19.4497
G3 X6.8713 Y256.307 I4.6542 J19.5292
G3 X7.2103 Y256.2294 I4.6683 J19.6093
G3 X7.5507 Y256.1516 I4.6825 J19.69
G3 X7.8923 Y256.0735 I4.6968 J19.7713
G3 X8.2354 Y255.9952 I4.7112 J19.8533
G3 X8.5798 Y255.9167 I4.7257 J19.9359
G3 X14.4603 Y254.5898 I415.0128 J1825.553
G3 X14.8295 Y254.5074 I4.9951 J21.4997
G3 X15.2002 Y254.4247 I5.0115 J21.5966
G2 X17.0804 Y255.5252 I10.8563 J-16.3913
G2 X17.143 Y255.5573 I0.491 J-0.8796
G2 X17.8165 Y255.8871 I9.6982 J-18.9573
G2 X20.6045 Y256.9875 I10.3997 J-22.267
G2 X20.6494 Y257.0022 I0.2514 J-0.6903
G2 X22.5839 Y257.5627 I9.3805 J-28.7597
G2 X25.2081 Y258.1245 I8.7113 J-34.2775
G2 X28.7503 Y258.6017 I7.778 J-44.3486
G1 X29.2096 Y258.6441
G2 X30.1902 Y258.7215 I8.2825 J-98.6974
G2 X30.2518 Y258.7258 I0.1094 J-1.1268
G2 X31.3028 Y258.7891 I3.3994 J-47.6819
G1 X31.8455 Y258.8148
G2 X31.9137 Y258.8177 I0.0913 J-1.3433
G2 X33.0763 Y258.8565 I2.7424 J-64.6768
G2 X33.1493 Y258.8583 I0.075 J-1.5707
G2 X34.3942 Y258.8777 I1.7622 J-73.2541
G2 X37.2364 Y258.8506 I0.6252 J-83.5164
G1 X37.5972 Y258.8408
G2 X40.8894 Y258.6954 I-3.4484 J-115.4279
G1 X41.738 Y258.6434
G2 X45.6071 Y258.3479 I-11.3325 J-173.8219
G2 X50.0146 Y257.9319 I-32.2457 J-365.2066
G2 X50.9111 Y257.7315 I-6.0315 J-29.0911
G2 X51.799 Y257.4963 I-5.0671 J-20.9257
G1 X52.0503 Y257.4203
G2 X52.7114 Y257.1903 I-3.586 J-11.3701
G2 X52.7528 Y257.174 I-0.1155 J-0.3537
G1 X52.9282 Y257.1015
G1 X53.1127 Y257.0183
G1 X53.2067 Y256.9726
G1 X53.3025 Y256.9231
G2 X53.7182 Y256.6555 I-1.2853 J-2.4537
G2 X53.9092 Y256.4708 I-0.9856 J-1.2101
G2 X54.0511 Y256.2185 I-0.5706 J-0.487
G2 X54.041 Y255.8855 I-0.5061 J-0.1514
G2 X53.9581 Y255.7213 I-0.6502 J0.2253
G2 X53.8344 Y255.5658 I-1.227 J0.8496
G2 X53.4921 Y255.2768 I-1.4898 J1.417
G2 X53.2978 Y255.1501 I-2.9751 J4.3515
G2 X52.8645 Y254.9131 I-3.3566 J5.6216
G2 X52.39 Y254.6958 I-3.4337 J6.8707
G2 X51.4783 Y254.3463 I-6.177 J14.7479
G2 X51.4206 Y254.3262 I-0.2416 J0.6022
G2 X50.2816 Y253.9623 I-8.1144 J23.4343
G2 X50.2051 Y253.9397 I-0.3539 J1.0571
G2 X48.9748 Y253.6036 I-9.7361 J33.2201
G2 X48.8949 Y253.5834 I-0.3192 J1.0953
G2 X46.3239 Y253.0173 I-11.9671 J48.2223
G2 X46.2418 Y253.0014 I-0.2875 J1.2657
G2 X46.1584 Y252.9853 I-0.2899 J1.2837
G2 X44.3757 Y252.6653 I-18.3172 J96.8997
G2 X43.8993 Y252.5854 I-6.1374 J35.1449
G1 X43.391 Y252.502
G3 X44.3059 Y252.299 I6.743 J28.2319
G3 X44.6121 Y252.2367 I2.8564 J13.2558
G3 X44.6939 Y252.2205 I0.291 J1.2539
G3 X44.7811 Y252.2034 I0.3006 J1.3026
G3 X46.1806 Y251.9527 I10.8368 J56.4752
G1 X46.5816 Y251.8878
G1 X47.0403 Y251.8163
G1 X47.565 Y251.7376
G1 X48.165 Y251.6508
G1 X49.7661 Y251.4268
G2 X51.8991 Y251.1163 I-17.9321 J-130.6555
G2 X54.7264 Y250.6002 I-7.2325 J-47.6244
G1 X55.0883 Y250.5194
G1 X55.4611 Y250.4315
G1 X55.8446 Y250.3358
G2 X57.5785 Y249.8231 I-5.8999 J-23.1362
G1 X57.7955 Y249.748
G2 X59.7364 Y248.9385 I-5.9459 J-16.9861
G2 X60.7263 Y248.4063 I-6.5302 J-13.3341
G2 X62.8194 Y246.8991 I-6.968 J-11.8841
G2 X63.0818 Y246.5686 I-1.7092 J-1.6262
G2 X63.2691 Y246.1905 I-1.5097 J-0.983
G2 X63.3406 Y245.3543 I-1.6194 J-0.5596
G2 X63.1884 Y244.8138 I-2.4939 J0.4105
G2 X62.8436 Y244.1589 I-3.7727 J1.5681
G2 X62.2632 Y243.3867 I-6.0929 J3.9747
G2 X61.4097 Y242.4702 I-12.2101 J10.516
G1 X61.1746 Y242.2356
G3 X60.6422 Y241.7085 I133.8385 J-135.7113
G3 X60.364 Y241.4249 I9.0571 J-9.1654
G1 X60.2946 Y241.3519
G3 X60.01 Y241.0328 I5.1184 J-4.8517
G3 X59.8741 Y240.8594 I2.9876 J-2.4813
G2 X61.0732 Y240.6995 I-1.0284 J-12.2955
G2 X62.2504 Y240.421 I-2.2136 J-11.9817
G2 X63.019 Y240.1765 I-4.7879 J-16.383
G2 X63.2216 Y240.1042 I-1.6518 J-4.9445
G2 X64.2842 Y239.6733 I-5.3198 J-14.6462
G1 X64.5626 Y239.5469
G1 X64.8574 Y239.4072
G2 X66.3928 Y238.594 I-10.7932 J-22.2336
G2 X66.4885 Y238.5391 I-0.795 J-1.4966
G2 X66.5856 Y238.4829 I-0.8171 J-1.525
G2 X66.684 Y238.4256 I-0.8411 J-1.5564
G2 X67.5747 Y237.8885 I-30.1664 J-51.0366
G2 X68.5783 Y237.2536 I-33.6121 J-54.2435
G1 X69.1098 Y236.9097
G1 X70.3214 Y236.1215
G3 X71.7153 Y235.239 I35.1589 J53.9935
G1 X71.8942 Y235.1298
G1 X72.0763 Y235.0198
G3 X72.8604 Y234.5631 I21.6287 J36.2293
G3 X74.7089 Y233.6248 I11.009 J19.3977
G3 X75.2014 Y233.415 I11.0582 J25.2784
G3 X76.2761 Y233.0257 I5.7213 J14.1162
G1 X76.554 Y232.9413
G3 X77.1341 Y232.7875 I3.0885 J10.4814
G3 X78.3985 Y232.5622 I2.5249 J10.507
G3 X81.3618 Y232.6505 I1.1848 J10.0044
G3 X82.91 Y233.0424 I-2.0505 J11.3539
G3 X83.6872 Y233.3263 I-4.0865 J12.3956
G3 X82.79 Y233.9435 I-4.0926 J-4.9886
G3 X81.7944 Y234.3844 I-2.7806 J-4.9344
G1 X85.1192 Y235.2089
G1 X88.4425 Y236.0392
G1 X95.0868 Y237.7092
G1 X99.5163 Y238.823
G1 X102.048 Y239.4574
G1 X104.9421 Y240.1792
G2 X112.6665 Y242.077 I277.1929 J-1111.5536
G2 X112.91 Y242.1359 I3.7295 J-14.8739
G2 X113.1554 Y242.1953 I3.7188 J-14.8415
G1 X115.2503 Y242.6991
G1 X117.4861 Y243.2311
G2 X122.6024 Y244.4225 I142.2887 J-599.4519
G2 X122.925 Y244.4963 I3.298 J-13.6759
G1 X124.2574 Y244.7992
G1 X125.6334 Y245.109
G2 X131.9333 Y246.4822 I117.6667 J-524.689
G2 X139.1541 Y247.953 I94.4161 J-445.0598
G2 X147.4366 Y249.4814 I74.7351 J-381.7913
G2 X147.5666 Y249.5039 I1.0385 J-5.6126
G2 X147.6968 Y249.5264 I1.0355 J-5.607
G2 X147.8273 Y249.5489 I1.0326 J-5.6014
G2 X147.958 Y249.5713 I1.0297 J-5.5958
G2 X148.089 Y249.5938 I1.0267 J-5.59
G2 X157.6925 Y251.1014 I56.2039 J-326.6915
G1 X158.9151 Y251.2724
G2 X170.125 Y252.6005 I40.149 J-290.9031
G1 X171.5521 Y252.7371
G2 X173.0026 Y252.868 I31.6155 J-342.2058
G2 X179.1997 Y253.3357 I22.8432 J-261.3451
G1 X179.9812 Y253.384
G2 X194.297 Y253.8204 I14.3765 J-236.5863
G2 X199.1565 Y253.6553 I0.1465 J-67.3149
G2 X200.7723 Y253.5249 I-4.7677 J-69.136
G2 X207.1951 Y252.6504 I-7.0481 J-75.7886
G2 X211.4294 Y251.7848 I-16.1152 J-89.625
G2 X213.8295 Y251.2034 I-23.2042 J-101.0254
G2 X216.5552 Y250.4723 I-30.9617 J-120.8865
G1 X216.9001 Y250.3749
G1 X217.2501 Y250.275
G1 X217.6055 Y250.1725
G1 X217.9662 Y250.0674
G1 X218.3323 Y249.9596
G1 X218.7038 Y249.8491
G1 X219.081 Y249.7358
G1 X219.4639 Y249.6198
G1 X219.8526 Y249.5009
G1 X220.2471 Y249.3791
G1 X220.6476 Y249.2544
G1 X221.054 Y249.1267
G2 X221.8921 Y248.8602 I-25.8168 J-82.624
G1 X222.7559 Y248.5811
G1 X223.6463 Y248.2893
G1 X224.564 Y247.9844
G1 X225.5103 Y247.6664
G1 X226.4859 Y247.3352
G1 X227.4919 Y246.9906
G2 X228.0027 Y246.8147 I-11.0497 J-32.9162
G2 X228.26 Y246.7259 I-6.3557 J-18.831
G2 X228.5193 Y246.6363 I-5.7393 J-17.0253
G2 X228.7806 Y246.5459 I-5.2788 J-15.6769
G3 X227.7076 Y247.3698 I-81.6312 J-105.2011
G1 X227.3471 Y247.6407
G1 X227.1405 Y247.7947
G1 X226.9039 Y247.9701
G3 X226.6328 Y248.1695 I-8.5033 J-11.2721
G3 X225.9065 Y248.6969 I-33.9287 J-45.9639
G1 X225.4894 Y248.9953
G1 X225.2664 Y249.1536
G1 X224.755 Y249.5132
G1 X224.4814 Y249.7038
G3 X220.0331 Y252.6479 I-72.5098 J-104.7246
G1 X219.431 Y253.0267
G1 X218.7868 Y253.4274
G1 X218.0974 Y253.8512
G1 X217.3596 Y254.2993
G3 X213.386 Y256.6235 I-90.5485 J-150.2454
G3 X208.0026 Y259.57 I-101.2271 J-178.5598
G1 X207.6579 Y259.7518
G1 X207.3074 Y259.9358
G1 X206.951 Y260.1222
G1 X206.5887 Y260.3109
G3 X198.7891 Y264.1935 I-120.1114 J-231.5146
G3 X188.2164 Y268.9979 I-134.9321 J-282.9014
G1 X186.8399 Y269.5901
G3 X172.0138 Y275.5414 I-141.4306 J-330.8952
G1 X171.0637 Y275.8969
G3 X162.3294 Y279.011 I-114.1491 J-306.354
G1 X161.7761 Y279.1982
G1 X161.218 Y279.3858
G1 X160.0829 Y279.7629
G1 X158.9279 Y280.1405
G1 X158.6378 Y280.2343
G1 X157.4574 Y280.6115
G1 X157.1608 Y280.7051
G3 X155.9541 Y281.0808 I-68.8355 J-218.9813
G1 X155.8784 Y281.1041
G3 X154.6486 Y281.4771 I-52.9819 J-172.4814
G1 X154.3395 Y281.5692
G1 X153.7158 Y281.7529
G1 X153.0864 Y281.9353
G1 X152.451 Y282.116
G3 X149.8158 Y282.8198 I-25.392 J-89.7877
G1 X149.65 Y282.861
G1 X148.9805 Y283.0226
G1 X148.8124 Y283.0618
G3 X145.3003 Y283.8602 I-108.1963 J-467.8394
G1 X144.1282 Y284.1202
G1 X142.5644 Y284.4626
G1 X141.6703 Y284.6561
G1 X140.6481 Y284.8754
G1 X140.1028 Y284.9917
G1 X139.521 Y285.115
G1 X138.9003 Y285.246
G1 X137.4809 Y285.5429
G1 X137.1145 Y285.619
G1 X136.3327 Y285.7805
G1 X134.545 Y286.1462
G1 X134.0835 Y286.2398
G3 X129.157 Y287.2188 I-138.461 J-683.8844
G1 X128.5208 Y287.3427
G1 X127.864 Y287.47
G1 X127.1859 Y287.6008
G1 X126.4858 Y287.7351
G3 X104.0268 Y291.7239 I-163.7599 J-856.8309
G1 X103.3122 Y291.8411
G3 X103.1328 Y291.8705 I-1.0085 J-5.606
G3 X102.9526 Y291.8999 I-1.0288 J-5.7356
G3 X102.7718 Y291.9293 I-1.0506 J-5.8743
G3 X87.3225 Y294.3054 I-140.0175 J-858.9899
G1 X85.3259 Y294.591
G1 X83.2642 Y294.8804
G3 X73.8287 Y296.1284 I-97.8545 J-703.5157
G1 X72.6294 Y296.2774
G1 X72.4791 Y296.2959
G1 X72.3285 Y296.3144
G1 X71.105 Y296.4633
G1 X69.8616 Y296.6121
G1 X69.7058 Y296.6306
G1 X69.5498 Y296.649
G1 X68.2814 Y296.7973
G1 X68.1225 Y296.8156
G1 X67.9632 Y296.834
G1 X66.6693 Y296.9815
G1 X65.3543 Y297.1282
G1 X64.6915 Y297.2008
G3 X61.9539 Y297.4913 I-62.5664 J-576.4988
G1 X60.5627 Y297.6328
G1 X59.149 Y297.7721
G1 X57.7123 Y297.9087
G1 X57.5323 Y297.9255
G1 X56.8067 Y297.9922
G1 X56.0752 Y298.0581
G1 X54.5886 Y298.1875
G1 X53.0779 Y298.3126
G1 X52.3164 Y298.373
G1 X50.7686 Y298.4902
G1 X49.9885 Y298.5462
G3 X46.7653 Y298.754 I-20.8179 J-297.8644
G1 X45.9528 Y298.7998
G1 X45.5448 Y298.8217
G3 X44.7223 Y298.8636 I-24.984 J-482.7579
G1 X44.6194 Y298.8686
G1 X43.7895 Y298.9071
G1 X42.9529 Y298.9425
G1 X42.1094 Y298.9743
G1 X41.2592 Y299.0023
G3 X39.5313 Y299.0453 I-5.5701 J-189.1808
G1 X39.0975 Y299.0529
G3 X35.5139 Y299.0576 I-1.9438 J-115.8992
G0 Z5.0
M5
M30
