( Made using CamBam - http://www.cambam.co.uk )
( _2014_1_20_car 1/20/2014 11:25:13 PM )
( T0 : 0.0 )
G21 G90 G64 G40
G0 Z5.0
( T0 : 0.0 )
T0 M6
( 45 )
G17
M3 S1000
G0 X-148.2205 Y233.9381
G1 F1.0 Z0.0
G3 X-148.2934 Y233.5457 I0.7687 J-0.3457
G3 X-148.1821 Y233.1623 I0.9454 J0.0665
G3 X-148.0369 Y232.9393 I1.2954 J0.685
G3 X-147.7948 Y232.6848 I1.6582 J1.3347
G3 X-147.426 Y232.4081 I2.1181 J2.439
G3 X-146.8946 Y232.1247 I2.1495 J3.3912
G3 X-146.1528 Y231.8666 I1.9349 J4.3647
G3 X-145.1388 Y231.7184 I1.15 J4.3266
G3 X-144.5572 Y231.7512 I0.0973 J3.4455
G1 X-147.0751 Y233.9381
G2 X-146.0375 Y234.2857 I2.0976 J-4.5384
G2 X-144.9464 Y234.3678 I0.8498 J-3.9997
G2 X-144.2219 Y234.2738 I-0.3273 J-5.3609
G1 X-144.1295 Y234.2548
G2 X-143.1631 Y233.9898 I-2.2219 J-9.9973
G1 X-142.9093 Y233.907
G1 X-142.333 Y233.7117
G1 X-142.1845 Y233.6611
G1 X-142.0307 Y233.6114
G1 X-141.8764 Y233.5638
G1 X-141.5668 Y233.4719
G1 X-140.9456 Y233.2944
G1 X-140.7678 Y233.2446
G1 X-140.5645 Y233.1881
G3 X-138.9358 Y232.7464 I61.3495 J222.9831
G3 X-135.6687 Y231.9 I61.0552 J228.9595
G1 X-134.7332 Y231.6661
G3 X-132.2338 Y231.0619 I42.4581 J170.1731
G3 X-132.0748 Y231.0247 I1.724 J7.0009
G1 X-131.3961 Y230.8676
G1 X-130.6714 Y230.7036
G3 X-129.0108 Y230.3473 I20.1889 J90.0433
G1 X-128.581 Y230.261
G1 X-128.1368 Y230.1754
G3 X-127.1859 Y230.0088 I8.786 J47.3756
G1 X-126.9435 Y229.9717
G2 X-121.8004 Y229.0146 I-10.2607 J-69.4352
G2 X-116.7478 Y227.6585 I-13.7228 J-61.219
G2 X-113.4606 Y226.4905 I-14.1494 J-45.0341
G2 X-112.6007 Y226.1345 I-13.1445 J-32.9604
G2 X-111.694 Y225.7302 I-11.1415 J-26.2103
G2 X-111.2308 Y225.5108 I-10.204 J-22.1331
G2 X-111.1147 Y225.4542 I-1.1162 J-2.4401
G2 X-109.0418 Y224.3199 I-10.5787 J-21.7926
G2 X-107.9903 Y223.6222 I-10.3299 J-16.7085
G2 X-107.8615 Y223.5288 I-2.3213 J-3.3366
G2 X-107.3402 Y223.1285 I-8.1236 J-11.1205
G1 X-106.845 Y222.7243
G1 X-106.6806 Y222.5887
G1 X-106.0248 Y222.0443
G1 X-105.8375 Y221.8886
G3 X-104.3279 Y220.6572 I51.398 J61.4675
G3 X-103.2933 Y219.872 I21.4929 J27.2466
G3 X-101.8482 Y218.9163 I11.3827 J15.642
G3 X-100.9779 Y218.4426 I6.6089 J11.1062
G3 X-99.9373 Y217.9921 I4.666 J9.3495
G1 X-99.8018 Y217.9432
G3 X-98.5275 Y217.5965 I3.0064 J8.5355
G1 X-98.3623 Y217.5666
G2 X-83.5894 Y222.4724 I68.0417 J-180.2026
G1 X-82.5912 Y222.757
G1 X-81.5248 Y223.0549
G2 X-64.2656 Y227.0225 I54.6043 J-198.0118
G2 X-47.8358 Y229.6089 I55.171 J-296.9886
G2 X-31.2921 Y231.3202 I41.9156 J-324.3932
G2 X-31.162 Y231.3303 I0.518 J-5.8254
G2 X-31.0314 Y231.3404 I0.5187 J-5.8615
G2 X2.4696 Y232.2609 I26.0804 J-339.0803
G2 X12.042 Y231.9144 I-7.2235 J-331.9216
G2 X14.5104 Y231.78 I-11.7495 J-238.4903
G1 X15.7637 Y231.7045
G2 X27.2066 Y230.7868 I-19.3659 J-313.2701
G1 X28.657 Y230.6403
G2 X31.6492 Y230.3158 I-30.609 J-296.1939
G2 X34.7343 Y229.9493 I-29.5486 J-261.9537
G1 X35.511 Y229.8519
G1 X36.2936 Y229.7516
G1 X37.0821 Y229.6484
G1 X37.8765 Y229.5421
G1 X38.6769 Y229.4328
G2 X53.2502 Y227.0225 I-36.9037 J-268.3892
G3 X51.3895 Y228.2421 I-10.7088 J-14.3087
G3 X51.3272 Y228.2778 I-0.7795 J-1.2904
G3 X49.2826 Y229.3236 I-13.447 J-23.7681
G3 X48.6852 Y229.5952 I-16.4289 J-35.3372
G3 X47.9981 Y229.8953 I-13.9714 J-31.0529
G1 X47.6301 Y230.0518
G1 X47.2367 Y230.2167
G1 X45.1347 Y231.082
G2 X43.939 Y231.5886 I21.0045 J51.2359
G2 X43.3064 Y231.87 I11.7661 J27.3073
G2 X42.6373 Y232.1828 I12.4543 J27.5114
G2 X41.9324 Y232.5349 I15.3109 J31.5326
G1 X41.8444 Y232.5809
G2 X41.1022 Y232.9894 I11.6287 J22.0033
G1 X40.9166 Y233.0984
G2 X40.1406 Y233.5904 I8.0044 J13.4812
G2 X40.8093 Y233.5571 I-0.0878 J-8.4865
G2 X41.4743 Y233.4788 I-0.9915 J-11.2868
G2 X41.5627 Y233.466 I-0.3869 J-2.9831
G1 X41.7644 Y233.435
G1 X41.9944 Y233.397
G2 X43.8188 Y233.0147 I-4.6086 J-26.5415
G1 X44.0602 Y232.9555
G1 X44.3173 Y232.8907
G1 X44.591 Y232.8196
G2 X46.0419 Y232.4109 I-10.3089 J-39.3799
G2 X46.4265 Y232.2943 I-4.4185 J-15.2586
G2 X52.4432 Y230.0596 I-16.8598 J-54.6107
G2 X56.2911 Y228.1895 I-20.1908 J-46.4376
G2 X58.4051 Y226.9605 I-19.0986 J-35.2863
G2 X60.7086 Y225.376 I-16.2782 J-26.1307
G1 X60.9896 Y225.1586
G2 X62.1503 Y224.1822 I-13.4922 J-17.2173
G2 X63.3012 Y223.041 I-11.9793 J-13.2334
G2 X63.8475 Y222.4055 I-8.8627 J-8.1709
G2 X64.8611 Y220.9219 I-8.2142 J-6.6997
G2 X65.2715 Y220.084 I-7.5311 J-4.2084
G2 X65.4415 Y219.6397 I-6.753 J-2.8377
G2 X65.5835 Y219.1755 I-6.9885 J-2.3926
G2 X65.765 Y218.1784 I-5.9022 J-1.5895
G1 X56.6235 Y211.8745
G3 X55.2438 Y210.8693 I47.2762 J-66.3303
G1 X54.7886 Y210.5278
G1 X54.6676 Y210.4361
G3 X52.7565 Y208.9389 I47.8851 J-63.0913
G3 X49.0856 Y205.7617 I44.4729 J-55.0918
G1 X48.9727 Y205.6567
G3 X46.6228 Y203.3561 I45.0743 J-48.391
G3 X45.3341 Y201.9882 I49.5086 J-47.9326
G1 X45.0084 Y201.6288
G3 X43.5571 Y199.9524 I45.5574 J-40.9059
G3 X40.0233 Y195.2121 I41.4641 J-34.5976
G1 X39.9208 Y195.0565
G3 X38.1506 Y192.1449 I41.3886 J-27.1566
G3 X36.3897 Y188.6694 I40.0037 J-22.4531
G3 X34.7571 Y184.5231 I39.6661 J-18.0125
G3 X33.4356 Y179.599 I39.0963 J-13.1317
G3 X32.6815 Y173.8129 I40.0669 J-8.1643
G3 X32.8138 Y167.1357 I42.7119 J-2.4936
G1 X34.9338 Y164.9508
G1 X34.6439 Y164.5956
G2 X22.1854 Y168.8662 I110.1621 J341.6799
G1 X21.3603 Y169.1663
G2 X19.4766 Y169.8588 I88.0792 J242.5142
G1 X18.4732 Y170.2316
G1 X17.404 Y170.6318
G1 X16.2645 Y171.0616
G1 X15.0503 Y171.5232
G1 X13.7564 Y172.0191
G1 X12.3777 Y172.5517
G2 X9.2316 Y173.7826 I167.5121 J432.7679
G2 X0.8732 Y177.1427 I261.0588 J661.4756
G1 X-0.2026 Y177.583
G1 X-2.4959 Y178.5263
G1 X-4.9398 Y179.5378
G1 X-7.5446 Y180.6217
G1 X-10.3213 Y181.7821
G1 X-13.2817 Y183.0228
G1 X-20.0472 Y185.8611
G3 X-20.4735 Y186.0397 I-26.5979 J-62.9108
G3 X-20.9031 Y186.2195 I-25.0839 J-59.316
G3 X-21.3362 Y186.4008 I-23.8008 J-56.2723
G3 X-21.7728 Y186.5833 I-22.6946 J-53.6507
G3 X-22.2128 Y186.7672 I-21.7268 J-51.3599
G3 X-22.6563 Y186.9525 I-20.8696 J-49.3334
G3 X-26.4426 Y188.5288 I-837.5733 J-2006.5958
G3 X-26.92 Y188.7267 I-15.8079 J-37.4565
G3 X-27.4011 Y188.9259 I-15.4345 J-36.5906
G3 X-27.8862 Y189.1266 I-15.0811 J-35.7729
G3 X-32.0287 Y190.8293 I-307.8702 J-743.109
G3 X-32.2889 Y190.9356 I-8.8091 J-21.2041
G3 X-32.5502 Y191.0421 I-8.7262 J-21.0183
G3 X-32.8125 Y191.149 I-8.6446 J-20.8356
G3 X-33.0759 Y191.2563 I-8.5643 J-20.6561
G3 X-33.3403 Y191.3639 I-8.4853 J-20.4796
G3 X-43.0388 Y195.2267 I-262.9183 J-645.998
G3 X-43.3441 Y195.3453 I-6.245 J-15.6246
G3 X-43.6507 Y195.4642 I-6.192 J-15.5137
G3 X-48.8942 Y197.463 I-206.6613 J-534.267
G3 X-49.0588 Y197.5247 I-3.742 J-9.7436
G1 X-50.397 Y198.023
G1 X-51.7581 Y198.5249
G1 X-53.1425 Y199.03
G1 X-54.5507 Y199.5381
G1 X-55.9833 Y200.0489
G3 X-58.9473 Y201.0854 I-132.496 J-374.1555
G3 X-59.1333 Y201.1494 I-2.8849 J-8.0697
G3 X-59.3196 Y201.2135 I-2.8713 J-8.0442
G3 X-59.5063 Y201.2776 I-2.8579 J-8.0189
G3 X-59.6934 Y201.3418 I-2.8444 J-7.9935
G3 X-59.881 Y201.4059 I-2.831 J-7.9683
G3 X-62.9832 Y202.45 I-107.0787 J-313.0267
G3 X-63.1779 Y202.5144 I-2.6063 J-7.551
G3 X-63.3729 Y202.5788 I-2.5936 J-7.5278
G3 X-63.5684 Y202.6433 I-2.581 J-7.5046
G3 X-63.7643 Y202.7077 I-2.5684 J-7.4816
G3 X-63.9607 Y202.7721 I-2.5558 J-7.4586
G1 Y203.3894
G2 X-55.2008 Y206.9484 I63.675 J-144.1685
G2 X-46.2491 Y209.9926 I59.9144 J-161.4958
G2 X-40.1966 Y211.7547 I55.2012 J-178.3332
G2 X-40.005 Y211.8069 I1.7516 J-6.0511
G1 X-39.2134 Y212.0204
G1 X-38.3954 Y212.2372
G1 X-37.55 Y212.4574
G1 X-36.6763 Y212.6807
G1 X-35.7735 Y212.9072
G2 X-26.0863 Y215.0754 I52.5307 J-211.9713
G2 X-25.9336 Y215.106 I1.0042 J-4.6182
G2 X-20.3366 Y216.1564 I49.4318 J-247.9629
G1 X-19.6242 Y216.2806
G1 X-18.9002 Y216.4047
G1 X-18.1644 Y216.5288
G2 X-11.4225 Y217.5698 I46.6967 J-280.0629
G2 X-3.6921 Y218.5707 I44.3436 J-312.135
G2 X5.1655 Y219.5004 I42.2764 J-360.1161
G2 X5.3044 Y219.5134 I0.4756 J-4.3531
G2 X5.4436 Y219.5263 I0.4748 J-4.3596
G2 X15.6252 Y220.3524 I42.0849 J-455.5123
G2 X15.7848 Y220.3637 I0.4244 J-4.8891
G2 X15.9447 Y220.3749 I0.4237 J-4.8981
G2 X16.1049 Y220.3861 I0.423 J-4.9073
G2 X16.2654 Y220.3972 I0.4223 J-4.9164
G2 X16.4262 Y220.4083 I0.4216 J-4.9256
G2 X21.9154 Y220.7607 I46.4591 J-680.8786
G2 X22.0874 Y220.7709 I0.3996 J-5.2706
G2 X22.2597 Y220.7811 I0.399 J-5.2818
G2 X22.4323 Y220.7913 I0.3984 J-5.293
G2 X22.6053 Y220.8014 I0.3978 J-5.3043
G2 X22.7786 Y220.8115 I0.3972 J-5.3157
G2 X22.9523 Y220.8216 I0.3966 J-5.3271
G2 X23.1263 Y220.8317 I0.396 J-5.3386
G2 X23.3006 Y220.8417 I0.3954 J-5.3501
G2 X23.4753 Y220.8517 I0.3948 J-5.3618
G2 X23.6504 Y220.8617 I0.3942 J-5.3734
G2 X23.8257 Y220.8716 I0.3936 J-5.3852
G2 X24.0014 Y220.8816 I0.393 J-5.3971
G2 X24.1775 Y220.8915 I0.3925 J-5.409
G2 X24.3539 Y220.9013 I0.3919 J-5.4209
G2 X24.5307 Y220.9112 I0.3913 J-5.433
G2 X24.7078 Y220.921 I0.3908 J-5.4451
G2 X24.8852 Y220.9308 I0.3902 J-5.4573
G2 X25.063 Y220.9406 I0.3897 J-5.4696
G2 X25.2412 Y220.9503 I0.3891 J-5.4819
G2 X25.4197 Y220.96 I0.3886 J-5.4944
G2 X25.5985 Y220.9697 I0.388 J-5.5069
G2 X25.7777 Y220.9794 I0.3875 J-5.5194
G2 X25.9572 Y220.989 I0.3869 J-5.5321
G2 X26.1372 Y220.9986 I0.3864 J-5.5449
G2 X32.2765 Y221.3014 I49.169 J-934.4435
G2 X32.4688 Y221.3102 I0.371 J-6.0297
G2 X32.6615 Y221.3189 I0.3706 J-6.0456
G2 X32.8546 Y221.3277 I0.3703 J-6.0617
G2 X33.048 Y221.3363 I0.3699 J-6.0779
G2 X33.2418 Y221.345 I0.3696 J-6.0942
G2 X33.436 Y221.3537 I0.3692 J-6.1106
G2 X33.6306 Y221.3623 I0.3689 J-6.1271
G2 X33.8256 Y221.3709 I0.3686 J-6.1438
G2 X34.0209 Y221.3794 I0.3683 J-6.1605
G2 X34.2166 Y221.388 I0.368 J-6.1774
G2 X34.4127 Y221.3965 I0.3677 J-6.1944
G2 X34.6092 Y221.405 I0.3674 J-6.2117
G2 X34.8061 Y221.4135 I0.3671 J-6.2289
G2 X35.0034 Y221.422 I0.3668 J-6.2463
G2 X35.201 Y221.4304 I0.3666 J-6.2638
G2 X35.3991 Y221.4388 I0.3663 J-6.2814
G2 X35.5975 Y221.4472 I0.366 J-6.2991
G2 X35.7963 Y221.4556 I0.3658 J-6.3171
G2 X35.9955 Y221.464 I0.3656 J-6.3351
G2 X36.1951 Y221.4723 I0.3653 J-6.3532
G2 X36.3951 Y221.4806 I0.3651 J-6.3715
G2 X36.5954 Y221.4889 I0.3649 J-6.3899
G2 X38.2235 Y221.555 I13.4195 J-310.5341
G1 X39.8774 Y221.6199
G1 X41.5574 Y221.6836
G2 X44.5378 Y221.7672 I4.3132 J-100.6634
G2 X44.9637 Y221.7714 I0.4215 J-20.9065
G2 X48.3705 Y221.7119 I0.5849 J-64.0927
G2 X50.6372 Y221.5568 I-2.3685 J-51.2464
G1 X50.929 Y221.5286
G1 X51.2301 Y221.4973
G2 X54.4215 Y221.0087 I-3.5628 J-33.9357
G2 X54.8293 Y220.9221 I-3.7068 J-18.4718
G1 X55.2488 Y220.8264
G1 X55.6802 Y220.7205
G2 X56.5943 Y220.4688 I-5.8756 J-23.1207
G1 X56.7087 Y220.4345
G2 X58.7655 Y219.6926 I-5.8608 J-19.4718
G2 X60.9897 Y218.5392 I-6.1653 J-14.6106
G3 X61.3698 Y219.359 I-1.6879 J1.2806
G3 X61.3499 Y220.2624 I-1.9798 J0.4082
G3 X61.1369 Y220.8277 I-2.4497 J-0.6002
G3 X60.6934 Y221.4914 I-3.2298 J-1.6781
G3 X59.936 Y222.2136 I-3.7367 J-3.1604
G3 X58.7621 Y222.9054 I-3.3303 J-4.3097
G3 X54.5106 Y224.0176 I-27.4166 J-96.1217
G3 X54.4427 Y224.0338 I-0.3797 J-1.4388
G3 X54.3737 Y224.0502 I-0.3822 J-1.4511
G3 X49.9414 Y225.0112 I-25.7506 J-108.0679
G3 X40.9878 Y226.4507 I-25.9641 J-132.9336
G1 X40.4072 Y226.5237
G1 X39.8076 Y226.5967
G1 X39.1884 Y226.6696
G1 X38.5489 Y226.7423
G1 X37.8885 Y226.8145
G1 X37.2065 Y226.8863
G1 X36.5022 Y226.9574
G3 X28.9751 Y227.5375 I-17.2722 J-175.0027
G1 X28.0023 Y227.5901
G1 X26.998 Y227.6394
G3 X22.4047 Y227.8031 I-10.0294 J-216.9193
G1 X21.2189 Y227.8296
G1 X20.6165 Y227.8407
G1 X20.0045 Y227.8504
G3 X18.7411 Y227.8653 I-2.353 J-145.4934
G1 X17.437 Y227.8738
G3 X11.4764 Y227.8271 I-0.9993 J-253.024
G3 X11.2894 Y227.8235 I0.0434 J-7.0691
G3 X11.1017 Y227.8197 I0.0507 J-7.2119
G3 X10.9133 Y227.8158 I0.0584 J-7.3633
G3 X10.7241 Y227.8118 I0.0664 J-7.524
G3 X10.5342 Y227.8076 I0.0749 J-7.6959
G3 X10.3435 Y227.8032 I0.0839 J-7.8791
G3 X3.3755 Y227.5599 I6.9057 J-297.6538
G1 X2.4912 Y227.5178
G1 X1.5929 Y227.4726
G1 X0.6806 Y227.4242
G1 X-0.2461 Y227.3725
G1 X-0.713 Y227.3455
G1 X-1.1836 Y227.3176
G1 X-1.6579 Y227.2889
G1 X-2.1358 Y227.2594
G1 X-2.6174 Y227.2289
G3 X-6.7248 Y226.9436 I23.0507 J-361.5181
G3 X-16.0972 Y226.1349 I32.0434 J-426.0936
G1 X-16.391 Y226.1063
G1 X-16.6859 Y226.0774
G1 X-16.982 Y226.0483
G1 X-18.1846 Y225.9279
G1 X-19.4059 Y225.8026
G1 X-20.1263 Y225.726
G1 X-20.8464 Y225.6471
G1 X-20.9425 Y225.6363
G1 X-21.4544 Y225.5786
G1 X-22.1369 Y225.4999
G1 X-22.3188 Y225.4786
G1 X-22.7347 Y225.4294
G3 X-23.8431 Y225.2953 I16.717 J-142.7567
G1 X-25.3202 Y225.1098
G3 X-31.2198 Y224.3009 I41.4327 J-324.0986
G1 X-31.6 Y224.2453
G1 X-31.9923 Y224.1874
G1 X-32.3973 Y224.1273
G1 X-32.8153 Y224.0648
G1 X-33.2467 Y223.9997
G1 X-33.4658 Y223.9665
G1 X-33.6883 Y223.9326
G1 X-33.9144 Y223.898
G1 X-34.144 Y223.8627
G3 X-34.618 Y223.7895 I4.0977 J-28.0855
G3 X-49.7293 Y221.1231 I55.5317 J-358.8656
G1 X-50.2071 Y221.0277
G3 X-54.5682 Y220.1225 I66.5194 J-331.4329
G3 X-59.5354 Y219.0089 I63.3384 J-294.1565
G3 X-65.185 Y217.6198 I54.0347 J-231.9526
G3 X-68.1835 Y216.8213 I51.8331 J-200.6738
G1 X-68.3713 Y216.7698
G1 X-68.5598 Y216.7178
G1 X-69.3249 Y216.5048
G3 X-76.2766 Y214.4015 I46.2359 J-165.3495
G1 X-77.1523 Y214.1118
G3 X-77.3718 Y214.0382 I3.3846 J-10.4577
G3 X-81.0978 Y212.7217 I41.5144 J-123.43
G3 X-85.0196 Y211.1725 I34.2639 J-92.4785
G1 X-85.1413 Y211.1212
G1 X-85.2632 Y211.0696
G3 X-85.5076 Y210.9655 I3.7888 J-9.2298
G3 X-85.7526 Y210.8601 I12.4153 J-29.2206
G1 X-86.2455 Y210.6454
G3 X-88.0215 Y211.2708 I-25.7816 J-70.3777
G3 X-88.1404 Y211.3112 I-0.9402 J-2.5772
G3 X-88.2673 Y211.354 I-0.9688 J-2.6621
G3 X-88.4027 Y211.3994 I-0.9979 J-2.7495
G3 X-88.5473 Y211.4476 I-1.0277 J-2.84
G3 X-90.8713 Y212.1828 I-25.2216 J-75.6945
G3 X-95.5818 Y213.4367 I-22.3624 J-74.5327
G3 X-96.9415 Y213.7387 I-13.1306 J-55.8979
G3 X-100.5938 Y214.4147 I-14.6611 J-69.0107
G1 X-100.1884 Y210.9151
G2 X-93.6487 Y208.8873 I-102.5112 J-342.1634
G1 X-92.7174 Y208.5883
G1 X-91.6538 Y208.2441
G2 X-88.8214 Y207.315 I-174.9431 J-538.0673
G2 X-77.5368 Y203.464 I-221.4244 J-667.2989
G2 X-74.3237 Y202.3318 I-190.8228 J-546.6895
G1 X-72.6118 Y201.7231
G1 X-70.787 Y201.0703
G1 X-68.842 Y200.37
G1 X-67.8386 Y200.007
G1 X-65.6994 Y199.2295
G1 X-63.4193 Y198.3952
G1 X-60.9892 Y197.4999
G2 X-48.0612 Y192.6387 I-415.6824 J-1125.0898
G1 X-46.3969 Y192.0013
G1 X-45.5519 Y191.6766
G2 X-27.5819 Y184.6065 I-441.8389 J-1149.3925
G1 X-25.2717 Y183.6728
G1 X-24.0991 Y183.1964
G2 X-13.4094 Y178.7662 I-333.467 J-819.7384
G1 X-12.0566 Y178.1923
G1 X-11.9719 Y178.1563
G1 X-11.8872 Y178.1202
G1 X-11.2048 Y177.8291
G1 X-9.8192 Y177.2351
G2 X-6.964 Y175.997 I-163.0828 J-379.9896
G1 X-6.2458 Y175.6822
G1 X-5.5225 Y175.3637
G2 X-4.0548 Y174.7123 I-79.6963 J-181.5456
G1 X-2.5667 Y174.0441
G1 X-2.1936 Y173.8752
G1 X-1.8193 Y173.7052
G1 X-1.4438 Y173.534
G1 X-1.3498 Y173.491
G2 X1.7427 Y172.0513 I-85.5983 J-187.9033
G1 X2.5181 Y171.6805
G1 X3.0876 Y171.407
G1 X3.6576 Y171.1345
G1 X4.7989 Y170.5923
G1 X5.5608 Y170.2333
G1 X5.9967 Y170.0291
G1 X7.1607 Y169.4882
G1 X7.8272 Y169.1816
G1 X8.5899 Y168.8337
G1 X8.9971 Y168.6493
G1 X9.9294 Y168.2309
G1 X10.9974 Y167.7583
G1 X11.5682 Y167.5088
G1 X12.1779 Y167.2448
G1 X12.8294 Y166.9657
G1 X13.5255 Y166.671
G1 X14.2695 Y166.3601
G1 X15.0649 Y166.0325
G3 X19.3389 Y164.3664 I51.5405 J125.894
G3 X21.8071 Y163.4831 I44.4342 J120.2829
G3 X24.6524 Y162.5442 I33.6735 J97.2622
G3 X25.0156 Y162.4308 I7.4392 J23.1812
G3 X28.3563 Y161.4591 I27.0462 J86.7591
G3 X29.224 Y161.2285 I15.2267 J55.5591
G3 X31.0831 Y160.766 I21.0736 J80.7385
G3 X32.0465 Y160.5436 I15.8457 J66.4232
G3 X36.4839 Y159.676 I17.2474 J76.4332
G3 X41.6106 Y159.0083 I12.1095 J72.9679
G3 X47.5155 Y158.7035 I6.5762 J70.0532
G1 X47.888 Y158.7013
G3 X54.6982 Y159.0225 I0.2092 J67.936
G3 X62.4066 Y160.2163 I-6.7965 J69.3644
G1 X63.0461 Y160.3678
G1 X63.6851 Y160.5219
G1 X64.1108 Y160.6262
G3 X65.8106 Y161.0538 I-29.6444 J121.4351
G3 X69.1987 Y161.9539 I-58.4752 J226.936
G1 X70.1641 Y162.2204
G1 X71.2663 Y162.5296
G1 X71.8537 Y162.6962
G1 X72.4798 Y162.8753
G1 X73.1473 Y163.0678
G1 X74.6714 Y163.5127
G1 X75.0644 Y163.6286
G1 X75.9024 Y163.8773
G1 X76.7956 Y164.1443
G1 X77.7478 Y164.4313
G1 X78.2391 Y164.5801
G1 X78.746 Y164.7343
G1 X79.2691 Y164.894
G1 X79.809 Y165.0593
G1 X80.3661 Y165.2306
G1 X80.941 Y165.4079
G1 X82.167 Y165.7877
G1 X83.4738 Y166.1951
G1 X84.8672 Y166.6319
G1 X88.05 Y167.6365
G1 X91.6853 Y168.7908
G1 X93.6239 Y169.4072
G1 X95.692 Y170.064
G1 X97.8984 Y170.7627
G2 X100.2531 Y171.5045 I244.6212 J-772.3121
G1 X102.7663 Y172.2904
G1 X111.28 Y174.9383
G1 X119.7925 Y177.5898
G1 X125.4677 Y179.357
G1 X133.0359 Y181.7091
G1 X137.3618 Y183.0492
G1 X142.3074 Y184.5751
G1 X143.5841 Y184.9675
G1 X144.9022 Y185.3719
G1 X147.715 Y186.2318
G1 X147.8032 Y186.2587
G1 X149.2584 Y186.7016
G1 X150.761 Y187.1571
G1 X152.3126 Y187.6254
G1 X153.1011 Y187.8625
G1 X153.9022 Y188.1026
G1 X154.0026 Y188.1326
G1 X154.8184 Y188.3761
G1 X156.5033 Y188.8759
G1 X157.3596 Y189.128
G1 X159.129 Y189.6435
G1 X160.0287 Y189.9023
G1 X160.9434 Y190.1624
G1 X161.4048 Y190.2921
G2 X163.3133 Y190.8152 I44.4171 J-158.31
G2 X166.8963 Y191.7418 I73.2403 J-275.819
G2 X167.1356 Y191.802 I2.9707 J-11.3197
G1 X168.4129 Y192.1185
G2 X173.5409 Y193.3054 I47.3841 J-193.0456
G2 X173.7042 Y193.3408 I1.3911 J-6.0398
G2 X173.8702 Y193.3765 I1.3842 J-6.0306
G2 X174.0388 Y193.4126 I1.377 J-6.0206
G2 X175.5823 Y193.7343 I28.7716 J-134.1548
G1 X176.4068 Y193.8996
G1 X177.2873 Y194.0708
G2 X182.0012 Y194.8864 I24.0024 J-124.6853
G2 X188.3305 Y195.6811 I17.1477 J-110.971
G2 X191.9657 Y195.9628 I9.095 J-93.7804
G2 X196.1305 Y196.1149 I5.5685 J-95.3713
G2 X199.2193 Y199.3941 I30.1374 J-25.2923
G2 X202.6389 Y202.3267 I31.4929 J-33.2639
G2 X205.0638 Y204.0991 I33.1767 J-42.844
G2 X205.1418 Y204.1528 I1.4742 J-2.0606
G2 X205.2205 Y204.2067 I1.469 J-2.0599
G2 X205.2999 Y204.2609 I1.464 J-2.0595
G2 X208.7628 Y206.4531 I35.5664 J-52.3494
G2 X210.7983 Y207.6107 I36.4959 J-61.8081
G1 X211.3291 Y207.8994
G2 X213.7794 Y209.1724 I44.4342 J-82.5363
G1 X214.4175 Y209.4895
G1 X215.0783 Y209.8124
G1 X215.7624 Y210.1411
G2 X217.2282 Y210.8283 I78.6457 J-165.8414
G2 X217.3205 Y210.8709 I1.1997 J-2.4808
G2 X220.7096 Y212.3848 I73.8171 J-160.6974
G2 X220.8165 Y212.4312 I1.5814 J-3.4939
G2 X224.7324 Y214.0957 I119.7152 J-276.2056
G2 X225.2309 Y214.304 I17.6415 J-41.5295
G1 X227.3583 Y215.1887
G1 X229.6264 Y216.132
G1 X230.7956 Y216.6215
G1 X232.0007 Y217.1302
G3 X233.2421 Y217.6604 I-59.1644 J140.2385
G3 X234.5201 Y218.2147 I-45.5167 J106.6953
G3 X235.835 Y218.7961 I-137.9676 J313.8096
G1 X236.1655 Y218.9443
G1 X236.836 Y219.2477
G3 X237.1636 Y219.4138 I-1.5528 J3.4684
G3 X237.4676 Y219.6199 I-1.2011 J2.0992
G3 X237.6367 Y219.798 I-0.5163 J0.6595
G3 X237.6861 Y219.9326 I-0.2032 J0.1508
G3 X237.6553 Y220.0109 I-0.1134 J0.0006
G3 X237.5626 Y220.062 I-0.1391 J-0.1428
G3 X237.4387 Y220.0786 I-0.1317 J-0.512
G3 X237.1517 Y220.0479 I0.0028 J-1.3841
G3 X236.6241 Y219.8855 I0.6761 J-3.1348
G2 X231.0601 Y217.7662 I-810.985 J2120.8079
G3 X225.505 Y215.6241 I197.2124 J-519.692
G3 X225.1476 Y215.4834 I8.1833 J-21.3136
G3 X224.7787 Y215.3377 I9.7506 J-25.2252
G3 X223.0953 Y214.6656 I86.8071 J-219.8669
G1 X222.1993 Y214.3025
G1 X221.2452 Y213.9111
G1 X220.2295 Y213.4887
G1 X219.1487 Y213.0321
G3 X216.6896 Y211.9617 I73.0581 J-171.1976
G1 X216.0579 Y211.6788
G1 X215.4072 Y211.3838
G3 X214.0239 Y210.7435 I48.9587 J-107.5733
G3 X210.8911 Y209.2184 I56.2012 J-119.4315
G3 X207.3701 Y207.3569 I49.3332 J-97.5723
G3 X205.5235 Y206.3062 I47.3656 J-85.3953
G3 X205.2926 Y206.1708 I5.8593 J-10.2562
G3 X205.0603 Y206.0336 I5.5628 J-9.6858
G3 X203.0954 Y204.8334 I42.7878 J-72.2578
G3 X202.9732 Y204.7563 I2.8751 J-4.6914
G3 X200.9092 Y203.4061 I39.8122 J-63.1121
G3 X200.7811 Y203.3192 I2.3744 J-3.6375
G1 X200.2626 Y202.9635
G3 X195.6671 Y199.5014 I40.5228 J-58.5709
G3 X194.5296 Y198.5459 I36.8911 J-45.071
G1 X194.2464 Y198.301
G1 X193.9624 Y198.0526
G2 X193.8892 Y197.9991 I-0.3092 J0.3465
G1 X193.8106 Y197.9542
G1 X193.7568 Y197.9267
G1 X193.6842 Y197.8922
G2 X193.3883 Y197.7675 I-2.0651 J4.4859
G2 X192.7857 Y197.5489 I-5.8916 J15.3071
G1 X192.3801 Y197.4152
G1 X192.1472 Y197.3422
G1 X190.8957 Y197.1747
G1 X189.645 Y197.0014
G1 X189.2877 Y196.9508
G1 X188.3355 Y196.8136
G3 X184.5314 Y196.2324 I42.6499 J-291.8739
G3 X176.9481 Y194.9192 I45.2575 J-283.9039
G1 X176.46 Y194.8279
G3 X171.2632 Y193.8059 I57.3244 J-305.2348
G3 X168.3012 Y193.1843 I70.4885 J-343.2332
G1 X166.7238 Y192.842
G3 X158.3378 Y190.8982 I79.4005 J-361.6024
G1 X157.2589 Y190.6336
G1 X156.1461 Y190.3575
G1 X154.9981 Y190.0692
G1 X153.814 Y189.7682
G1 X152.5925 Y189.454
G1 X151.3326 Y189.126
G1 X150.0331 Y188.7836
G1 X148.6928 Y188.4263
G3 X142.5787 Y186.7452 I128.3185 J-478.6402
G3 X135.6155 Y184.7388 I163.0354 J-578.9092
G1 X134.7329 Y184.4783
G1 X133.8366 Y184.2125
G1 X132.9266 Y183.9413
G1 X132.0024 Y183.6645
G3 X128.0634 Y182.4712 I246.0417 J-819.2383
G1 X127.0639 Y182.1651
G1 X126.0488 Y181.8529
G1 X125.018 Y181.5347
G1 X122.8912 Y180.8745
G1 X120.6972 Y180.1887
G1 X119.5832 Y179.8388
G1 X118.4519 Y179.4824
G1 X117.3029 Y179.1195
G1 X114.9316 Y178.3677
G1 X112.4849 Y177.5887
G1 X109.9601 Y176.7823
G1 X107.3544 Y175.9482
G1 X101.7965 Y174.1676
G2 X101.4478 Y174.056 I-10.4011 J31.8934
G2 X101.0976 Y173.9439 I-10.1209 J31.0231
G1 X98.2059 Y173.0199
G1 X95.22 Y172.0692
G2 X94.8452 Y171.9502 I-7.3276 J22.429
G2 X94.4689 Y171.8308 I-7.2275 J22.1267
G2 X94.0911 Y171.711 I-7.1311 J21.8362
G2 X93.7118 Y171.5909 I-7.0382 J21.5568
G2 X93.331 Y171.4703 I-6.9484 J21.2876
G2 X92.9486 Y171.3494 I-6.8617 J21.0283
G1 X89.7903 Y170.3546
G1 X89.4054 Y170.237
G1 X89.0183 Y170.1262
G1 X88.9074 Y170.0958
G1 X88.6106 Y170.0182
G2 X87.4109 Y169.7629 I-3.9756 J15.7346
G2 X86.5997 Y169.6567 I-1.8294 J10.8189
G1 X86.3822 Y169.6396
G2 X85.2178 Y169.6549 I-0.4931 J6.782
G2 X84.5603 Y169.7693 I0.4487 J4.5261
G2 X83.8388 Y170.0275 I0.9126 J3.6873
G2 X83.1023 Y170.5171 I1.3951 J2.8972
G2 X82.4502 Y171.308 I2.2827 J2.5465
G2 X81.974 Y172.3905 I4.181 J2.4851
G2 X81.6959 Y173.7069 I7.5575 J2.2842
G2 X81.6567 Y174.0513 I6.238 J0.8854
G1 X81.5258 Y175.4269
G1 X81.4836 Y175.8856
G1 X81.3197 Y177.7208
G1 X81.2137 Y178.9445
G1 X81.1539 Y179.6439
G1 X80.6796 Y185.2388
G3 X80.3518 Y188.9678 I-598.3982 J-50.7379
G1 X80.2608 Y189.9619
G1 X80.1617 Y191.022
G1 X80.1096 Y191.5692
G1 X79.9961 Y192.7361
G1 X79.9361 Y193.3382
G1 X79.8732 Y193.9597
G3 X79.1176 Y200.5797 I-255.0237 J-25.7577
G1 X79.0058 Y201.4322
G3 X78.8861 Y202.3117 I-117.2086 J-15.5078
G1 X78.8707 Y202.422
G1 X78.8552 Y202.5328
G1 X78.7915 Y202.9827
G1 X78.7253 Y203.4396
G3 X78.6567 Y203.9035 I-52.6522 J-7.5546
G3 X77.9464 Y208.1319 I-111.2316 J-16.5112
G1 X77.9338 Y208.1979
G3 X77.4724 Y210.4428 I-78.9712 J-15.064
G1 X77.3432 Y211.0104
G1 X77.2062 Y211.5858
G1 X77.0605 Y212.1687
G3 X76.3448 Y214.6325 I-35.5226 J-8.9824
G1 X76.2413 Y214.9388
G3 X75.7703 Y216.1896 I-20.1349 J-6.8677
G3 X75.1872 Y217.4435 I-14.2336 J-5.8562
G1 X75.1465 Y217.52
G3 X75.0628 Y217.6726 I-4.1317 J-2.1644
G3 X73.6891 Y219.7989 I-17.5257 J-9.8163
G3 X73.1747 Y220.4684 I-17.6151 J-12.9992
G3 X70.8918 Y222.9522 I-19.6838 J-15.8008
G3 X69.2079 Y224.4434 I-20.279 J-21.2049
G3 X66.8112 Y226.2424 I-21.8079 J-26.5562
G3 X66.1477 Y226.688 I-20.2043 J-29.366
G3 X62.4754 Y228.8371 I-23.2653 J-35.5443
G1 X61.9869 Y229.088
G3 X56.6235 Y231.4035 I-21.7693 J-43.0542
G3 X54.1417 Y232.3845 I-20.0513 J-47.0986
G3 X51.6237 Y233.2679 I-33.563 J-91.6318
G1 X50.9012 Y233.5116
G1 X48.9743 Y234.1596
G1 X48.4611 Y234.3346
G1 X47.9146 Y234.5235
G2 X45.0236 Y235.5977 I21.0475 J61.0734
G1 X44.8421 Y235.6712
G1 X44.658 Y235.7468
G2 X42.9936 Y236.4818 I13.7642 J33.4181
G2 X41.1483 Y237.4434 I11.1097 J23.5725
G2 X42.0275 Y238.1661 I1.511 J-0.9421
G2 X42.3981 Y238.2708 I0.8245 J-2.2088
G3 X42.74 Y238.348 I-0.8304 J4.4758
G1 X42.7876 Y238.3636
G3 X42.8389 Y238.3896 I-0.0727 J0.2072
G3 X42.8514 Y238.4203 I-0.0132 J0.0233
G3 X42.8126 Y238.4561 I-0.0783 J-0.0459
G3 X42.7567 Y238.4841 I-0.2036 J-0.3361
G1 X42.6401 Y238.5302
G3 X42.3051 Y238.6465 I-7.3211 J-20.5479
G3 X41.8053 Y238.8293 I-12.7886 J-34.1947
G3 X41.7332 Y238.8537 I-0.253 J-0.6269
G3 X41.1483 Y239.0202 I-1.9123 J-5.6081
G1 X41.3126 Y239.0466
G1 X41.4771 Y239.0723
G1 X41.8062 Y239.1223
G1 X42.4652 Y239.2173
G2 X42.5078 Y239.2232 I0.082 J-0.4321
G2 X43.8701 Y239.4059 I13.9994 J-99.2336
G1 X44.2595 Y239.4568
G1 X45.2977 Y239.5942
G1 X45.5745 Y239.6318
G3 X47.0484 Y239.8454 I-10.5951 J78.3133
G3 X47.8886 Y239.9819 I-9.6951 J62.3074
G1 X48.3357 Y240.0605
G1 X48.5662 Y240.1028
G3 X51.0049 Y240.6517 I-5.5769 J30.4725
G3 X52.3716 Y241.0701 I-5.2937 J19.731
G1 X52.4567 Y241.0997
G1 X52.5424 Y241.1299
G1 X52.6285 Y241.1608
G3 X54.1727 Y241.81 I-5.5039 J15.2521
G3 X55.8279 Y242.7831 I-5.152 J10.6579
G1 X56.0256 Y242.9266
G3 X56.8299 Y243.5939 I-5.8063 J7.8168
G3 X56.9259 Y243.6841 I-1.181 J1.3526
G3 X58.4385 Y245.5863 I-6.0918 J6.3965
G3 X57.2458 Y246.5473 I-6.8476 J-7.278
G3 X55.9288 Y247.3292 I-6.4584 J-9.3785
G3 X55.535 Y247.5205 I-6.0684 J-11.9901
G3 X54.4565 Y247.9661 I-6.0274 J-13.0605
G3 X53.8256 Y248.1818 I-5.6179 J-15.3997
G3 X53.7448 Y248.2074 I-0.3035 J-0.8194
G3 X51.9999 Y248.6629 I-5.9442 J-19.199
G1 X51.7721 Y248.7107
G3 X49.3276 Y249.1015 I-6.0923 J-30.2697
G1 X49.0105 Y249.1392
G3 X47.5602 Y249.2863 I-5.6191 J-48.1926
G3 X47.4687 Y249.2944 I-0.1656 J-1.3454
G3 X47.3765 Y249.3025 I-0.1669 J-1.3753
G3 X46.5902 Y249.3674 I-5.6213 J-63.2979
G1 X46.1845 Y249.3987
G1 X45.3194 Y249.4623
G3 X45.0997 Y249.478 I-0.6166 J-7.047
G1 X44.6464 Y249.5105
G1 X44.1787 Y249.5444
G1 X43.1823 Y249.6198
G1 X42.6685 Y249.6619
G2 X41.5745 Y249.7626 I6.4647 J76.2097
G1 X41.0108 Y249.8223
G2 X39.682 Y250.047 I1.7971 J14.668
G2 X38.3821 Y250.4024 I2.5027 J11.711
G1 X38.2127 Y250.4626
G2 X38.0336 Y250.5313 I1.3763 J3.8561
G2 X37.8448 Y250.6104 I2.6328 J6.5492
G2 X37.426 Y250.8199 I1.6768 J3.8751
G2 X36.9903 Y251.1343 I1.1177 J2.0085
G2 X36.8039 Y251.3563 I0.7779 J0.8425
G2 X36.6933 Y251.6554 I0.5852 J0.3863
G2 X36.755 Y252.0184 I0.6763 J0.0718
G2 X36.8544 Y252.1919 I0.9415 J-0.4241
G2 X37.1613 Y252.5235 I1.4717 J-1.0543
G2 X37.3454 Y252.6713 I1.8188 J-2.0756
G2 X37.767 Y252.9497 I2.767 J-3.7326
G2 X37.9945 Y253.0787 I2.5829 J-4.291
G2 X38.2325 Y253.203 I3.2062 J-5.8479
G2 X39.2385 Y253.6333 I4.1433 J-8.2955
G2 X40.2845 Y253.9545 I3.99 J-11.1292
G2 X40.3529 Y253.9721 I0.2088 J-0.671
G2 X41.0871 Y254.1393 I3.364 J-13.0716
G2 X42.0751 Y254.3149 I4.4374 J-22.111
G2 X43.4002 Y254.4913 I6.0151 J-40.1185
G2 X43.4846 Y254.501 I0.2963 J-2.1967
G2 X43.5703 Y254.5108 I0.3404 J-2.6062
G2 X43.7472 Y254.5306 I0.75 J-5.9014
G1 X45.6325 Y254.7316
G1 X46.1346 Y254.7898
G3 X47.2785 Y254.9478 I-3.2811 J27.9796
G3 X48.5735 Y255.2015 I-2.8954 J18.204
G3 X50.0146 Y255.6539 I-2.2835 J9.796
G1 X49.4712 Y255.7315
G3 X49.3935 Y255.7426 I-0.1631 J-0.8689
G1 X48.7723 Y255.8302
G1 X47.5293 Y256.0014
G1 X46.7001 Y256.1116
G1 X46.226 Y256.173
G3 X44.9611 Y256.33 I-13.2263 J-101.4137
G3 X44.6235 Y256.37 I-2.1175 J-16.411
G3 X44.2633 Y256.4118 I-2.7289 J-21.9519
G1 X43.879 Y256.4553
G1 X43.4689 Y256.5003
G1 X42.531 Y256.5979
G3 X41.4581 Y256.6993 I-7.0999 J-69.3923
G3 X38.5919 Y256.908 I-7.9692 J-89.6243
G3 X34.7611 Y257.0113 I-3.6371 J-63.8473
G3 X34.2665 Y257.0069 I0.058 J-34.9906
G1 X33.7561 Y256.9977
G3 X31.4242 Y256.8883 I1.022 J-46.6939
G3 X30.1836 Y256.7801 I2.3697 J-34.3329
G3 X27.3635 Y256.3806 I3.5754 J-35.3877
G1 X27.008 Y256.3131
G3 X25.5002 Y255.9779 I5.6637 J-29.0347
G3 X22.1343 Y254.8894 I6.061 J-24.4921
G1 X21.9281 Y254.8046
G3 X20.2024 Y253.9932 I8.6338 J-20.6051
G1 X19.9903 Y253.8799
G1 X19.7864 Y253.7664
G1 X19.5846 Y253.649
G1 X19.4515 Y253.5685
G3 X19.2759 Y253.4582 I1.8893 J-3.2034
G3 X19.0453 Y253.3055 I4.8373 J-7.5513
G3 X18.1789 Y252.6184 I4.2899 J-6.2999
G3 X17.6754 Y252.0787 I3.4791 J-3.75
G1 X17.6462 Y252.0419
G3 X17.1319 Y251.1819 I3.0103 J-2.3843
G3 X16.8636 Y249.8644 I3.1237 J-1.3222
G3 X16.9312 Y249.0929 I4.0786 J-0.0314
G3 X16.9491 Y248.996 I1.3721 J0.2045
G3 X17.1885 Y248.1312 I5.8247 J1.1466
G3 X17.3597 Y247.6855 I6.2854 J2.1587
G3 X17.8228 Y246.7094 I11.6608 J4.9341
G3 X17.8386 Y246.6793 I0.2171 J0.0954
G3 X17.8546 Y246.6492 I0.2179 J0.0964
G3 X18.4655 Y245.5863 I19.9075 J10.7333
G2 X18.3414 Y245.45 I-0.3012 J0.1495
G2 X18.1727 Y245.3756 I-0.3314 J0.5234
G2 X17.8156 Y245.3252 I-0.3886 J1.4631
G2 X17.1167 Y245.3692 I-0.079 J4.3242
G1 X17.0719 Y245.3753
G1 X17.0257 Y245.3819
G2 X16.5405 Y245.4661 I2.1363 J13.7411
G1 X16.2661 Y245.5235
G1 X15.9548 Y245.5951
G1 X15.6018 Y245.6831
G1 X15.2012 Y245.7902
G2 X14.1457 Y246.098 I9.6654 J35.104
G1 X14.0099 Y246.139
G1 X13.7199 Y246.2241
G1 X3.973 Y248.8098
G1 X2.5805 Y249.179
G1 X-1.1329 Y250.1632
G1 X-15.9873 Y254.0958
G1 X-20.2318 Y255.2181
G3 X-20.2983 Y255.2357 I-0.3798 J-1.3024
G1 X-22.5666 Y255.8352
G1 X-27.7513 Y257.2046
G1 X-33.6771 Y258.7682
G1 X-40.4501 Y260.5529
G1 X-42.1981 Y261.013
G1 X-50.1897 Y263.1133
G1 X-54.4526 Y264.2309
G1 X-59.0004 Y265.4204
G1 X-61.348 Y266.0328
G1 X-66.3574 Y267.3347
G1 X-68.9439 Y268.003
G1 X-71.6149 Y268.6883
G3 X-72.2883 Y268.8599 I-22.6664 J-87.5347
G1 X-73.6567 Y269.2064
G1 X-75.0482 Y269.5537
G1 X-75.7503 Y269.7251
G1 X-76.9905 Y270.0255
G1 X-78.2301 Y270.3284
G1 X-80.7079 Y270.9402
G1 X-81.4156 Y271.1162
G1 X-87.0755 Y272.5289
G1 X-88.6934 Y272.9296
G1 X-90.5436 Y273.3824
G1 X-90.6603 Y273.4107
G1 X-91.6557 Y273.6508
G1 X-91.7812 Y273.6808
G1 X-92.8521 Y273.9354
G1 X-93.4053 Y274.0653
G1 X-94.5861 Y274.3386
G1 X-95.8471 Y274.6236
G3 X-98.7367 Y275.2435 I-43.3356 J-194.9285
G1 X-99.4841 Y275.3951
G1 X-100.2565 Y275.5474
G1 X-101.0548 Y275.6997
G1 X-101.8798 Y275.8516
G3 X-103.6436 Y276.1551 I-23.8694 J-133.4088
G3 X-107.6955 Y276.7263 I-14.4274 J-87.6891
G1 X-107.9516 Y276.7558
G3 X-110.1413 Y276.9713 I-8.0028 J-70.0601
G3 X-115.169 Y277.1946 I-5.3191 J-63.0528
G3 X-120.9223 Y276.9216 I-0.2076 J-56.3722
G1 X-121.1936 Y276.894
G1 X-121.2841 Y276.8842
G1 X-121.6453 Y276.8427
G1 X-121.8858 Y276.8125
G3 X-122.2061 Y276.769 I2.4232 J-19.0641
G1 X-122.6323 Y276.7051
G3 X-124.3236 Y276.3725 I3.6318 J-22.9359
G1 X-124.5468 Y276.3178
G3 X-125.7248 Y275.9782 I3.9908 J-16.055
G3 X-127.2474 Y275.3817 I4.2392 J-13.0621
G3 X-129.1296 Y274.2762 I4.464 J-9.7556
G3 X-130.0829 Y273.4653 I5.4749 J-7.4012
G3 X-131.0197 Y272.3787 I6.0926 J-6.2001
G1 X-126.5494 Y273.9537
G1 X-125.8318 Y274.0288
G1 X-125.5924 Y274.0523
G1 X-125.4556 Y274.0653
G1 X-125.2992 Y274.0799
G1 X-124.8819 Y274.1171
G1 X-124.3253 Y274.163
G1 X-124.1768 Y274.1745
G2 X-121.7981 Y274.3175 I5.4607 J-70.9872
G2 X-120.2103 Y274.3702 I4.0324 J-97.4839
G2 X-113.8586 Y274.2547 I1.7195 J-80.1181
G2 X-113.0131 Y274.2018 I-4.4933 J-78.5655
G2 X-112.1118 Y274.1361 I-5.7051 J-84.5673
G2 X-111.1512 Y274.0559 I-4.7504 J-62.6842
G2 X-108.9592 Y273.8345 I-9.6883 J-106.8852
G2 X-103.1442 Y273.0096 I-12.1553 J-106.593
G2 X-99.8429 Y272.4066 I-22.6496 J-133.3384
G1 X-99.4248 Y272.3242
G1 X-99.0003 Y272.2392
G2 X-95.1315 Y271.4096 I-35.3219 J-174.1576
G1 X-94.1362 Y271.1819
G2 X-93.11 Y270.9419 I-29.2077 J-127.2126
G2 X-88.4332 Y269.7943 I-64.4017 J-272.5543
G1 X-87.8404 Y269.644
G1 X-87.2385 Y269.4907
G1 X-86.6272 Y269.3342
G1 X-86.0064 Y269.1747
G1 X-83.3595 Y268.4903
G1 X-80.7001 Y267.7951
G1 X-79.8139 Y267.5625
G1 X-79.5775 Y267.5005
G1 X-75.7964 Y266.5068
G1 X-68.2349 Y264.5171
G1 X-53.1128 Y260.5339
G1 X-52.1372 Y260.2768
G1 X-41.731 Y257.5343
G1 X-0.1075 Y246.5589
G1 X1.3162 Y246.1197
G1 X2.7397 Y245.6798
G1 X5.5863 Y244.7987
G1 X11.278 Y243.0312
G1 X12.0367 Y242.795
G1 X12.846 Y242.5429
G1 X17.1609 Y241.1952
G1 X18.3114 Y240.8349
G1 X20.9402 Y240.0096
G1 X23.9436 Y239.0629
G1 X27.3741 Y237.975
G1 X29.2027 Y237.3913
G1 X30.1461 Y237.0889
G1 X32.1575 Y236.44
G1 X33.1948 Y236.1026
G1 X34.2648 Y235.7519
G1 X34.8079 Y235.5726
G1 X35.0815 Y235.4819
G1 X36.21 Y235.1038
G1 X36.7821 Y234.9088
G1 X36.4624 Y234.5555
G3 X24.1404 Y236.9495 I-55.3308 J-251.882
G3 X23.315 Y237.088 I-15.8982 J-92.2028
G3 X21.4268 Y237.3949 I-59.5213 J-360.198
G3 X21.3078 Y237.4138 I-0.633 J-3.6047
G3 X6.0146 Y239.4008 I-43.7557 J-276.9347
G3 X1.6273 Y239.8149 I-28.8852 J-282.5456
G3 X-33.5899 Y240.7641 I-25.6323 J-297.2381
G3 X-57.0233 Y239.0888 I9.4202 J-296.5034
G3 X-63.2429 Y238.3248 I30.5028 J-274.0094
G3 X-64.5272 Y238.1609 I5.2632 J-46.354
G3 X-64.7103 Y238.1349 I0.4822 J-4.0541
G3 X-64.8079 Y238.1208 I0.3959 J-3.0838
G3 X-64.9121 Y238.1056 I0.4279 J-3.2877
G3 X-65.0232 Y238.0891 I0.4655 J-3.5232
G3 X-65.1416 Y238.0713 I0.5103 J-3.8001
G3 X-67.0312 Y237.7579 I10.8624 J-71.3444
G1 X-67.5696 Y237.6598
G1 X-68.1843 Y237.544
G1 X-68.5119 Y237.4807
G1 X-69.2599 Y237.3331
G1 X-70.1139 Y237.16
G1 X-72.3888 Y236.6876
G1 X-73.6892 Y236.4197
G1 X-74.3833 Y236.2801
G1 X-74.7419 Y236.2095
G1 X-75.1122 Y236.1376
G1 X-75.9032 Y235.9892
G2 X-77.7169 Y235.6822 I-13.5538 J74.5547
G2 X-77.9479 Y235.6472 I-1.0333 J6.0533
G1 X-78.4253 Y235.5786
G1 X-78.9189 Y235.5132
G2 X-78.8055 Y235.6735 I0.969 J-0.5651
G1 X-78.7626 Y235.723
G2 X-78.5753 Y235.9057 I1.6571 J-1.5116
G2 X-78.1591 Y236.2202 I2.5294 J-2.9145
G1 X-78.0343 Y236.3016
G2 X-76.9954 Y236.8717 I5.6851 J-9.1285
G2 X-76.2791 Y237.2015 I7.6494 J-15.6709
G2 X-75.8649 Y237.378 I10.7705 J-24.7117
G2 X-74.7495 Y237.815 I10.6139 J-25.4472
G2 X-74.1058 Y238.0465 I8.4485 J-22.4809
G1 X-73.761 Y238.1649
G2 X-73.6731 Y238.1944 I0.5947 J-1.6234
G1 X-73.4917 Y238.2546
G1 X-73.1037 Y238.3794
G2 X-72.2097 Y238.639 I5.3439 J-16.7337
G2 X-71.5019 Y238.8136 I9.2574 J-36.0088
G2 X-71.4006 Y238.838 I0.4302 J-1.5615
G1 X-70.5903 Y239.0321
G3 X-68.9754 Y239.4429 I-10.726 J45.5519
G3 X-67.9122 Y239.7658 I-5.3037 J19.3712
G1 X-67.6323 Y239.8629
G3 X-67.0004 Y240.1076 I-3.9307 J11.0857
G3 X-66.2982 Y240.4356 I-3.2311 J7.8345
G3 X-65.5369 Y240.8911 I-3.1623 J6.1491
G3 X-64.7548 Y241.5433 I-3.142 J4.5626
G3 X-64.045 Y242.4784 I-3.1918 J3.1597
G3 X-63.5554 Y243.7472 I-4.1175 J2.318
G3 X-63.5853 Y244.0186 I-0.6264 J0.0681
G3 X-63.7222 Y244.2548 I-0.7071 J-0.2518
G3 X-63.8496 Y244.3846 I-0.7932 J-0.6515
G1 X-63.93 Y244.45
G3 X-64.1593 Y244.5992 I-1.1165 J-1.4653
G3 X-64.4829 Y244.7565 I-1.4812 J-2.635
G1 X-64.5715 Y244.7927
G3 X-65.0467 Y244.9542 I-1.8801 J-4.754
G3 X-65.6859 Y245.1124 I-2.5534 J-8.947
G3 X-66.0531 Y245.1821 I-3.475 J-17.3114
G1 X-66.1 Y245.19
G3 X-66.1965 Y245.2058 I-0.5022 J-2.7678
G3 X-67.2186 Y245.3241 I-1.9132 J-12.0509
G3 X-70.1901 Y245.3832 I-3.3624 J-94.3285
G3 X-71.1809 Y245.3837 I-0.5214 J-61.7036
G3 X-75.1425 Y245.2948 I0.6588 J-117.7353
G3 X-77.7809 Y245.1607 I5.4246 J-132.7668
G1 X-78.4839 Y245.1156
G3 X-82.2289 Y244.8147 I10.4659 J-153.7016
G1 X-83.2261 Y244.7186
G1 X-84.2891 Y244.6094
G1 X-85.4223 Y244.4857
G1 X-86.6301 Y244.3462
G1 X-87.9175 Y244.1894
G1 X-88.5815 Y244.1054
G1 X-89.2667 Y244.0168
G1 X-89.9737 Y243.9233
G1 X-90.7033 Y243.8247
G1 X-91.4562 Y243.7209
G1 X-92.233 Y243.6119
G1 X-93.8892 Y243.3732
G1 X-95.6547 Y243.1112
G1 X-96.5655 Y242.9736
G1 X-97.5056 Y242.8303
G1 X-98.4757 Y242.6812
G1 X-102.909 Y241.9951
G1 X-105.2739 Y241.6334
G2 X-105.572 Y241.5884 I-1.8895 J11.5019
G2 X-105.8724 Y241.5432 I-1.8405 J11.2087
G1 X-107.1129 Y241.3584
G2 X-109.7611 Y240.9769 I-46.5018 J313.4144
G1 X-111.1291 Y240.7885
G2 X-112.542 Y240.6013 I-21.8322 J159.3598
G1 X-113.2602 Y240.5094
G2 X-119.8398 Y239.7909 I-23.2928 J182.8332
G2 X-119.9431 Y239.7817 I-0.3193 J2.9934
G2 X-120.0465 Y239.7725 I-0.3165 J2.9846
G2 X-120.1502 Y239.7634 I-0.3138 J2.9757
G2 X-120.2541 Y239.7544 I-0.311 J2.9668
G2 X-127.8666 Y239.3103 I-11.2457 J127.308
G2 X-131.9352 Y239.2756 I-2.9898 J111.9512
G1 X-132.4479 Y239.2824
G2 X-133.7605 Y239.609 I0.6338 J5.3483
G1 X-133.9404 Y239.6808
G2 X-134.0354 Y239.7213 I0.5069 J1.3188
G2 X-135.4471 Y240.57 I2.5758 J5.8832
G2 X-136.2307 Y241.3422 I3.1699 J4.0004
G2 X-136.5834 Y241.8652 I2.7525 J2.2368
G2 X-136.8431 Y242.5434 I2.1592 J1.2155
G2 X-136.8215 Y243.3939 I1.6863 J0.3826
G2 X-136.1798 Y245.4993 I18.5049 J-4.4897
G2 X-135.9165 Y246.1844 I19.3345 J-7.0371
G1 X-135.7564 Y246.5721
G2 X-135.299 Y247.5925 I27.2927 J-11.6236
G2 X-134.6284 Y248.9239 I26.6124 J-12.5679
G2 X-134.4395 Y249.2737 I19.6014 J-10.3625
G2 X-134.2337 Y249.6445 I13.0398 J-6.9931
G2 X-133.7486 Y250.4834 I40.0122 J-22.5786
G2 X-133.4822 Y250.9262 I40.9253 J-24.3198
G1 X-133.1928 Y251.3952
G1 X-132.8786 Y251.8919
G2 X-131.1285 Y254.4891 I62.4618 J-40.2018
G1 X-130.6459 Y255.1705
G2 X-129.5288 Y256.7166 I169.3109 J-121.1708
G1 X-129.2383 Y257.114
G1 X-127.9095 Y258.9277
G1 X-127.8259 Y259.0422
G3 X-126.3174 Y261.1449 I-113.7098 J83.1741
G1 X-126.2708 Y261.2114
G1 X-125.8889 Y261.7624
G1 X-125.5004 Y262.335
G3 X-125.4035 Y262.4799 I-3.5127 J2.4531
G3 X-125.208 Y262.7754 I-21.1979 J14.2379
G1 X-125.0115 Y263.0768
G1 X-124.8142 Y263.3846
G1 X-124.7158 Y263.5403
G1 X-125.8316 Y264.2357
G3 X-125.4406 Y264.5599 I-11.998 J14.8656
G3 X-125.0533 Y264.8883 I-36.467 J43.4097
G1 X-124.7966 Y265.1091
G1 X-123.7747 Y265.9978
G1 X-123.4813 Y266.25
G1 X-123.1432 Y266.535
G2 X-122.2193 Y267.2677 I14.9498 J-17.9023
G1 X-122.0971 Y267.3585
G2 X-120.7475 Y268.2616 I10.61 J-14.394
G1 X-120.3608 Y268.2878
G1 X-119.9738 Y268.311
G2 X-119.9221 Y268.3139 I0.0549 J-0.5213
G2 X-119.867 Y268.3169 I0.0571 J-0.5396
G2 X-118.9858 Y268.3574 I3.6125 J-69.0861
G2 X-118.9288 Y268.3595 I0.0498 J-0.5681
G2 X-118.87 Y268.3616 I0.0505 J-0.5785
G1 X-118.2436 Y268.3808
G2 X-115.7368 Y268.3963 I1.7071 J-73.5257
G2 X-110.7286 Y268.1894 I-1.2085 J-89.9725
G2 X-110.4059 Y268.167 I-1.0106 J-16.9387
G2 X-110.0729 Y268.143 I-0.7804 J-13.1145
G2 X-106.5263 Y267.8278 I-9.6255 J-128.4499
G1 X-105.5822 Y267.7274
G2 X-100.5595 Y267.0925 I-17.4263 J-158.0586
G1 X-99.9129 Y266.9997
G1 X-99.2458 Y266.9015
G1 X-98.907 Y266.8507
G1 X-98.563 Y266.7985
G1 X-98.2137 Y266.7449
G1 X-97.8588 Y266.6898
G2 X-94.6199 Y266.158 I-36.0584 J-229.7428
G1 X-94.2091 Y266.087
G1 X-93.3616 Y265.9382
G2 X-89.4947 Y265.221 I-44.8918 J-252.818
G2 X-89.2515 Y265.1739 I-2.6685 J-14.4285
G1 X-88.2477 Y264.9771
G1 X-87.7381 Y264.8758
G1 X-87.2207 Y264.7719
G1 X-86.153 Y264.5545
G2 X-83.8782 Y264.0781 I-43.7186 J-214.4293
G1 X-83.5918 Y264.0169
G1 X-82.4101 Y263.7615
G1 X-81.8103 Y263.6301
G1 X-81.2012 Y263.4956
G2 X-75.6448 Y262.2169 I-82.6075 J-371.6787
G1 X-74.9406 Y262.0486
G1 X-74.5858 Y261.9632
G1 X-73.122 Y261.6076
G1 X-72.9384 Y261.5625
G1 X-71.4231 Y261.1877
G1 X-70.6539 Y260.9951
G1 X-69.0674 Y260.5932
G1 X-68.968 Y260.5678
G1 X-67.3287 Y260.1455
G2 X-49.9546 Y255.2791 I-119.0044 J-458.3159
G1 X-48.8581 Y254.9474
G1 X-47.7451 Y254.6075
G1 X-46.6148 Y254.2611
G1 X-44.6384 Y253.6892
G1 X-44.5066 Y253.6509
G1 X-44.366 Y253.6099
G1 X-43.617 Y253.3907
G1 X-42.6196 Y253.0946
G1 X-42.3539 Y253.0146
G1 X-41.747 Y252.83
G1 X-41.4238 Y252.7304
G2 X-39.7052 Y252.1816 I-24.9951 J-81.2449
G1 X-39.2489 Y252.0295
G2 X-36.8333 Y251.1642 I-19.3247 J-57.7567
G1 X-36.5244 Y251.045
G2 X-35.868 Y250.784 I-15.988 J-41.1644
G1 X-35.5307 Y250.6456
G2 X-32.0101 Y248.9906 I-15.3509 J-37.2279
G2 X-27.6326 Y246.1981 I-15.3023 J-28.8151
G1 X-30.991 Y243.7472
G3 X-30.677 Y243.6577 I1.6511 J5.1928
G1 X-30.5713 Y243.6323
G3 X-30.1425 Y243.5571 I0.9427 J4.1145
G3 X-29.2731 Y243.5732 I0.3801 J2.9511
G3 X-28.7155 Y243.7402 I-0.4515 J2.5211
G3 X-28.0532 Y244.1462 I-1.173 J2.6565
G3 X-27.7214 Y244.4413 I-2.8132 J3.4981
G3 X-27.3726 Y244.8068 I-4.4245 J4.5708
G3 X-26.9946 Y245.2378 I-49.0086 J43.3694
G2 X-26.5607 Y245.7206 I12.6789 J-10.9587
G2 X-26.0233 Y246.2216 I3.8569 J-3.5983
G2 X-25.3127 Y246.6611 I2.0614 J-2.5385
G2 X-24.3822 Y246.8991 I1.1652 J-2.6177
G2 X-24.2096 Y246.8082 I-3.2667 J-6.4054
G2 X-24.0442 Y246.705 I-2.2401 J-3.7747
G2 X-23.7534 Y246.4455 I-0.7896 J-1.1776
G2 X-23.6229 Y246.2189 I-0.6003 J-0.4968
G2 X-23.5968 Y245.8665 I-0.6321 J-0.224
G2 X-23.6537 Y245.6702 I-1.146 J0.2261
G2 X-23.6977 Y245.5704 I-1.1451 J0.4447
G2 X-23.8185 Y245.3557 I-2.1236 J1.0539
G2 X-23.9744 Y245.1267 I-6.1824 J4.0398
G2 X-24.0162 Y245.0689 I-0.613 J0.3993
G1 X-24.2032 Y244.8121
G1 X-24.25 Y244.7454
G3 X-24.436 Y244.4364 I2.1045 J-1.4773
G3 X-24.4731 Y244.3517 I0.7621 J-0.3845
G3 X-24.5229 Y244.1623 I0.7689 J-0.3035
G3 X-24.5047 Y243.9511 I0.4791 J-0.0651
G3 X-24.3822 Y243.7472 I0.5067 J0.1659
G1 X-23.913 Y243.756
G1 X-23.4436 Y243.7625
G1 X-23.1308 Y243.7655
G2 X-21.8792 Y243.7682 I0.7954 J-80.3229
G1 X-21.0449 Y243.7621
G2 X-20.568 Y243.756 I-0.2414 J-37.4845
G2 X-19.2968 Y243.7311 I-2.1142 J-140.5229
G2 X-19.2161 Y243.7291 I0.01 J-1.2379
G1 X-18.4783 Y243.7089
G1 X-17.6353 Y243.6815
G1 X-16.672 Y243.6449
G1 X-15.5713 Y243.5968
G1 X-14.9844 Y243.5687
G1 X-13.6433 Y243.4984
G1 X-12.9282 Y243.4579
G2 X-12.7466 Y243.4473 I-0.3352 J-7.3007
G2 X-8.8743 Y243.1964 I-19.0753 J-324.4916
G1 X-7.8421 Y243.1234
G1 X-7.3094 Y243.085
G1 X-4.8745 Y242.9056
G1 X-3.576 Y242.8087
G1 X-2.1909 Y242.7059
G1 X-0.7135 Y242.5985
G1 X0.8629 Y242.4882
G1 X1.2633 Y242.4612
G1 X1.6702 Y242.4343
G3 X-7.0403 Y245.2657 I-1263.0814 J-3870.9338
G1 X-7.6214 Y245.4535
G1 X-8.2412 Y245.6536
G1 X-11.5482 Y246.717
G1 X-12.4305 Y246.999
G1 X-14.4484 Y247.64
G1 X-15.5257 Y247.9785
G1 X-16.6764 Y248.3344
G1 X-16.9691 Y248.4233
G1 X-17.1168 Y248.4677
G1 X-17.4171 Y248.5567
G1 X-17.5687 Y248.6007
G1 X-19.2291 Y249.0729
G1 X-20.8899 Y249.5431
G1 X-21.1114 Y249.6056
G1 X-24.6564 Y250.6023
G1 X-27.0208 Y251.2629
G1 X-30.1746 Y252.1392
G1 X-31.9775 Y252.6378
G1 X-34.0382 Y253.2056
G1 X-36.3942 Y253.8522
G1 X-39.0876 Y254.5878
G3 X-60.6706 Y260.3395 I-500.2005 J-1833.6051
G1 X-63.5537 Y261.086
G1 X-65.0424 Y261.4691
G1 X-68.2195 Y262.2809
G1 X-69.8601 Y262.6969
G3 X-77.3673 Y264.5692 I-297.0066 J-1174.8723
G1 X-79.3068 Y265.0436
G1 X-81.31 Y265.529
G1 X-83.3789 Y266.025
G3 X-87.7972 Y267.0643 I-162.093 J-679.2101
G1 X-88.9204 Y267.3236
G1 X-90.062 Y267.585
G1 X-91.2221 Y267.8481
G1 X-91.807 Y267.9797
G1 X-92.9958 Y268.2452
G3 X-93.2943 Y268.3114 I-6.1141 J-26.8696
G3 X-94.5075 Y268.5783 I-72.6524 J-327.3079
G1 X-94.8122 Y268.6448
G1 X-96.0504 Y268.9127
G3 X-101.344 Y270.0081 I-70.3386 J-326.5895
G1 X-102.0123 Y270.1395
G1 X-102.6862 Y270.27
G3 X-105.4731 Y270.787 I-33.1022 J-170.6695
G1 X-105.5605 Y270.8026
G1 X-105.9112 Y270.8644
G1 X-106.2634 Y270.9258
G3 X-109.1776 Y271.3981 I-21.1521 J-121.2931
G1 X-109.5442 Y271.4521
G1 X-109.7279 Y271.4787
G3 X-113.1248 Y271.884 I-9.7045 J-66.9045
G3 X-116.5402 Y272.0808 I-4.5367 J-48.9879
G3 X-117.5179 Y272.0894 I-0.9138 J-48.3202
G3 X-120.1232 Y271.9905 I0.0457 J-35.5828
G3 X-121.6065 Y271.8463 I2.5703 J-34.1356
G3 X-121.6998 Y271.8349 I0.2448 J-2.3939
G3 X-121.7937 Y271.8232 I0.2462 J-2.35
G3 X-121.8883 Y271.8111 I0.2477 J-2.3077
G3 X-125.879 Y271.0119 I3.6358 J-28.518
G1 X-126.128 Y270.9419
G3 X-128.3717 Y270.1919 I7.6284 J-26.5528
G2 X-128.4426 Y269.3488 I-3.5459 J-0.1263
G2 X-128.6648 Y268.5324 I-6.2234 J1.2552
G1 X-128.7449 Y268.3043
G2 X-128.8424 Y268.0458 I-6.2086 J2.1953
G2 X-129.1216 Y267.3656 I-19.2212 J7.4907
G1 X-129.2857 Y266.9792
G3 X-129.4686 Y266.5361 I14.4253 J-6.2169
G1 X-129.561 Y266.2977
G1 X-129.6063 Y266.1739
G3 X-129.7804 Y265.5966 I5.106 J-1.8547
G3 X-129.836 Y265.2791 I3.2056 J-0.7249
G3 X-129.8425 Y264.9334 I1.6118 J-0.2035
G3 X-129.7496 Y264.5692 I1.098 J0.0862
G3 X-129.4949 Y264.2357 I0.8869 J0.4133
G2 X-130.0405 Y263.4145 I-73.9565 J48.5406
G2 X-130.1186 Y263.2973 I-3.6466 J2.3484
G1 X-130.746 Y262.3612
G2 X-130.8299 Y262.2365 I-4.1219 J2.683
G2 X-130.9194 Y262.1035 I-4.3121 J2.8076
G2 X-131.015 Y261.9617 I-4.5171 J2.9421
G2 X-131.117 Y261.8106 I-4.7386 J3.0876
G1 X-131.6621 Y261.0052
G2 X-133.8551 Y257.792 I-826.8408 J561.9568
G1 X-135.3202 Y255.6521
G1 X-136.1555 Y254.4279
G1 X-136.5999 Y253.7743
G1 X-136.8289 Y253.4366
G3 X-137.8714 Y251.8904 I359.4041 J-243.4358
G3 X-140.6013 Y247.7336 I209.8659 J-140.7995
G1 X-140.7713 Y247.4675
G1 X-141.1209 Y246.9172
G1 X-141.4794 Y246.3478
G3 X-142.2362 Y245.1279 I85.8746 J-54.1155
G3 X-143.9175 Y242.3097 I101.397 J-62.4017
G1 X-144.1255 Y241.9485
G1 X-144.3355 Y241.5808
G3 X-146.1834 Y238.179 I84.4648 J-48.084
G3 X-148.1072 Y234.1929 I68.5456 J-35.5391
G1 X-148.2205 Y233.9381
G0 Z5.0
M5
M30
