( Made using CamBam - http://www.cambam.co.uk )
( _2014_1_20_car 1/20/2014 11:31:17 PM )
( T0 : 0.0 )
G21 G90 G64 G40
G0 Z5.0
( T0 : 0.0 )
T0 M6
( 112 )
G17
M3 S1000
G0 X-301.663 Y117.3165
G1 F1.0 Z0.0
G1 X-301.7392 Y117.3473
G1 X-301.8154 Y117.3782
G1 X-301.8662 Y117.3989
G1 X-302.0693 Y117.4821
G1 X-302.2045 Y117.538
G1 X-302.3845 Y117.613
G1 X-303.1027 Y117.9174
G1 X-303.3074 Y118.0055
G1 X-303.8524 Y118.2427
G1 X-303.9975 Y118.3064
G1 X-304.77 Y118.6493
G2 X-307.8424 Y120.0603 I75.1256 J167.6308
G2 X-313.9272 Y123.008 I125.4837 J266.7899
G2 X-313.9747 Y123.0316 I0.2323 J0.5262
G2 X-314.0224 Y123.0554 I0.2335 J0.5285
G2 X-314.0703 Y123.0793 I0.2346 J0.5308
G2 X-314.1184 Y123.1032 I0.2358 J0.5332
G2 X-314.1666 Y123.1273 I0.2369 J0.5355
G1 X-314.9887 Y123.5387
G2 X-327.9993 Y130.3956 I167.8706 J334.2964
G1 X-328.4077 Y130.6218
G2 X-332.1276 Y132.7161 I154.0685 J277.9993
G1 X-333.083 Y133.2646
G1 X-334.0671 Y133.8346
G1 X-335.0806 Y134.4269
G1 X-336.1241 Y135.0428
G1 X-336.3866 Y135.1988
G1 X-337.4686 Y135.8458
G1 X-338.582 Y136.5195
G1 X-339.7275 Y137.2213
G2 X-344.9054 Y140.5235 I99.789 J162.18
G1 X-345.5548 Y140.9555
G1 X-346.2122 Y141.3977
G1 X-346.8776 Y141.8505
G1 X-347.5509 Y142.3145
G1 X-347.8891 Y142.55
G2 X-349.2772 Y143.534 I77.0979 J110.229
G2 X-350.6943 Y144.5722 I66.5961 J92.383
G1 X-350.8708 Y144.7043
G1 X-351.0477 Y144.8373
G1 X-351.4033 Y145.1066
G1 X-351.7604 Y145.38
G2 X-353.2185 Y146.5302 I39.7267 J51.8584
G1 X-353.5812 Y146.826
G2 X-354.3114 Y147.4352 I31.5836 J38.5986
G2 X-355.7855 Y148.7335 I31.052 J36.7431
G2 X-357.244 Y150.1452 I24.7279 J27.0083
G1 X-357.421 Y150.3285
G1 X-357.465 Y150.3746
G2 X-358.8529 Y151.9648 I15.987 J15.353
G2 X-359.4875 Y152.8323 I12.0588 J9.4876
G2 X-360.055 Y153.7706 I9.0749 J6.1292
G2 X-360.2978 Y154.2693 I5.9184 J3.1907
G1 X-360.3527 Y154.3971
G2 X-360.6813 Y155.4949 I4.6248 J1.9823
G2 X-359.8453 Y158.2465 I15.0554 J-3.0713
G2 X-358.5157 Y160.7966 I14.554 J-5.967
G2 X-358.0555 Y161.4785 I12.7647 J-8.1165
G2 X-357.9948 Y161.5636 I1.8701 J-1.2715
G2 X-356.5896 Y163.2903 I15.7787 J-11.4055
G2 X-354.4503 Y165.341 I16.9918 J-15.5845
G2 X-353.84 Y165.8431 I26.8185 J-31.9789
G2 X-352.3972 Y166.9262 I19.1291 J-23.9796
G2 X-350.6831 Y168.0653 I20.6547 J-29.2191
G2 X-349.7462 Y168.6354 I22.0131 J-35.1241
G1 X-349.2576 Y168.9204
G2 X-348.2056 Y169.5089 I29.3455 J-51.2248
G2 X-348.1391 Y169.545 I0.8389 J-1.4643
G1 X-347.5888 Y169.8397
G1 X-347.018 Y170.1375
G1 X-346.426 Y170.4386
G2 X-345.1558 Y171.0615 I36.7593 J-73.3566
G1 X-344.8315 Y171.216
G2 X-343.4437 Y171.8597 I54.9946 J-116.7586
G2 X-340.2546 Y173.2606 I68.7194 J-152.1012
G2 X-338.5483 Y173.986 I114.0499 J-265.9071
G1 X-336.7317 Y174.7571
G1 X-336.5031 Y174.8549
G1 X-335.5615 Y175.2608
G1 X-335.4435 Y175.3122
G3 X-335.1095 Y175.4722 I-2.2937 J5.217
G3 X-334.7938 Y175.6657 I-1.2661 J2.4204
G3 X-334.7116 Y175.7326 I-0.4519 J0.6382
G3 X-334.631 Y175.8238 I-0.3222 J0.3662
G3 X-334.6069 Y175.8856 I-0.12 J0.0823
G3 X-334.6506 Y175.9584 I-0.0722 J0.0062
G3 X-334.7638 Y175.9855 I-0.1234 J-0.2659
G3 X-334.9015 Y175.9834 I-0.0588 J-0.6764
G1 X-334.9679 Y175.9764
G3 X-335.3823 Y175.8882 I0.415 J-2.9687
G3 X-335.4802 Y175.86 I0.3219 J-1.3009
G1 X-335.5328 Y175.844
G3 X-342.4086 Y173.563 I40.4307 J-133.378
G3 X-344.6704 Y172.7165 I39.2233 J-108.2465
G1 X-345.2704 Y172.4825
G3 X-348.4446 Y171.1704 I38.4288 J-97.4588
G3 X-348.6445 Y171.0832 I3.3589 J-7.9788
G3 X-348.8474 Y170.9942 I4.0601 J-9.529
G3 X-353.1182 Y168.969 I32.7763 J-74.6357
G1 X-353.6601 Y168.689
G1 X-353.9344 Y168.545
G1 X-354.2125 Y168.3974
G1 X-354.4944 Y168.2462
G1 X-354.7799 Y168.0914
G3 X-357.3543 Y166.6097 I32.0017 J-58.5803
G1 X-357.5141 Y166.5122
G3 X-358.1705 Y166.1044 I28.1098 J-45.9783
G1 X-358.335 Y166.0003
G3 X-361.2758 Y163.9912 I28.5795 J-44.9908
G3 X-362.7832 Y162.8337 I24.7331 J-33.7685
G1 X-363.1581 Y162.5297
G3 X-364.7188 Y161.1838 I25.3165 J-30.9355
G3 X-366.3042 Y159.6586 I23.7549 J-26.2794
G1 X-366.4973 Y159.4598
G3 X-368.0807 Y157.6988 I23.2989 J-22.5401
G3 X-369.6234 Y155.6932 I22.9612 J-19.2584
G3 X-369.9879 Y155.1634 I21.6826 J-15.3077
G3 X-371.4072 Y152.8079 I22.7424 J-15.3081
G3 X-372.6171 Y150.4099 I52.2772 J-27.8805
G1 X-372.7815 Y150.0631
G3 X-374.0406 Y147.2636 I94.299 J-44.0977
G1 X-374.3872 Y146.458
G1 X-374.7794 Y145.5355
G1 X-375.2249 Y144.4802
G1 X-375.7346 Y143.2744
G2 X-377.1305 Y140.0751 I-124.4954 J52.414
G2 X-377.2224 Y139.8734 I-7.1916 J3.1534
G2 X-377.3162 Y139.6687 I-6.8458 J3.0152
G2 X-377.4121 Y139.461 I-6.5251 J2.8876
G2 X-378.3196 Y137.5769 I-63.0546 J29.2081
G2 X-378.3788 Y137.4592 I-3.0895 J1.4814
G2 X-378.8958 Y136.4607 I-53.1384 J26.8803
G2 X-379.4718 Y135.4086 I-38.169 J20.2123
G2 X-380.1172 Y134.3035 I-40.7518 J23.0605
G3 X-376.2 Y131.5115 I111.5107 J152.3032
G3 X-376.0724 Y131.4231 I3.0925 J4.3297
G3 X-375.9406 Y131.332 I3.1366 J4.397
G3 X-375.8045 Y131.2381 I3.1814 J4.4653
G3 X-375.6639 Y131.1413 I3.2266 J4.5348
G3 X-375.5186 Y131.0415 I3.2725 J4.6056
G3 X-375.3686 Y130.9385 I3.3191 J4.6776
G3 X-375.2137 Y130.8325 I3.3663 J4.751
G1 X-374.5042 Y130.3495
G1 X-373.6908 Y129.8012
G3 X-367.0974 Y125.5471 I128.5591 J192.0117
G1 X-366.2081 Y124.996
G1 X-365.2571 Y124.412
G1 X-364.2402 Y123.7931
G1 X-363.1527 Y123.1375
G1 X-361.9899 Y122.4431
G1 X-360.7464 Y121.7078
G1 X-359.4167 Y120.929
G1 X-357.9948 Y120.1045
G1 X-356.4745 Y119.2313
G1 X-354.8491 Y118.3066
G3 X-351.1215 Y116.2151 I354.9353 J628.2349
G3 X-350.8861 Y116.0843 I5.4341 J9.4953
G3 X-350.6489 Y115.9525 I5.524 J9.664
G3 X-350.4097 Y115.8197 I5.6184 J9.841
G3 X-350.1686 Y115.686 I5.7178 J10.0271
G3 X-349.9256 Y115.5514 I5.8226 J10.2232
G3 X-349.6805 Y115.4157 I5.9332 J10.43
G3 X-349.4335 Y115.2792 I6.0503 J10.6486
G3 X-349.1845 Y115.1416 I6.1745 J10.8803
G3 X-348.9335 Y115.003 I6.3064 J11.1262
G3 X-348.6805 Y114.8634 I6.4471 J11.3882
G3 X-348.4255 Y114.7228 I6.5973 J11.6678
G3 X-348.1683 Y114.5812 I6.7584 J11.9673
G3 X-347.9092 Y114.4386 I6.9317 J12.2892
G3 X-347.6479 Y114.2949 I7.1187 J12.6364
G1 X-345.417 Y113.0721
G1 X-343.0349 Y111.7725
G1 X-340.4925 Y110.3894
G1 X-339.18 Y109.6759
G1 X-337.8253 Y108.9393
G1 X-337.1372 Y108.5649
G1 X-334.2035 Y106.9651
G1 X-332.6908 Y106.1367
G1 X-331.1307 Y105.2791
G1 X-330.339 Y104.8423
G1 X-329.5351 Y104.3975
G1 X-328.7192 Y103.9447
G1 X-328.3082 Y103.7161
G1 X-327.8942 Y103.4854
G1 X-326.1866 Y102.5294
G1 X-325.5774 Y102.2761
G1 X-325.3744 Y102.1915
G1 X-324.5611 Y101.8559
G3 X-322.9237 Y101.2119 I21.9177 J53.3234
G1 X-322.7037 Y101.1301
G1 X-322.4686 Y101.0442
G1 X-322.2173 Y100.9541
G3 X-320.866 Y100.5054 I12.1351 J34.2813
G1 X-320.5024 Y100.3959
G3 X-318.538 Y99.9018 I7.1414 J24.2362
G1 X-318.2817 Y99.8505
G3 X-317.7327 Y99.7522 I4.8917 J25.729
G3 X-316.4676 Y99.5885 I3.1718 J19.5381
G3 X-316.3875 Y99.5812 I0.1972 J1.7363
G3 X-316.3067 Y99.5743 I0.1901 J1.7485
G3 X-314.825 Y99.5218 I1.3111 J16.0422
G3 X-314.4423 Y99.5324 I-0.7427 J33.5682
G3 X-312.6992 Y99.7219 I-0.5188 J12.8824
G1 X-312.4803 Y99.7634
G3 X-310.5182 Y100.3352 I-2.2448 J11.3549
G1 X-309.1978 Y102.8501
G1 X-308.7588 Y103.689
G1 X-307.0071 Y107.0468
G1 X-305.8417 Y109.2866
G1 X-304.2889 Y112.2736
G1 X-302.2167 Y116.2553
G1 X-301.663 Y117.3165
G0 Z5.0
M5
M30
