( Made using CamBam - http://www.cambam.co.uk )
( _2014_1_20_car 1/20/2014 11:31:46 PM )
( T0 : 0.0 )
G21 G90 G64 G40
G0 Z5.0
( T0 : 0.0 )
T0 M6
( 213 )
G17
M3 S1000
G0 X221.956 Y156.196
G1 F1.0 Z0.0
G1 X221.4746 Y156.0384
G1 X220.9977 Y155.8797
G3 X217.2355 Y154.5524 I40.2074 J-119.9682
G3 X213.7401 Y153.2178 I61.3229 J-165.8459
G3 X207.2568 Y150.5298 I76.0093 J-192.4915
G3 X196.114 Y145.3315 I92.0502 J-211.8579
G3 X194.0508 Y144.2862 I77.2135 J-154.958
G1 X193.0871 Y143.7882
G1 X192.621 Y143.545
G1 X192.1628 Y143.3044
G3 X188.5769 Y141.3668 I95.1114 J-180.3136
G1 X187.7972 Y140.9317
G3 X187.4202 Y140.7194 I10.4174 J-18.9403
G1 X187.0495 Y140.5094
G1 X186.3213 Y140.0932
G1 X185.6178 Y139.6863
G1 X185.2776 Y139.4877
G1 X184.9432 Y139.2914
G3 X179.7525 Y136.0724 I63.4376 J-108.091
G1 X179.2729 Y135.7558
G3 X175.6243 Y133.1993 I46.0939 J-69.6676
G3 X175.5822 Y133.168 I0.2889 J-0.4323
G3 X175.5403 Y133.1368 I0.288 J-0.4302
G3 X175.4986 Y133.1057 I0.2871 J-0.4282
G3 X174.1836 Y132.0971 I41.9487 J-56.0583
G3 X173.6163 Y131.6438 I21.9608 J-28.0626
G1 X173.3524 Y131.4286
G1 X173.098 Y131.2183
G3 X171.18 Y129.5253 I25.5227 J-30.8455
G3 X169.8223 Y128.162 I19.5205 J-20.7977
G3 X168.8733 Y127.0705 I14.9035 J-13.917
G3 X168.852 Y127.044 I0.1875 J-0.1731
G3 X168.8308 Y127.0177 I0.1867 J-0.1716
G3 X168.1895 Y126.1616 I11.5314 J-9.3074
G3 X167.7525 Y125.4879 I11.0294 J-7.6324
G3 X167.1975 Y124.4183 I7.8633 J-4.7585
G1 X167.1392 Y124.2793
G3 X166.9593 Y123.783 I5.6844 J-2.3411
G3 X166.824 Y123.2727 I5.1216 J-1.6315
G3 X167.8863 Y123.1919 I1.5122 J12.8479
G3 X169.8781 Y123.2586 I0.5059 J14.657
G3 X169.9863 Y123.2697 I-0.1176 J1.6812
G3 X171.6922 Y123.5335 I-2.1336 J19.4481
G3 X173.1619 Y123.8765 I-4.9203 J24.3961
G3 X174.4313 Y124.2391 I-10.5991 J39.5203
G1 X174.9828 Y124.4109
G3 X175.0474 Y124.4315 I-0.4198 J1.4285
G3 X176.0684 Y124.7668 I-16.2887 J51.3266
G1 X176.514 Y124.9173
G1 X177.3488 Y125.2018
G1 X178.0797 Y125.4497
G1 X178.7208 Y125.6625
G2 X179.8486 Y126.0169 I11.8054 J-35.6
G2 X180.7018 Y126.259 I7.5192 J-24.8658
G2 X181.9966 Y126.5647 I5.4 J-19.9783
G2 X183.3107 Y126.7724 I2.8634 J-13.8571
G2 X182.6195 Y125.9993 I-30.7955 J26.8345
G2 X179.8038 Y123.1352 I-41.8014 J38.28
G1 X179.4841 Y122.8343
G1 X179.1673 Y122.5404
G1 X178.8534 Y122.2532
G1 X178.5427 Y121.9726
G2 X176.0366 Y119.83 I-46.3784 J51.709
G2 X171.4501 Y116.3324 I-57.992 J71.2907
G2 X171.01 Y116.0184 I-18.2303 J25.0854
G1 X170.7963 Y115.867
G2 X167.3916 Y113.5388 I-79.0729 J111.9808
G1 X167.0692 Y113.3253
G1 X166.7565 Y113.119
G1 X166.4532 Y112.9198
G1 X166.159 Y112.7273
G1 X165.8737 Y112.5414
G2 X163.6539 Y111.1139 I-124.5413 J191.2351
G1 X163.2362 Y110.8485
G1 X161.6671 Y109.8578
G1 X159.3085 Y108.3796
G1 X156.9499 Y106.9013
G1 X96.0943 Y71.2649
G1 X52.2276 Y47.4031
G1 X50.1969 Y46.3395
G3 X50.1767 Y45.8165 I2.0621 J-0.3416
G3 X50.2851 Y45.3678 I1.3799 J0.0958
G3 X50.5181 Y45.051 I0.7928 J0.339
G3 X50.811 Y44.8951 I0.5245 J0.6321
G3 X51.0923 Y44.8483 I0.3312 J1.1232
G1 X51.1078 Y44.8476
G3 X51.5966 Y44.8958 I0.0439 J2.0604
G3 X52.2963 Y45.1196 I-0.9007 J4.0217
G1 X52.4652 Y45.1919
G3 X52.9602 Y45.4339 I-3.0024 J6.767
G3 X54.4041 Y46.1984 I-594.9267 J1125.3437
G1 X57.1983 Y47.686
G1 X58.5073 Y48.385
G1 X61.042 Y49.7417
G1 X63.4168 Y51.0164
G1 X65.6419 Y52.2139
G1 X67.7266 Y53.3388
G1 X68.7035 Y53.8669
G1 X68.8218 Y53.9308
G1 X70.7062 Y54.9515
G1 X72.4719 Y55.9102
G1 X75.7798 Y57.7127
G1 X78.671 Y59.2959
G1 X79.303 Y59.643
G1 X81.7502 Y60.9912
G1 X82.8201 Y61.5827
G3 X82.8828 Y61.6174 I-0.6795 J1.3014
G3 X82.9452 Y61.652 I-0.672 J1.2874
G1 X83.9397 Y62.2033
G1 X84.8716 Y62.721
G1 X85.7447 Y63.2073
G1 X87.3804 Y64.1214
G1 X87.5593 Y64.2216
G1 X87.7353 Y64.3203
G1 X89.1202 Y65.0987
G1 X89.7257 Y65.4402
G1 X90.8599 Y66.0821
G1 X91.3557 Y66.3636
G1 X92.2847 Y66.8928
G1 X93.9079 Y67.8232
G1 X95.1227 Y68.5253
G1 X95.3503 Y68.6575
G1 X95.7767 Y68.9057
G1 X96.5219 Y69.3415
G1 X97.0801 Y69.6696
G1 X97.4982 Y69.9166
G1 X98.1245 Y70.2885
G1 X98.4372 Y70.4752
G1 X98.5153 Y70.522
G1 X98.6325 Y70.5922
G1 X98.7495 Y70.6624
G1 X156.5372 Y104.7088
G1 X157.0382 Y105.0039
G1 X157.5311 Y105.295
G3 X159.4674 Y106.4484 I-122.251 J207.4424
G3 X163.076 Y108.648 I-137.2398 J229.2056
G1 X163.8609 Y109.1368
G3 X164.6195 Y109.6131 I-46.7289 J75.2529
G3 X170.4275 Y113.415 I-103.0634 J163.7866
G3 X174.6816 Y116.418 I-84.6913 J124.4909
G1 X175.4675 Y116.9976
G3 X181.2183 Y121.5308 I-74.6132 J100.5699
G1 X181.5684 Y121.8257
G3 X186.6655 Y126.4246 I-67.9869 J80.474
G3 X187.3244 Y127.3224 I-3.2812 J3.099
G3 X187.5232 Y127.7441 I-3.0429 J1.6919
G3 X187.5932 Y127.9424 I-3.6296 J1.3926
G3 X187.6831 Y128.3302 I-2.1579 J0.7047
G3 X187.7014 Y128.6834 I-1.7079 J0.2654
G3 X187.6502 Y128.9905 I-1.2137 J-0.0442
G3 X187.3593 Y129.4413 I-0.8733 J-0.2443
G3 X187.0083 Y129.6239 I-0.6237 J-0.7706
G3 X186.7179 Y129.6763 I-0.3987 J-1.378
G3 X186.2766 Y129.6625 I-0.1544 J-2.1236
G1 X186.2219 Y129.655
G3 X185.8435 Y129.5765 I0.4147 J-2.9514
G1 X184.9293 Y129.3553
G1 X184.0736 Y129.1423
G1 X183.2722 Y128.939
G1 X182.5214 Y128.7461
G1 X179.7074 Y128.0176
G2 X179.4434 Y127.9498 I-3.0871 J11.4768
G1 X178.4198 Y127.6897
G1 X177.9715 Y127.5775
G1 X177.1302 Y127.3707
G2 X174.1734 Y126.6985 I-20.9277 J85.2149
G1 X173.9878 Y126.66
G2 X173.9442 Y126.6511 I-0.1584 J0.6605
G2 X173.8585 Y126.6335 I-0.2325 J0.9184
G2 X171.1902 Y126.155 I-11.0494 J53.9378
G2 X171.3689 Y126.2984 I4.4493 J-5.3624
G2 X183.1646 Y134.8941 I99.9242 J-124.7314
G2 X183.3073 Y134.9884 I4.3391 J-6.4147
G2 X187.9094 Y137.914 I85.6403 J-129.6352
G2 X204.7327 Y146.9077 I85.475 J-139.6555
G2 X222.4765 Y153.9125 I70.6696 J-153.0364
G3 X222.8013 Y153.621 I2.6202 J2.5931
G1 X222.9295 Y153.5171
G2 X222.9576 Y153.4942 I-0.2357 J-0.3197
G1 X223.0661 Y153.4051
G2 X223.2509 Y153.242 I-2.3717 J-2.8726
G2 X223.3801 Y153.1081 I-0.9791 J-1.0747
G2 X223.5379 Y152.8772 I-0.7869 J-0.7069
G2 X223.6035 Y152.6052 I-0.5473 J-0.276
G1 X223.5205 Y152.4326
G1 X222.8645 Y151.0611
G1 X222.5589 Y150.4171
G1 X221.9716 Y149.1673
G1 X221.4276 Y147.9923
G3 X219.4672 Y143.5498 I136.5455 J-62.9091
G3 X219.4231 Y143.4448 I3.5557 J-1.5551
G3 X218.0807 Y140.0888 I101.1168 J-42.3911
G1 X217.8429 Y139.4539
G1 X217.6244 Y138.8571
G3 X216.8477 Y136.604 I71.5013 J-25.9087
G3 X215.8292 Y133.1774 I61.6789 J-20.1975
G3 X215.6065 Y132.3117 I67.2462 J-17.7624
G3 X215.4488 Y131.6601 I27.1666 J-6.9204
G3 X215.4344 Y131.5989 I1.2817 J-0.3331
G3 X215.0273 Y129.6937 I44.2285 J-10.448
G1 X215.0067 Y129.5796
G3 X214.9478 Y129.1067 I3.9501 J-0.7322
G1 X214.944 Y129.0263
G3 X214.9479 Y128.851 I1.2321 J-0.0606
G3 X214.9787 Y128.7034 I0.5293 J0.0334
G3 X215.0108 Y128.6532 I0.1473 J0.059
G3 X215.1011 Y128.6477 I0.0485 J0.053
G3 X215.2095 Y128.753 I-0.2008 J0.3153
G3 X215.2819 Y128.8625 I-1.2576 J0.9094
G1 X215.3103 Y128.9124
G3 X215.4904 Y129.3027 I-2.9558 J1.6003
G3 X215.6372 Y129.7067 I-6.3041 J2.5189
G1 X215.7757 Y130.108
G1 X215.8449 Y130.3052
G1 X215.9142 Y130.5006
G1 X215.9837 Y130.6943
G1 X216.1233 Y131.0778
G1 X216.2629 Y131.4545
G2 X216.3325 Y131.6397 I5.0343 J-1.7858
G1 X216.3672 Y131.7315
G2 X217.5333 Y134.6324 I76.7563 J-29.1691
G1 X217.8024 Y135.2612
G2 X220.0269 Y140.0715 I103.4229 J-44.9095
G2 X221.8346 Y143.6115 I115.1262 J-56.5563
G2 X221.8783 Y143.6938 I1.2302 J-0.6
G2 X221.9217 Y143.7755 I1.209 J-0.5902
G2 X221.9648 Y143.8565 I1.1886 J-0.5808
G2 X224.8175 Y148.9335 I112.5128 J-59.8788
G1 X225.1906 Y149.5586
G1 X225.3551 Y149.8314
G1 X225.6656 Y150.3415
G2 X225.9396 Y150.7866 I25.9471 J-15.6692
G1 X226.1812 Y151.1748
G2 X227.9251 Y153.8585 I69.7012 J-43.3835
G3 X228.2372 Y154.4207 I-2.7589 J1.8994
G3 X228.3978 Y154.9853 I-2.0226 J0.8804
G3 X228.3816 Y155.512 I-1.5463 J0.2162
G3 X228.203 Y155.948 I-1.2935 J-0.2751
G3 X227.9228 Y156.2701 I-1.2227 J-0.7813
G3 X227.6 Y156.4942 I-1.202 J-1.3861
G3 X226.92 Y156.7557 I-1.3323 J-2.4502
G3 X226.6098 Y156.8207 I-0.9228 J-3.6298
G3 X226.02 Y156.8841 I-0.8508 J-5.138
G3 X224.9841 Y156.8604 I-0.349 J-7.395
G1 X224.7908 Y156.8413
G3 X224.4296 Y156.7954 I1.0613 J-9.7813
G3 X223.1802 Y156.5478 I2.0117 J-13.4278
G1 X223.0257 Y156.5088
G1 X222.7565 Y156.437
G1 X222.5554 Y156.3803
G3 X222.2549 Y156.2906 I6.4418 J-22.1519
G1 X221.956 Y156.196
G0 Z5.0
M5
M30
