( Made using CamBam - http://www.cambam.co.uk )
( _2014_1_20_car 1/20/2014 11:54:55 PM )
( T0 : 0.0 )
G21 G90 G64 G40
G0 Z5.0
( T0 : 0.0 )
T0 M6
( 216 )
G17
M3 S1000
G0 X97.9427 Y181.59
G1 F1.0 Z0.0
G2 X97.6534 Y181.4138 I-5.5906 J8.8515
G2 X97.0803 Y181.0948 I-6.4598 J10.9299
G1 X96.8069 Y180.9545
G2 X95.7247 Y180.4582 I-8.35 J16.7778
G1 X95.6046 Y180.4078
G1 X95.3674 Y180.3104
G2 X94.4408 Y179.9522 I-12.4493 J30.8327
G1 X94.0326 Y179.8027
G2 X93.9367 Y179.7681 I-1.1909 J3.1485
G1 X92.4239 Y179.2316
G1 X92.1403 Y179.1301
G1 X91.6098 Y178.9359
G1 X91.3785 Y178.8489
G1 X91.1622 Y178.7658
G1 X90.9599 Y178.6865
G3 X90.5824 Y178.5333 I4.9218 J-12.6728
G1 X90.2543 Y178.3938
G3 X89.1299 Y177.8531 I6.4879 J-14.9331
G3 X88.0648 Y177.2033 I5.1182 J-9.5868
G1 X88.8018 Y177.3295
G1 X89.4916 Y177.455
G1 X90.1371 Y177.5795
G1 X90.1749 Y177.587
G3 X91.3767 Y177.8395 I-11.5712 J58.0499
G1 X91.9007 Y177.9586
G3 X92.8799 Y178.1974 I-10.0327 J43.2649
G1 X93.0934 Y178.2525
G1 X93.5062 Y178.3624
G1 X93.6029 Y178.3888
G1 X93.698 Y178.415
G1 X94.0715 Y178.5204
G3 X96.8304 Y179.4473 I-8.3768 J29.501
G3 X98.1671 Y180.0257 I-7.7441 J19.7301
G3 X99.4527 Y180.7104 I-6.4751 J13.7082
G1 X97.8647 Y201.6433
G1 X96.5072 Y200.8493
G2 X96.6809 Y199.654 I-56.9323 J-8.8825
G2 X96.9564 Y197.4063 I-84.4186 J-11.4883
G2 X97.1497 Y195.4344 I-88.5394 J-9.6771
G2 X97.1592 Y195.3264 I-1.63 J-0.1968
G2 X97.1684 Y195.2193 I-1.6346 J-0.1951
G2 X97.1775 Y195.113 I-1.6394 J-0.1935
G1 X97.2459 Y194.2691
G1 X97.2759 Y193.8734
G1 X97.3037 Y193.49
G1 X97.3546 Y192.7468
G2 X97.5159 Y189.9584 I-220.4977 J-14.161
G1 X97.5681 Y188.9122
G1 X97.7405 Y185.2503
G3 X97.9427 Y181.59 I216.1042 J10.1012
G0 Z5.0
M5
M30
