( Made using CamBam - http://www.cambam.co.uk )
( _2014_1_20_car 1/20/2014 11:51:14 PM )
( T0 : 0.0 )
G21 G90 G64 G40
G0 Z5.0
( T0 : 0.0 )
T0 M6
( 169-170 )
G17
M3 S1000
G0 X422.5305 Y251.628
G1 F1.0 Z0.0
G2 X423.9255 Y252.6284 I18.3764 J-24.1506
G2 X425.366 Y253.5622 I22.2511 J-32.747
G2 X425.4602 Y253.6204 I0.8649 J-1.2937
G2 X425.5577 Y253.6804 I0.8897 J-1.3377
G2 X426.6049 Y254.3052 I21.2818 J-34.4825
G2 X427.2095 Y254.6517 I44.5305 J-76.9907
G2 X427.2866 Y254.6952 I1.1694 J-1.9811
G2 X428.943 Y255.6001 I37.987 J-67.5682
G1 X429.3882 Y255.8349
G1 X429.6184 Y255.9552
G1 X430.1105 Y256.2101
G2 X430.6366 Y256.4795 I18.8256 J-36.1152
G1 X431.1989 Y256.7645
G1 X431.4896 Y256.9109
G1 X434.594 Y258.4602
G3 X436.3598 Y259.3609 I-71.0484 J141.4696
G1 X436.8127 Y259.5987
G1 X436.8695 Y259.6288
G3 X437.833 Y260.1503 I-31.6115 J59.5588
G1 X438.0761 Y260.2857
G3 X439.1037 Y260.8805 I-21.2172 J37.8364
G1 X439.1676 Y260.9189
G1 X439.4261 Y261.0763
G1 X430.255 Y259.1536
G3 X429.694 Y258.8877 I2.107 J-5.1704
G3 X429.1595 Y258.5716 I3.4521 J-6.4466
G3 X428.1593 Y257.8379 I6.413 J-9.7918
G3 X427.5265 Y257.3059 I13.7771 J-17.0294
G1 X426.6975 Y256.5814
G1 X426.4752 Y256.3896
G1 X426.3599 Y256.2913
G1 X426.112 Y256.0842
G2 X425.5318 Y255.6276 I-8.2085 J9.8355
G2 X424.8357 Y255.1504 I-5.8216 J7.7443
G2 X424.6491 Y255.0379 I-4.548 J7.3313
G2 X423.7533 Y254.5977 I-3.3308 J5.6477
G2 X423.2482 Y254.4247 I-1.9103 J4.7529
G2 X422.8348 Y254.6612 I0.8619 J1.9866
G2 X422.5124 Y255.0115 I0.6442 J0.9165
G2 X422.4149 Y255.3177 I0.6735 J0.3829
G2 X422.468 Y255.7453 I1.034 J0.0888
G2 X422.7204 Y256.2508 I2.0882 J-0.7268
G2 X423.1579 Y256.8212 I4.3199 J-2.8605
G1 X423.2827 Y256.9635
G1 X423.4163 Y257.1111
G1 X423.5583 Y257.2648
G1 X423.8738 Y257.6043
G1 X424.0372 Y257.7852
G3 X424.1192 Y257.8796 I-1.1528 J1.0845
G1 X424.2013 Y257.978
G3 X424.3639 Y258.194 I-2.1383 J1.7782
G3 X422.5845 Y257.793 I1.3852 J-10.2943
G3 X420.889 Y257.1204 I4.0932 J-12.7923
G3 X420.4215 Y256.8896 I8.4067 J-17.6187
G1 X420.175 Y256.7608
G3 X418.893 Y256.0183 I10.7272 J-20.0008
G3 X417.2491 Y254.9285 I20.4381 J-32.6141
G1 X417.0405 Y254.7828
G1 X416.5972 Y254.47
G1 X416.4848 Y254.3901
G1 X415.4601 Y253.6598
G1 X414.912 Y253.2732
G1 X414.8427 Y253.2248
G2 X414.2486 Y252.8168 I-17.2307 J24.4506
G2 X414.0966 Y252.7148 I-6.177 J9.0327
G1 X413.7814 Y252.5067
G2 X412.302 Y251.6183 I-11.6821 J17.7785
G1 X412.2061 Y251.5669
G1 X412.1091 Y251.5158
G2 X411.2651 Y251.1121 I-6.3955 J12.2847
G2 X411.1566 Y251.0659 I-0.8265 J1.7905
G2 X411.0467 Y251.0205 I-0.7934 J1.7654
G2 X410.9354 Y250.976 I-0.7527 J1.7216
G2 X410.8227 Y250.9325 I-0.7069 J1.6631
G3 X408.6288 Y251.082 I-1.8803 J-11.4239
G3 X406.4492 Y250.7903 I0.3141 J-10.636
G3 X405.0485 Y250.3525 I2.7767 J-11.3438
G3 X403.2833 Y249.513 I4.7641 J-12.2937
G3 X403.2297 Y249.4826 I0.5569 J-1.0422
G3 X402.2725 Y248.891 I7.7587 J-13.6243
G3 X401.7781 Y248.5513 I9.1773 J-13.8898
G3 X400.6864 Y247.7263 I12.5863 J-17.7888
G3 X400.6192 Y247.6724 I0.7072 J-0.9507
G3 X400.5516 Y247.6178 I0.7179 J-0.9587
G3 X400.4836 Y247.5626 I0.7291 J-0.9674
G3 X400.4152 Y247.5068 I0.7408 J-0.9766
G3 X400.3465 Y247.4503 I0.7532 J-0.9866
G3 X400.2775 Y247.3932 I0.7662 J-0.9973
G3 X399.6952 Y246.8996 I29.7438 J-35.6754
G3 X399.0854 Y246.3619 I34.6281 J-39.8845
G1 X398.7743 Y246.0809
G3 X398.4553 Y245.789 I18.3947 J-20.4236
G3 X397.7805 Y245.1626 I46.2844 J-50.5367
G1 X397.0651 Y244.4924
G1 X396.3019 Y243.7811
G1 X396.2054 Y243.692
G2 X396.0089 Y243.5114 I-8.6562 J9.2229
G1 X395.6015 Y243.1415
G1 X395.4983 Y243.0488
G2 X394.6086 Y242.2734 I-25.4925 J28.3499
G2 X393.632 Y241.483 I-16.5196 J19.4128
G1 X393.3781 Y241.29
G2 X392.2628 Y240.5133 I-10.6403 J14.0897
G2 X391.0063 Y239.7911 I-7.7495 J12.0279
G1 X390.8426 Y239.7097
G1 X390.6764 Y239.6302
G2 X388.7171 Y238.8272 I-8.5235 J18.0057
G2 X386.6764 Y238.2622 I-5.2819 J15.1103
G2 X385.2786 Y238.0576 I-2.5385 J12.4616
G2 X384.4713 Y238.0208 I-0.8783 J10.4063
G2 X384.2627 Y238.0224 I-0.0569 J6.1005
G1 X384.0474 Y238.0293
G2 X383.067 Y238.1346 I0.3664 J8.0247
G2 X381.9747 Y238.4267 I1.0321 J6.0482
G2 X380.817 Y239.0202 I1.8352 J5.0059
G2 X381.4062 Y240.1802 I5.0104 J-1.8154
G2 X382.2375 Y241.1811 I5.4466 J-3.6781
G2 X382.882 Y241.7616 I6.7311 J-6.8245
G2 X383.8124 Y242.4443 I7.5146 J-9.2659
G2 X385.1299 Y243.2293 I9.1612 J-13.8786
G1 X385.4912 Y243.4204
G2 X387.4489 Y244.3512 I16.933 J-33.089
G1 X387.5747 Y244.4071
G1 X387.7025 Y244.4635
G1 X388.2482 Y244.702
G1 X388.8304 Y244.9541
G1 X389.1306 Y245.0842
G1 X389.7691 Y245.364
G1 X390.0973 Y245.5108
G1 X390.2636 Y245.5863
G1 Y246.1981
G3 X386.7678 Y245.891 I-0.2257 J-17.4794
G3 X383.3995 Y244.906 I3.4762 J-18.1383
G3 X381.2732 Y243.9273 I7.9056 J-19.9767
G3 X380.1051 Y243.276 I12.9255 J-24.5532
G3 X380.0326 Y243.233 I1.0154 J-1.7955
G3 X379.9597 Y243.1895 I1.0113 J-1.7774
G3 X379.3429 Y242.8098 I11.1496 J-18.8033
G3 X379.2658 Y242.7609 I1.0061 J-1.6717
G3 X377.8816 Y241.832 I20.4523 J-31.9712
G1 X377.5313 Y241.5825
G3 X375.9621 Y240.4027 I28.7156 J-39.8271
G3 X375.5641 Y240.0894 I14.4725 J-18.7983
G1 X375.1558 Y239.7632
G3 X373.3159 Y238.2474 I68.1202 J-84.5583
G1 X372.8451 Y237.852
G1 X372.3598 Y237.4434
G1 X372.0889 Y237.4754
G1 X371.8178 Y237.5035
G1 X371.7402 Y237.5109
G3 X371.5332 Y237.5289 I-0.4776 J-4.2887
G3 X370.7035 Y237.5777 I-1.3905 J-16.5725
G1 X370.4662 Y237.5846
G3 X368.5684 Y237.522 I-0.3806 J-17.2523
G3 X364.856 Y236.7477 I1.463 J-16.3017
G3 X362.5134 Y235.7896 I6.007 J-18.0297
G3 X361.2338 Y235.1156 I10.1866 J-20.8916
G3 X359.8221 Y234.2592 I14.8638 J-26.0938
G3 X358.2654 Y233.1979 I19.7467 J-30.636
G1 X357.8714 Y232.9135
G3 X356.101 Y231.5808 I53.2859 J-72.6345
G1 X355.1678 Y230.8582
G1 X354.1743 Y230.0884
G1 X353.66 Y229.6937
G1 X353.1271 Y229.2899
G1 X352.574 Y228.8781
G1 X352.2915 Y228.6712
G1 X352.0034 Y228.463
G1 X351.7092 Y228.2535
G2 X350.437 Y227.3894 I-21.0492 J29.6245
G1 X350.1083 Y227.1786
G2 X349.4219 Y226.7567 I-16.5543 J26.1583
G2 X349.2471 Y226.6533 I-3.4734 J5.6759
G2 X348.5177 Y226.2411 I-10.4877 J17.7038
G2 X348.1421 Y226.0411 I-10.0109 J18.3466
G2 X346.4994 Y225.2689 I-10.1164 J19.3898
G2 X344.6755 Y224.6133 I-7.4746 J17.927
G2 X342.659 Y224.1345 I-5.1279 J17.1146
G1 X342.3531 Y224.0867
G1 X342.0473 Y224.0384
G1 X341.4352 Y223.9445
G1 X341.0265 Y223.8869
G1 X340.7925 Y223.8571
G2 X340.6675 Y223.8425 I-0.3144 J2.1421
G2 X339.9989 Y223.7841 I-1.4893 J13.2076
G2 X339.6155 Y223.7712 I-0.4424 J7.4255
G2 X338.5944 Y223.8505 I-0.0936 J5.409
G2 X337.3061 Y224.3275 I0.6723 J3.7935
G2 X336.6663 Y224.7949 I2.1187 J3.5719
G2 X336.0355 Y225.4474 I3.7718 J4.278
G2 X336.4839 Y226.9628 I5.2042 J-0.7159
G2 X337.3737 Y228.2689 I4.7537 J-2.2823
G2 X338.1508 Y228.9822 I4.8201 J-4.4712
G2 X339.3193 Y229.7549 I5.6581 J-7.2871
G2 X340.0275 Y230.1242 I6.3845 J-11.3784
G2 X340.8565 Y230.4976 I7.1978 J-14.8754
G2 X341.8188 Y230.8767 I10.4867 J-25.2059
G2 X341.8799 Y230.8993 I0.2633 J-0.6175
G2 X341.9416 Y230.922 I0.2667 J-0.6301
G2 X343.0681 Y231.3154 I14.4352 J-39.5262
G1 X343.6706 Y231.5147
G2 X343.8237 Y231.5647 I1.4125 J-4.0667
G1 X343.9792 Y231.6153
G1 X344.2999 Y231.7193
G1 X344.4627 Y231.7721
G1 X344.7981 Y231.881
G1 X345.5106 Y232.1156
G1 X345.8769 Y232.2393
G1 X346.2533 Y232.3698
G1 X346.6401 Y232.5083
G1 X347.0367 Y232.6564
G3 X347.8717 Y232.995 I-7.2398 J19.0554
G3 X348.2955 Y233.1853 I-4.1797 J9.8762
G1 X348.3483 Y233.2101
G3 X348.7795 Y233.4231 I-4.3146 J9.2784
G3 X349.6659 Y233.9381 I-4.7338 J9.1672
G1 X348.9556 Y233.8959
G1 X348.2448 Y233.8596
G1 X348.0417 Y233.8502
G1 X347.5 Y233.8264
G1 X345.3328 Y233.741
G1 X345.0438 Y233.7295
G1 X344.3834 Y233.7019
G1 X344.0312 Y233.6862
G3 X342.1539 Y233.5836 I5.5428 J-118.6205
G1 X341.6538 Y233.549
G1 X341.1206 Y233.5078
G1 X340.8455 Y233.4846
G3 X339.5897 Y233.3595 I3.7321 J-43.8244
G1 X339.4305 Y233.3411
G3 X339.102 Y233.3012 I4.7301 J-40.2848
G1 X338.7634 Y233.2571
G1 X338.4141 Y233.2082
G3 X337.6709 Y233.092 I3.4884 J-24.747
G1 X337.4825 Y233.0597
G3 X335.7712 Y232.705 I4.5262 J-26.1439
G3 X333.852 Y232.1439 I4.7837 J-19.9224
G3 X331.744 Y231.2479 I5.3753 J-15.5748
G3 X329.5307 Y229.8267 I6.1098 J-11.9491
G3 X328.5553 Y228.9975 I16.4362 J-20.3225
G1 X328.4918 Y228.9405
G3 X327.5039 Y227.9977 I14.496 J-16.1783
G3 X327.3765 Y227.8676 I2.5064 J-2.5819
G3 X325.5 Y225.6411 I14.3711 J-14.0158
G3 X324.4505 Y224.0063 I14.149 J-10.2383
G3 X323.3593 Y221.6562 I13.8924 J-7.8789
G3 X322.5316 Y218.3 I14.539 J-5.3658
G3 X322.3917 Y216.3257 I16.9185 J-2.1908
G3 X322.5091 Y214.0669 I18.4675 J-0.1725
G2 X323.26 Y213.7679 I-3.1693 J-9.0519
G1 X323.5045 Y213.6546
G2 X324.444 Y213.1273 I-3.6565 J-7.6161
G2 X325.0271 Y212.7071 I-3.7655 J-5.8406
G2 X326.8567 Y210.5066 I-4.3599 J-5.4856
G2 X327.561 Y208.7259 I-7.7321 J-4.0881
G1 X327.6248 Y208.4867
G1 X327.6848 Y208.2386
G2 X327.8924 Y207.0935 I-11.994 J-2.765
G2 X328.0198 Y205.7756 I-18.0761 J-2.4129
G2 X328.0515 Y205.0719 I-19.3876 J-1.2276
G2 X328.0601 Y203.4734 I-35.291 J-0.9888
G1 X328.0527 Y203.0616
G1 X328.0059 Y201.197
G2 X329.1617 Y201.1399 I0.385 J-3.9291
G2 X330.2509 Y200.7496 I-0.8496 J-4.0867
G2 X330.9132 Y200.3533 I-2.7766 J-5.3914
G2 X331.273 Y200.0993 I-4.3982 J-6.6128
G2 X331.6741 Y199.7973 I-14.7678 J-20.0299
G3 X332.1282 Y199.4493 I19.9719 J25.5886
G1 X332.3722 Y199.2669
G3 X335.0966 Y198.9276 I2.0407 J5.2797
G3 X336.0026 Y199.1048 I-0.8554 J6.7786
G3 X337.1614 Y199.5115 I-2.2166 J8.1706
G3 X337.7972 Y199.8067 I-4.4393 J10.3934
G3 X338.5031 Y200.181 I-8.7483 J17.3508
G1 X338.6825 Y200.2824
G3 X339.49 Y200.7607 I-16.1968 J28.2643
G3 X339.5918 Y200.8228 I-0.8729 J1.5451
G3 X339.695 Y200.886 I-1.0144 J1.7719
G1 X340.6326 Y201.4634
G2 X341.7117 Y202.099 I16.0916 J-26.0843
G1 X341.7807 Y202.1374
G2 X343.069 Y202.7725 I6.6663 J-11.8982
G1 X343.2377 Y202.8419
G1 X343.4103 Y202.9091
G2 X343.7711 Y203.0361 I2.4285 J-6.3197
G2 X344.4901 Y203.1914 I2.5029 J-9.8485
G1 X344.5935 Y203.2104
G2 X345.4228 Y203.3472 I5.0616 J-28.1014
G1 X345.9765 Y203.4331
G3 X346.713 Y203.5581 I-2.879 J19.1875
G1 X346.9086 Y203.5961
G1 X347.0093 Y203.6168
G3 X347.4671 Y203.7239 I-1.6323 J8.014
G3 X347.7087 Y203.7916 I-0.98 J3.9624
G1 X347.8324 Y203.8301
G3 X347.9316 Y203.9214 I-0.0457 J0.1492
G3 X347.9427 Y204.0556 I-0.2551 J0.0888
G3 X347.8634 Y204.2937 I-0.7779 J-0.1269
G3 X347.6043 Y204.6794 I-1.5871 J-0.7861
G3 X347.3853 Y204.8905 I-1.1189 J-0.9416
G3 X347.2363 Y204.9796 I-0.4157 J-0.5261
G3 X347.1444 Y204.9999 I-0.1036 J-0.2513
G3 X345.1816 Y204.8938 I-0.2606 J-13.3878
G3 X343.2639 Y204.4621 I1.4558 J-10.9434
G3 X342.0391 Y203.9929 I3.7788 J-11.697
G3 X341.3618 Y203.6718 I5.3561 J-12.1729
G3 X341.007 Y203.4876 I4.3182 J-8.7507
G1 X340.8256 Y203.3894
G2 X339.9241 Y203.1843 I-2.6954 J9.7637
G2 X339.0078 Y203.0596 I-1.7583 J9.4851
G2 X337.1604 Y203.0758 I-0.8457 J8.8854
G2 X335.9528 Y203.3296 I0.7814 J6.717
G2 X335.2935 Y203.5849 I1.6848 J5.3292
G2 X334.592 Y203.9908 I2.0 J4.2668
G2 X333.8971 Y204.6112 I2.363 J3.3461
G1 X333.9452 Y204.9028
G1 X333.9966 Y205.1939
G2 X334.0126 Y205.2769 I0.8495 J-0.1208
G2 X334.1801 Y205.9313 I5.0127 J-0.9344
G2 X334.3528 Y206.348 I3.0995 J-1.0405
G2 X334.6862 Y206.8503 I2.262 J-1.1393
G2 X335.2949 Y207.3793 I2.1372 J-1.8444
G2 X335.4786 Y207.4924 I2.1144 J-3.2313
G2 X335.9185 Y207.7134 I1.9893 J-3.4109
G2 X336.0355 Y207.7631 I0.9665 J-2.1105
G2 X337.6971 Y208.3208 I6.844 J-17.6367
G2 X339.3947 Y208.7575 I8.7932 J-30.6686
G1 X339.8832 Y208.8679
G2 X339.9454 Y208.8816 I0.29 J-1.1667
G1 X340.5137 Y209.0043
G2 X340.586 Y209.0196 I0.3672 J-1.5562
G1 X342.1277 Y209.3396
G3 X343.0078 Y209.5261 I-12.3406 J60.4239
G1 X343.4763 Y209.6296
G1 X343.9749 Y209.7448
G3 X345.1084 Y210.0331 I-7.1056 J30.3095
G3 X345.7081 Y210.2055 I-5.2308 J19.3145
G3 X347.0586 Y210.6654 I-5.9601 J19.7186
G1 X347.2274 Y210.7314
G3 X347.9387 Y211.036 I-4.5342 J11.5706
G3 X349.4917 Y211.8907 I-5.0421 J11.0001
G3 X351.0736 Y213.1743 I-5.4063 J8.2794
G3 X352.5185 Y215.0265 I-6.8853 J6.8609
G2 X353.9163 Y215.8929 I4.4765 J-5.6617
G2 X355.4602 Y216.4591 I3.9545 J-8.394
G1 X355.6724 Y216.5148
G2 X355.9 Y216.5698 I1.1816 J-4.395
G2 X355.958 Y216.583 I0.1708 J-0.6138
G2 X357.2048 Y216.8047 I3.1354 J-14.0196
G2 X357.5399 Y216.8469 I1.2027 J-8.1972
G1 X357.713 Y216.8663
G1 X357.8919 Y216.8848
G2 X358.2737 Y216.9195 I1.1518 J-10.5725
G1 X358.6813 Y216.95
G2 X359.6129 Y216.9997 I2.2432 J-33.275
G1 X359.8534 Y217.0091
G1 X360.3662 Y217.0257
G1 X360.9128 Y217.0399
G1 X362.1598 Y217.0695
G3 X363.5814 Y217.1232 I-1.2086 J50.8644
G1 X363.9477 Y217.1447
G3 X365.6144 Y217.3109 I-1.2483 J20.9571
G3 X366.4946 Y217.4633 I-1.8067 J13.0556
G3 X367.4201 Y217.6934 I-2.203 J10.8359
G3 X367.6516 Y217.7649 I-6.5957 J21.7864
G3 X368.6181 Y218.1387 I-2.7068 J8.4339
G3 X369.5911 Y218.6748 I-3.1608 J6.8884
G3 X370.5301 Y219.4132 I-3.9188 J5.9496
G1 X370.0265 Y219.4108
G2 X369.5229 Y219.4157 I-0.0969 J15.6403
G2 X368.5183 Y219.4873 I0.1966 J9.8509
G2 X368.3853 Y219.5058 I0.1959 J1.8951
G2 X367.6843 Y219.6563 I0.8098 J5.4781
G2 X367.2974 Y219.7931 I0.9908 J3.419
G2 X366.8806 Y220.0118 I1.0258 J2.461
G2 X366.4688 Y220.3652 I1.0872 J1.6832
G2 X366.9762 Y221.5672 I6.5007 J-2.0358
G1 X367.0659 Y221.7309
G2 X367.9031 Y222.9642 I8.2664 J-4.7103
G2 X368.5568 Y223.7126 I8.4945 J-6.7604
G2 X371.6819 Y226.1206 I9.5611 J-9.1765
G2 X372.6954 Y226.6212 I5.7747 J-10.4158
G2 X373.9124 Y227.0555 I3.6493 J-8.303
G2 X374.5857 Y227.2079 I1.8481 J-6.6031
G2 X375.3201 Y227.2865 I0.9173 J-5.0998
G3 X376.6753 Y227.3372 I0.1951 J12.9103
G1 X376.7654 Y227.3458
G1 X376.8614 Y227.3555
G3 X378.3853 Y227.5963 I-1.543 J14.7079
G1 X378.5866 Y227.6391
G3 X379.6521 Y227.9002 I-5.4472 J24.5283
G3 X381.0552 Y228.3101 I-10.6938 J39.2174
G1 X381.2353 Y228.366
G1 X382.0572 Y228.6251
G1 X382.4955 Y228.7633
G1 X382.9635 Y228.9085
G1 X383.2055 Y228.9821
G1 X383.7229 Y229.1342
G1 X383.8547 Y229.1716
G2 X384.4188 Y229.3241 I10.4248 J-37.4553
G1 X384.7113 Y229.3975
G1 X385.0142 Y229.4689
G2 X386.4145 Y229.7242 I3.6448 J-16.0193
G2 X388.041 Y229.8282 I1.5614 J-11.6572
G2 X388.0922 Y229.8275 I0.0191 J-0.5372
G2 X388.1436 Y229.8267 I0.0167 J-0.5309
G1 X385.12 Y228.4618
G3 X385.0936 Y228.2939 I0.6115 J-0.1822
G3 X385.1413 Y228.1309 I0.2641 J-0.0111
G3 X385.2398 Y228.0675 I0.148 J0.1216
G3 X385.3954 Y228.0601 I0.0955 J0.37
G3 X387.0182 Y228.3489 I-1.3877 J12.4999
G3 X388.5943 Y228.8319 I-3.4725 J14.1456
G1 X388.8003 Y228.9087
G3 X389.8826 Y229.3587 I-6.2768 J16.6226
G3 X390.1669 Y229.4888 I-3.4206 J7.8516
G3 X390.3129 Y229.5573 I-2.0162 J4.4851
G3 X391.8456 Y230.3358 I-14.7021 J30.8441
G3 X392.7071 Y230.8068 I-59.1975 J109.2974
G1 X393.6861 Y231.3535
G1 X394.2083 Y231.6444
G1 X394.4784 Y231.7935
G1 X395.0566 Y232.1074
G1 X395.3565 Y232.2665
G1 X395.6674 Y232.4281
G3 X395.7846 Y232.4921 I-0.928 J1.8396
G1 X395.8229 Y232.515
G3 X395.9686 Y232.6177 I-0.5459 J0.9285
G3 X396.0473 Y232.7073 I-0.2331 J0.2845
G3 X396.0326 Y232.7818 I-0.0414 J0.0306
G3 X395.9825 Y232.7985 I-0.0678 J-0.1203
G3 X395.8608 Y232.7991 I-0.0631 J-0.4897
G3 X395.7376 Y232.7801 I0.3399 J-2.6149
G3 X395.3921 Y232.6829 I0.6906 J-3.118
G1 X394.5613 Y232.3949
G1 X393.731 Y232.106
G2 X392.0559 Y231.5711 I-10.7056 J30.6319
G2 X390.9185 Y231.2858 I-5.0305 J17.6472
G2 X390.2591 Y231.1644 I-3.0696 J14.8221
G2 X390.0878 Y231.1392 I-0.5962 J3.463
G2 X389.9107 Y231.1162 I-0.6336 J4.1849
G2 X389.0956 Y231.054 I-1.0509 J8.3913
G1 X388.9918 Y231.0516
G1 X388.8863 Y231.0507
G2 X387.9216 Y231.1137 I-0.0182 J7.1343
G2 X385.4884 Y232.0209 I0.7762 J5.7987
G2 X388.0877 Y234.4961 I11.4244 J-9.3947
G2 X389.075 Y235.1762 I9.7039 J-13.0295
G2 X390.4618 Y235.9702 I9.0002 J-14.1134
G2 X391.2831 Y236.3691 I9.5635 J-18.6424
G2 X393.5446 Y237.2623 I9.7518 J-21.3823
G2 X394.8691 Y237.6794 I9.817 J-28.8629
G2 X394.9531 Y237.7038 I0.4106 J-1.2574
G2 X395.0379 Y237.7281 I0.41 J-1.266
G2 X395.1234 Y237.7525 I0.4096 J-1.2749
G2 X395.2096 Y237.7769 I0.4092 J-1.2841
G2 X395.2965 Y237.8012 I0.4089 J-1.2938
G2 X395.3842 Y237.8255 I0.4087 J-1.304
G2 X396.9933 Y238.2363 I12.9532 J-47.3789
G2 X397.0951 Y238.2603 I0.4271 J-1.5815
G2 X397.9648 Y238.458 I11.0175 J-46.454
G1 X398.4145 Y238.5556
G2 X400.4716 Y238.975 I26.2365 J-123.4324
G2 X400.6013 Y239.0005 I0.933 J-4.4009
G2 X400.7321 Y239.0262 I1.0427 J-4.9667
G1 X401.8469 Y239.2441
G3 X404.3851 Y239.7593 I-24.8929 J129.1439
G1 X405.0375 Y239.9026
G3 X406.4225 Y240.2318 I-11.9025 J53.1641
G1 X406.7726 Y240.3216
G3 X407.4926 Y240.5165 I-10.4337 J39.968
G1 X407.8567 Y240.6209
G1 X408.2253 Y240.7309
G3 X409.781 Y241.2522 I-8.7218 J28.6094
G3 X411.3999 Y241.9182 I-7.7756 J21.2016
G3 X413.0592 Y242.7798 I-7.6828 J16.8245
G3 X414.7191 Y243.8961 I-8.0739 J13.7986
G3 X416.3195 Y245.3241 I-8.9291 J11.6174
G3 X415.248 Y245.1194 I0.2963 J-4.4568
G3 X414.2373 Y244.709 I2.306 J-7.13
G3 X413.5925 Y244.3736 I7.9841 J-16.1344
G3 X413.2299 Y244.1717 I7.6844 J-14.2272
G2 X412.2645 Y243.6355 I-22.9619 J40.207
G1 X412.0028 Y243.5008
G2 X411.3904 Y243.2232 I-4.0512 J8.1215
G2 X410.6568 Y242.9904 I-1.8459 J4.5448
G2 X409.7748 Y242.9078 I-0.744 J3.1925
G2 X408.7705 Y243.1384 I0.1506 J2.9576
G2 X408.2752 Y243.3939 I1.4264 J3.3731
G2 X410.5796 Y246.1556 I17.9183 J-12.6089
G2 X413.3095 Y248.4975 I14.9274 J-14.6385
G2 X415.3472 Y249.7658 I10.7067 J-14.9315
G2 X418.303 Y250.9956 I7.7376 J-14.4297
G2 X422.5305 Y251.628 I4.2442 J-13.926
G0 Z5.0
G0 X377.8565 Y225.717
G1 Z0.0
G3 X375.7004 Y225.5983 I-0.6656 J-7.5522
G3 X373.6651 Y224.8768 I1.5701 J-7.6606
G3 X372.4379 Y224.1212 I4.3991 J-8.5178
G3 X370.9735 Y222.8872 I7.7975 J-10.7401
G3 X370.2099 Y222.1062 I12.1244 J-12.617
G1 X370.0196 Y221.8984
G3 X369.9239 Y221.7921 I1.7309 J-1.6546
G3 X369.8273 Y221.6836 I3.3444 J-3.076
G3 X371.4537 Y221.7204 I0.6706 J6.3187
G3 X373.016 Y222.1736 I-0.9946 J6.3487
G3 X373.9825 Y222.6678 I-3.3296 J7.7041
G3 X375.1751 Y223.48 I-6.4534 J10.7572
G1 X375.3228 Y223.5934
G1 X375.474 Y223.712
G3 X376.1515 Y224.267 I-15.3583 J19.44
G1 X376.507 Y224.5689
G1 X377.3135 Y225.2607
G1 X377.7459 Y225.6254
G2 X377.8565 Y225.717 I2.8596 J-3.3386
G0 Z5.0
M5
M30
