( Made using CamBam - http://www.cambam.co.uk )
( _2014_1_20_car 1/20/2014 11:54:52 PM )
( T0 : 0.0 )
G21 G90 G64 G40
G0 Z5.0
( T0 : 0.0 )
T0 M6
( 205-207 )
G17
M3 S1000
G0 X-18.8556 Y198.4394
G1 F1.0 Z0.0
G3 X-18.8905 Y198.3906 I0.0135 J-0.0466
G3 X-18.8588 Y198.3032 I0.2039 J0.0247
G3 X-18.6808 Y198.0916 I0.9252 J0.5976
G1 X-12.6149 Y198.59
G2 X-11.4991 Y198.6283 I1.1871 J-18.3064
G2 X-9.3405 Y198.5479 I0.0669 J-27.1992
G1 X-8.8364 Y198.5068
G2 X-8.3408 Y198.4597 I-2.8848 J-32.9701
G2 X-7.3669 Y198.3495 I-4.0359 J-40.0255
G2 X-3.618 Y197.7509 I-7.5159 J-59.1122
G2 X-0.3687 Y197.0616 I-16.2194 J-84.4573
G2 X5.2549 Y195.5897 I-25.2385 J-107.909
G2 X7.3447 Y194.9646 I-32.7294 J-113.2096
G2 X10.9745 Y193.7803 I-37.0742 J-119.7859
G1 X11.6512 Y193.5449
G1 X12.2842 Y193.3202
G1 X12.8765 Y193.1059
G2 X13.9834 Y192.6939 I-52.1906 J-141.9152
G2 X14.9478 Y192.3216 I-20.3899 J-54.2506
G2 X15.788 Y191.9856 I-17.5681 J-45.1601
G1 X15.9714 Y191.9108
G1 X16.1488 Y191.8377
G1 X16.4919 Y191.6947
G1 X16.8128 Y191.5588
G2 X18.0085 Y191.0309 I-21.7861 J-50.9591
G1 X18.4532 Y190.8239
G2 X18.8403 Y190.6379 I-8.7925 J-18.7893
G2 X20.1699 Y189.9375 I-9.6557 J-19.9409
G1 X20.3322 Y189.8421
G1 X20.4027 Y189.7996
G2 X20.6645 Y189.6356 I-3.63 J-6.0825
G2 X21.0448 Y189.371 I-3.881 J-5.9843
G2 X21.3964 Y189.0691 I-1.7451 J-2.3877
G2 X21.4844 Y188.9779 I-1.3714 J-1.4115
G2 X21.8212 Y188.6204 I-30.2261 J-28.8072
G1 X22.4045 Y187.9887
G1 X22.5148 Y187.8708
G3 X23.3751 Y187.0195 I9.9815 J9.2265
G3 X23.4036 Y186.9943 I0.1914 J0.1881
G3 X23.4313 Y186.9701 I0.1866 J0.1854
G3 X23.8759 Y186.6152 I3.7481 J4.2401
G3 X24.3567 Y186.3114 I2.5469 J3.4979
G3 X24.949 Y187.5125 I-3.1169 J2.2833
G3 X25.0743 Y188.846 I-3.3949 J0.9918
G3 X24.8239 Y189.1081 I-2.7072 J-2.336
G1 X24.6929 Y189.2304
G3 X24.4223 Y189.4628 I-3.4174 J-3.7047
G1 X24.2844 Y189.5734
G3 X23.1301 Y190.3773 I-8.444 J-10.8934
G1 X22.841 Y190.5565
G1 X22.5516 Y190.7298
G3 X21.3825 Y191.3814 I-16.2313 J-27.744
G1 X21.0955 Y191.5319
G3 X20.9526 Y191.6056 I-1.4477 J-2.6306
G1 X20.6671 Y191.7507
G3 X18.367 Y192.8319 I-21.5468 J-42.8526
G1 X18.0942 Y192.9515
G3 X13.6972 Y194.6888 I-29.0199 J-67.0122
G3 X5.7847 Y197.1164 I-29.9329 J-83.4524
G1 X5.0308 Y197.3062
G1 X4.2988 Y197.4837
G1 X3.5881 Y197.6494
G3 X-1.9662 Y198.7149 I-17.3999 J-75.6936
G3 X-6.1824 Y199.2235 I-9.7169 J-62.8158
G3 X-7.7723 Y199.3377 I-4.8755 J-56.7786
G1 X-8.1206 Y199.3564
G1 X-8.4581 Y199.3724
G1 X-8.7852 Y199.3856
G3 X-9.4191 Y199.4052 I-1.8957 J-51.0747
G3 X-10.0137 Y199.416 I-0.9613 J-36.7279
G3 X-10.5713 Y199.4191 I-1.2125 J-167.0762
G1 X-11.094 Y199.4157
G3 X-13.0528 Y199.3441 I0.4178 J-38.2611
G1 X-13.2363 Y199.3323
G1 X-13.414 Y199.32
G1 X-13.5861 Y199.3073
G3 X-13.6694 Y199.3008 I0.0253 J-0.8657
G3 X-13.7515 Y199.2942 I0.0272 J-0.8562
G3 X-15.0404 Y199.165 I2.6014 J-32.4263
G3 X-16.9611 Y198.871 I3.5466 J-29.5964
G3 X-18.8556 Y198.4394 I4.6977 J-24.9917
G0 Z5.0
G0 X3.5284 Y212.7426
G1 Z0.0
G3 X3.5741 Y212.6808 I0.4771 J0.3049
G3 X3.7679 Y212.5257 I0.5072 J0.4353
G3 X4.1806 Y212.426 I0.4096 J0.7909
G3 X4.4949 Y212.4612 I0.015 J1.2866
G3 X4.9368 Y212.6291 I-0.4088 J1.7406
G3 X5.3334 Y212.8862 I-1.2786 J2.4079
G3 X5.6406 Y213.1584 I-1.9022 J2.4561
G1 X5.7076 Y213.2313
G3 X5.9183 Y213.5537 I-0.8947 J0.815
G3 X5.9624 Y213.7113 I-0.5479 J0.2381
G3 X5.895 Y213.9908 I-0.3698 J0.0587
G3 X5.7111 Y214.1313 I-0.3672 J-0.2899
G3 X5.3243 Y214.2068 I-0.3778 J-0.9072
G3 X5.0308 Y214.1865 I-0.039 J-1.5667
G3 X4.8143 Y214.1444 I0.2355 J-1.7875
G3 X4.1916 Y213.9238 I0.8452 J-3.3753
G1 X4.1378 Y213.8984
G3 X3.7444 Y213.6399 I0.6969 J-1.4891
G3 X3.4924 Y213.2994 I0.6449 J-0.7409
G3 X3.4484 Y212.9463 I0.5664 J-0.2497
G3 X3.5284 Y212.7426 I0.5571 J0.1011
G0 Z5.0
G0 X22.8711 Y184.4768
G1 Z0.0
G3 X22.7478 Y184.3813 I0.7492 J-1.0948
G3 X22.3918 Y183.9498 I1.0688 J-1.2446
G3 X22.1736 Y183.4346 I1.8985 J-1.1078
G3 X22.07 Y182.8831 I2.4928 J-0.7537
G3 X22.1149 Y182.3815 I1.453 J-0.1228
G3 X22.3258 Y182.0059 I0.847 J0.2287
G3 X22.6303 Y181.8094 I0.5842 J0.5712
G3 X22.9348 Y181.7503 I0.3373 J0.9226
G3 X23.4635 Y181.8355 I0.0433 J1.4136
G3 X24.1414 Y182.2555 I-0.6721 J1.8418
G3 X24.617 Y182.8954 I-1.5419 J1.643
G3 X24.7922 Y183.4658 I-1.4759 J0.7654
G3 X24.7307 Y183.9822 I-1.1486 J0.1251
G3 X24.4903 Y184.3575 I-0.9784 J-0.3621
G3 X23.8098 Y184.695 I-0.8485 J-0.8559
G3 X22.8711 Y184.4768 I-0.1895 J-1.313
G0 Z5.0
M5
M30
