( Made using CamBam - http://www.cambam.co.uk )
( _2014_1_20_car 1/20/2014 11:32:05 PM )
( T0 : 0.0 )
G21 G90 G64 G40
G0 Z5.0
( T0 : 0.0 )
T0 M6
( 223-225 )
G17
M3 S1000
G0 X181.8902 Y226.4125
G1 F1.0 Z0.0
G1 X189.9195 Y225.0997
G3 X189.828 Y224.9662 I4.3363 J-3.0712
G3 X189.7372 Y224.8337 I4.2409 J-3.0021
G3 X189.6472 Y224.7021 I4.1513 J-2.9371
G3 X189.558 Y224.5716 I4.067 J-2.8756
G3 X189.4695 Y224.442 I3.9874 J-2.8175
G3 X189.3818 Y224.3134 I3.9122 J-2.7625
G3 X189.2948 Y224.1857 I3.8409 J-2.7101
G3 X189.2086 Y224.059 I3.7734 J-2.6603
G3 X187.851 Y222.0406 I239.6496 J-162.6575
G1 X187.2647 Y221.1522
G3 X187.1963 Y221.0478 I2.7239 J-1.8586
G3 X187.1285 Y220.9442 I2.6996 J-1.8391
G3 X185.0265 Y217.6244 I104.9951 J-68.8078
G3 X184.9785 Y217.5457 I2.105 J-1.3385
G3 X183.4929 Y215.0266 I79.3609 J-48.4977
G3 X181.4319 Y211.1541 I64.005 J-36.5491
G1 X181.1912 Y210.6612
G3 X179.6327 Y207.1531 I52.7163 J-25.5207
G1 X180.3466 Y206.5358
G3 X180.5858 Y206.7946 I-9.8331 J9.33
G1 X180.8174 Y207.0528
G3 X181.6939 Y208.0999 I-19.1667 J16.9349
G1 X181.8918 Y208.3515
G3 X183.3668 Y210.3943 I-29.4665 J22.8301
G1 X183.5208 Y210.6231
G1 X183.6712 Y210.8491
G1 X183.8184 Y211.0723
G1 X183.9623 Y211.2927
G3 X185.0722 Y213.0427 I-97.652 J63.1582
G1 X186.0295 Y214.5847
G1 X186.4509 Y215.2586
G2 X186.5502 Y215.4163 I3.7866 J-2.2749
G2 X186.6483 Y215.5715 I3.5533 J-2.1375
G2 X186.745 Y215.724 I3.3592 J-2.0245
G2 X186.7928 Y215.799 I2.2733 J-1.3941
G2 X186.8402 Y215.8734 I2.22 J-1.3635
G2 X187.6049 Y217.0465 I62.7998 J-40.0973
G2 X189.0209 Y219.0482 I35.451 J-23.5764
G2 X189.587 Y219.7739 I20.1352 J-15.1222
G2 X189.6503 Y219.8523 I2.0988 J-1.6312
G2 X190.1587 Y220.4608 I17.9154 J-14.4525
G2 X191.0948 Y221.4854 I19.2753 J-16.6716
G2 X192.6203 Y222.9014 I13.6344 J-13.1581
G1 X192.8217 Y223.0664
G2 X194.297 Y224.1345 I10.4452 J-12.8739
G1 X199.9315 Y222.8013
G3 X196.9822 Y220.0159 I12.3792 J-16.062
G1 X196.7359 Y219.7264
G3 X195.8313 Y218.5645 I17.5975 J-14.6324
G3 X194.4353 Y216.4009 I19.3509 J-14.0179
G3 X193.531 Y214.6954 I25.2378 J-14.4741
G3 X192.3589 Y212.0483 I35.3082 J-17.2175
G1 X192.2247 Y211.7123
G1 X192.1091 Y211.4175
G3 X191.3366 Y209.34 I87.9571 J-33.8875
G1 X192.177 Y209.2024
G2 X192.4469 Y209.6361 I92.407 J-57.2189
G1 X192.9739 Y210.4738
G1 X193.0984 Y210.6696
G2 X195.1227 Y213.711 I69.6549 J-44.1665
G2 X196.7501 Y215.9165 I44.4652 J-31.1083
G2 X199.4103 Y219.0505 I36.9139 J-28.6366
G2 X202.3265 Y221.9478 I36.87 J-34.1948
G1 X202.4144 Y221.9272
G1 X202.5881 Y221.8895
G1 X202.7573 Y221.8556
G1 X202.9218 Y221.8247
G3 X203.0017 Y221.8102 I0.2828 J1.3328
G3 X203.317 Y221.7556 I1.7016 J8.8897
G1 X204.5053 Y221.5594
G1 X204.6191 Y221.5396
G1 X204.8399 Y221.5001
G2 X205.6681 Y221.3292 I-3.2005 J-17.6014
G1 X205.827 Y221.2904
G2 X205.8644 Y221.2808 I-0.0297 J-0.1949
G2 X206.4476 Y221.1067 I-1.4919 J-6.0611
G2 X206.8839 Y220.9259 I-1.2591 J-3.6554
G2 X207.1973 Y220.7389 I-0.9872 J-2.0102
G2 X207.4039 Y220.5513 I-0.727 J-1.0081
G2 X207.5206 Y220.3755 I-0.5478 J-0.4903
G2 X207.5867 Y220.0679 I-0.5969 J-0.2891
G2 X207.5183 Y219.7609 I-0.8958 J0.0383
G3 X206.3783 Y218.6371 I5.4059 J-6.6243
G3 X205.6716 Y217.6685 I7.233 J-6.0195
G3 X205.5531 Y217.4776 I11.3802 J-7.1953
G3 X205.1441 Y216.7409 I9.9756 J-6.0195
G3 X204.87 Y216.1716 I13.5125 J-6.8572
G3 X204.8213 Y216.0636 I1.6319 J-0.8015
G3 X204.7763 Y215.9621 I1.6617 J-0.7972
G3 X204.7347 Y215.8667 I1.6817 J-0.7899
G1 X204.5832 Y215.5068
G3 X204.1602 Y214.4147 I35.5332 J-14.3902
G1 X203.9548 Y214.3515
G1 X203.752 Y214.2861
G3 X203.7018 Y214.2695 I0.2531 J-0.8475
G3 X203.6517 Y214.2527 I0.2597 J-0.8578
G3 X202.0841 Y213.6368 I5.5364 J-16.3937
G3 X201.9044 Y213.5552 I1.5386 J-3.6271
G3 X200.5071 Y212.8477 I8.7588 J-19.0334
G1 X200.1866 Y212.6682
G3 X199.563 Y212.3017 I15.5024 J-27.0933
G1 X199.2641 Y212.1185
G3 X198.1054 Y211.3674 I22.8278 J-36.4892
G3 X197.5701 Y211.0017 I15.2384 J-22.8746
G3 X196.5439 Y210.2756 I33.4942 J-48.429
G1 X196.3046 Y210.1028
G1 X195.3656 Y209.4172
G1 X194.9256 Y209.0942
G2 X193.2116 Y207.8522 I-72.6625 J98.4707
G1 X192.8317 Y207.585
G2 X191.3359 Y206.5829 I-23.9808 J34.1783
G1 X191.002 Y206.3726
G1 X190.6759 Y206.1727
G2 X190.5965 Y206.1249 I-1.0534 J1.6593
G2 X189.3148 Y205.4033 I-14.1672 J23.6634
G2 X186.9622 Y204.356 I-8.9098 J16.8489
G2 X185.1081 Y203.8073 I-5.2461 J14.3213
G2 X182.2331 Y203.4455 I-3.2375 J14.1221
G2 X179.3424 Y203.6461 I-0.3547 J15.816
G3 X178.4059 Y203.6675 I-0.578 J-4.783
G3 X177.7106 Y203.5752 I0.444 J-6.006
G3 X177.5818 Y203.5493 I0.327 J-1.9575
G3 X177.1027 Y203.4338 I1.9441 J-9.1191
G3 X177.058 Y203.4218 I0.0686 J-0.344
G1 X176.7136 Y203.3245
G1 X176.4559 Y203.2488
G1 X176.0689 Y203.1371
G2 X175.6791 Y203.0361 I-2.5227 J8.9325
G1 X175.6748 Y203.1258
G1 X175.6736 Y203.1481
G1 X175.6626 Y203.3255
G3 X175.6028 Y204.0226 I-28.3188 J-2.0765
G3 X175.5863 Y204.1858 I-3.0789 J-0.2296
G3 X175.5152 Y204.8275 I-27.405 J-2.7094
G1 X175.4423 Y205.4284
G3 X175.4335 Y205.4988 I-0.7332 J-0.0564
G1 X175.3978 Y205.7781
G1 X175.3625 Y206.0485
G3 X175.2204 Y207.0957 I-99.0524 J-12.9143
G1 X175.0906 Y208.0111
G1 X175.0326 Y208.4115
G1 X174.9777 Y208.7868
G3 X174.9648 Y208.8748 I-1.0919 J-0.1156
G1 X174.7584 Y210.2593
G1 X174.4441 Y212.3355
G1 X174.2892 Y213.3739
G1 X174.2516 Y213.6337
G1 X174.2446 Y213.6825
G1 X174.1941 Y214.0482
G1 X174.1707 Y214.2313
G1 X174.1507 Y214.4147
G1 X174.362 Y214.808
G2 X175.2203 Y216.3101 I36.3389 J-19.7684
G1 X175.3175 Y216.4725
G2 X176.1014 Y217.7394 I46.2052 J-27.7112
G2 X177.5312 Y219.9193 I91.2387 J-58.2851
G1 X178.0791 Y220.729
G1 X178.1995 Y220.9058
G1 X178.433 Y221.2481
G1 X179.3104 Y222.5304
G1 X179.9667 Y223.4934
G1 X180.4557 Y224.2178
G3 X181.8902 Y226.4125 I-76.7236 J51.7145
G0 Z5.0
G0 X170.337 Y225.0394
G1 Z0.0
G1 X170.4545 Y224.0514
G1 X171.1927 Y217.8544
G1 X171.3313 Y216.6925
G1 X171.8524 Y212.3356
G1 X171.9013 Y211.9271
G1 X171.9962 Y211.1357
G1 X172.3526 Y208.1681
G1 X172.6207 Y205.9426
G1 X173.0248 Y202.6045
G1 X173.4328 Y199.2669
G1 X174.8535 Y198.0377
G1 X175.3468 Y198.1827
G1 X175.4067 Y198.2
G2 X179.2572 Y199.1587 I16.2316 J-56.9756
G1 X179.3481 Y199.1783
G1 X180.0706 Y199.3295
G1 X180.4098 Y199.3979
G2 X183.0481 Y199.8778 I17.3173 J-87.7113
G2 X187.0297 Y200.4468 I14.9121 J-90.1303
G2 X187.2793 Y200.4768 I1.0303 J-7.5293
G2 X187.3964 Y200.4906 I0.5425 J-4.0908
G2 X187.5098 Y200.5038 I0.481 J-3.6234
G1 X188.389 Y200.6021
G2 X188.4715 Y200.6109 I0.2455 J-1.9087
G2 X188.5514 Y200.6194 I0.2345 J-1.832
G2 X191.0316 Y200.8493 I11.539 J-110.9518
G2 X192.2182 Y201.7551 I25.0159 J-31.542
G2 X192.3641 Y201.8618 I2.4039 J-3.1358
G2 X192.9494 Y202.2809 I23.763 J-32.5662
G2 X193.5312 Y202.6851 I18.7987 J-26.4343
G2 X193.8194 Y202.8813 I8.6011 J-12.3261
G1 X194.3947 Y203.2656
G2 X195.5386 Y204.0045 I55.1632 J-84.1518
G1 X196.0975 Y204.3548
G1 X196.6503 Y204.6952
G2 X201.0774 Y207.2508 I57.8367 J-95.0799
G1 X201.5679 Y207.519
G1 X201.6888 Y207.5847
G2 X203.623 Y208.6173 I98.5286 J-182.2254
G2 X203.8505 Y208.7366 I3.8025 J-6.9764
G1 X204.7553 Y209.2068
G2 X211.8441 Y212.6983 I102.892 J-199.9545
G1 X212.1792 Y212.8563
G2 X214.8251 Y214.0844 I96.6797 J-204.8302
G1 X215.4056 Y214.3495
G2 X224.4685 Y218.3097 I134.8925 J-296.3533
G2 X229.0455 Y220.1834 I102.1291 J-242.9548
G2 X231.3489 Y221.0842 I62.6897 J-156.8925
G1 X231.9271 Y221.3033
G2 X232.3618 Y221.4651 I10.5072 J-27.567
G1 X232.6885 Y221.5844
G2 X233.1805 Y221.7582 I6.7261 J-18.2538
G1 X233.4281 Y221.8408
G1 X233.5527 Y221.8796
G2 X233.5841 Y221.8888 I0.0762 J-0.2008
G1 X233.6785 Y221.9143
G3 X234.5256 Y222.1233 I-8.8254 J37.5728
G3 X234.9011 Y222.2271 I-4.0199 J15.2754
G3 X234.9894 Y222.2531 I-0.2709 J1.0823
G3 X235.3352 Y222.3628 I-1.9445 J6.7319
G3 X235.9724 Y222.6125 I-2.1858 J6.5155
G3 X236.5022 Y222.9033 I-1.6159 J3.5721
G3 X236.9141 Y223.2364 I-1.3796 J2.1274
G3 X237.4009 Y224.013 I-1.3966 J1.4162
G3 X237.5205 Y224.6836 I-2.2467 J0.7469
G3 X237.5017 Y225.1926 I-3.1392 J0.1384
G3 X237.3584 Y225.9422 I-5.21 J-0.6072
G3 X237.1259 Y226.6691 I-8.1333 J-2.2003
G3 X233.822 Y229.8195 I-26.6387 J-24.6303
G3 X230.4103 Y232.3741 I-24.2672 J-28.8533
G3 X226.9892 Y234.414 I-22.3621 J-33.6153
G3 X223.6293 Y236.0236 I-21.0919 J-39.7143
G3 X220.3771 Y237.2812 I-19.1212 J-44.6129
G1 X220.1841 Y237.3477
G1 X219.9915 Y237.4132
G1 X219.7995 Y237.4776
G1 X219.608 Y237.5411
G3 X216.5267 Y238.454 I-17.634 J-53.858
G1 X216.3447 Y238.502
G1 X216.1632 Y238.5491
G1 X215.9823 Y238.5955
G1 X215.802 Y238.6411
G3 X212.911 Y239.2918 I-14.6051 J-58.1362
G3 X207.4257 Y240.154 I-13.3465 J-67.0319
G1 X207.1241 Y240.1887
G3 X202.3223 Y240.5813 I-8.9142 J-79.4528
G3 X201.2696 Y240.6297 I-6.3261 J-126.2406
G3 X197.1876 Y240.6999 I-3.6125 J-91.2781
G1 X196.741 Y240.6968
G1 X196.3015 Y240.6918
G1 X195.8689 Y240.6849
G3 X189.0646 Y240.339 I2.037 J-107.1649
G3 X183.9823 Y239.8106 I9.7407 J-118.4074
G3 X183.8634 Y239.7957 I0.2731 J-2.6524
G3 X176.3506 Y238.6229 I16.4597 J-130.0964
G3 X176.2337 Y238.6012 I0.2724 J-1.7919
G3 X168.9142 Y237.0361 I26.5094 J-141.8747
G1 X170.0336 Y227.5926
G1 X170.337 Y225.0394
G0 Z5.0
M5
M30
