( Made using CamBam - http://www.cambam.co.uk )
( _2014_1_20_car 1/20/2014 11:46:15 PM )
( T0 : 0.0 )
G21 G90 G64 G40
G0 Z5.0
( T0 : 0.0 )
T0 M6
( 110-111 )
G17
M3 S1000
G0 X-183.0387 Y90.0128
G1 F1.0 Z0.0
G3 X-184.256 Y89.3165 I6.8972 J-13.4701
G3 X-185.3947 Y88.4979 I6.8937 J-10.7901
G1 X-185.5393 Y88.379
G3 X-187.5501 Y86.1702 I6.8669 J-8.2712
G3 X-188.5228 Y84.4275 I9.1741 J-6.2632
G3 X-188.7313 Y83.9373 I11.0999 J-5.012
G3 X-189.1346 Y82.7893 I12.4767 J-5.0278
G3 X-189.3118 Y82.1652 I20.6841 J-6.2078
G3 X-189.6326 Y80.7207 I20.2993 J-5.2671
G1 X-188.5132
G2 X-185.7656 Y82.385 I79.1538 J-127.5719
G2 X-182.9869 Y83.9972 I101.0961 J-171.0442
G2 X-177.3501 Y87.0796 I102.9196 J-181.5162
G2 X-173.5433 Y89.0422 I115.6646 J-219.6755
G1 X-172.5225 Y89.5547
G2 X-167.0463 Y92.2215 I146.9292 J-294.7603
G1 X-165.5781 Y92.9164
G2 X-157.7103 Y96.5395 I242.9899 J-517.3045
G1 X-155.605 Y97.4898
G1 X-154.5178 Y97.9789
G1 X-153.3952 Y98.4832
G1 X-152.2363 Y99.0032
G1 X-151.0399 Y99.5399
G1 X-149.8051 Y100.094
G1 X-148.5307 Y100.6666
G1 X-145.8139 Y101.892
G1 X-145.1244 Y102.2043
G1 X-144.4243 Y102.5223
G1 X-143.7134 Y102.846
G1 X-142.9915 Y103.1756
G1 X-142.2586 Y103.5114
G3 X-139.1374 Y104.9558 I-167.8466 J366.8028
G1 X-138.3463 Y105.3262
G2 X-138.2893 Y105.7001 I1.3359 J-0.0123
G2 X-138.1431 Y106.0491 I1.9278 J-0.6025
G2 X-138.0181 Y106.2678 I2.8663 J-1.4929
G1 X-137.8395 Y106.5512
G3 X-137.6176 Y106.9368 I-3.7325 J2.4053
G3 X-137.5225 Y107.1728 I-1.5149 J0.7471
G3 X-137.5355 Y107.8608 I-0.9815 J0.3256
G1 X-137.8049 Y107.7576
G1 X-138.075 Y107.6559
G1 X-138.6163 Y107.4558
G2 X-138.6886 Y107.4292 I-0.3116 J0.7375
G1 X-139.0739 Y107.288
G1 X-139.2941 Y107.2071
G1 X-139.8802 Y106.9888
G3 X-140.6573 Y106.6869 I14.1109 J-37.4703
G3 X-141.6798 Y106.25 I8.3955 J-21.0606
G1 X-141.81 Y106.1897
G1 X-142.0861 Y106.0576
G3 X-143.5065 Y105.2506 I5.3974 J-11.1531
G1 X-143.5926 Y105.1925
G1 X-143.6794 Y105.1325
G1 X-143.7668 Y105.0705
G3 X-144.5296 Y104.4533 I4.6473 J-6.5228
G3 X-145.2941 Y103.6275 I4.6349 J-5.0578
G3 X-145.9779 Y102.5294 I4.9054 J-3.8168
G3 X-150.9635 Y100.3958 I400.3797 J-942.4734
G1 X-152.6218 Y99.6766
G3 X-159.2319 Y96.7469 I226.6693 J-520.34
G3 X-163.613 Y94.7366 I163.7108 J-362.5637
G1 X-164.1766 Y94.4733
G1 X-164.7579 Y94.2005
G1 X-165.3574 Y93.9179
G1 X-165.9757 Y93.625
G1 X-166.6133 Y93.3213
G3 X-169.5199 Y91.9161 I117.936 J-247.6434
G1 X-170.2677 Y91.5486
G1 X-171.0385 Y91.1672
G1 X-171.8331 Y90.7711
G1 X-172.652 Y90.3597
G1 X-173.496 Y89.9323
G1 X-174.3657 Y89.488
G3 X-176.2154 Y88.5299 I112.3887 J-219.2329
G3 X-180.4138 Y86.2829 I115.8021 J-221.4132
G3 X-185.1548 Y83.6104 I103.5969 J-189.3236
G1 X-185.5603 Y83.8726
G2 X-184.731 Y84.6359 I16.3923 J-16.9786
G1 X-184.4469 Y84.8819
G2 X-184.0627 Y85.2033 I19.9122 J-23.4096
G2 X-182.4693 Y86.4178 I18.0256 J-21.9979
G2 X-181.3648 Y87.1688 I18.0886 J-25.4149
G1 X-181.2202 Y87.2626
G1 X-181.0705 Y87.3588
G2 X-179.4497 Y88.3448 I23.6385 J-37.0329
G2 X-177.24 Y89.5733 I36.0039 J-62.157
G1 X-176.6451 Y89.8906
G2 X-176.3376 Y90.0533 I9.2337 J-17.0739
G2 X-176.0199 Y90.2208 I7.3424 J-13.5387
G2 X-175.8585 Y90.3058 I4.6009 J-8.5468
G2 X-175.6945 Y90.392 I4.3397 J-8.0551
G1 X-174.196 Y91.181
G1 X-173.3994 Y91.6063
G3 X-172.5537 Y92.067 I-38.4977 J71.6725
G3 X-171.6581 Y92.5699 I-24.514 J44.6985
G3 X-171.1993 Y92.8353 I-14.5395 J25.6685
G3 X-169.1411 Y94.1138 I-21.4551 J36.8364
G1 X-168.8855 Y94.2851
G1 X-168.6274 Y94.4614
G1 X-168.3669 Y94.6431
G1 X-174.1649 Y93.0662
G1 X-174.5703 Y94.288
G1 X-175.6898 Y93.6836
G1 X-175.6749 Y92.791
G2 X-177.4795 Y91.7344 I-8.1201 J11.7997
G2 X-179.4077 Y90.925 I-7.5115 J15.1925
G2 X-179.6716 Y90.8342 I-2.4357 J6.6507
G2 X-181.0981 Y90.4141 I-6.4596 J19.3032
G2 X-183.0387 Y90.0128 I-5.5507 J21.9508
G0 Z5.0
G0 X-171.621 Y102.7842
G1 Z0.0
G3 X-169.4239 Y104.0592 I-2.362 J6.6006
G3 X-168.8073 Y104.6454 I-5.7004 J6.6138
G1 X-168.653 Y104.8119
G3 X-167.894 Y105.7518 I-8.8291 J7.9068
G3 X-167.8488 Y105.8139 I-0.8297 J0.6516
G1 X-167.6594 Y106.0806
G1 X-167.4625 Y106.3685
G3 X-167.0264 Y107.0341 I-36.4236 J24.342
G1 X-166.5375 Y107.7987
G1 X-166.2746 Y108.2043
G2 X-165.6508 Y109.1132 I21.6598 J-14.1971
G2 X-165.297 Y109.5821 I9.2924 J-6.6437
G2 X-165.251 Y109.6402 I0.626 J-0.4478
G2 X-165.2044 Y109.6985 I0.6157 J-0.4447
G1 X-165.0085 Y109.936
G1 X-164.8996 Y110.0646
G1 X-164.7904 Y110.1929
G2 X-164.7173 Y110.2783 I1.579 J-1.2776
G1 X-164.4226 Y110.6175
G1 X-164.3374 Y110.7136
G2 X-163.6307 Y111.4589 I10.067 J-8.8382
G2 X-163.1155 Y111.9106 I4.3065 J-4.3926
G2 X-162.7925 Y112.1329 I2.257 J-2.9341
G2 X-162.3827 Y112.3199 I1.0051 J-1.6594
G2 X-162.1439 Y112.3649 I0.3378 J-1.1358
G2 X-161.5831 Y112.2044 I0.0652 J-0.8321
G2 X-161.3451 Y111.9778 I-0.7466 J-1.0219
G2 X-162.6315 Y109.8356 I-38.2731 J21.5252
G1 X-162.8244 Y109.5352
G2 X-164.4184 Y107.166 I-74.1872 J48.1919
G1 X-165.5052 Y105.6032
G3 X-166.1242 Y104.7088 I102.751 J-71.7831
G2 X-165.6532 Y104.8398 I2.3067 J-7.3825
G2 X-165.4947 Y104.8778 I0.8955 J-3.3938
G1 X-165.2828 Y104.9259
G3 X-164.4369 Y105.1254 I-3.8293 J18.1276
G1 X-164.3253 Y105.1569
G1 X-164.207 Y105.1928
G3 X-163.5937 Y105.4364 I-1.2414 J4.018
G3 X-162.87 Y105.9436 I-1.3039 J2.6305
G2 X-161.2772 Y109.2427 I14.0092 J-4.7297
G2 X-158.9343 Y112.0592 I13.1171 J-8.5287
G2 X-157.0516 Y113.6181 I12.2524 J-12.8808
G2 X-154.2685 Y115.3021 I12.1879 J-17.0016
G2 X-152.5799 Y116.0767 I10.6658 J-21.0222
G2 X-150.5915 Y116.8096 I10.141 J-24.4471
G2 X-150.5283 Y116.8302 I0.332 J-0.9148
G2 X-150.4647 Y116.8507 I0.3313 J-0.9194
G2 X-150.4009 Y116.8711 I0.3305 J-0.924
G2 X-150.3367 Y116.8914 I0.3298 J-0.9287
G2 X-150.2723 Y116.9117 I0.3291 J-0.9335
G2 X-150.2075 Y116.9319 I0.3283 J-0.9383
G2 X-150.1425 Y116.952 I0.3276 J-0.9432
G2 X-150.0772 Y116.9721 I0.3269 J-0.9481
G2 X-147.6673 Y117.6042 I9.4978 J-31.2979
G2 X-147.5909 Y117.621 I0.2985 J-1.1742
G2 X-147.2804 Y117.6875 I2.2847 J-9.9172
G2 X-146.9644 Y117.752 I2.8612 J-13.2066
G2 X-146.3107 Y117.8758 I9.1366 J-46.4595
G1 X-145.9779 Y117.9339
G1 X-142.7274 Y125.8072
G2 X-144.332 Y125.2607 I-16.414 J45.5615
G2 X-145.9519 Y124.7612 I-25.8649 J81.0135
G1 X-146.4161 Y124.6232
G1 X-147.6549 Y124.2578
G3 X-149.3036 Y123.7614 I52.4208 J-177.0817
G1 X-149.5158 Y123.6953
G1 X-149.7346 Y123.6265
G3 X-152.0487 Y122.8324 I13.5821 J-43.3486
G1 X-152.194 Y122.7772
G1 X-152.3413 Y122.7204
G1 X-152.9367 Y122.4869
G1 X-153.53 Y122.248
G1 X-153.9243 Y122.0854
G1 X-154.0292 Y122.0415
G3 X-154.2687 Y121.9403 I3.6031 J-8.8631
G3 X-156.1602 Y121.0769 I14.4563 J-34.1725
G3 X-157.3846 Y120.4263 I9.5854 J-19.5174
G3 X-158.0631 Y120.0168 I10.0061 J-17.3478
G1 X-158.235 Y119.906
G3 X-159.9636 Y118.572 I7.4247 J-11.4085
G3 X-160.8515 Y117.6924 I9.9558 J-10.9368
G1 X-160.9593 Y117.5758
G1 X-161.0679 Y117.4565
G3 X-162.0219 Y116.3326 I21.9956 J-19.6387
G1 X-162.1394 Y116.1868
G1 X-162.3799 Y115.8844
G3 X-162.5013 Y115.7302 I3.8278 J-3.1388
G3 X-162.5623 Y115.6524 I1.7576 J-1.4408
G1 X-163.0794 Y114.9864
G1 X-163.6275 Y114.2744
G1 X-163.7667 Y114.0936
G1 X-164.3614 Y113.3241
G3 X-165.8303 Y111.2838 I29.8694 J-23.053
G3 X-166.2943 Y110.586 I45.4352 J-30.7194
G3 X-166.3536 Y110.4955 I2.9731 J-2.0107
G3 X-166.4146 Y110.402 I2.7328 J-1.8497
G3 X-166.6919 Y109.9735 I55.2927 J-36.0905
G3 X-166.7631 Y109.8627 I2.0967 J-1.4255
G3 X-167.0871 Y109.3553 I46.1595 J-29.8281
G1 X-167.2592 Y109.0841
G1 X-167.4424 Y108.7948
G1 X-167.861 Y108.1334
G2 X-168.9918 Y106.3791 I-82.3237 J51.8213
G2 X-169.3007 Y105.9161 I-29.6445 J19.4431
G2 X-170.0245 Y104.8699 I-34.6559 J23.2027
G2 X-170.8893 Y103.7008 I-34.0104 J24.253
G1 X-171.0023 Y103.5548
G1 X-171.118 Y103.4071
G2 X-171.621 Y102.7842 I-19.2676 J15.044
G0 Z5.0
M5
M30
