( Made using CamBam - http://www.cambam.co.uk )
( _2014_1_20_car 1/20/2014 11:54:47 PM )
( T0 : 0.0 )
G21 G90 G64 G40
G0 Z5.0
( T0 : 0.0 )
T0 M6
( 229 )
G17
M3 S1000
G0 X229.5132 Y211.2237
G1 F1.0 Z0.0
G1 X228.9528 Y211.0228
G1 X227.8494 Y210.6259
G1 X227.315 Y210.4327
G1 X226.789 Y210.2415
G1 X225.7544 Y209.8618
G1 X224.7534 Y209.4889
G1 X224.269 Y209.3061
G1 X223.7926 Y209.1246
G1 X223.6753 Y209.0797
G1 X223.5586 Y209.0348
G3 X222.6299 Y208.674 I26.8243 J-70.4193
G1 X222.1808 Y208.4967
G3 X218.67 Y207.0347 I41.0404 J-103.495
G1 X217.9081 Y206.6962
G1 X217.7239 Y206.6131
G3 X214.83 Y205.2309 I29.6294 J-65.7514
G1 X214.2044 Y204.9107
G3 X211.8149 Y203.603 I26.2999 J-50.8936
G3 X209.7776 Y202.36 I25.1753 J-43.552
G1 X209.3399 Y202.0744
G3 X207.6768 Y200.9183 I21.858 J-33.2166
G3 X207.5874 Y200.8526 I0.9795 J-1.4271
G3 X204.8593 Y198.6308 I20.8104 J-28.339
G1 X204.6155 Y198.4079
G3 X202.8136 Y196.5903 I19.9348 J-21.5655
G3 X200.4641 Y193.5555 I18.034 J-16.3881
G3 X198.6632 Y190.1662 I17.71 J-11.5834
G3 X198.8033 Y189.8556 I1.1082 J0.3126
G3 X199.2174 Y189.4363 I1.2589 J0.8293
G3 X200.0349 Y189.1146 I1.1136 J1.6303
G3 X200.4777 Y189.1002 I0.2849 J1.9403
G3 X200.9095 Y189.1992 I-0.1502 J1.6451
G3 X203.5383 Y190.675 I-9.5448 J20.0815
G3 X205.355 Y192.0287 I-10.3563 J15.795
G3 X205.9904 Y192.5946 I-11.2657 J13.2878
G3 X207.9547 Y194.8275 I-10.3374 J11.0745
G3 X209.4078 Y197.4222 I-10.8176 J7.7621
G2 X211.0144 Y200.1372 I10.9309 J-4.6358
G2 X211.9129 Y201.1701 I11.0533 J-8.7082
G1 X212.1372 Y201.3985
G1 X212.2494 Y201.5091
G2 X212.7051 Y201.9364 I13.0859 J-13.499
G1 X212.8179 Y202.0371
G2 X213.7429 Y202.8009 I12.235 J-13.8768
G2 X214.6505 Y203.4627 I12.1453 J-15.7021
G1 X214.759 Y203.5371
G2 X215.6342 Y204.1065 I12.0906 J-17.6251
G2 X217.328 Y205.0857 I16.8371 J-27.1731
G2 X218.85 Y205.8681 I19.545 J-36.1501
G1 X219.0182 Y205.9504
G1 X219.3499 Y206.1106
G1 X219.6722 Y206.2641
G1 X220.2989 Y206.5565
G1 X220.8886 Y206.8258
G1 X221.4431 Y207.0749
G1 X222.4855 Y207.5356
G1 X222.9423 Y207.7355
G2 X223.1566 Y207.8291 I2.982 J-6.5361
G1 X224.816 Y208.5554
G1 X225.437 Y208.8309
G1 X225.9792 Y209.0746
G1 X226.4524 Y209.2906
G1 X226.8654 Y209.4819
G1 X227.2257 Y209.6515
G1 X227.5402 Y209.8017
G3 X229.7102 Y210.9151 I-19.6094 J40.8921
G3 X229.9294 Y211.054 I-0.7624 J1.4452
G3 X230.0279 Y211.1482 I-0.3375 J0.4518
G3 X230.0586 Y211.1983 I-0.3059 J0.2213
G3 X230.0656 Y211.2474 I-0.0751 J0.0357
G3 X230.0097 Y211.3007 I-0.073 J-0.0205
G3 X229.8827 Y211.312 I-0.0953 J-0.3541
G3 X229.6951 Y211.2799 I0.0564 J-0.8939
G3 X229.6035 Y211.2539 I2.1085 J-7.6195
G1 X229.5132 Y211.2237
G0 Z5.0
M5
M30
