( Made using CamBam - http://www.cambam.co.uk )
( _2014_1_20_car 1/20/2014 11:54:42 PM )
( T0 : 0.0 )
G21 G90 G64 G40
G0 Z5.0
( T0 : 0.0 )
T0 M6
( 60 )
G17
M3 S1000
G0 X-161.3451 Y228.2516
G1 F1.0 Z0.0
G3 X-168.2828 Y227.3824 I85.1919 J-708.1518
G1 X-169.2732 Y227.2531
G1 X-170.4049 Y227.1037
G1 X-171.6979 Y226.9307
G1 X-172.3875 Y226.8374
G1 X-173.9632 Y226.6217
G3 X-186.5488 Y224.7577 I84.9609 J-617.0513
G1 X-188.2238 Y224.4891
G3 X-190.0096 Y224.197 I57.1451 J-355.0038
G1 X-190.463 Y224.1219
G1 X-190.9235 Y224.0452
G1 X-192.8876 Y223.7134
G1 X-193.9009 Y223.5393
G1 X-194.9464 Y223.3574
G1 X-196.0252 Y223.1674
G3 X-207.5049 Y220.9854 I78.9791 J-446.8084
G1 X-208.9818 Y220.6818
G1 X-209.7316 Y220.5255
G1 X-210.493 Y220.3652
G3 X-210.4549 Y220.3107 I0.0711 J0.0091
G3 X-210.3944 Y220.2832 I0.1376 J0.222
G3 X-210.2695 Y220.2544 I0.2648 J0.8655
G3 X-210.0212 Y220.2304 I0.3617 J2.4436
G3 X-209.5305 Y220.225 I0.3293 J7.6905
G3 X-208.559 Y220.2712 I-0.3963 J18.5994
G3 X-208.282 Y220.2911 I-0.4189 J7.7535
G1 X-207.9659 Y220.3162
G3 X-205.4513 Y220.5704 I-7.3645 J85.4251
G1 X-205.1165 Y220.609
G3 X-203.3338 Y220.8263 I-21.9132 J187.1509
G3 X-202.3164 Y220.9575 I-15.6731 J125.5968
G1 X-201.1544 Y221.1122
G1 X-199.8273 Y221.2944
G1 X-198.3119 Y221.5084
G1 X-197.504 Y221.6247
G1 X-196.6425 Y221.7504
G1 X-195.7238 Y221.8861
G3 X-195.4905 Y221.9208 I-0.9412 J7.126
G1 X-193.3587 Y222.2426
G3 X-190.9242 Y222.6194 I-57.3461 J378.575
G3 X-190.8478 Y222.6314 I-0.1337 J1.1027
G1 X-190.2172 Y222.7305
G1 X-188.8726 Y222.9439
G1 X-187.4388 Y223.1743
G3 X-179.8008 Y224.4498 I-127.1345 J784.8039
G1 X-177.7665 Y224.8039
G1 X-177.25 Y224.8948
G3 X-172.5321 Y225.7485 I-85.6891 J487.0276
G1 X-171.316 Y225.9765
G1 X-170.0614 Y226.216
G3 X-167.3887 Y226.7449 I-60.7464 J313.9613
G1 X-166.7108 Y226.8844
G3 X-163.8271 Y227.5186 I-21.2389 J103.4417
G3 X-162.3505 Y227.8972 I-8.3215 J35.5239
G3 X-161.6126 Y228.1336 I-2.7729 J9.927
G1 X-161.5223 Y228.1692
G3 X-161.3451 Y228.2516 I-0.6699 J1.6721
G0 Z5.0
M5
M30
