( Made using CamBam - http://www.cambam.co.uk )
( _2014_1_20_car 1/20/2014 11:52:11 PM )
( T0 : 0.0 )
G21 G90 G64 G40
G0 Z5.0
( T0 : 0.0 )
T0 M6
( 20-42 )
G17
M3 S1000
G0 X129.0009 Y218.2231
G1 F1.0 Z0.0
G1 X128.9617 Y218.2208
G2 X128.9226 Y218.2186 I-0.0311 J0.2046
G1 X128.8442 Y218.2146
G1 X128.7919 Y218.2121
G1 X128.5829 Y218.2039
G1 X128.4434 Y218.1995
G1 X128.2575 Y218.195
G1 X128.0095 Y218.1908
G1 X127.6789 Y218.1878
G2 X126.3565 Y218.1962 I-0.245 J65.1467
G1 X125.9787 Y218.203
G2 X122.9581 Y218.3023 I2.3927 J118.8365
G2 X116.9262 Y218.6731 I7.7234 J174.8496
G1 X116.5375 Y218.705
G1 X116.3401 Y218.7216
G1 X116.2406 Y218.7301
G1 X115.3923 Y218.8058
G2 X113.456 Y219.0065 I6.6844 J73.9296
G1 X112.9572 Y219.0665
G1 X112.704 Y219.0986
G1 X112.447 Y219.1325
G2 X112.3175 Y219.1501 I0.5294 J4.3687
G2 X111.2155 Y219.3199 I4.2878 J31.5065
G2 X110.9367 Y219.3703 I1.5777 J9.5027
G1 X110.6545 Y219.4262
G1 X109.7567 Y219.6088
G1 X109.6283 Y219.6341
G1 X109.4814 Y219.6628
G1 X109.0895 Y219.7371
G3 X107.5143 Y219.9911 I-6.1547 J-33.1512
G3 X106.4565 Y220.1033 I-2.5733 J-19.2274
G3 X105.0382 Y220.149 I-1.203 J-15.3084
G3 X103.1531 Y219.9672 I0.1731 J-11.6588
G3 X100.736 Y219.2164 I1.8904 J-10.3525
G3 X99.4527 Y218.5392 I4.5979 J-10.2682
G3 X99.6386 Y216.966 I2.2408 J-0.5328
G3 X99.9208 Y216.5089 I2.4865 J1.2197
G3 X100.1143 Y216.2709 I3.7841 J2.8794
G3 X100.7037 Y215.7135 I3.5346 J3.1471
G3 X101.0732 Y215.4367 I3.4439 J4.2116
G3 X102.1136 Y214.8143 I5.4789 J7.9776
G3 X102.7323 Y214.5136 I5.4619 J10.4506
G3 X103.0666 Y214.366 I4.1066 J8.8516
G1 X103.152 Y214.3298
G1 X103.2389 Y214.2934
G3 X104.0341 Y213.9844 I6.2659 J14.947
G3 X106.1608 Y213.3123 I9.6171 J26.7289
G3 X106.7333 Y213.1597 I5.5366 J19.6212
G3 X109.7651 Y212.4906 I11.5725 J45.2308
G1 X110.1584 Y212.4178
G3 X114.3179 Y211.802 I11.9364 J66.2732
G3 X116.632 Y211.5967 I5.0099 J43.3203
G3 X118.9537 Y211.5121 I2.954 J49.1728
G1 X119.2635 Y211.5091
G1 X119.5939 Y211.5078
G1 X119.9464 Y211.5088
G3 X125.5739 Y211.8192 I-0.4505 J59.3248
G3 X129.2987 Y212.3165 I-5.9642 J58.8673
G1 X129.4155 Y212.336
G3 X134.3525 Y213.3917 I-8.8504 J53.4611
G3 X135.6493 Y213.7558 I-12.8873 J48.3832
G3 X138.5642 Y214.7489 I-10.4639 J35.4872
G1 X138.6542 Y214.7842
G3 X140.1714 Y215.4331 I-9.5848 J24.5104
G3 X140.9375 Y215.8065 I-8.3771 J18.1586
G3 X141.7123 Y216.2245 I-9.223 J18.0219
G3 X143.2888 Y217.2552 I-7.0291 J12.4734
G3 X144.0375 Y217.8811 I-5.9371 J7.8616
G3 X144.734 Y218.617 I-5.2404 J5.6571
G3 X145.3225 Y219.4967 I-4.0659 J3.357
G3 X145.5432 Y219.9938 I-3.5873 J1.8897
G3 X145.7563 Y221.1351 I-3.2189 J1.1918
G3 X145.534 Y222.3885 I-3.5234 J0.0215
G3 X145.2556 Y222.9997 I-4.1423 J-1.5179
G3 X144.8778 Y223.5953 I-5.0592 J-2.7918
G3 X143.424 Y225.2069 I-8.2533 J-5.9836
G3 X141.6569 Y226.4669 I-6.5245 J-7.2808
G3 X137.5026 Y227.6343 I-4.5304 J-8.1469
G1 X138.2205 Y222.5576
G2 X136.5606 Y220.7715 I-7.9155 J5.6919
G2 X134.5018 Y219.465 I-6.1749 J7.4546
G2 X132.9827 Y218.8815 I-4.7565 J10.115
G1 X132.7812 Y218.8217
G2 X130.5933 Y218.3728 I-4.1628 J14.7312
G2 X129.3253 Y218.2441 I-2.5541 J18.8569
G2 X129.2451 Y218.2385 I-0.1014 J0.8749
G2 X129.1644 Y218.2331 I-0.0993 J0.8834
G2 X129.0829 Y218.228 I-0.0972 J0.8922
G2 X129.0009 Y218.2231 I-0.095 J0.9013
G0 Z5.0
G0 X130.3919 Y220.9492
G1 Z0.0
G3 X131.5216 Y220.8362 I1.2038 J6.3306
G3 X132.6525 Y220.9357 I0.0753 J5.6212
G3 X134.7276 Y221.8323 I-0.9481 J5.0435
G3 X135.7905 Y222.9145 I-2.7412 J3.7553
G3 X136.2018 Y223.684 I-3.0511 J2.1258
G3 X136.3318 Y224.1341 I-2.668 J1.0141
G3 X136.3663 Y224.6385 I-1.9591 J0.3874
G3 X136.2142 Y225.1745 I-1.2646 J-0.0693
G3 X135.7307 Y225.612 I-0.8983 J-0.5067
G3 X135.3829 Y225.717 I-0.5656 J-1.2453
G2 X134.1744 Y225.294 I-4.2874 J10.311
G2 X132.9292 Y224.9965 I-4.1245 J14.5059
G2 X132.0877 Y224.8532 I-3.7021 J19.2023
G2 X130.9586 Y224.7143 I-3.8521 J26.6443
G2 X129.4477 Y224.5932 I-4.1092 J41.7888
G2 X129.3516 Y224.5872 I-0.1389 J1.452
G2 X129.254 Y224.5812 I-0.1417 J1.5216
G1 X128.8376 Y224.5574
G1 X128.3935 Y224.5339
G1 X127.3788 Y224.4837
G1 X126.8377 Y224.4561
G1 X126.2609 Y224.4237
G1 X125.6462 Y224.3837
G3 X125.4285 Y224.3549 I0.1209 J-1.7543
G3 X125.2193 Y224.2878 I0.1457 J-0.813
G3 X125.1034 Y224.1962 I0.1262 J-0.2788
G3 X125.0821 Y224.1095 I0.0978 J-0.07
G3 X125.1445 Y224.0114 I0.1667 J0.0371
G3 X125.2643 Y223.9408 I0.2981 J0.3693
G3 X125.4023 Y223.8968 I0.4126 J1.0544
G3 X125.7205 Y223.8575 I0.3742 J1.723
G1 X125.95 Y223.8493
G1 X126.0266 Y223.8472
G1 X126.3329 Y223.8417
G1 X126.4205 Y223.8409
G3 X127.1206 Y223.8472 I0.0414 J34.6687
G3 X128.5193 Y223.9109 I-0.941 J36.0122
G1 X128.7057 Y223.923
G1 X129.1313 Y223.9526
G1 X129.6176 Y223.9883
G1 X129.877 Y224.0076
G1 X130.1537 Y224.028
G1 X130.4489 Y224.0491
G2 X132.0244 Y224.1345 I2.9425 J-39.6924
G2 X131.6126 Y223.6324 I-1.525 J0.8308
G2 X131.0545 Y223.3001 I-1.3912 J1.7017
G2 X130.8808 Y223.2338 I-0.8275 J1.9075
G2 X130.4051 Y223.1025 I-1.325 J3.8739
G1 X130.2762 Y223.0761
G2 X129.5885 Y222.9725 I-1.7334 J9.1763
G2 X129.4046 Y222.9512 I-0.8502 J6.5264
G1 X128.9859 Y222.9054
G3 X128.8892 Y222.8889 I0.0558 J-0.6183
G3 X128.7969 Y222.8557 I0.0596 J-0.3102
G3 X128.7478 Y222.8114 I0.0646 J-0.1211
G3 X128.7516 Y222.7172 I0.0864 J-0.0437
G3 X128.828 Y222.6211 I0.3257 J0.1806
G3 X128.9431 Y222.5276 I0.6458 J0.6768
G3 X129.0789 Y222.4406 I0.7991 J1.0976
G1 X131.3066 Y222.301
G2 X131.3444 Y221.9465 I-0.9381 J-0.2791
G2 X131.2296 Y221.609 I-0.7455 J0.0652
G2 X131.0794 Y221.4235 I-0.894 J0.5703
G2 X130.8356 Y221.2235 I-1.2276 J1.2477
G2 X130.4864 Y221.0043 I-2.9449 J4.3035
G1 X130.3919 Y220.9492
G0 Z5.0
G0 X130.2251 Y226.042
G1 Z0.0
G3 X131.1192 Y226.0887 I-0.7566 J23.0923
G1 X131.3503 Y226.1077
G3 X132.5765 Y226.2707 I-1.1008 J12.9746
G3 X132.9002 Y226.3347 I-1.1124 J6.4816
G3 X133.6318 Y226.5201 I-2.1827 J10.1491
G3 X134.4459 Y226.8087 I-2.1939 J7.4816
G3 X135.3295 Y227.2541 I-2.5908 J6.239
G3 X135.3829 Y227.2865 I-0.4873 J0.8615
G3 X134.4174 Y227.685 I-1.6786 J-2.6979
G3 X133.3775 Y227.7815 I-0.891 J-3.9523
G3 X132.6843 Y227.717 I0.1599 J-5.4827
G3 X131.78 Y227.5252 I1.2397 J-8.0712
G3 X130.6122 Y227.1561 I4.0569 J-14.8683
G1 X130.3058 Y227.0447
G1 X129.9807 Y226.9224
G1 X129.8983 Y226.8909
G1 X129.7285 Y226.8255
G1 X129.5536 Y226.7578
G1 X129.4648 Y226.7232
G2 X128.6554 Y226.4119 I-20.9804 J53.3361
G1 X128.4456 Y226.3343
G1 X128.2286 Y226.2564
G2 X127.7627 Y226.1011 I-3.3669 J9.3281
G2 X127.6434 Y226.0648 I-1.0396 J3.1981
G1 X128.2136 Y226.0473
G1 X128.784 Y226.0348
G1 X129.1643 Y226.0305
G1 X129.3817 Y226.0298
G3 X130.2251 Y226.042 I0.0868 J23.1045
G0 Z5.0
G0 X140.0541 Y229.2093
G1 Z0.0
G3 X140.5589 Y228.8667 I4.8352 J6.5826
G3 X141.095 Y228.5756 I2.6179 J4.1815
G3 X141.4757 Y228.4312 I1.1419 J2.4366
G3 X142.0141 Y228.3498 I0.5341 J1.7125
G3 X142.7094 Y228.6049 I0.0002 J1.0745
G1 Y230.1744
G1 X140.0541 Y229.2093
G0 Z5.0
G0 X145.2556 Y228.385
G1 Z0.0
G3 X145.2274 Y227.8318 I2.5786 J-0.4086
G3 X145.4171 Y226.9688 I2.869 J0.1784
G3 X145.8993 Y226.0775 I3.7975 J1.4784
G3 X146.6479 Y225.2113 I4.9986 J3.5634
G2 X147.2212 Y224.4777 I-2.3814 J-2.4516
G2 X147.5997 Y223.627 I-3.7095 J-2.1602
G2 X147.7541 Y223.0256 I-5.2086 J-1.6572
G2 X147.8557 Y222.2059 I-5.9581 J-1.1552
G2 X147.8371 Y221.1089 I-7.6283 J-0.4191
G2 X147.5922 Y219.6751 I-9.1678 J0.8284
G2 X147.4905 Y219.3009 I-9.451 J2.367
G2 X146.7315 Y217.3982 I-10.6503 J3.146
G2 X145.2218 Y215.1553 I-9.9431 J5.0628
G2 X144.1301 Y214.0669 I-8.0808 J7.0142
G1 X143.8708 Y213.214
G1 X143.7816 Y212.9306
G1 X143.6579 Y212.5542
G2 X143.4814 Y212.0563 I-16.7799 J5.6697
G2 X143.3729 Y211.7745 I-11.0032 J4.0745
G2 X143.2408 Y211.4558 I-10.1436 J4.0168
G2 X143.1664 Y211.2874 I-5.0857 J2.148
G2 X142.7129 Y210.4163 I-7.2872 J3.2395
G2 X141.9202 Y209.3709 I-4.9778 J2.9516
G2 X140.4668 Y208.3749 I-3.105 J2.9725
G3 X140.1373 Y207.8923 I1.0208 J-1.0507
G3 X140.0524 Y207.3142 I1.1987 J-0.4714
G3 X140.1178 Y206.9294 I2.2588 J0.1859
G3 X140.2778 Y206.4404 I4.8893 J1.3289
G1 X140.3816 Y206.1677
G1 X140.4358 Y206.0223
G1 X140.4904 Y205.8669
G2 X140.5897 Y205.5069 I-2.5636 J-0.9009
G2 X140.6206 Y205.0822 I-1.511 J-0.3234
G2 X140.4668 Y204.6112 I-1.0392 J0.0786
G3 X142.4132 Y203.7931 I9.2788 J19.3523
G1 X142.5455 Y203.7449
G3 X144.6915 Y203.0622 I10.3752 J28.8997
G3 X149.0926 Y202.1263 I9.9648 J36.0436
G3 X152.0763 Y201.8121 I4.8245 J31.491
G3 X152.1708 Y201.807 I0.1099 J1.1704
G1 X159.1925 Y216.2538
G3 X159.101 Y217.7473 I-58.3059 J-2.8229
G3 X159.0625 Y218.2445 I-33.0813 J-2.3122
G3 X158.8703 Y220.2303 I-65.3321 J-5.3193
G3 X158.3003 Y224.1789 I-60.5192 J-6.7208
G3 X157.7564 Y226.7829 I-42.3233 J-7.4825
G3 X157.3628 Y228.2516 I-28.3683 J-6.8149
G1 X144.8294 Y206.1881
G1 X144.1301 Y206.8054
G1 X144.521 Y207.7734
G1 X144.9123 Y208.7413
G1 X145.6989 Y210.6754
G2 X147.3051 Y214.5299 I285.3211 J-116.6347
G2 X147.3572 Y214.6518 I5.2684 J-2.1768
G2 X147.4101 Y214.7757 I5.3162 J-2.2002
G2 X147.464 Y214.9014 I5.3637 J-2.2236
G2 X148.6363 Y217.5744 I137.9806 J-58.9208
G2 X148.7123 Y217.7434 I6.081 J-2.6356
G2 X148.7898 Y217.915 I6.0997 J-2.6517
G2 X148.8688 Y218.0892 I6.1156 J-2.6669
G2 X150.6151 Y221.7765 I110.1654 J-49.9153
G2 X153.1678 Y226.5812 I81.6784 J-40.3151
G2 X154.7658 Y229.2492 I62.8605 J-35.8376
G2 X154.8177 Y229.3318 I2.0293 J-1.2182
G2 X154.87 Y229.4147 I2.0207 J-1.2164
G2 X154.9226 Y229.4978 I2.0121 J-1.2146
G2 X154.9755 Y229.5812 I2.0035 J-1.2128
G2 X155.0287 Y229.6649 I1.995 J-1.211
G2 X155.0823 Y229.7488 I1.9866 J-1.2093
G2 X155.5291 Y230.4385 I34.5023 J-21.862
G2 X154.663 Y230.6219 I5.7823 J29.4403
G1 X154.3754 Y230.6882
G1 X153.9924 Y230.7783
G3 X153.4816 Y230.8983 I-21.1941 J-89.0383
G3 X152.7992 Y231.0522 I-13.2092 J-56.9879
G1 X152.4079 Y231.134
G3 X151.3573 Y231.3156 I-3.7755 J-18.7114
G1 X151.2209 Y231.3339
G3 X149.7549 Y231.4224 I-1.3224 J-9.7166
G3 X149.363 Y231.4035 I0.0594 J-5.3001
G3 X148.1288 Y231.166 I0.4141 J-5.477
G3 X146.9802 Y230.6562 I1.5978 J-5.1489
G3 X146.3008 Y230.1631 I2.1895 J-3.7308
G3 X145.5842 Y229.3007 I2.275 J-2.6194
G3 X145.2556 Y228.385 I2.2499 J-1.3244
G0 Z5.0
G0 X159.4909 Y231.3529
G1 Z0.0
G2 X159.8951 Y229.2558 I-69.1744 J-14.4221
G2 X160.4391 Y225.7668 I-86.6086 J-15.291
G2 X160.7305 Y223.4308 I-95.6568 J-13.1194
G2 X160.8763 Y222.0935 I-168.509 J-19.0437
G2 X160.885 Y222.0092 I-2.3269 J-0.2838
G2 X160.8938 Y221.9242 I-2.3283 J-0.2829
G2 X160.9026 Y221.8386 I-2.3297 J-0.282
G2 X160.9114 Y221.7522 I-2.3312 J-0.2811
G2 X160.9202 Y221.6652 I-2.3328 J-0.2803
G1 X160.9934 Y220.9227
G2 X161.335 Y216.9587 I-235.0844 J-22.2589
G1 X161.4164 Y215.9008
G1 X161.595 Y213.4826
G1 X161.6404 Y212.8585
G1 X161.7378 Y211.5272
G1 X161.8441 Y210.1074
G1 X161.9622 Y208.5934
G1 X162.0259 Y207.8122
G1 X162.094 Y207.0061
G1 X162.1673 Y206.1742
G1 X162.2464 Y205.3158
G1 X162.2881 Y204.8799
G1 X162.3315 Y204.4372
G1 X162.3768 Y203.9876
G3 X162.8556 Y199.8843 I135.7546 J13.7618
G3 X163.0991 Y199.8782 I0.1628 J1.6459
G3 X163.3395 Y199.9176 I-0.0563 J1.0955
G3 X163.72 Y200.2184 I-0.1647 J0.5993
G3 X163.8254 Y200.5305 I-0.8958 J0.4763
G3 X163.8619 Y200.957 I-2.8014 J0.4549
G1 X163.8636 Y201.197
G3 X163.8585 Y201.4233 I-6.2454 J-0.028
G3 X163.8577 Y201.4556 I-0.2445 J0.0101
G3 X163.8567 Y201.4927 I-0.2626 J0.0118
G1 X163.8483 Y201.7883
G1 X163.8274 Y202.3794
G1 X163.8106 Y202.7734
G1 X163.7851 Y203.2985
G1 X163.7691 Y203.5985
G1 X163.7602 Y203.7584
G1 X163.7081 Y204.6115
G1 X163.6753 Y205.0987
G1 X163.6353 Y205.6553
G1 X163.5867 Y206.2912
G1 X163.5277 Y207.0177
G1 X163.4561 Y207.8477
G3 X163.437 Y208.0618 I-10.1524 J-0.7996
G1 X163.417 Y208.2829
G1 X163.3221 Y209.2928
G1 X163.2074 Y210.4465
G1 X163.0693 Y211.7642
G3 X162.6691 Y215.2744 I-341.569 J-37.1636
G1 X162.5556 Y216.2096
G1 X162.5411 Y216.3275
G3 X161.8879 Y221.3489 I-380.7748 J-46.9795
G1 X161.7989 Y221.9962
G1 X161.6056 Y223.3766
G1 X161.3941 Y224.8483
G1 X161.1622 Y226.4171
G3 X160.5996 Y229.9979 I-250.9235 J-37.5875
G1 X160.5223 Y230.4517
G1 X160.4398 Y230.9119
G3 X160.3943 Y231.1432 I-4.9947 J-0.8612
G1 X160.3677 Y231.2585
G3 X160.084 Y231.923 I-2.6905 J-0.7557
G3 X159.6058 Y232.4648 I-1.6753 J-0.9969
G3 X159.1925 Y232.7164 I-1.3433 J-1.7413
G2 X159.4909 Y231.3529 I-68.876 J-15.7856
G0 Z5.0
G0 X159.1925 Y210.9151
G1 Z0.0
G1 X154.4022 Y200.8493
G1 X156.232 Y198.9191
G2 X157.1336 Y199.1523 I2.4924 J-7.778
G2 X157.4389 Y199.2095 I1.7623 J-8.5486
G2 X158.6686 Y199.3783 I3.6617 J-22.1161
G3 X159.4896 Y199.4801 I-4.4537 J39.2949
G3 X159.9554 Y199.5612 I-0.9699 J6.9445
G3 X160.2003 Y199.622 I-0.7891 J3.704
G3 X160.2511 Y201.0996 I-48.9706 J2.4226
G1 X160.2576 Y201.5924
G3 X160.2581 Y202.2495 I-34.0383 J0.3506
G3 X160.1608 Y204.8757 I-40.8084 J-0.1957
G1 X160.1488 Y205.0449
G3 X160.0846 Y205.8174 I-28.1515 J-1.9518
G3 X159.8326 Y207.8693 I-32.9039 J-3.0006
G1 X159.7908 Y208.1328
G3 X159.1925 Y210.9151 I-26.7642 J-4.3
G0 Z5.0
G0 X157.6676 Y198.0377
G1 Z0.0
G1 X155.8193
G1 X155.739 Y198.018
G1 X155.6583 Y197.9996
G2 X155.4967 Y197.9648 I-1.5055 J6.5926
G1 X155.4504 Y197.9549
G1 X155.3274 Y197.9279
G3 X154.8428 Y197.7896 I0.7119 J-3.4134
G3 X154.5434 Y197.6352 I0.4263 J-1.1946
G3 X154.4013 Y197.5026 I0.4397 J-0.6132
G3 X154.301 Y197.2985 I0.4013 J-0.324
G3 X154.2995 Y197.0285 I0.6465 J-0.1384
G3 X154.4022 Y196.7323 I1.1463 J0.2313
G2 X154.8595 Y196.5514 I-1.3928 J-4.1902
G2 X155.0057 Y196.4771 I-0.6994 J-1.5557
G2 X155.1905 Y196.3599 I-0.754 J-1.3941
G2 X155.394 Y196.1489 I-0.4314 J-0.6195
G2 X155.4464 Y195.9852 I-0.3105 J-0.1896
G2 X155.3937 Y195.7834 I-0.3576 J-0.0144
G2 X155.233 Y195.5949 I-0.646 J0.3881
G2 X155.0093 Y195.4328 I-1.0125 J1.1615
G2 X154.4022 Y195.1498 I-1.7382 J2.9356
G3 X146.5179 Y193.1172 I110.8074 J-446.1283
G3 X138.6647 Y190.9676 I183.8192 J-686.9593
G1 X136.4251 Y190.3383
G1 X135.2312 Y190.0007
G1 X132.5037 Y189.2242
G3 X132.4181 Y189.1998 I0.7107 J-2.6484
G1 X129.2906 Y188.3025
G3 X125.7178 Y187.2716 I640.6993 J-2227.1366
G1 X121.6357 Y186.0902
G1 X120.5822 Y185.7853
G1 X118.3346 Y185.1354
G1 X115.9368 Y184.4439
G1 X113.3783 Y183.7091
G1 X113.0559 Y183.6167
G1 X111.7244 Y183.2363
G1 X108.8827 Y182.4295
G1 X107.4152 Y182.016
G1 X105.8997 Y181.5916
G1 X104.3345 Y181.1563
G1 X102.7178 Y180.7104
G3 X102.5954 Y180.5176 I0.2464 J-0.2918
G3 X102.5834 Y180.2896 I0.5419 J-0.1429
G3 X102.7801 Y179.8942 I0.7148 J0.109
G3 X103.0302 Y179.7376 I0.4389 J0.4233
G3 X103.421 Y179.7435 I0.1864 J0.6053
G1 X104.7719 Y180.1222
G1 X106.1232 Y180.4998
G1 X107.0242 Y180.751
G1 X108.2258 Y181.0852
G1 X109.8282 Y181.53
G1 X116.2393 Y183.3025
G1 X120.5137 Y184.4829
G3 X126.2117 Y186.0614 I-715.2575 J2592.9489
G1 X129.4664 Y186.9682
G1 X133.1843 Y188.0105
G1 X135.1663 Y188.5696
G1 X137.2796 Y189.1689
G1 X139.5328 Y189.8118
G3 X139.8166 Y189.8931 I-4.2571 J15.4003
G3 X140.1027 Y189.9751 I-5.371 J19.2769
G3 X140.3909 Y190.0578 I-8.2133 J29.1702
G1 X140.9765 Y190.226
G1 X142.1851 Y190.5743
G3 X155.0483 Y194.3872 I-241.9067 J839.6921
G1 X156.7033 Y194.8951
G1 X156.9109 Y194.9592
G1 X157.1194 Y195.0236
G1 X158.8393 Y195.5579
G1 X160.6132 Y196.1149
G1 X162.4429 Y197.6899
G3 X162.0484 Y197.7395 I-0.439 J-1.8973
G3 X161.6513 Y197.7195 I-0.0559 J-2.8391
G3 X160.8778 Y197.5488 I0.6548 J-4.8067
G3 X160.3756 Y197.3886 I4.0267 J-13.4914
G1 X160.0904 Y197.2928
G1 X159.7642 Y197.1859
G2 X159.3886 Y197.0744 I-2.4412 J7.5346
G2 X158.9528 Y196.9724 I-1.3625 J4.8381
G2 X158.445 Y196.9089 I-0.717 J3.6751
G2 X158.2864 Y196.9477 I-0.0079 J0.3112
G2 X158.1537 Y197.0428 I0.3233 J0.5918
G2 X157.949 Y197.2897 I0.9157 J0.9671
G2 X157.6927 Y197.8601 I1.633 J1.0768
G2 X157.6676 Y198.0377 I0.7462 J0.1958
G0 Z5.0
G0 X152.5836 Y197.0856
G1 Z0.0
G2 X152.111 Y197.338 I6.5154 J12.7683
G1 X151.6438 Y197.6006
G1 X151.3332 Y197.777
G3 X150.075 Y198.4541 I-11.9836 J-20.7627
G1 X149.9035 Y198.5372
G3 X148.9668 Y198.9322 I-4.5998 J-9.6
G3 X147.6531 Y199.2748 I-2.3767 J-6.4224
G3 X146.8768 Y199.3375 I-0.8496 J-5.6819
G3 X144.8294 Y198.9191 I-0.0322 J-5.0612
G2 X145.7293 Y198.5689 I-2.6713 J-8.1976
G2 X146.5788 Y198.1096 I-2.7827 J-6.1609
G2 X147.0996 Y197.7302 I-2.6898 J-4.2401
G2 X147.3741 Y197.4843 I-4.1567 J-4.9158
G2 X147.9948 Y196.7213 I-2.8271 J-2.9337
G2 X148.4925 Y195.5031 I-3.3107 J-2.0635
G2 X148.7084 Y195.5517 I1.6307 J-6.7346
G2 X148.9255 Y195.5943 I0.8421 J-3.723
G1 X149.0708 Y195.6201
G1 X149.2648 Y195.6524
G1 X150.042 Y195.7741
G3 X150.558 Y195.8675 I-1.5635 J10.1021
G3 X150.8504 Y195.9331 I-0.9147 J4.7673
G1 X150.8874 Y195.9423
G3 X151.6554 Y196.2087 I-0.9451 J3.9642
G3 X151.8477 Y196.3104 I-1.0127 J2.1479
G3 X152.2467 Y196.612 I-0.9817 J1.7137
G3 X152.5836 Y197.0856 I-1.139 J1.1669
G0 Z5.0
G0 X146.3193 Y195.565
G1 Z0.0
G3 X146.305 Y195.6204 I-1.8172 J-0.4411
G3 X145.9999 Y196.2826 I-2.1703 J-0.5983
G3 X145.6974 Y196.6634 I-2.4375 J-1.6257
G3 X145.2143 Y197.0908 I-2.5194 J-2.3613
G3 X144.481 Y197.5265 I-2.5677 J-3.4863
G3 X143.4189 Y197.8927 I-2.2519 J-4.8089
G3 X141.9515 Y198.0387 I-1.3014 J-5.6324
G3 X140.0541 Y197.6899 I0.1739 J-6.2812
G2 X140.4655 Y196.774 I-2.7054 J-1.7657
G2 X140.5732 Y195.7759 I-3.2481 J-0.8553
G2 X140.4961 Y195.1104 I-4.5085 J0.1852
G2 X140.4119 Y194.7374 I-5.1526 J0.9667
G2 X140.2887 Y194.3189 I-8.1799 J2.1805
G1 X140.2137 Y194.0991
G2 X139.7489 Y192.963 I-15.6716 J5.7478
G1 X146.3578 Y194.8932
G3 X146.3193 Y195.565 I-1.8557 J0.2308
G0 Z5.0
G0 X139.0311 Y196.1149
G1 Z0.0
G1 X136.3906 Y194.8932
G2 X135.7961 Y195.129 I0.6493 J2.5043
G2 X135.2769 Y195.5024 I1.1124 J2.0944
G2 X135.0129 Y195.8395 I1.0282 J1.0771
G2 X134.8853 Y196.4035 I0.8434 J0.4872
G2 X134.9701 Y196.7323 I1.0895 J-0.1057
G2 X135.1784 Y196.9696 I0.8131 J-0.5038
G2 X135.4638 Y197.1047 I0.4246 J-0.5281
G2 X135.6748 Y197.1222 I0.1861 J-0.9593
G2 X135.9518 Y197.0813 I-0.0575 J-1.3472
G2 X136.301 Y196.9697 I-0.7297 J-2.8847
G1 X136.4941 Y196.8943
G1 X136.7116 Y196.8082
G1 X136.8278 Y196.7649
G3 X137.096 Y196.6844 I0.6957 J1.8291
G3 X137.4135 Y196.6598 I0.2309 J0.9185
G3 X138.0249 Y197.0711 I-1.9866 J3.6126
G1 X138.1056 Y197.139
G3 X138.6521 Y197.7793 I-1.7069 J2.0102
G3 X138.8775 Y198.2963 I-1.9199 J1.1449
G3 X138.9727 Y199.0432 I-2.4025 J0.6858
G3 X138.9396 Y199.4726 I-3.2305 J-0.033
G3 X138.8494 Y199.9542 I-4.6346 J-0.6194
G3 X138.7038 Y200.4905 I-8.4537 J-2.0064
G3 X138.6158 Y200.7722 I-7.0516 J-2.0479
G1 X138.519 Y201.0698
G2 X138.4689 Y201.223 I4.0357 J1.404
G1 X138.3653 Y201.5483
G1 X138.3148 Y201.7166
G1 X138.2661 Y201.8907
G2 X138.2205 Y202.0711 I6.8508 J1.8264
G3 X137.4546 Y201.7416 I0.8639 J-3.0637
G3 X136.828 Y201.1917 I1.24 J-2.045
G3 X136.5211 Y200.7265 I2.2756 J-1.8351
G3 X136.2139 Y200.054 I5.8351 J-3.0723
G3 X136.1964 Y200.0104 I0.3267 J-0.1562
G1 X136.1607 Y199.9204
G1 X135.9987 Y199.5108
G1 X135.9086 Y199.2945
G2 X135.6791 Y198.8138 I-5.7541 J2.4524
G2 X135.3542 Y198.3016 I-3.8303 J2.0707
G2 X134.8839 Y197.7923 I-2.7552 J2.0724
G2 X134.2343 Y197.335 I-2.4567 J2.8002
G2 X133.8544 Y197.1451 I-2.3181 J4.1611
G1 X134.2522 Y196.4701
G2 X133.8437 Y195.3436 I-5.7713 J1.4556
G2 X133.2006 Y194.3325 I-4.4812 J2.1404
G2 X131.2579 Y192.9538 I-3.4768 J2.8409
G2 X129.6856 Y192.6574 I-1.711 J4.7593
G2 X128.7714 Y192.7013 I-0.1621 J6.1774
G2 X127.7512 Y192.911 I0.8727 J6.8322
G2 X126.5685 Y193.5339 I0.8793 J3.1036
G2 X125.7368 Y194.5806 I2.1453 J2.5583
G2 X125.4265 Y195.4184 I3.4525 J1.7552
G2 X125.3184 Y196.5985 I4.0087 J0.9624
G2 X125.6939 Y198.1197 I4.1469 J-0.2168
G2 X127.0185 Y199.7064 I3.6133 J-1.6701
G2 X128.0709 Y200.2524 I2.5542 J-3.6365
G2 X128.8195 Y200.5021 I4.6505 J-12.6958
G2 X129.0718 Y200.5766 I1.9491 J-6.1303
G2 X130.0892 Y200.8446 I6.2052 J-21.4968
G1 X130.3815 Y200.9146
G1 X130.7162 Y200.9921
G1 X131.0992 Y201.0784
G2 X131.1479 Y201.0892 I0.1341 J-0.4882
G1 X131.593 Y201.1872
G1 X132.1019 Y201.2982
G1 X132.3733 Y201.3576
G3 X132.6627 Y201.4215 I-2.8681 J13.6741
G1 X133.3231 Y201.5713
G3 X135.0713 Y202.0231 I-7.4115 J32.293
G1 X135.2945 Y202.0898
G1 X135.5242 Y202.1615
G3 X135.6405 Y202.199 I-0.4689 J1.6523
G3 X136.1336 Y202.3686 I-4.2231 J13.0834
G1 X136.3858 Y202.4627
G1 X136.5132 Y202.5124
G3 X137.6494 Y203.0381 I-3.6583 J9.3974
G3 X138.2237 Y203.3818 I-4.1267 J7.548
G3 X138.7986 Y203.8085 I-3.4134 J5.1988
G3 X139.3512 Y204.3416 I-3.5171 J4.1991
G1 X138.6333 Y205.223
G2 X137.9818 Y204.9166 I-1.5387 J2.4261
G2 X137.28 Y204.7563 I-1.3176 J4.1519
G1 X137.1848 Y204.7433
G2 X136.6754 Y204.697 I-0.8747 J6.8051
G1 X136.3837 Y204.684
G1 X136.0503 Y204.6767
G1 X135.1643 Y204.6685
G1 X134.9283 Y204.6623
G3 X134.3904 Y204.6272 I0.3411 J-9.368
G1 X134.2522 Y204.6112
G3 X133.2431 Y204.4592 I3.1014 J-24.013
G3 X133.0995 Y204.434 I0.5816 J-3.7354
G3 X131.9578 Y204.1963 I3.3901 J-19.1506
G3 X131.8846 Y204.1786 I0.141 J-0.7419
G3 X131.1097 Y203.9691 I3.4011 J-14.1202
G1 X130.9049 Y203.9065
G3 X130.6876 Y203.8364 I3.4627 J-11.0981
G3 X129.5516 Y203.3969 I3.7246 J-11.3164
G3 X128.1301 Y202.6085 I3.758 J-8.4513
G1 X128.0451 Y202.5496
G3 X126.44 Y201.032 I4.2957 J-6.1507
G3 X125.7311 Y199.9802 I7.2914 J-5.679
G3 X125.5707 Y199.6946 I10.6615 J-6.1766
G1 X125.4922 Y199.5478
G3 X125.3357 Y199.2421 I15.3303 J-8.0373
G1 X125.2588 Y199.0855
G3 X124.9458 Y198.4114 I23.802 J-11.4625
G3 X124.9076 Y198.326 I2.1101 J-0.9948
G3 X124.8693 Y198.2398 I1.9472 J-0.9175
G3 X124.8308 Y198.1528 I1.8246 J-0.8596
G1 X124.5051 Y197.4126
G2 X124.4637 Y197.3195 I-1.3299 J0.5353
G2 X124.1002 Y196.5335 I-23.3101 J10.305
G2 X123.6738 Y195.7177 I-13.4023 J6.4853
G2 X123.1517 Y194.889 I-8.3748 J4.6969
G1 X123.0801 Y194.7885
G2 X121.5233 Y193.158 I-6.6177 J4.7603
G2 X120.5266 Y192.4745 I-5.654 J7.1757
G1 X120.3949 Y192.3977
G2 X120.0062 Y192.8052 I2.0237 J2.319
G2 X119.9038 Y192.963 I0.8108 J0.6382
G1 X118.8998 Y192.3511
G1 X118.39 Y192.5203
G1 X117.8817 Y192.6932
G2 X116.8753 Y193.0685 I7.6998 J22.178
G2 X116.7428 Y193.123 I1.0893 J2.8372
G2 X116.0465 Y193.4375 I5.0128 J12.0288
G2 X115.9582 Y193.4813 I0.6894 J1.4989
G2 X115.8675 Y193.5275 I0.6621 J1.414
G2 X114.9328 Y194.0807 I4.1332 J8.0487
G1 X114.8177 Y194.1608
G2 X113.6931 Y195.1498 I3.9753 J5.6547
G3 X113.3621 Y195.5671 I-2.9785 J-2.0222
G1 X113.2401 Y195.6962
G3 X112.7226 Y196.1821 I-7.0978 J-7.0405
G1 X112.5719 Y196.3178
G2 X112.1856 Y196.6956 I3.7812 J4.2531
G2 X111.9954 Y196.9396 I1.5582 J1.4106
G2 X111.8559 Y197.2689 I0.7795 J0.5243
G2 X111.9073 Y197.694 I0.7047 J0.1305
G2 X112.0241 Y197.9003 I0.929 J-0.3896
G2 X112.4005 Y198.302 I1.8461 J-1.3529
G2 X112.8859 Y198.6681 I3.1968 J-3.7338
G2 X113.8897 Y198.146 I-1.8319 J-4.748
G2 X114.759 Y197.4217 I-3.2006 J-4.7253
G1 X114.8103 Y197.3696
G2 X115.3323 Y196.792 I-9.1698 J-8.8116
G1 X115.3645 Y196.7544
G1 X115.6568 Y196.4104
G3 X115.9987 Y196.025 I7.2119 J6.0524
G1 X116.0436 Y195.9773
G3 X117.1945 Y195.1985 I2.3536 J2.2384
G3 X118.5555 Y194.9181 I1.4792 J3.7365
G3 X119.4807 Y194.9774 I0.1661 J4.6583
G3 X120.6621 Y195.3177 I-0.8455 J5.1556
G3 X122.0408 Y196.1827 I-1.9224 J4.595
G3 X123.2623 Y197.9595 I-2.8946 J3.2983
G3 X123.3363 Y198.1642 I-6.3417 J2.4095
G3 X123.3603 Y198.2326 I-1.2038 J0.461
G3 X123.4539 Y198.5074 I-15.782 J5.5298
G1 X123.5147 Y198.6911
G1 X123.755 Y199.4267
G1 X123.826 Y199.6362
G1 X123.8447 Y199.6901
G2 X124.059 Y200.2599 I9.8065 J-3.3632
G1 X124.0738 Y200.2956
G2 X124.4418 Y201.0342 I5.1892 J-2.1243
G2 X124.7132 Y201.4215 I3.0905 J-1.8769
G2 X125.0959 Y201.807 I2.1335 J-1.7354
G3 X126.3458 Y202.7866 I-9.2745 J13.1222
G1 X126.4259 Y202.8559
G3 X127.6661 Y204.0098 I-19.088 J21.7588
G1 X127.8272 Y204.1681
G1 X128.6809 Y205.0176
G2 X129.8342 Y206.134 I31.5494 J-31.4387
G2 X130.1509 Y206.422 I7.9987 J-8.4766
G2 X130.2322 Y206.4942 I2.0327 J-2.2073
G2 X130.3152 Y206.5671 I1.7537 J-1.9124
G2 X130.3999 Y206.6407 I1.555 J-1.7046
G2 X131.1964 Y207.2877 I10.6857 J-12.3423
G1 X131.4089 Y207.4457
G2 X132.4223 Y208.1108 I7.1236 J-9.7487
G1 X132.5816 Y207.9991
G1 X132.737 Y207.8818
G2 X133.0262 Y207.6214 I-1.5773 J-2.042
G2 X133.1791 Y207.4108 I-0.6915 J-0.6631
G2 X133.2205 Y207.2655 I-0.3512 J-0.1785
G2 X133.1652 Y207.0908 I-0.2658 J-0.012
G2 X132.9952 Y206.9462 I-0.4508 J0.3577
G2 X132.7697 Y206.8344 I-0.9688 J1.6713
G2 X132.6494 Y206.7861 I-0.714 J1.6035
G2 X132.5242 Y206.7393 I-0.9611 J2.3803
G1 X132.2451 Y206.638
G1 X132.0996 Y206.5826
G1 X131.9518 Y206.521
G3 X131.6607 Y206.3694 I1.0482 J-2.3677
G3 X131.4018 Y206.1438 I0.5151 J-0.8524
G3 X131.2762 Y205.7802 I0.4593 J-0.3622
G3 X131.3066 Y205.5707 I0.7885 J0.0076
G2 X132.3979 Y205.8066 I1.9912 J-6.5691
G2 X133.5114 Y205.8887 I1.2843 J-9.8259
G1 X133.8304 Y205.8921
G1 X134.195 Y205.8892
G2 X134.3894 Y205.8859 I-0.067 J-9.4336
G1 X134.8334 Y205.8766
G3 X135.3407 Y205.8706 I0.4682 J18.2457
G1 X135.4051 Y205.8708
G1 X135.4706 Y205.8712
G3 X136.0684 Y205.8926 I-0.1315 J11.989
G3 X136.7473 Y205.9764 I-0.4649 J6.5574
G3 X137.5026 Y206.1881 I-0.7736 J4.2148
G3 X137.3422 Y207.4927 I-2.2961 J0.3798
G3 X137.1396 Y207.8867 I-3.1007 J-1.3451
G3 X136.8018 Y208.3689 I-3.8619 J-2.3458
G3 X136.2932 Y208.9592 I-8.0843 J-6.4516
G3 X136.1531 Y209.1123 I-4.5519 J-4.0246
G1 X135.8355 Y209.4615
G2 X135.4871 Y209.8703 I6.6607 J6.029
G2 X135.4015 Y209.9792 I1.6273 J1.366
G2 X135.3158 Y210.0935 I2.663 J2.0854
G2 X134.9701 Y210.6454 I3.4176 J2.5252
G3 X133.9868 Y210.4454 I0.4847 J-4.8991
G3 X133.0621 Y210.0559 I1.6593 J-5.2323
G3 X132.487 Y209.7137 I3.1755 J-5.99
G3 X131.7677 Y209.1885 I5.9119 J-8.8525
G3 X130.866 Y208.4213 I13.9826 J-17.3489
G3 X130.8098 Y208.3713 I0.5396 J-0.6623
G1 X130.2989 Y207.9138
G2 X129.488 Y207.2255 I-13.6501 J15.2591
G1 X129.2092 Y207.0064
G1 X129.0479 Y206.8838
G2 X128.6103 Y206.567 I-8.0447 J10.6528
G1 X128.5529 Y206.5273
G2 X127.9302 Y206.121 I-6.9106 J9.913
G2 X127.0651 Y205.6362 I-6.5768 J10.7227
G2 X125.8504 Y205.1129 I-4.5557 J8.9027
G2 X124.1385 Y204.6828 I-3.1097 J8.754
G2 X121.7819 Y204.6447 I-1.3248 J9.0479
G2 X120.9994 Y204.7671 I1.3032 J10.8957
G2 X120.9475 Y204.7772 I0.1394 J0.8519
G1 X120.6717 Y204.8348
G2 X119.5803 Y205.1134 I4.2431 J18.8992
G1 X119.2712 Y205.2032
G1 X119.1067 Y205.2523
G2 X118.2322 Y205.5219 I16.1249 J53.8578
G1 X117.7328 Y205.6768
G3 X116.3939 Y206.064 I-10.6519 J-34.3222
G1 X116.0336 Y206.1556
G3 X115.847 Y206.2003 I-1.0088 J-3.8043
G3 X114.9878 Y206.3775 I-4.2772 J-18.5624
G1 X114.7646 Y206.4152
G1 X114.5335 Y206.4502
G2 X114.3408 Y206.6008 I0.0247 J0.2302
G2 X114.3179 Y206.8445 I0.4745 J0.1673
G1 X118.487 Y207.1531
G2 X116.9895 Y207.6832 I8.0808 J25.212
G2 X116.8905 Y207.7209 I0.5085 J1.4812
G2 X116.7849 Y207.7614 I0.5215 J1.5191
G2 X116.7305 Y207.7823 I0.3844 J1.0823
G2 X116.6742 Y207.8039 I0.3894 J1.0964
G2 X116.6162 Y207.8263 I0.3944 J1.1109
G1 X116.3511 Y207.9285
G1 X115.6433 Y208.1983
G3 X114.6919 Y208.537 I-10.2761 J-27.3565
G3 X113.3981 Y208.9121 I-5.0812 J-15.1066
G3 X112.6437 Y209.0679 I-3.0859 J-13.0438
G3 X112.5958 Y209.076 I-0.1042 J-0.4708
G2 X112.1587 Y208.635 I-3.0614 J2.5978
G2 X111.6659 Y208.2576 I-3.8535 J4.5212
G1 X111.5975 Y208.2109
G1 X111.524 Y208.1618
G2 X111.1277 Y207.908 I-27.0501 J41.8044
G3 X110.6 Y207.5697 I16.6042 J-26.478
G3 X110.5331 Y207.5242 I0.7028 J-1.1076
G3 X110.4645 Y207.4766 I0.5916 J-0.9265
G3 X110.3942 Y207.4267 I0.5137 J-0.797
G3 X110.0828 Y207.1855 I3.6372 J-5.0186
G3 X110.0446 Y207.1531 I0.2351 J-0.3159
G1 X111.8632
G3 X111.3952 Y206.6051 I1.6319 J-1.8674
G3 X111.1506 Y205.9272 I1.4773 J-0.916
G3 X111.1493 Y205.4441 I1.9872 J-0.247
G3 X111.3034 Y204.8219 I2.7655 J0.3548
G3 X111.655 Y204.0568 I5.5023 J2.0651
G3 X111.8889 Y203.6415 I10.7161 J5.7612
G3 X112.0171 Y203.4236 I6.3709 J3.6022
G1 X112.307 Y202.9322
G2 X112.6156 Y202.3674 I-10.466 J-6.0854
G2 X112.6518 Y202.2942 I-0.9697 J-0.5256
G2 X112.9241 Y201.608 I-3.9193 J-1.9525
G2 X112.9707 Y201.4231 I-1.6975 J-0.5259
G2 X113.02 Y201.019 I-1.953 J-0.4434
G2 X112.7724 Y200.0985 I-1.6618 J-0.0466
G2 X112.4441 Y199.6871 I-1.9124 J1.1893
G2 X112.0053 Y199.3221 I-2.2552 J2.2654
G2 X111.4836 Y199.0019 I-2.8805 J4.1072
G2 X110.8988 Y198.7194 I-3.5537 J6.6091
G1 X110.7475 Y198.6551
G2 X110.4556 Y199.0571 I8.2886 J6.3251
G2 X110.1951 Y199.4802 I3.3195 J2.3356
G2 X110.0641 Y199.7849 I1.9459 J1.0173
G2 X109.9887 Y200.2225 I1.3431 J0.4568
G2 X110.1004 Y200.8086 I1.6281 J-0.0066
G2 X110.2423 Y201.12 I2.1817 J-0.8061
G2 X110.4426 Y201.4537 I3.0331 J-1.5935
G1 X108.6275
G1 X108.7096 Y201.5838
G1 X108.7376 Y201.6268
G1 X108.7753 Y201.684
G1 X108.9285 Y201.9106
G3 X109.2349 Y202.364 I-18.346 J12.7289
G3 X109.3195 Y202.4954 I-3.7143 J2.485
G1 X109.4132 Y202.6477
G3 X109.6358 Y203.0692 I-3.1308 J1.9233
G3 X109.7323 Y203.3246 I-1.6715 J0.7768
G3 X109.7892 Y203.633 I-1.2171 J0.384
G3 X109.7248 Y203.9938 I-0.7588 J0.0507
G3 X109.4027 Y203.9776 I-0.1293 J-0.6375
G3 X109.1172 Y203.8273 I0.2937 J-0.904
G1 X109.0443 Y203.7708
G3 X108.8618 Y203.6089 I2.1119 J-2.5634
G1 X108.7607 Y203.5138
G1 X108.6435 Y203.408
G2 X108.5013 Y203.2981 I-1.196 J1.3997
G2 X108.3173 Y203.2063 I-0.413 J0.5977
G2 X108.0761 Y203.1979 I-0.1354 J0.4204
G2 X107.8199 Y203.3338 I0.1799 J0.6487
G2 X107.5864 Y203.5736 I1.073 J1.2782
G1 X109.7248 Y205.5707
G1 X108.1534 Y205.3091
G2 X107.6284 Y205.2296 I-4.2324 J26.1556
G1 X107.4881 Y205.2102
G2 X107.1669 Y205.1699 I-1.2254 J8.4677
G1 X107.0839 Y205.1606
G2 X106.1943 Y205.1042 I-0.9815 J8.4454
G1 X106.0792 Y205.1055
G1 X106.0207 Y205.1072
G2 X105.4888 Y205.1741 I0.0558 J2.5919
G2 X105.4229 Y205.1922 I0.3176 J1.2868
G2 X105.1546 Y205.3138 I0.2667 J0.9455
G2 X104.9458 Y205.5707 I0.2915 J0.45
G3 X104.6288 Y205.2529 I0.9078 J-1.2225
G3 X104.4144 Y204.8586 I1.3695 J-1.0002
G3 X104.3182 Y204.5751 I3.7802 J-1.4418
G1 X104.205 Y204.1946
G1 X104.1716 Y204.0943
G2 X103.9308 Y203.5869 I-2.2159 J0.741
G2 X103.421 Y203.0361 I-1.8884 J1.2365
G2 X103.1212 Y203.0451 I-0.0499 J3.3542
G2 X102.8234 Y203.0807 I0.1098 J2.182
G2 X102.7395 Y203.0979 I0.1774 J1.0746
G2 X102.6446 Y203.1225 I0.1784 J0.8837
G2 X101.9865 Y203.5435 I0.3612 J1.2894
G2 X101.6952 Y203.9808 I1.6905 J1.4419
G3 X101.7484 Y204.0599 I-0.9457 J0.6928
G1 X101.7974 Y204.1415
G1 X101.8272 Y204.1974
G3 X101.9105 Y204.4372 I-0.773 J0.4026
G3 X101.9056 Y204.6077 I-0.4102 J0.0737
G3 X101.7738 Y204.7999 I-0.3365 J-0.0896
G3 X101.6562 Y204.8682 I-0.3289 J-0.4311
G3 X101.3173 Y204.9522 I-0.462 J-1.1384
G3 X100.8882 Y204.959 I-0.2486 J-2.1401
G3 X100.9199 Y204.2245 I4.4419 J-0.1766
G3 X101.0917 Y203.5097 I3.4084 J0.4413
G3 X101.9297 Y202.3098 I2.6297 J0.944
G3 X102.7727 Y201.8036 I2.0675 J2.4879
G3 X104.0402 Y201.5105 I1.5148 J3.6644
G3 X104.3885 Y201.5138 I0.1496 J2.6209
G3 X104.5664 Y201.5448 I-0.0935 J1.0626
G3 X105.2268 Y201.8162 I-1.3805 J4.2986
G3 X105.8487 Y202.167 I-3.2973 J6.5718
G3 X106.2495 Y202.4238 I-6.2926 J10.2629
G1 X106.7792 Y202.7721
G3 X106.6001 Y202.0413 I2.7287 J-1.0559
G3 X106.5874 Y201.2891 I4.0682 J-0.4449
G3 X106.6073 Y201.0748 I2.9329 J0.1637
G3 X106.6998 Y200.5097 I6.5626 J0.7845
G3 X106.894 Y199.7732 I8.0329 J1.7237
G3 X107.2433 Y198.8237 I11.1696 J3.5701
G3 X107.4777 Y198.2964 I11.0595 J4.602
G3 X107.6112 Y198.0195 I8.2546 J3.8082
G1 X107.7594 Y197.7272
G3 X108.1176 Y197.0715 I20.4684 J10.7549
G3 X108.141 Y197.0306 I0.4283 J0.2187
G3 X108.1648 Y196.9895 I0.4351 J0.2237
G3 X109.251 Y195.2975 I19.2787 J11.1815
G1 X109.4013 Y195.0861
G1 X109.5586 Y194.8697
G1 X109.6394 Y194.7604
G1 X109.722 Y194.6499
G3 X111.607 Y192.4151 I20.5439 J15.4159
G1 X111.8695 Y192.1441
G3 X113.1385 Y190.9816 I10.9614 J10.6921
G3 X113.8833 Y190.4434 I4.975 J6.1004
G1 X113.9823 Y190.3832
G3 X114.4107 Y190.1662 I1.7368 J2.8972
G1 X115.9505 Y189.4633
G1 X116.8358 Y189.824
G1 X118.487 Y188.2416
G3 X118.764 Y188.4866 I-0.7348 J1.11
G1 X118.846 Y188.579
G2 X118.9586 Y188.699 I1.0556 J-0.8778
G2 X119.1351 Y188.83 I0.5526 J-0.5601
G2 X119.4291 Y188.8809 I0.2325 J-0.4688
G2 X119.599 Y188.846 I-0.067 J-0.7572
G2 X119.8143 Y188.6801 I-0.1847 J-0.4623
G2 X119.9074 Y188.4248 I-0.4501 J-0.3089
G2 X119.9165 Y188.2443 I-1.015 J-0.1413
G1 X119.9133 Y188.1416
G1 X119.9076 Y188.0255
G1 X119.9038 Y187.8938
G2 X121.8746 Y188.4743 I8.0539 J-23.709
G2 X123.8773 Y188.9327 I10.9874 J-43.4024
G1 X124.4524 Y189.0504
G1 X125.1105 Y189.1807
G1 X126.8668 Y189.5183
G1 X127.3351 Y189.6088
G3 X128.4042 Y189.8211 I-12.4294 J65.3926
G3 X129.6225 Y190.0807 I-11.0334 J54.7597
G1 X129.936 Y190.1519
G1 X130.2591 Y190.2277
G3 X131.7273 Y190.6099 I-7.4141 J31.4888
G1 X132.1031 Y190.7202
G1 X132.2933 Y190.7784
G3 X134.0068 Y191.3916 I-5.6625 J18.521
G3 X134.8919 Y191.793 I-4.9816 J12.1616
G3 X135.8015 Y192.2945 I-4.8822 J9.9318
G3 X136.7142 Y192.9289 I-5.062 J8.2561
G3 X137.5922 Y193.736 I-5.0162 J6.3373
G3 X139.0311 Y196.1149 I-4.9502 J4.619
G0 Z5.0
G0 X135.3829 Y200.5015
G1 Z0.0
G1 X135.2561 Y200.4747
G2 X135.2138 Y200.4661 I-0.1112 J0.4377
G2 X135.0443 Y200.4331 I-0.6931 J3.1045
G2 X134.9958 Y200.424 I-0.12 J0.5084
G2 X134.9402 Y200.4138 I-0.1306 J0.5563
G1 X134.7921 Y200.3877
G2 X134.1981 Y200.2925 I-3.3653 J19.1048
G1 X133.8015 Y200.2329
G1 X133.2733 Y200.1506
G3 X132.5722 Y200.0211 I2.648 J-16.2888
G3 X131.6538 Y199.7738 I1.6618 J-8.0013
G3 X131.1483 Y199.5716 I1.6654 J-4.8973
G3 X130.6037 Y199.2669 I1.662 J-3.6088
G3 X131.9357 Y199.2391 I0.8485 J8.7335
G1 X132.0245 Y199.2448
G3 X133.4242 Y199.4896 I-0.4499 J6.6957
G3 X134.3107 Y199.828 I-1.6116 J5.5522
G3 X135.3829 Y200.5015 I-2.4148 J5.0346
G0 Z5.0
G0 X133.1402 Y196.7323
G1 Z0.0
G2 X132.3303 Y196.9691 I1.0557 J5.1148
G2 X131.5541 Y197.3001 I3.8831 J10.1793
G2 X131.3364 Y197.4035 I2.9626 J6.5209
G1 X130.758 Y197.6834
G3 X130.4257 Y197.8391 I-7.9266 J-16.4836
G3 X130.0409 Y198.0058 I-5.9815 J-13.2748
G3 X129.5913 Y198.172 I-2.4092 J-5.8294
G3 X129.0612 Y198.3131 I-1.4365 J-4.3289
G3 X128.436 Y198.3837 I-0.6828 J-3.2439
G3 X127.7148 Y198.3145 I-0.0627 J-3.1376
G3 X126.9254 Y198.0377 I0.7359 J-3.3627
G3 X126.6604 Y197.3414 I3.7698 J-1.8334
G3 X126.5425 Y196.6057 I3.1108 J-0.876
G3 X126.5752 Y196.1087 I2.4059 J-0.091
G3 X126.7949 Y195.4799 I1.9674 J0.3345
G3 X127.3948 Y194.8178 I1.7679 J0.9992
G3 X127.8405 Y194.5617 I1.5392 J2.1618
G3 X128.3906 Y194.3648 I1.4979 J3.319
G3 X129.0383 Y194.2364 I1.2896 J4.8088
G3 X129.7774 Y194.1803 I0.916 J7.1668
G3 X130.6037 Y194.1977 I0.2128 J9.5235
G3 X131.2229 Y194.3377 I-0.5573 J3.9039
G3 X131.8041 Y194.593 I-0.9229 J2.8906
G3 X132.7054 Y195.4791 I-1.2559 J2.1788
G3 X133.0372 Y196.2592 I-2.7162 J1.616
G3 X133.1402 Y196.7323 I-4.0669 J1.1329
G0 Z5.0
G0 X127.2162 Y207.3558
G1 Z0.0
G3 X127.8904 Y207.75 I-9.3339 J16.7384
G1 X128.122 Y207.894
G1 X128.1802 Y207.9307
G1 X128.2386 Y207.9678
G3 X128.4785 Y208.1226 I-39.0336 J60.7725
G1 X128.7241 Y208.2845
G1 X128.8483 Y208.3675
G3 X128.9986 Y208.5036 I-0.306 J0.4891
G3 X129.0267 Y208.5658 I-0.1449 J0.1027
G3 X128.9819 Y208.6528 I-0.0776 J0.0151
G3 X128.8511 Y208.68 I-0.1223 J-0.2601
G3 X128.6937 Y208.6614 I-0.0071 J-0.6146
G3 X128.5434 Y208.6166 I0.1944 J-0.9276
G1 X128.3758 Y208.5519
G1 X128.3199 Y208.5301
G3 X128.0969 Y208.4423 I5.0402 J-13.123
G1 X128.0332 Y208.417
G3 X127.5245 Y208.2134 I14.7327 J-37.5599
G1 X127.4566 Y208.1863
G2 X126.3646 Y207.7694 I-10.0833 J24.7735
G1 X126.0486 Y207.6613
G2 X125.1933 Y207.4122 I-3.6431 J10.9174
G2 X124.0251 Y207.1929 I-2.4384 J9.7686
G2 X122.4403 Y207.1197 I-1.2685 J10.27
G2 X121.8589 Y207.2466 I-0.0163 J1.3217
G2 X121.3974 Y207.6222 I0.6007 J1.2094
G2 X121.1812 Y207.9552 I1.6109 J1.2826
G2 X120.9808 Y208.4391 I2.9007 J1.4848
G2 X120.8984 Y208.725 I3.8475 J1.264
G2 X120.7548 Y209.4886 I6.7145 J1.6575
G1 X120.7295 Y209.6934
G1 X119.9038
G1 Y207.1531
G3 X121.2068 Y206.4275 I3.371 J4.5205
G3 X122.6609 Y206.0964 I1.8391 J4.7175
G3 X123.6572 Y206.1096 I0.4269 J5.3773
G3 X124.9559 Y206.3713 I-0.7236 J6.9458
G3 X125.671 Y206.6174 I-2.6723 J8.924
G3 X126.0434 Y206.7711 I-5.2342 J13.2155
G3 X126.137 Y206.8123 I-0.9422 J2.2682
G3 X126.9729 Y207.2224 I-5.1012 J11.4524
G3 X127.2162 Y207.3558 I-9.0906 J16.8718
G0 Z5.0
G0 X118.487 Y209.076
G1 Z0.0
G3 X118.1191 Y209.572 I-1.442 J-0.6851
G3 X117.6014 Y209.9087 I-1.3443 J-1.5001
G3 X117.2163 Y210.0539 I-1.3887 J-3.1002
G3 X116.9897 Y210.1153 I-1.5879 J-5.4151
G3 X116.3779 Y210.2231 I-1.3418 J-5.826
G3 X116.2983 Y210.2324 I-0.1648 J-1.0553
G3 X115.4549 Y210.2894 I-1.1261 J-10.3938
G3 X114.9742 Y210.2986 I-0.4663 J-11.803
G1 X114.7186 Y210.2996
G1 X114.1372 Y210.2965
G1 X113.4762 Y210.293
G1 X113.3923 Y210.2932
G1 X113.0352 Y210.2968
G1 X112.9902 Y210.2977
G2 X113.083 Y210.2577 I-0.9982 J-2.4413
G2 X113.1757 Y210.2174 I-1.1972 J-2.8815
G2 X113.3608 Y210.1362 I-2.7942 J-6.62
G1 X113.7302 Y209.9719
G1 X113.8357 Y209.9247
G3 X114.6811 Y209.5516 I18.8765 J41.6239
G1 X114.7946 Y209.5034
G1 X114.8533 Y209.4789
G3 X115.1226 Y209.3693 I2.7448 J6.3599
G3 X115.1925 Y209.3418 I0.3021 J0.6667
G3 X115.514 Y209.2221 I4.6318 J11.9482
G3 X115.5976 Y209.193 I0.5284 J1.3819
G3 X116.5101 Y208.947 I2.0678 J5.8556
G3 X117.0474 Y208.8811 I0.8268 J4.5168
G3 X118.487 Y209.076 I0.2217 J3.777
G0 Z5.0
G0 X111.1602 Y209.34
G1 Z0.0
G3 X109.3861 Y209.422 I-1.9994 J-24.0321
G3 X108.7939 Y209.4163 I-0.1004 J-20.6293
G3 X106.4388 Y209.173 I0.3124 J-14.5419
G3 X106.1291 Y209.11 I1.1018 J-6.2129
G1 X105.9698 Y209.0745
G3 X104.306 Y208.5646 I2.7516 J-11.9476
G3 X104.4425 Y208.8774 I-1.8257 J0.9826
G3 X104.4999 Y209.2138 I-0.9149 J0.3294
G3 X104.4421 Y209.4366 I-0.4983 J-0.0104
G3 X104.2132 Y209.651 I-0.4693 J-0.2717
G3 X104.0467 Y209.7207 I-0.4165 J-0.7614
G3 X103.8497 Y209.7711 I-0.4555 J-1.3699
G3 X103.3414 Y209.829 I-0.686 J-3.7627
G1 X103.276 Y209.8324
G3 X102.6449 Y209.8482 I-0.9053 J-23.568
G1 X102.2991 Y209.857
G2 X102.1181 Y209.8659 I0.6174 J14.3788
G2 X101.9284 Y209.8811 I0.8663 J12.0593
G2 X101.8315 Y209.892 I0.1069 J1.3776
G2 X101.4073 Y209.9878 I0.2102 J1.9183
G2 X101.2022 Y210.0972 I0.2538 J0.7227
G2 X101.046 Y210.3016 I0.2747 J0.3717
G2 X101.0243 Y210.6029 I0.5625 J0.1921
G2 X101.1273 Y210.9333 I1.3009 J-0.2245
G2 X101.301 Y211.2628 I2.7525 J-1.2403
G2 X101.7636 Y211.1561 I-1.4462 J-7.3264
G2 X101.9166 Y211.1157 I-1.7637 J-6.9826
G2 X102.5254 Y210.9425 I-10.3962 J-37.7128
G1 X102.9317 Y210.8285
G3 X102.9843 Y210.8145 I0.2357 J0.7798
G3 X103.2257 Y210.7538 I1.8551 J6.8592
G3 X103.8779 Y210.6296 I1.4866 J6.0349
G3 X104.2559 Y210.5926 I0.5743 J3.9211
G3 X105.2693 Y210.6454 I0.2754 J4.4688
G1 X102.0003 Y211.8745
G3 X101.5545 Y211.8993 I-0.4252 J-3.6283
G3 X101.1101 Y211.8566 I0.0148 J-2.4849
G3 X100.8241 Y211.7719 I0.3171 J-1.5972
G3 X100.4841 Y211.5625 I0.4466 J-1.1059
G3 X100.1839 Y211.1162 I0.7674 J-0.8402
G3 X100.1022 Y210.8172 I1.4311 J-0.5519
G3 X100.0673 Y210.4666 I2.2572 J-0.4015
G1 X100.0659 Y210.3758
G1 X100.0671 Y210.2824
G3 X100.0994 Y209.8629 I4.099 J0.105
G1 X100.1135 Y209.7556
G1 X100.149 Y209.5299
G3 X100.2494 Y209.0314 I11.0218 J1.9605
G3 X100.3799 Y208.484 I21.3468 J4.799
G1 X100.45 Y208.1972
G1 X100.4846 Y208.05
G1 X100.5181 Y207.8989
G2 X100.5489 Y207.7433 I-2.1827 J-0.5129
G2 X100.5624 Y207.6642 I-1.067 J-0.2232
G2 X100.5832 Y207.501 I-2.7381 J-0.4319
G1 X102.0003 Y209.076
G3 X102.2822 Y209.0545 I0.2486 J1.4016
G3 X102.5648 Y209.0609 I0.0181 J5.4505
G1 X102.7532 Y209.0636
G1 X102.8608 Y209.06
G2 X103.1434 Y209.0053 I-0.0366 J-0.9472
G2 X103.421 Y208.7226 I-0.1602 J-0.4349
G2 X103.266 Y208.5999 I-0.5213 J0.4987
G2 X103.0904 Y208.509 I-0.7178 J1.1728
G2 X102.9691 Y208.458 I-0.7944 J1.7207
G1 X102.8052 Y208.396
G1 X102.5862 Y208.3158
G3 X102.4622 Y208.2676 I0.5973 J-1.7198
G3 X102.3229 Y208.2066 I0.5333 J-1.4085
G1 X102.2505 Y208.1701
G3 X102.0948 Y208.0689 I0.3766 J-0.7506
G3 X101.9583 Y207.9021 I0.2888 J-0.3755
G3 X101.9449 Y207.638 I0.3454 J-0.1499
G3 X102.0003 Y207.501 I0.6333 J0.176
G1 X103.1159
G2 X103.4231 Y207.635 I2.0901 J-4.3708
G2 X103.7395 Y207.7455 I1.4542 J-3.655
G2 X104.3889 Y207.9104 I2.0296 J-6.6325
G1 X104.4765 Y207.9278
G1 X104.5702 Y207.9454
G1 X104.6703 Y207.9632
G2 X105.2062 Y208.0425 I1.7006 J-9.6446
G1 X105.5136 Y208.0788
G1 X105.6777 Y208.0962
G2 X106.5532 Y208.1757 I3.8699 J-37.7579
G1 X106.7867 Y208.1955
G1 X107.3199 Y208.2431
G1 X107.604 Y208.2715
G1 X107.9065 Y208.3053
G3 X108.5952 Y208.4025 I-2.3505 J19.1432
G3 X109.3738 Y208.5634 I-1.5378 J9.4051
G3 X110.2396 Y208.8438 I-1.5273 J6.1934
G3 X111.1602 Y209.34 I-1.7376 J4.3261
G0 Z5.0
G0 X108.2 Y207.501
G1 Z0.0
G2 X107.7005 Y207.3703 I-0.6813 J1.5849
G2 X107.1842 Y207.3683 I-0.2682 J2.5272
G2 X106.843 Y207.4113 I0.3599 J4.2325
G1 X106.6495 Y207.4438
G1 X106.4291 Y207.4835
G3 X105.8409 Y207.5724 I-1.4588 J-7.6547
G3 X105.5016 Y207.5897 I-0.3148 J-2.8426
G3 X105.1141 Y207.5554 I0.0178 J-2.4038
G3 X104.6865 Y207.424 I0.3076 J-1.7632
G3 X104.2465 Y207.1531 I0.8734 J-1.9115
G3 X104.6602 Y206.7319 I1.1431 J0.709
G3 X105.1993 Y206.4914 I1.0551 J1.6409
G3 X105.5847 Y206.4134 I0.6757 J2.3456
G3 X107.1067 Y206.5599 I0.4254 J3.5598
G3 X107.5126 Y206.7266 I-0.8432 J2.6307
G3 X107.9265 Y207.011 I-0.8037 J1.613
G3 X108.0987 Y207.2204 I-0.688 J0.7414
G3 X108.2 Y207.501 I-0.5796 J0.3678
G0 Z5.0
G0 X102.7178 Y206.1881
G1 Z0.0
G3 X102.4818 Y206.4713 I-0.5527 J-0.2207
G3 X102.133 Y206.5907 I-0.4537 J-0.7563
G3 X101.8888 Y206.6058 I-0.227 J-1.6854
G3 X101.8572 Y206.6053 I-0.012 J-0.2312
G3 X101.8247 Y206.6043 I-0.0073 J-0.2855
G3 X101.4852 Y206.5692 I0.1517 J-3.1274
G1 X101.3957 Y206.554
G1 X101.301 Y206.5358
G1 X102.7178 Y205.5707
G1 Y206.1881
G0 Z5.0
G0 X102.1035 Y200.4161
G1 Z0.0
G1 X101.301 Y200.5015
G3 X101.2198 Y199.2573 I7.2185 J-1.0958
G3 X101.3065 Y198.0135 I12.191 J0.2251
G3 X101.7918 Y195.5732 I16.8338 J2.0791
G3 X102.0003 Y194.8932 I9.7369 J2.613
G3 X103.2327 Y197.4542 I-9.6738 J6.2323
G3 X103.8338 Y200.2319 I-12.0917 J4.0708
G1 X102.1035 Y200.4161
G0 Z5.0
G0 X105.2693 Y198.0377
G1 Z0.0
G1 X105.1881 Y197.7796
G1 X105.1035 Y197.5225
G2 X104.9214 Y197.0127 I-11.6339 J3.8698
G2 X104.4826 Y196.0233 I-8.519 J3.1855
G2 X104.1091 Y195.4051 I-4.873 J2.5226
G2 X103.4668 Y194.6846 I-3.1879 J2.1955
G2 X102.3287 Y194.0624 I-2.0006 J2.3074
G2 X101.5912 Y193.9281 I-0.9925 J3.3564
G2 X101.6778 Y193.5342 I-8.5285 J-2.0832
G1 X101.7594 Y193.1392
G1 X101.8175 Y192.8767
G3 X101.854 Y192.7274 I2.3046 J0.4844
G3 X101.9712 Y192.3346 I4.3799 J1.0928
G3 X102.0562 Y192.1161 I2.1991 J0.7304
G3 X102.3718 Y191.5749 I2.2357 J0.9406
G3 X102.9962 Y191.0117 I1.9439 J1.5277
G3 X103.421 Y190.7817 I1.8155 J2.846
G1 X103.7131 Y190.6789
G1 X104.0043 Y190.5732
G1 X104.5848 Y190.3568
G1 X104.7505 Y190.2945
G3 X106.0813 Y189.8109 I17.7739 J46.8402
G3 X106.2603 Y189.7508 I2.1613 J6.1429
G3 X107.2252 Y189.4623 I5.582 J16.9105
G1 X107.4858 Y189.3969
G1 X107.7654 Y189.3337
G1 X107.9103 Y189.304
G3 X109.4814 Y189.1379 I1.648 J8.073
G3 X111.5731 Y189.4633 I0.0497 J6.566
G2 X110.2202 Y190.795 I9.5677 J11.0735
G2 X109.0282 Y192.2724 I14.4765 J12.898
G2 X108.3057 Y193.3115 I25.3731 J18.415
G1 X108.1203 Y193.5935
G2 X107.1642 Y195.1167 I53.5852 J34.6976
G1 X106.6258 Y195.9915
G3 X106.3353 Y196.4559 I-21.1474 J-12.9052
G3 X106.1836 Y196.6944 I-10.9279 J-6.7859
G1 X106.0252 Y196.9394
G3 X105.2693 Y198.0377 I-20.459 J-13.2717
G0 Z5.0
G0 X102.3981 Y189.1992
G1 Z0.0
G2 X102.4176 Y188.6544 I-7.4593 J-0.5388
G1 X102.4179 Y188.5765
G1 X102.417 Y188.3687
G1 X102.4129 Y188.0917
G1 X102.4114 Y188.0179
G2 X102.4018 Y187.6241 I-15.4856 J0.1803
G1 X102.3876 Y187.0991
G1 X102.3728 Y186.3991
G3 X102.3717 Y185.4657 I42.3203 J-0.518
G1 X102.3768 Y185.2168
G1 X102.3855 Y184.9513
G3 X102.5079 Y183.54 I13.5217 J0.4622
G3 X102.6631 Y182.7442 I7.5619 J1.0621
G1 X102.7178 Y182.542
G3 X103.8882 Y182.761 I-0.3739 J5.2366
G3 X104.9654 Y183.268 I-1.3007 J4.1618
G3 X105.594 Y183.7552 I-2.6775 J4.1032
G3 X106.3232 Y184.5211 I-5.3389 J5.813
G3 X106.7049 Y184.988 I-13.2485 J11.2205
G3 X106.7526 Y185.0479 I-0.5668 J0.4999
G1 X107.1866 Y185.5934
G1 X107.3002 Y185.7328
G1 X107.4187 Y185.8753
G1 X107.5427 Y186.0207
G2 X108.1417 Y186.6522 I6.3734 J-5.4454
G2 X108.9139 Y187.2764 I4.0945 J-4.2756
G2 X107.4814 Y187.5443 I2.5204 J17.4434
G2 X106.0754 Y187.9274 I4.758 J20.235
G2 X105.1527 Y188.2314 I10.0806 J32.1433
G1 X105.0943 Y188.2517
G2 X103.8562 Y188.6963 I23.76 J68.1161
G1 X103.5262 Y188.8153
G1 X103.1736 Y188.9403
G1 X102.9911 Y189.0035
G1 X102.8024 Y189.0676
G1 X102.3981 Y189.1992
G0 Z5.0
G0 X108.3576 Y184.9267
G1 Z0.0
G3 X107.9098 Y184.1245 I3.3961 J-2.4218
G1 X117.3713 Y186.6591
G3 X117.0843 Y186.8204 I-6.4747 J-11.1836
G1 X116.9881 Y186.8734
G3 X116.6011 Y187.0809 I-34.8284 J-64.5017
G3 X115.8136 Y187.4696 I-8.5883 J-16.4088
G3 X115.5849 Y187.573 I-4.4571 J-9.554
G3 X113.6931 Y188.2416 I-5.0896 J-11.3897
G1 X113.6191 Y188.2109
G1 X113.545 Y188.1803
G1 X113.3968 Y188.119
G3 X113.1004 Y187.9964 I13.6253 J-33.3527
G1 X112.5094 Y187.7477
G3 X111.3429 Y187.2143 I10.4811 J-24.4647
G3 X110.5874 Y186.8133 I6.0579 J-12.3241
G3 X110.3906 Y186.698 I2.7124 J-4.8547
G3 X109.3896 Y186.0051 I4.286 J-7.2607
G3 X108.8726 Y185.5376 I3.9153 J-4.8511
G3 X108.3576 Y184.9267 I3.6467 J-3.596
G0 Z5.0
G0 X100.8079 Y212.2413
G1 Z0.0
G3 X100.9391 Y212.2896 I-0.224 J0.8104
G3 X101.1834 Y212.4874 I-0.2559 J0.5658
G3 X101.301 Y212.8397 I-0.5339 J0.3739
G3 X100.8036 Y213.136 I-1.2136 J-1.472
G3 X100.6228 Y213.205 I-0.7652 J-1.7316
G3 X100.3772 Y213.2832 I-1.3232 J-3.7319
G1 X100.0468 Y213.3757
G2 X99.9585 Y213.4 I0.2615 J1.1219
G1 X99.7576 Y213.4571
G3 X99.5946 Y213.0666 I0.8434 J-0.5814
G3 X99.6663 Y212.6496 I0.6117 J-0.1094
G3 X99.8556 Y212.4345 I0.6426 J0.3748
G3 X100.1908 Y212.2623 I0.637 J0.8275
G3 X100.6742 Y212.2158 I0.3506 J1.1095
G3 X100.8079 Y212.2413 I-0.0903 J0.8359
G0 Z5.0
M5
M30
