( Made using CamBam - http://www.cambam.co.uk )
( _2014_1_20_car 1/20/2014 11:51:35 PM )
( T0 : 0.0 )
G21 G90 G64 G40
G0 Z5.0
( T0 : 0.0 )
T0 M6
( 2-8 )
G17
M3 S1000
G0 X266.4325 Y272.732
G1 F1.0 Z0.0
G3 X263.173 Y272.9118 I-3.7279 J-37.9433
G3 X259.91 Y272.8105 I-0.4794 J-37.1633
G3 X253.4754 Y271.7412 I2.8076 J-36.7907
G3 X251.6804 Y271.2315 I9.7695 J-37.8157
G3 X247.0264 Y269.4832 I12.988 J-41.643
G1 X246.7378 Y269.355
G1 X246.4454 Y269.2229
G1 X246.1493 Y269.0868
G3 X244.8961 Y268.4855 I19.9599 J-43.2059
G3 X242.0908 Y266.999 I28.0873 J-56.394
G1 X241.74 Y266.8003
G1 X241.3849 Y266.5965
G1 X241.0253 Y266.3875
G3 X239.5044 Y265.475 I45.341 J-77.299
G1 X239.1212 Y265.2384
G1 X238.7331 Y264.9961
G1 X238.3401 Y264.7483
G1 X237.942 Y264.4948
G1 X237.5388 Y264.2357
G1 X244.2488 Y263.0386
G1 X250.9577 Y261.8356
G1 X255.4297 Y261.0303
G1 X261.3915 Y259.9515
G1 X262.1607 Y259.8118
G1 X262.5514 Y259.7408
G1 X266.123 Y259.0902
G1 X268.0277 Y258.7418
G1 X272.3804 Y257.941
G1 X273.5035 Y257.7331
G1 X275.8989 Y257.2875
G1 X278.4532 Y256.8078
G1 X279.7712 Y256.5579
G1 X280.1032 Y256.4946
G1 X281.4738 Y256.2316
G1 X281.6458 Y256.1983
G1 X283.0653 Y255.9214
G1 X283.7859 Y255.7785
G2 X284.9028 Y256.4386 I4.4093 J-6.185
G2 X286.1136 Y256.9047 I3.6891 J-7.7774
G2 X286.952 Y257.1183 I2.7028 J-8.8601
G2 X288.0895 Y257.3025 I2.6423 J-12.7128
G2 X289.6192 Y257.411 I1.9909 J-17.2235
G2 X291.6573 Y257.3988 I0.8271 J-31.968
G2 X292.8189 Y257.3482 I-2.8204 J-78.0741
G1 X294.143 Y257.2784
G1 X294.8487 Y257.2437
G1 X295.028 Y257.2358
G1 X295.3979 Y257.2211
G1 X295.7796 Y257.2086
G1 X295.8758 Y257.206
G1 X295.9728 Y257.2036
G1 X296.3729 Y257.1963
G3 X298.1987 Y257.2387 I0.39 J22.5337
G3 X299.1681 Y257.334 I-0.9308 J14.4418
G3 X300.1921 Y257.5153 I-1.5017 J11.465
G3 X300.7129 Y257.6482 I-2.2117 J9.7491
G3 X301.7946 Y258.04 I-2.218 J7.8132
G3 X302.8739 Y258.6432 I-2.8112 J6.2977
G3 X303.8913 Y259.5069 I-3.799 J5.5063
G3 X303.1447 Y259.7892 I-6.0096 J-14.765
G2 X302.4008 Y260.0788 I3.9428 J11.2297
G2 X301.9232 Y260.3141 I2.1468 J4.9589
G1 X301.8011 Y260.3869
G2 X301.536 Y260.5754 I1.4853 J2.3694
G2 X301.2727 Y260.8406 I0.9977 J1.2534
G2 X301.0708 Y261.2245 I0.9361 J0.7375
G2 X301.0408 Y261.7359 I1.1217 J0.3224
G2 X301.2321 Y262.3055 I1.9202 J-0.3279
G2 X301.7102 Y262.8362 I9.9088 J-8.4463
G2 X301.7811 Y262.9097 I0.9658 J-0.8604
G2 X302.3693 Y263.476 I9.249 J-9.0196
G2 X303.6482 Y264.49 I8.8767 J-9.8817
G1 X303.8279 Y264.613
G2 X306.9252 Y266.1843 I8.0141 J-11.9592
G2 X309.1551 Y266.8154 I5.3974 J-14.815
G2 X312.2223 Y267.1421 I3.2353 J-15.8134
G2 X316.2983 Y266.6847 I0.1931 J-16.6691
G1 X317.1412 Y267.1211
G1 X317.4241 Y267.2626
G2 X318.5834 Y267.7697 I5.5616 J-11.1379
G2 X318.7424 Y267.8264 I1.0948 J-2.8156
G2 X319.612 Y268.0618 I2.1209 J-6.1106
G2 X320.1235 Y268.1292 I0.8341 J-4.3599
G2 X320.7149 Y268.126 I0.2754 J-3.8378
G2 X321.3823 Y267.9976 I-0.2733 J-3.2183
G1 X318.5408 Y266.0748
G3 X322.7488 Y265.9639 I2.5302 J16.1208
G3 X324.1414 Y266.1615 I-1.7132 J17.0821
G1 X324.5099 Y266.2322
G3 X326.4478 Y266.7237 I-4.2902 J20.98
G3 X328.9519 Y267.628 I-7.9786 J26.0155
G3 X329.605 Y267.9066 I-10.3689 J25.206
G3 X331.0761 Y268.5872 I-18.7705 J42.5027
G1 X331.2612 Y268.6774
G1 X331.4489 Y268.7696
G1 X331.6391 Y268.8641
G3 X333.3621 Y269.7518 I-34.7082 J69.4794
G1 X333.47 Y269.8089
G1 X333.5787 Y269.8665
G3 X333.7995 Y269.9838 I-4.2641 J8.2915
G1 X334.7391 Y270.486
G2 X336.8876 Y271.6209 I67.0229 J-124.2784
G1 X337.1623 Y271.7613
G3 X335.2179 Y271.5117 I2.8099 J-29.5902
G3 X333.2971 Y271.1205 I4.0517 J-24.8014
G3 X329.592 Y269.8465 I4.9736 J-20.489
G3 X327.288 Y268.6093 I8.2907 J-18.2045
G2 X325.1422 Y268.2334 I-2.4625 J7.7433
G2 X324.414 Y268.2482 I-0.2324 J6.4798
G2 X324.0006 Y268.2989 I0.459 J5.4534
G2 X323.5357 Y268.4045 I0.6085 J3.7548
G2 X323.0268 Y268.6039 I0.8846 J3.0073
G2 X322.5091 Y268.9627 I1.0077 J2.0069
G2 X322.7349 Y269.834 I3.2157 J-0.3686
G2 X323.1629 Y270.6257 I4.2394 J-1.7803
G2 X323.5223 Y271.1061 I4.7508 J-3.1791
G2 X323.7467 Y271.3649 I7.3289 J-6.1288
G2 X324.0167 Y271.6477 I7.3814 J-6.7761
G2 X324.7898 Y272.3415 I6.8113 J-6.8124
G1 X325.0066 Y272.5137
G2 X326.2121 Y273.3521 I8.9168 J-11.5346
G2 X327.911 Y274.2997 I10.5048 J-16.8377
G2 X330.2758 Y275.319 I10.9357 J-22.1189
G2 X333.5443 Y276.2849 I8.572 J-22.9922
G2 X335.4602 Y276.6117 I4.346 J-19.7025
G2 X336.4929 Y276.6984 I1.7208 J-14.2904
G1 X336.9739 Y276.7178
G1 X337.4552 Y276.73
G2 X338.418 Y276.7349 I0.6994 J-42.063
G2 X340.3428 Y276.683 I-0.4049 J-50.7138
G1 X340.8924 Y276.6567
G1 X341.5202 Y276.622
G1 X342.2374 Y276.5777
G1 X342.6199 Y276.5525
G1 X343.4937 Y276.4925
G3 X345.8236 Y276.3332 I25.7501 J359.5717
G1 X346.4452 Y276.2956
G1 X346.7661 Y276.2777
G1 X347.451 Y276.2436
G3 X348.1818 Y276.2147 I1.6736 J33.0371
G1 X348.3675 Y276.2087
G3 X350.0658 Y276.1874 I1.4256 J45.8706
G3 X350.9716 Y276.2053 I-0.1069 J28.3563
G3 X351.9371 Y276.252 I-0.7248 J24.9933
G3 X354.1355 Y276.49 I-1.546 J24.5553
G3 X356.607 Y277.0432 I-2.8622 J18.5837
G3 X359.3054 Y278.126 I-4.415 J14.9062
G3 X362.0878 Y279.988 I-6.9042 J13.3267
G2 X363.5237 Y280.2482 I2.1927 J-8.0062
G2 X364.983 Y280.2659 I0.8504 J-9.9475
G1 X365.1773 Y280.254
G2 X366.2109 Y280.1666 I-2.9569 J-41.1368
G1 X366.3442 Y280.1551
G1 X366.6288 Y280.1325
G1 X366.9325 Y280.1133
G3 X367.2568 Y280.1006 I0.586 J10.8659
G3 X367.2978 Y280.0997 I0.0291 J0.3951
G1 X367.4666 Y280.0979
G3 X367.6408 Y280.0994 I0.0557 J3.7393
G3 X367.6847 Y280.1003 I0.015 J0.3261
G1 X367.774 Y280.103
G3 X368.154 Y280.1262 I-0.2102 J6.5652
G3 X370.132 Y280.6053 I-0.6118 J6.8476
G3 X369.5119 Y280.9693 I-2.5669 J-3.6624
G3 X368.8453 Y281.2389 I-2.4296 J-5.049
G3 X367.4432 Y281.5403 I-2.2109 J-6.8726
G3 X366.4896 Y281.6053 I-1.1683 J-10.1173
G3 X365.9439 Y281.6049 I-0.2607 J-16.5789
G1 X365.8031 Y281.601
G3 X364.3117 Y281.477 I0.5052 J-15.1138
G3 X362.3552 Y281.1331 I2.8968 J-22.2145
G1 X362.1052 Y281.0772
G3 X359.4842 Y280.3613 I7.7344 J-33.477
G1 X359.4025 Y280.3357
G2 X359.2479 Y280.2866 I-1.1118 J3.2322
G2 X359.0932 Y280.2381 I-10.4057 J32.9195
G1 X358.783 Y280.1433
G2 X358.1592 Y279.9657 I-5.9538 J19.7382
G2 X356.8915 Y279.6909 I-3.1903 J11.6551
G1 X356.8087 Y279.6784
G2 X355.9188 Y279.6 I-1.0883 J7.267
G2 X354.7296 Y279.7012 I-0.1594 J5.167
G2 X353.2469 Y280.3044 I0.8892 J4.3098
G2 X352.5185 Y280.8694 I2.8468 J4.4224
G2 X354.5963 Y282.5996 I10.8042 J-10.8624
G2 X356.9337 Y283.9588 I9.7075 J-14.0046
G2 X357.6369 Y284.2804 I7.3426 J-15.1231
G2 X359.5666 Y285.0021 I8.279 J-19.196
G2 X359.6285 Y285.0218 I0.3289 J-0.9272
G2 X362.3086 Y285.7015 I7.2737 J-23.0576
G2 X365.9551 Y286.1837 I5.8391 J-30.1274
G2 X366.0707 Y286.192 I0.1749 J-1.612
G2 X368.1851 Y286.2802 I2.5329 J-35.3557
G2 X369.3129 I0.565 J-33.9003
G2 X371.8833 Y286.1707 I-0.6026 J-44.3637
G2 X374.8021 Y285.8794 I-3.7633 J-52.4814
G1 X375.1713 Y285.8309
G2 X376.7408 Y285.5964 I-7.5204 J-55.7103
G3 X377.1612 Y285.7787 I-2.1303 J5.4877
G3 X377.5669 Y285.9916 I-3.192 J6.577
G3 X378.3503 Y286.4658 I-7.8523 J13.8557
G1 X378.8669 Y286.7909
G2 X379.1652 Y286.9714 I4.8926 J-7.7472
G1 X379.243 Y287.0168
G2 X379.41 Y287.1115 I3.9806 J-6.83
G1 X379.5903 Y287.2084
G1 X379.6366 Y287.2323
G2 X380.0683 Y287.4324 I2.999 J-5.9057
G1 X380.1244 Y287.455
G1 X380.1817 Y287.4772
G2 X380.7209 Y287.638 I1.3385 J-3.504
G2 X382.2377 Y287.5209 I0.5672 J-2.5352
G2 X381.7976 Y287.2137 I-2.0714 J2.4984
G2 X381.3274 Y286.9551 I-6.0851 J10.5057
G1 X381.0107 Y286.7888
G1 X380.831 Y286.6916
G1 X380.6286 Y286.5753
G3 X380.1221 Y286.2126 I1.6293 J-2.8107
G3 X380.0034 Y286.0956 I0.7879 J-0.9172
G3 X379.7851 Y285.7795 I0.9562 J-0.894
G3 X379.6865 Y285.3397 I0.8977 J-0.4321
G1 X380.0171 Y285.3351
G1 X380.3476 Y285.3333
G1 X380.568 Y285.3338
G3 X380.694 Y285.3347 I0.0411 J3.0059
G1 X381.0297 Y285.3395
G1 X381.4773 Y285.3516
G3 X383.2639 Y285.4752 I-0.8306 J24.9675
G3 X386.7733 Y286.1827 I-1.9468 J18.7151
G3 X389.0181 Y287.0005 I-6.6643 J21.7826
G1 X389.3018 Y287.1214
G3 X390.5841 Y287.7053 I-14.7518 J34.0936
G1 X390.9119 Y287.8628
G1 X391.0779 Y287.9436
G3 X392.5843 Y288.7018 I-35.1504 J71.7135
G3 X391.2486 Y288.7381 I-0.8749 J-7.5931
G3 X389.925 Y288.556 I0.5212 J-8.6882
G3 X389.0597 Y288.3445 I3.1832 J-14.8987
G1 X387.918 Y288.0241
G1 X387.6122 Y287.9439
G2 X386.9067 Y287.79 I-2.567 J10.0732
G2 X386.0864 Y287.6945 I-1.156 J6.361
G2 X385.1401 Y287.7317 I-0.2714 J5.1521
G2 X384.0803 Y287.9806 I0.6992 J5.3569
G2 X382.9369 Y288.4861 I2.411 J7.0001
G2 X383.667 Y289.2278 I8.1352 J-7.2771
G2 X384.4643 Y289.8966 I7.9457 J-8.6625
G2 X386.2075 Y291.0297 I8.5882 J-11.3047
G2 X387.4453 Y291.6536 I8.4344 J-15.1948
G2 X387.7826 Y291.8048 I14.8187 J-32.6062
G2 X388.145 Y291.9597 I4.2938 J-9.547
G2 X388.9823 Y292.2908 I11.2281 J-27.1669
G2 X389.9515 Y292.6347 I8.718 J-23.0287
G2 X392.5743 Y293.4125 I13.0816 J-39.3057
G2 X392.6577 Y293.4344 I0.5429 J-1.8901
G2 X392.7417 Y293.4565 I0.5683 J-1.9972
G2 X392.8265 Y293.4785 I0.5985 J-2.1238
G2 X392.9119 Y293.5006 I0.6352 J-2.2768
G2 X393.0855 Y293.5452 I1.0295 J-3.6507
G2 X393.2619 Y293.59 I1.2696 J-4.6339
G2 X393.4412 Y293.635 I1.9395 J-7.3509
G1 X393.8117 Y293.7264
G1 X394.1944 Y293.8189
G1 X395.0114 Y294.0111
G1 X395.4335 Y294.1082
G1 X397.3616 Y294.5432
G3 X399.5578 Y295.0548 I-32.4911 J144.4359
G3 X400.1222 Y295.1959 I-50.7571 J204.225
G1 X400.7029 Y295.3478
G2 X402.3967 Y296.4944 I19.9051 J-27.5781
G1 X402.6441 Y296.6499
G1 X402.9286 Y296.8248
G1 X403.0811 Y296.9169
G2 X403.9028 Y297.3938 I13.0634 J-21.5639
G2 X407.3204 Y299.0507 I15.8992 J-28.441
G2 X409.6901 Y299.9448 I15.4243 J-37.2934
G2 X411.0655 Y300.3949 I20.2563 J-59.5755
G1 X411.4223 Y300.5053
G1 X411.7911 Y300.6171
G1 X411.9788 Y300.6732
G1 X412.1695 Y300.7296
G1 X412.3634 Y300.7864
G1 X412.7641 Y300.9023
G3 X413.0734 Y301.0076 I-0.8636 J3.0446
G3 X413.3644 Y301.1561 I-0.6752 J1.6823
G3 X413.5292 Y301.2999 I-0.3777 J0.5989
G3 X413.5873 Y301.413 I-0.221 J0.1851
G3 X413.5509 Y301.5673 I-0.1711 J0.041
G3 X413.4819 Y301.6292 I-0.2551 J-0.2147
G3 X413.3913 Y301.6766 I-0.3888 J-0.6335
G3 X413.1651 Y301.7355 I-0.3419 J-0.8494
G3 X412.6487 Y301.7439 I-0.2951 J-2.25
G3 X412.1988 Y301.6777 I0.3523 J-3.9569
G3 X410.3551 Y301.2352 I5.1057 J-25.329
G3 X408.544 Y300.6738 I9.4824 J-33.7942
G1 X408.0319 Y300.497
G3 X407.4491 Y300.2882 I8.7602 J-25.368
G1 X407.1392 Y300.1743
G1 X406.8091 Y300.0512
G3 X405.0563 Y299.3776 I72.6022 J-191.5244
G2 X404.8304 Y299.2897 I-3.3292 J8.2258
G1 X403.7975 Y298.8904
G1 X403.2453 Y298.6807
G2 X402.6548 Y298.4613 I-14.9018 J39.2062
G2 X402.5045 Y298.4064 I-1.1882 J3.0226
G2 X402.3516 Y298.3511 I-1.1508 J2.9412
G2 X402.2745 Y298.3234 I-0.7774 J2.0415
G2 X402.1967 Y298.2956 I-0.7645 J2.0141
G2 X402.1183 Y298.2676 I-0.7517 J1.9871
G2 X401.4476 Y298.0349 I-29.9734 J85.3044
G2 X401.3628 Y298.0063 I-0.639 J1.7556
G2 X399.8011 Y297.52 I-11.2424 J33.3495
G2 X399.7019 Y297.492 I-0.4452 J1.3856
G2 X399.6019 Y297.464 I-0.4356 J1.3682
G2 X399.1877 Y297.3527 I-6.055 J21.6875
G2 X398.2983 Y297.1372 I-7.4814 J28.9392
G2 X397.8362 Y297.0388 I-4.2854 J18.9918
G2 X395.6987 Y296.7147 I-4.3128 J21.2292
G2 X393.2239 Y296.6272 I-1.9226 J19.3425
G3 X392.1124 Y296.1329 I6.3016 J-15.6687
G3 X391.0345 Y295.5689 I9.6492 J-19.753
G1 X390.7314 Y295.3988
G1 X390.387 Y295.2009
G1 X389.9957 Y294.9708
G1 X389.5507 Y294.7043
G1 X389.314 Y294.561
G1 X388.7741 Y294.232
G2 X387.331 Y293.3612 I-70.5537 J115.2907
G1 X386.9427 Y293.135
G1 X386.5257 Y292.8984
G2 X385.5587 Y292.3829 I-11.4741 J20.3619
G2 X384.4224 Y291.8551 I-8.3819 J16.5569
G2 X383.0733 Y291.3699 I-5.1701 J12.2563
G2 X381.4628 Y291.0381 I-2.7299 J9.176
G2 X379.569 Y291.0523 I-0.8898 J7.632
G2 X377.4587 Y291.6436 I1.0728 J7.8888
G2 X377.1977 Y291.787 I0.7042 J1.5916
G2 X376.9876 Y291.9981 I0.419 J0.6273
G2 X376.9165 Y292.1859 I0.4062 J0.2611
G2 X376.9426 Y292.455 I0.5802 J0.0796
G2 X377.106 Y292.7707 I1.1803 J-0.4107
G2 X377.3971 Y293.1168 I2.461 J-1.7741
G2 X377.8066 Y293.4975 I4.5891 J-4.526
G1 X377.9186 Y293.5923
G2 X378.4874 Y294.0492 I13.857 J-16.6689
G3 X378.8047 Y294.3036 I-7.1738 J9.2757
G1 X378.9686 Y294.4422
G3 X377.9981 Y294.3153 I0.4099 J-6.9068
G3 X377.0532 Y294.0606 I1.4887 J-7.4055
G3 X376.4422 Y293.831 I2.8515 J-8.5145
G3 X375.6529 Y293.4661 I5.0444 J-11.9465
G3 X375.553 Y293.4149 I0.7901 J-1.666
G3 X374.5124 Y292.8271 I7.9019 J-15.2044
G1 X374.2409 Y292.6603
G3 X373.6268 Y292.27 I13.982 J-22.6703
G1 X372.9308 Y291.8168
G2 X372.1331 Y291.3049 I-20.7034 J31.3889
G2 X371.2028 Y290.7526 I-11.7831 J18.7875
G1 X370.9572 Y290.6197
G2 X369.7945 Y290.0935 I-4.629 J8.6797
G2 X368.3716 Y289.7435 I-2.1718 J5.7632
G2 X367.5845 Y289.7134 I-0.5886 J5.0762
G3 X363.9137 Y289.6221 I-0.9774 J-34.5522
G3 X360.2708 Y289.162 I3.1022 J-39.2144
G3 X357.8703 Y288.6808 I8.1864 J-47.0672
G3 X354.7087 Y287.874 I14.405 J-63.0427
G3 X352.919 Y287.3526 I21.9478 J-78.674
G3 X350.884 Y286.7251 I38.9876 J-130.0519
G1 X349.8012 Y286.3835
G3 X349.5263 Y286.2965 I4.1939 J-13.7287
G2 X349.247 Y286.2081 I-3.6147 J10.9356
G2 X349.1062 Y286.1636 I-2.2518 J6.873
G2 X348.9643 Y286.1187 I-2.1151 J6.4424
G2 X348.8213 Y286.0735 I-2.0014 J6.0852
G1 X347.601 Y285.6904
G2 X347.4471 Y285.6425 I-1.4254 J4.3117
G1 X346.8114 Y285.4463
G1 X346.1545 Y285.2467
G2 X345.9888 Y285.197 I-1.1416 J3.5008
G2 X344.572 Y284.7833 I-39.777 J133.6137
G2 X343.0534 Y284.369 I-20.8707 J73.5097
G3 X338.1909 Y284.8801 I-3.9903 J-14.5798
G3 X336.5645 Y284.7035 I1.0105 J-16.891
G1 X336.3562 Y284.6692
G3 X334.1648 Y284.1608 I3.4918 J-20.0288
G3 X332.9401 Y283.7712 I7.958 J-27.1324
G3 X332.7859 Y283.7175 I0.9131 J-2.8685
G3 X331.3919 Y283.1907 I10.7341 J-30.5151
G3 X331.3048 Y283.1556 I0.7339 J-1.9457
G3 X331.2171 Y283.12 I0.743 J-1.9565
G3 X331.1288 Y283.0839 I0.7528 J-1.9689
G3 X331.0399 Y283.0474 I0.7632 J-1.9829
G1 X330.6739 Y282.8946
G3 X329.8977 Y282.5597 I25.9001 J-61.0969
G3 X329.8003 Y282.5168 I0.9885 J-2.3748
G3 X328.9718 Y282.1452 I23.6965 J-53.9453
G3 X328.8677 Y282.0979 I1.3756 J-3.1619
G3 X328.7628 Y282.05 I1.4492 J-3.3165
G1 X327.8702 Y281.6395
G1 X327.4102 Y281.4267
G1 X326.4293 Y280.9753
G2 X325.9221 Y280.7451 I-12.1957 J26.1997
G1 X325.3974 Y280.5108
G1 X325.1302 Y280.3935
G1 X324.8583 Y280.2755
G1 X324.5816 Y280.1572
G2 X323.3938 Y279.6735 I-19.5755 J46.3686
G2 X322.1099 Y279.2052 I-12.8003 J33.093
G1 X321.7805 Y279.0958
G2 X320.3593 Y278.6826 I-6.7866 J20.6897
G2 X319.3826 Y278.4594 I-6.9846 J28.3186
G1 X319.0554 Y278.3922
G2 X318.868 Y278.3559 I-0.9054 J4.1663
G2 X317.357 Y278.1376 I-2.9455 J15.0532
G2 X316.3394 Y278.0965 I-0.9159 J10.0491
G1 X316.208 Y278.0996
G1 X316.0723 Y278.1053
G1 X315.9325 Y278.1137
G2 X315.2958 Y278.1905 I0.4011 J6.0013
G2 X314.5829 Y278.3683 I0.8311 J4.8518
G2 X313.8117 Y278.7106 I1.3922 J4.1758
G2 X313.0329 Y279.2925 I1.9879 J3.4729
G2 X313.9699 Y280.6953 I5.4182 J-2.6047
G2 X314.359 Y281.1032 I5.4298 J-4.7895
G2 X314.9196 Y281.6033 I6.6447 J-6.8837
G2 X315.2569 Y281.8687 I6.8872 J-8.4082
G2 X316.1993 Y282.5143 I7.9311 J-10.5654
G2 X317.5166 Y283.2702 I11.3213 J-18.2046
G1 X317.8751 Y283.4583
G1 X318.259 Y283.6549
G1 X318.6699 Y283.8616
G1 X319.6079 Y284.3311
G3 X319.8489 Y284.454 I-3.8871 J7.9212
G3 X320.3593 Y284.7224 I-8.6744 J17.1156
G3 X320.0002 Y284.7685 I-1.0094 J-6.4411
G1 X319.8799 Y284.7799
G3 X319.3979 Y284.8066 I-0.722 J-8.68
G3 X318.4334 Y284.7721 I-0.1881 J-8.243
G3 X316.5423 Y284.4043 I1.0118 J-10.2466
G3 X316.0163 Y284.2405 I3.0237 J-10.6379
G3 X314.649 Y283.7101 I5.1244 J-15.2393
G1 X314.2923 Y283.5498
G3 X312.442 Y282.6024 I11.3704 J-24.4877
G3 X311.4134 Y282.012 I21.9041 J-39.354
G3 X311.349 Y281.974 I0.8565 J-1.5237
G3 X311.2842 Y281.9356 I0.9227 J-1.6319
G3 X310.1083 Y281.225 I62.0366 J-103.985
G1 X309.9596 Y281.1339
G1 X308.6032 Y280.3019
G1 X308.2522 Y280.0892
G2 X308.0735 Y279.9818 I-3.3283 J5.3346
G2 X306.4241 Y279.0359 I-21.3035 J35.2369
G3 X303.5625 Y278.773 I3.403 J-52.7482
G1 X303.3723 Y278.7497
G3 X302.3597 Y278.6122 I4.3461 J-35.7786
G1 X302.0903 Y278.5714
G3 X300.6584 Y278.3226 I6.2064 J-39.9683
G1 X300.4744 Y278.2865
G1 X300.2846 Y278.2481
G1 X300.0889 Y278.2074
G1 X299.8871 Y278.1642
G3 X297.7543 Y277.623 I6.6611 J-30.7227
G1 X297.6202 Y277.5834
G1 X297.4842 Y277.5424
G1 X297.3463 Y277.5001
G1 X297.2065 Y277.4564
G3 X294.2877 Y276.3372 I7.6117 J-24.215
G3 X292.6936 Y275.5266 I9.0386 J-19.7488
G3 X288.8253 Y272.732 I10.0204 J-17.9447
G3 X286.7027 Y272.8503 I-2.9206 J-33.2962
G1 X286.3991 Y272.8566
G3 X285.5891 Y272.86 I-0.5203 J-27.6167
G3 X282.3557 Y272.6726 I0.2132 J-31.6753
G1 X282.1479 Y272.649
G1 X281.9337 Y272.6232
G1 X281.7128 Y272.5949
G3 X279.3723 Y272.1867 I3.7043 J-28.1537
G3 X276.3253 Y271.3194 I5.3402 J-24.5472
G3 X274.644 Y270.6437 I7.437 J-20.9359
G3 X272.7993 Y269.6997 I8.2293 J-18.3558
G1 X272.5723 Y269.5664
G3 X271.6243 Y268.9627 I9.4211 J-15.8392
G3 X270.7516 Y268.709 I9.3392 J-33.7628
G1 X270.462 Y268.62
G1 X270.2968 Y268.5683
G1 X269.8568 Y268.4284
G1 X268.1008 Y267.8574
G2 X267.5984 Y267.6964 I-12.1862 J37.1694
G2 X266.2525 Y267.2866 I-15.0799 J47.1133
G2 X266.1666 Y267.2619 I-0.6744 J2.1843
G2 X265.9892 Y267.2116 I-1.2041 J3.9073
G2 X264.0787 Y266.7419 I-7.6239 J26.8875
G2 X263.5631 Y266.6432 I-3.0981 J14.7858
G2 X262.3748 Y266.4739 I-3.1129 J17.5979
G2 X261.0031 Y266.4006 I-1.3931 J13.2086
G2 X259.4333 Y266.5208 I-0.0269 J9.966
G2 X257.6852 Y266.9897 I1.3151 J8.3949
G2 X255.8555 Y267.9976 I2.9326 J7.4887
G2 X256.8411 Y269.1579 I5.2885 J-3.4935
G2 X258.0553 Y270.0762 I5.2222 J-5.6433
G1 X258.2293 Y270.1812
G2 X259.19 Y270.6797 I5.3532 J-9.1405
G2 X260.5282 Y271.2112 I6.3315 J-13.9904
G2 X262.361 Y271.7572 I8.0321 J-23.6149
G2 X263.4196 Y272.0196 I14.0175 J-54.2859
G1 X263.9853 Y272.1519
G1 X264.5885 Y272.2906
G1 X265.231 Y272.439
G3 X265.394 Y272.4772 I-1.2751 J5.809
G1 X265.73 Y272.5571
G1 X266.0762 Y272.6417
G1 X266.4325 Y272.732
G0 Z5.0
G0 X263.2224 Y257.0742
G1 Z0.0
G3 X261.5232 Y257.4174 I-60.4131 J-294.6738
G1 X260.6174 Y257.597
G1 X259.682 Y257.7799
G3 X249.6782 Y259.5894 I-78.2621 J-404.1328
G1 X248.3844 Y259.8064
G1 X247.0484 Y260.0271
G1 X245.6688 Y260.2514
G1 X244.2441 Y260.4797
G3 X241.2033 Y260.956 I-110.4213 J-694.9954
G3 X241.0124 Y260.9854 I-1.2164 J-7.2519
G3 X240.8208 Y261.0149 I-1.2216 J-7.2953
G3 X240.6284 Y261.0445 I-1.2268 J-7.3393
G3 X240.4352 Y261.0742 I-1.2322 J-7.3841
G3 X233.3682 Y262.129 I-151.933 J-993.6536
G3 X233.1464 Y262.1614 I-1.5136 J-9.609
G3 X232.9236 Y262.1938 I-1.5257 J-9.7003
G3 X232.7 Y262.2263 I-1.5381 J-9.7942
G3 X232.4756 Y262.2589 I-1.5509 J-9.8904
G3 X232.2502 Y262.2916 I-1.5641 J-9.9894
G3 X232.024 Y262.3244 I-1.5776 J-10.091
G1 X230.1556 Y262.5938
G1 X228.2267 Y262.8699
G1 X226.2354 Y263.1534
G1 X217.1332 Y264.4441
G1 X214.7847 Y264.7802
G1 X213.592 Y264.9521
G1 X211.1303 Y265.3099
G1 X209.8801 Y265.4935
G1 X208.6103 Y265.6815
G1 X205.9898 Y266.0748
G3 X205.6004 Y266.0296 I0.3709 J-4.8933
G3 X205.2172 Y265.9472 I0.5504 J-3.4926
G3 X204.9712 Y265.8582 I0.4615 J-1.6607
G3 X204.6825 Y265.6593 I0.3292 J-0.7866
G3 X204.5814 Y265.4802 I0.3314 J-0.3053
G3 X204.5805 Y265.2335 I0.4584 J-0.1249
G3 X204.6993 Y264.9677 I0.8713 J0.2299
G3 X204.9014 Y264.7111 I1.56 J1.0209
G3 X205.1622 Y264.4662 I2.489 J2.389
G3 X205.3093 Y264.3491 I1.7943 J2.1028
G1 X205.3868 Y264.2917
G3 X205.7345 Y264.0628 I2.7939 J3.8653
G3 X206.5357 Y263.6759 I2.397 J3.9407
G3 X206.9871 Y263.5536 I0.8839 J2.3698
G3 X207.1054 Y263.5403 I0.1587 J0.8739
G3 X214.2556 Y262.4521 I349.1061 J2269.9482
G1 X221.4071 Y261.3736
G1 X226.1747 Y260.6538
G1 X228.8988 Y260.2406
G2 X236.1611 Y259.1257 I-344.9848 J-2271.4285
G1 X237.0979 Y258.98
G2 X247.0843 Y257.3885 I-196.5524 J-1265.4612
G1 X247.718 Y257.2847
G1 X248.3616 Y257.1788
G1 X251.1069 Y256.7226
G1 X251.804 Y256.6054
G1 X252.512 Y256.4859
G1 X253.2311 Y256.3639
G1 X254.7154 Y256.1101
G1 X256.2471 Y255.8454
G1 X257.8278 Y255.5691
G1 X259.4588 Y255.2804
G1 X261.1417 Y254.9785
G1 X262.8782 Y254.6626
G1 X263.7599 Y254.5005
G1 X265.5795 Y254.1619
G1 X266.5034 Y253.988
G2 X274.9372 Y252.3288 I-109.5879 J-579.3224
G1 X276.0062 Y252.1086
G1 X277.0917 Y251.8826
G2 X286.9917 Y249.6978 I-96.5722 J-461.1212
G1 X289.2381 Y250.3152
G3 X279.5795 Y253.2047 I-62.4461 J-191.1463
G3 X269.7987 Y255.6488 I-63.8555 J-234.7447
G3 X269.6438 Y255.6842 I-1.1856 J-4.831
G3 X269.4878 Y255.7198 I-1.1882 J-4.8523
G3 X269.3305 Y255.7555 I-1.1907 J-4.8737
G3 X269.1719 Y255.7915 I-1.1932 J-4.8953
G3 X269.0121 Y255.8276 I-1.1957 J-4.9168
G3 X268.8509 Y255.8639 I-1.1983 J-4.9388
G3 X268.6885 Y255.9005 I-1.2008 J-4.9609
G3 X268.5248 Y255.9372 I-1.2034 J-4.9832
G3 X263.2224 Y257.0742 I-65.7155 J-293.5368
G0 Z5.0
G0 X289.9245 Y246.8406
G1 Z0.0
G3 X289.8647 Y246.5615 I0.8634 J-0.3309
G3 X289.9372 Y246.1981 I0.7933 J-0.0307
G1 X295.4342 Y245.5863
G2 X295.7355 Y245.718 I1.03 J-1.947
G2 X296.0492 Y245.817 I1.9157 J-5.5185
G1 X296.2603 Y245.8756
G1 X296.5418 Y245.9537
G1 X296.7015 Y246.0021
G3 X297.1151 Y246.1667 I-0.7795 J2.5609
G1 X297.1658 Y246.1941
G3 X297.3803 Y246.3484 I-0.5189 J0.9481
G3 X297.5565 Y246.6012 I-0.4695 J0.5149
G3 X297.6031 Y246.9659 I-0.7337 J0.2792
G3 X297.5688 Y247.1632 I-1.3036 J-0.1251
G3 X296.3285 Y247.6363 I-12.6809 J-31.3859
G3 X295.9096 Y247.7789 I-4.8505 J-13.5646
G3 X294.1972 Y248.2257 I-4.2338 J-12.72
G3 X293.0264 Y248.3795 I-2.0038 J-10.7183
G3 X291.4509 Y248.3775 I-0.7746 J-10.4397
G2 X291.0894 Y248.0859 I-8.354 J9.9847
G3 X290.7272 Y247.7954 I9.0337 J-11.6339
G3 X290.4943 Y247.5914 I2.6194 J-3.2257
G3 X290.2071 Y247.2946 I2.5938 J-2.7968
G3 X290.0644 Y247.1061 I1.6851 J-1.4241
G3 X289.9353 Y246.8674 I1.2416 J-0.8258
G3 X289.9245 Y246.8406 I0.8527 J-0.3577
G0 Z5.0
G0 X304.1963 Y261.6937
G1 Z0.0
G3 X306.1698 Y262.0096 I-0.5335 J9.655
G3 X308.0444 Y262.7032 I-3.0426 J11.1038
G3 X309.2286 Y263.314 I-7.2486 J15.5065
G3 X309.3024 Y263.3555 I-0.8223 J1.5498
G1 X309.6155 Y263.5349
G3 X310.3235 Y263.9566 I-16.8244 J29.0521
G3 X310.413 Y264.011 I-0.6691 J1.2017
G1 X310.7938 Y264.2437
G1 X311.1994 Y264.4923
G3 X311.458 Y264.6422 I-0.4468 J1.0692
G3 X311.6609 Y264.8616 I-0.4952 J0.6614
G3 X311.7311 Y265.0501 I-0.4037 J0.2575
G3 X311.6168 Y265.3072 I-0.2522 J0.0418
G3 X311.451 Y265.3671 I-0.232 J-0.3826
G3 X311.2521 Y265.3723 I-0.122 J-0.8553
G3 X311.0409 Y265.3378 I0.1575 J-1.6293
G3 X310.8199 Y265.2733 I0.4934 J-2.1022
G1 X310.3891 Y265.191
G1 X309.9594 Y265.1028
G1 X309.6738 Y265.04
G3 X308.541 Y264.7487 I4.2848 J-19.0113
G3 X307.7991 Y264.5084 I4.1687 J-14.1334
G1 X307.7044 Y264.474
G3 X307.5036 Y264.398 I3.0442 J-8.342
G1 X307.2911 Y264.3124
G1 X307.0666 Y264.2157
G3 X305.9223 Y263.5899 I3.0676 J-6.9684
G3 X305.3293 Y263.1352 I3.3599 J-4.9961
G3 X304.7341 Y262.5186 I3.4335 J-3.9098
G3 X304.1963 Y261.6937 I3.6982 J-2.9989
G0 Z5.0
G0 X357.3125 Y281.8344
G1 Z0.0
G3 X358.7746 Y281.6367 I1.5268 J5.7853
G3 X360.2453 Y281.7563 I0.0754 J8.1776
G3 X361.2078 Y281.9583 I-2.1856 J12.8057
G3 X361.7509 Y282.1016 I-5.5744 J22.2336
G3 X362.3666 Y282.2802 I-5.3649 J19.6404
G1 X362.6936 Y282.3791
G1 X363.042 Y282.4856
G1 X363.2219 Y282.5403
G1 X363.6057 Y282.6554
G2 X364.4872 Y282.8979 I5.6784 J-18.9179
G2 X364.7166 Y282.9529 I1.5645 J-6.0196
G2 X365.7785 Y283.1371 I2.0167 J-8.4753
G2 X366.056 Y283.1603 I0.5029 J-4.3349
G1 X366.2387 Y283.1683
G1 X366.4215 Y283.1722
G2 X366.7871 Y283.1688 I0.0931 J-9.7453
G1 X367.0307 Y283.1594
G2 X368.0021 Y283.0795 I-0.9356 J-17.3329
G2 X368.0647 Y283.0727 I-0.1136 J-1.3324
G2 X368.198 Y283.0577 I-0.1941 J-2.3271
G1 X368.5025 Y283.0217
G1 X369.3138 Y282.9217
G3 X370.3978 Y282.8132 I2.7201 J21.7205
G1 X370.6879 Y282.7961
G3 X371.3524 Y282.7878 I0.4593 J10.1294
G3 X371.7065 Y282.8058 I-0.1106 J5.661
G1 X371.8889 Y282.8226
G3 X372.7138 Y282.9776 I-0.5008 J4.938
G3 X373.608 Y283.3439 I-1.1143 J3.9943
G3 X374.4984 Y284.0195 I-2.0584 J3.6378
G3 X373.352 Y284.3119 I-3.8017 J-12.5084
G3 X372.1863 Y284.5146 I-3.5639 J-17.0427
G3 X369.8296 Y284.706 I-2.9187 J-21.3302
G3 X369.5143 Y284.7132 I-0.3622 J-9.0031
G3 X364.4956 Y284.3465 I-0.3828 J-29.2903
G3 X361.2199 Y283.6213 I4.1012 J-26.2831
G1 X361.1693 Y283.6064
G1 X361.1186 Y283.5914
G3 X359.2955 Y282.9463 I5.0611 J-17.2037
G3 X359.1833 Y282.8985 I0.9699 J-2.4279
G3 X358.2465 Y282.4437 I4.7821 J-11.0437
G3 X357.3125 Y281.8344 I3.1701 J-5.8802
G0 Z5.0
G0 X380.4041 Y293.2131
G1 Z0.0
G3 X381.4043 Y293.2422 I0.3435 J5.3894
G3 X382.3889 Y293.4199 I-0.9114 J7.8643
G3 X384.2748 Y294.0719 I-2.6426 J10.698
G3 X385.4534 Y294.6886 I-4.3834 J9.8111
G3 X386.0786 Y295.122 I-3.1163 J5.1632
G3 X386.2289 Y295.2488 I-1.4811 J1.9089
G3 X386.516 Y295.5572 I-1.2405 J1.4425
G3 X386.6151 Y295.755 I-0.5021 J0.3752
G3 X385.7957 Y295.7588 I-0.4349 J-5.5633
G3 X385.5233 Y295.7352 I0.2613 J-4.6109
G3 X385.162 Y295.688 I0.7235 J-6.9435
G3 X384.6842 Y295.6 I1.6005 J-10.0316
G3 X382.8393 Y295.0096 I2.1398 J-9.8636
G3 X381.6936 Y294.4124 I3.2438 J-7.6216
G3 X381.4067 Y294.2209 I2.4665 J-4.0047
G3 X380.8006 Y293.7148 I2.6376 J-3.7748
G3 X380.7309 Y293.6424 I0.7949 J-0.8345
G3 X380.4623 Y293.3061 I1.8153 J-1.7256
G3 X380.4041 Y293.2131 I1.3449 J-0.9059
G0 Z5.0
G0 X396.1058 Y246.7282
G1 Z0.0
G3 X396.0704 Y246.715 I0.1999 J-0.5919
G3 X395.8157 Y246.5905 I0.6071 J-1.5649
G3 X395.5744 Y246.4399 I1.5079 J-2.683
G2 X394.1093 Y245.5749 I-9.5075 J14.4303
G2 X392.5837 Y244.8218 I-13.6361 J25.7043
G2 X391.55 Y244.3551 I-22.1409 J47.6636
G1 X390.1663 Y243.746
G3 X389.3785 Y243.392 I34.5744 J-78.0022
G3 X388.4857 Y242.9712 I14.7684 J-32.4864
G3 X388.0147 Y242.7361 I9.8823 J-20.3896
G1 X387.8957 Y242.6749
G1 X387.7753 Y242.6121
G3 X386.6933 Y242.0019 I9.4553 J-18.0291
G3 X385.5175 Y241.2037 I7.0798 J-11.695
G3 X384.9292 Y240.7238 I5.9276 J-7.8661
G1 X384.7853 Y240.5953
G3 X386.5321 Y240.4512 I1.4855 J7.3473
G3 X388.2662 Y240.7064 I-0.3055 J8.0926
G3 X389.3785 Y241.0666 I-2.5392 J9.7401
G3 X389.4476 Y241.0939 I-0.3546 J0.9999
G3 X390.8714 Y241.7799 I-4.2479 J10.6355
G3 X391.6425 Y242.2487 I-7.1007 J12.5503
G3 X393.5502 Y243.6948 I-9.703 J14.7812
G3 X395.8016 Y245.9249 I-16.2721 J18.6789
G1 X395.8348 Y245.9621
G1 X395.868 Y245.9995
G1 X396.0021 Y246.1516
G3 X396.1743 Y246.3606 I-2.5768 J2.2988
G3 X396.3153 Y246.5919 I-0.8749 J0.6921
G3 X396.3356 Y246.6672 I-0.2286 J0.1021
G3 X396.2845 Y246.7515 I-0.0689 J0.0159
G3 X396.2186 Y246.7549 I-0.0417 J-0.1647
G3 X396.1058 Y246.7282 I0.0871 J-0.6187
G0 Z5.0
M5
M30
G0 X-134.5454 Y39.5168
G1 F1.0 Z0.0
G3 X-134.8358 Y38.5944 I4.2261 J-1.8375
G3 X-134.9601 Y37.6355 I6.3918 J-1.3161
G3 X-134.9793 Y36.9912 I8.4956 J-0.5756
G3 X-134.9521 Y36.1336 I15.1366 J0.0515
G3 X-134.9177 Y35.6448 I22.599 J1.3413
G3 X-134.9127 Y35.5827 I0.649 J0.0219
G3 X-134.8895 Y35.3184 I7.8033 J0.5496
G3 X-134.8299 Y34.7155 I23.934 J2.0616
G1 X-134.7958 Y34.3943
G1 X-134.7173 Y33.6611
G1 X-134.6777 Y33.27
G1 X-134.6682 Y33.1706
G2 X-134.598 Y32.2618 I-24.0898 J-2.3181
G2 X-134.5813 Y31.2206 I-11.8374 J-0.711
G2 X-134.5867 Y31.0884 I-2.0604 J0.0177
G2 X-134.6366 Y30.5258 I-6.3249 J0.2774
G2 X-134.6831 Y30.2377 I-4.4547 J0.5713
G1 X-133.9801
G3 X-133.2494 Y30.7262 I-1.1714 J2.543
G3 X-132.691 Y31.4049 I-2.3195 J2.4773
G3 X-132.413 Y31.9208 I-3.8334 J2.3988
G3 X-132.1391 Y32.6497 I-4.9325 J2.2695
G3 X-131.9056 Y33.6549 I-7.9314 J2.3715
G3 X-131.7593 Y35.011 I-11.8673 J1.9665
G3 X-131.7602 Y36.8103 I-17.3272 J0.8912
G3 X-131.9979 Y39.1691 I-23.4888 J-1.1759
G2 X-132.485 Y39.0663 I-1.2951 J4.9336
G2 X-132.9809 Y39.0228 I-0.5184 J3.0614
G2 X-133.958 Y39.2039 I-0.04 J2.511
G2 X-134.5454 Y39.5168 I1.1948 J2.9508
G0 Z5.0
G0 X-122.4657 Y40.4486
G1 Z0.0
G1 X-122.1683 Y36.5936
G3 X-120.8605 Y37.6585 I-2.581 J4.5051
G3 X-119.9912 Y39.1038 I-3.676 J3.1952
G3 X-119.6876 Y40.1889 I-5.4267 J2.1033
G3 X-119.5583 Y41.6781 I-8.243 J1.4656
G3 X-119.5642 Y42.0765 I-19.8145 J-0.0907
G3 X-119.6241 Y42.981 I-12.9115 J-0.4011
G3 X-119.7503 Y44.003 I-23.0623 J-2.3292
G1 X-119.7896 Y44.2655
G1 X-119.8102 Y44.3987
G1 X-119.8538 Y44.6729
G1 X-119.948 Y45.2554
G2 X-120.64 Y45.0985 I-1.7501 J6.115
G2 X-121.3477 Y45.0493 I-0.6041 J3.5764
G2 X-121.8175 Y45.1145 I0.0875 J2.3547
G2 X-122.3951 Y45.38 I0.3958 J1.6228
G1 X-122.7484 Y44.1136
G1 X-122.4657 Y40.4486
G0 Z5.0
G0 X-111.8887 Y42.0254
G1 Z0.0
G1 X-111.1784
G3 X-110.2259 Y42.6679 I-1.3799 J3.0726
G3 X-109.5512 Y43.598 I-2.3359 J2.4043
G3 X-109.2756 Y44.3141 I-3.6679 J1.8226
G3 X-109.0856 Y45.314 I-5.5856 J1.5793
G3 X-109.0791 Y45.3784 I-0.6807 J0.1018
G3 X-109.0441 Y45.9663 I-7.1342 J0.7193
G3 X-109.0502 Y46.6359 I-10.7676 J0.2362
G3 X-109.1028 Y47.3948 I-12.0947 J-0.4566
G1 X-109.1226 Y47.5899
G1 X-109.1452 Y47.7906
G1 X-109.1994 Y48.2167
G1 X-109.2068 Y48.2703
G3 X-109.2725 Y48.7255 I-21.7547 J-2.9069
G1 X-109.3449 Y49.2088
G2 X-110.0778 Y49.0737 I-1.1769 J4.3288
G2 X-110.3263 Y49.0618 I-0.2623 J2.8814
G2 X-111.3012 Y49.2467 I-0.0238 J2.5375
G2 X-111.8887 Y49.5565 I1.3237 J3.2223
G3 X-112.2017 Y48.5604 I4.1822 J-1.8611
G3 X-112.2944 Y47.5205 I5.1963 J-0.9873
G3 X-112.258 Y46.8253 I7.5288 J0.0447
G3 X-112.213 Y46.4304 I11.1158 J1.0684
G3 X-112.1473 Y45.9813 I13.5182 J1.7487
G1 X-112.0619 Y45.4705
G1 X-111.9628 Y44.888
G1 X-111.9138 Y44.5771
G1 X-111.8675 Y44.2447
G2 X-111.857 Y44.1602 I-1.5077 J-0.2303
G2 X-111.8193 Y43.7989 I-7.1934 J-0.9325
G2 X-111.7903 Y42.9698 I-7.2555 J-0.6687
G2 X-111.8887 Y42.0254 I-5.4279 J0.0883
G0 Z5.0
M5
M30
G0 X-189.2273 Y43.857
G1 F1.0 Z0.0
G2 X-187.6557 Y45.3177 I8.4508 J-7.5169
G2 X-185.8641 Y46.4985 I9.096 J-11.8512
G1 X-185.6138 Y46.6375
G1 X-185.3446 Y46.7814
G2 X-183.8765 Y47.4822 I10.3945 J-19.8882
G1 X-183.6837 Y47.5654
G2 X-181.5987 Y48.3711 I13.936 J-32.9626
G2 X-181.0356 Y48.5662 I13.8991 J-39.2035
G1 X-180.4331 Y48.7676
G1 X-180.1214 Y48.8693
G1 X-179.4556 Y49.0821
G1 X-179.2862 Y49.1355
G1 X-178.5636 Y49.3607
G1 X-176.9131 Y49.8717
G1 X-176.8092 Y49.9043
G2 X-175.8613 Y50.332 I78.5733 J-172.8849
G2 X-174.9133 Y50.7595 I77.5866 J-170.7879
G2 X-174.2812 Y51.0444 I62.6398 J-138.1249
G2 X-173.4384 Y51.4241 I71.6923 J-157.9921
G2 X-172.3146 Y51.9302 I81.8199 J-180.194
G2 X-171.6723 Y52.2192 I61.0909 J-134.872
G2 X-170.9383 Y52.5495 I64.7811 J-143.0035
G2 X-170.0993 Y52.9268 I68.6226 J-151.4689
G2 X-169.1404 Y53.3578 I72.608 J-160.2521
G2 X-168.0443 Y53.8502 I76.7267 J-169.3309
G2 X-167.4598 Y54.1127 I55.405 J-122.6106
G2 X-166.8362 Y54.3926 I56.8403 J-125.7985
G2 X-166.1709 Y54.6911 I58.2913 J-129.0229
G2 X-165.4613 Y55.0094 I59.7562 J-132.2805
G2 X-164.7044 Y55.3487 I61.2333 J-135.5676
G2 X-163.8969 Y55.7106 I62.7207 J-138.88
G2 X-163.0355 Y56.0964 I64.2162 J-142.2135
G2 X-162.1165 Y56.5078 I65.7176 J-145.5635
G2 X-161.1363 Y56.9464 I67.2226 J-148.9251
G2 X-160.0905 Y57.414 I68.7286 J-152.2931
G2 X-159.5508 Y57.6553 I48.8909 J-108.6596
G2 X-158.9936 Y57.9043 I49.4063 J-109.8244
G2 X-158.4184 Y58.1612 I49.9207 J-110.9883
G2 X-157.8246 Y58.4263 I50.4338 J-112.1506
G2 X-157.2116 Y58.7 I50.9456 J-113.3111
G2 X-156.5788 Y58.9823 I51.4556 J-114.469
G2 X-155.9255 Y59.2737 I51.9636 J-115.624
G2 X-134.9991 Y68.5472 I1941.4442 J-4352.7649
G2 X-134.334 Y68.84 I43.7474 J-98.4751
G2 X-133.6583 Y69.1373 I43.8784 J-98.8
G2 X-132.9719 Y69.4392 I44.0076 J-99.1215
G2 X-88.9377 Y88.5263 I1791.6422 J-4073.0112
G2 X-88.2425 Y88.8231 I33.5669 J-77.6709
G2 X-58.5343 Y101.3656 I1623.6764 J-3804.3805
G2 X-58.0675 Y101.5605 I23.6203 J-55.9255
G2 X-57.5988 Y101.7561 I23.6164 J-55.9336
G2 X-17.5131 Y118.2183 I1458.3023 J-3493.9501
G2 X-16.8828 Y118.4729 I23.0227 J-56.0968
G2 X-16.2499 Y118.7283 I23.0106 J-56.0933
G2 X-15.6146 Y118.9846 I22.9983 J-56.0895
G2 X-14.9767 Y119.2419 I22.986 J-56.0856
G2 X-14.3362 Y119.5 I22.9735 J-56.0815
G2 X-13.6932 Y119.759 I22.9609 J-56.0772
G2 X-13.0476 Y120.0188 I22.9482 J-56.0729
G2 X-12.3994 Y120.2796 I22.9353 J-56.0683
G2 X-11.7487 Y120.5413 I22.9224 J-56.0637
G2 X-11.4226 Y120.6724 I16.1273 J-39.6512
G2 X44.4082 Y142.5607 I1291.1483 J-3211.2007
G2 X44.8467 Y142.7282 I15.1826 J-39.1006
G2 X45.2862 Y142.8959 I15.1745 J-39.0949
G2 X45.7265 Y143.0639 I15.1664 J-39.0892
G1 X46.2192 Y143.2525
G1 X46.7114 Y143.4422
G1 X47.6943 Y143.8259
G1 X48.3479 Y144.086
G1 X48.7205 Y144.237
G3 X49.7067 Y144.657 I-9.8726 J24.5502
G3 X49.9628 Y144.7841 I-1.1462 J2.6301
G3 X50.0216 Y144.8273 I-0.1184 J0.2233
G3 X50.0146 Y144.8384 I-0.0056 J0.0042
G3 X50.004 Y144.8392 I-0.0083 J-0.0398
G3 X49.979 Y144.8372 I-0.0058 J-0.0882
G1 X49.9076 Y144.824
G3 X49.6705 Y144.7613 I0.6426 J-2.9113
G1 X49.5378 Y144.722
G1 X49.4762 Y144.7033
G1 X49.3405 Y144.661
G1 X49.2534 Y144.6334
G3 X48.8975 Y144.5176 I4.9345 J-15.7687
G3 X48.8584 Y144.5046 I0.0943 J-0.3502
G1 X48.7927 Y144.4828
G1 X48.5914 Y144.4153
G1 X48.3822 Y144.3444
G3 X48.3259 Y144.3252 I0.1546 J-0.5453
G1 X47.8913 Y144.1755
G1 X47.5906 Y144.0706
G1 X46.9653 Y143.8501
G1 X46.3306 Y143.6234
G1 X46.0406 Y143.519
G1 X45.6891 Y143.3919
G1 X45.4843 Y143.3176
G3 X45.4042 Y143.2885 I0.2931 J-0.931
G3 X45.3286 Y143.261 I0.5101 J-1.5195
G1 X43.8527 Y142.7249
G1 X42.3772 Y142.1873
G1 X41.3939 Y141.8281
G1 X37.4621 Y140.3873
G1 X34.8419 Y139.4238
G3 X34.5038 Y139.2993 I12.3734 J-34.1289
G1 X30.8987 Y137.9702
G1 X28.8391 Y137.2095
G1 X26.4855 Y136.3393
G1 X20.2107 Y134.0152
G1 X16.6258 Y132.6852
G1 X7.0682 Y129.133
G1 X4.5199 Y128.1846
G1 X-1.3042 Y126.0154
G1 X-2.0438 Y125.7398
G1 X-8.8046 Y123.2186
G1 X-12.41 Y121.8731
G1 X-14.2708 Y121.1783
G1 X-18.2402 Y119.6956
G1 X-19.2483 Y119.3188
G1 X-23.549 Y117.7108
G1 X-118.914 Y79.1456
G1 X-120.7339 Y78.386
G1 X-122.5536 Y77.6258
G1 X-126.1918 Y76.1026
G1 X-128.6161 Y75.0842
G1 X-131.8464 Y73.7217
G1 X-133.6911 Y72.9402
G1 X-135.7981 Y72.044
G1 X-138.2041 Y71.0154
G1 X-140.9511 Y69.8334
G3 X-141.2997 Y69.6828 I10.6656 J-25.1609
G3 X-141.6538 Y69.5296 I10.948 J-25.7961
G3 X-142.0134 Y69.3739 I11.2469 J-26.4677
G3 X-142.3787 Y69.2155 I11.5641 J-27.1792
G3 X-142.7497 Y69.0545 I11.9013 J-27.9346
G3 X-143.1266 Y68.8908 I12.2607 J-28.7387
G3 X-143.5093 Y68.7244 I12.645 J-29.5971
G3 X-143.8981 Y68.5551 I13.0569 J-30.5161
G3 X-144.2929 Y68.3829 I13.5 J-31.5034
G3 X-144.694 Y68.2079 I13.9784 J-32.568
G3 X-145.1013 Y68.0298 I14.4969 J-33.7207
G3 X-148.821 Y66.3925 I425.3315 J-971.3161
G3 X-149.2928 Y66.1833 I23.4377 J-53.4874
G3 X-149.7719 Y65.9704 I25.3221 J-57.6446
G3 X-150.2585 Y65.7539 I27.6504 J-62.7814
G3 X-150.7527 Y65.5335 I30.633 J-69.3632
G3 X-151.7724 Y65.0775 I52.474 J-118.7018
G3 X-153.9454 Y64.0994 I192.5537 J-430.6969
G1 X-155.0656 Y63.5917
G1 X-156.221 Y63.0654
G1 X-157.4126 Y62.5199
G1 X-158.6414 Y61.9541
G1 X-159.2627 Y61.6631
G1 X-159.8811 Y61.3661
G1 X-160.2919 Y61.1652
G1 X-160.8382 Y60.8943
G1 X-161.5643 Y60.5286
G1 X-161.9783 Y60.3175
G1 X-162.1988 Y60.2044
G3 X-162.4338 Y60.0833 I4.6402 J-9.2973
G1 X-162.9702 Y59.8053
G1 X-163.582 Y59.4854
G1 X-164.28 Y59.1173
G1 X-165.0763 Y58.6939
G3 X-167.1934 Y57.5536 I131.5892 J-246.8436
G1 X-168.4002 Y56.8964
G1 X-168.7113 Y56.7263
G1 X-170.1325 Y55.9466
G1 X-170.499 Y55.7449
G1 X-174.405 Y53.588
G1 X-174.909 Y53.3095
G1 X-175.9844 Y52.716
G1 X-177.1321 Y52.0841
G1 X-177.7248 Y51.7587
G2 X-180.4398 Y50.2811 I-241.4266 J440.3653
G1 X-181.1425 Y49.9036
G1 X-181.4999 Y49.7126
G1 X-182.2387 Y49.3203
G1 X-183.0032 Y48.9188
G2 X-184.6423 Y48.078 I-64.8462 J124.3875
G1 X-184.8499 Y47.974
G3 X-187.0141 Y48.4155 I-15.5886 J-70.8863
G3 X-187.1589 Y48.4427 I-0.59 J-2.7504
G3 X-187.9318 Y48.582 I-8.3499 J-44.0992
G3 X-187.9809 Y48.5906 I-0.1121 J-0.499
G3 X-191.1381 Y49.0553 I-10.0296 J-57.1777
G1 X-191.3427 Y49.0793
G3 X-191.5539 Y49.1032 I-1.3887 J-11.3138
G1 X-192.0048 Y49.1514
G3 X-194.4161 Y49.3367 I-4.7753 J-46.354
G3 X-194.5696 Y49.3441 I-0.4267 J-7.2941
G3 X-197.8459 Y49.3527 I-1.731 J-35.4399
G3 X-199.7138 Y49.2073 I1.1765 J-27.1971
G3 X-201.8302 Y48.8713 I2.4206 J-22.0816
G3 X-204.1931 Y48.209 I3.5131 J-17.0791
G3 X-205.406 Y47.7081 I4.5339 J-12.6981
G3 X-206.0124 Y47.4039 I5.0542 J-10.8304
G1 X-206.1626 Y47.3221
G3 X-207.397 Y46.5335 I5.4608 J-9.9081
G3 X-208.5901 Y45.5098 I6.0647 J-8.2751
G3 X-208.6595 Y45.4395 I0.7698 J-0.8302
G1 X-208.316 Y45.4127
G1 X-207.9723 Y45.3875
G1 X-207.7431 Y45.3717
G3 X-206.8259 Y45.3146 I3.4979 J48.8313
G1 X-206.2141 Y45.2817
G1 X-205.398 Y45.2432
G1 X-204.3097 Y45.1994
G1 X-203.6877 Y45.1771
G1 X-203.3559 Y45.1659
G1 X-201.5866 Y45.1087
G1 X-200.5755 Y45.0749
G1 X-199.4201 Y45.0313
G2 X-199.122 Y45.0187 I-0.4118 J-13.3393
G2 X-195.9451 Y44.8323 I-3.802 J-91.9491
G2 X-195.8451 Y44.8244 I-0.1683 J-2.7682
G2 X-195.7444 Y44.8163 I-0.1691 J-2.7319
G2 X-195.6429 Y44.808 I-0.17 J-2.6964
G2 X-193.7896 Y44.6255 I-4.6314 J-56.5351
G2 X-192.804 Y44.5017 I-5.7973 J-50.1454
G2 X-190.5624 Y44.1371 I-5.3584 J-40.0169
G2 X-189.376 Y43.8907 I-5.7752 J-30.7921
G2 X-189.3018 Y43.874 I-0.2076 J-1.0922
G2 X-189.2273 Y43.857 I-0.2087 J-1.0872
G0 Z5.0
G0 X-189.6326 Y42.0254
G1 Z0.0
G3 X-190.4704 Y41.921 I0.0093 J-3.4888
G3 X-191.2633 Y41.631 I1.0314 J-4.0498
G3 X-192.6155 Y40.6378 I2.1367 J-4.3259
G3 X-193.2923 Y39.7455 I3.4787 J-3.3413
G1 X-189.9376 Y40.4429
G1 X-189.2273 Y41.6702
G1 X-189.6326 Y42.0254
G0 Z5.0
G0 X-188.7079 Y39.076
G1 Z0.0
G3 X-188.8539 Y39.0188 I0.3374 J-1.0761
G3 X-189.0601 Y38.8654 I0.2967 J-0.6139
G3 X-189.2197 Y38.5577 I0.5471 J-0.4791
G3 X-189.2396 Y38.4666 I0.7856 J-0.2197
G3 X-189.2592 Y37.9815 I2.238 J-0.3331
G3 X-189.2518 Y37.8531 I1.64 J0.0294
G1 X-189.2421 Y37.7175
G1 X-189.2313 Y37.5744
G2 X-189.2139 Y37.2556 I-4.6178 J-0.4121
G1 X-189.2126 Y37.1738
G2 X-189.2381 Y36.8113 I-2.057 J-0.0375
G2 X-189.3692 Y36.4253 I-1.1127 J0.1625
G2 X-189.7039 Y36.0914 I-0.7966 J0.464
G2 X-189.9376 Y35.9837 I-0.6543 J1.1115
G1 X-190.0026 Y35.9771
G1 X-190.0677 Y35.9728
G1 X-190.0864 Y35.9719
G2 X-190.2358 Y35.9728 I-0.0594 J2.8282
G2 X-190.5301 Y36.0226 I0.0473 J1.1726
G2 X-191.0203 Y36.3577 I0.2851 J0.9431
G2 X-191.2267 Y36.6989 I1.2501 J0.9892
G2 X-191.4112 Y37.1874 I4.3609 J1.9261
G3 X-191.5079 Y37.4658 I-6.5703 J-2.1265
G3 X-191.6513 Y37.7658 I-1.5618 J-0.5628
G3 X-191.7675 Y37.9009 I-0.5634 J-0.3668
G3 X-192.1047 Y37.5455 I1.0208 J-1.3059
G3 X-192.3501 Y37.1215 I2.2835 J-1.6053
G3 X-192.4801 Y36.8222 I5.4098 J-2.5268
G1 X-192.5478 Y36.6487
G2 X-192.7237 Y36.186 I-17.3359 J6.3289
G2 X-192.7476 Y36.1267 I-0.6271 J0.218
G1 X-192.8006 Y36.0012
G1 X-192.8612 Y35.8693
G1 X-192.8775 Y35.8362
G1 X-192.8945 Y35.8027
G2 X-193.0731 Y35.5103 I-1.874 J0.944
G2 X-193.35 Y35.2292 I-1.0909 J0.798
G2 X-193.7706 Y35.0389 I-0.673 J0.9272
G2 X-194.3113 Y35.0112 I-0.3575 J1.6859
G3 X-194.2729 Y34.4582 I4.8411 J0.0584
G1 X-194.2681 Y34.4215
G3 X-194.1491 Y33.8423 I4.3999 J0.6021
G3 X-193.6446 Y32.7756 I3.3349 J0.9247
G3 X-193.1198 Y32.1857 I2.9866 J2.1283
G3 X-192.2633 Y31.5779 I3.1011 J3.4628
G3 X-191.7274 Y31.31 I2.9161 J5.1636
G3 X-191.0939 Y31.0586 I3.2221 J7.1966
G1 X-190.9277 Y31.0014
G3 X-190.164 Y30.7729 I3.613 J10.6844
G3 X-189.2861 Y30.5605 I4.4758 J16.579
G3 X-188.2849 Y30.3576 I7.8197 J36.0092
G1 X-188.0264 Y30.3093
G1 X-186.8567 Y30.0986
G1 X-186.2364 Y29.9858
G1 X-185.9174 Y29.9258
G2 X-185.242 Y29.7912 I-5.0681 J-27.1831
G2 X-183.7279 Y29.425 I-4.3987 J-21.4998
G2 X-182.9384 Y29.1765 I-3.8388 J-13.5791
G2 X-182.1199 Y28.8529 I-3.6167 J-10.3432
G2 X-181.2873 Y28.4206 I-2.97 J-6.7383
G2 X-180.4726 Y27.8351 I-3.1589 J-5.2549
G2 X-180.5245 Y27.4456 I-2.1457 J0.0877
G2 X-180.6559 Y27.0753 I-1.6844 J0.3892
G2 X-181.1735 Y26.4895 I-1.3885 J0.7054
G2 X-181.6345 Y26.2425 I-1.4267 J2.1096
G2 X-182.2891 Y26.0305 I-1.7614 J4.3222
G1 X-182.4667 Y25.9867
G1 X-182.5584 Y25.9654
G1 X-182.975 Y25.875
G1 X-183.4461 Y25.7744
G1 X-183.695 Y25.7165
G3 X-184.2504 Y25.5577 I1.3778 J-5.868
G3 X-184.8499 Y25.2931 I1.062 J-3.2175
G1 X-184.2384 Y25.066
G1 X-183.6262 Y24.841
G1 X-182.4009 Y24.3933
G1 X-181.5845 Y24.0935
G2 X-180.4983 Y23.688 I-41.4273 J-112.6387
G1 X-179.8793 Y23.4517
G1 X-179.1739 Y23.1761
G2 X-177.3082 Y22.4032 I-24.6837 J-62.2238
G2 X-177.1907 Y22.3519 I-1.7519 J-4.1719
G2 X-176.1228 Y21.8678 I-19.8209 J-45.1454
G2 X-173.3523 Y20.417 I-14.2315 J-30.5463
G2 X-172.6397 Y19.9829 I-18.4959 J-31.1688
G2 X-171.8952 Y19.4946 I-11.4955 J-18.3372
G2 X-170.2668 Y18.2707 I-12.3805 J-18.1675
G2 X-168.5674 Y16.673 I-11.575 J-14.0146
G2 X-168.3669 Y16.4547 I-7.8824 J-7.4426
G3 X-168.1065 Y16.796 I-2.1441 J1.9057
G3 X-167.8932 Y17.1684 I-3.4716 J2.2359
G3 X-167.578 Y17.965 I-4.7654 J2.3462
G3 X-167.5443 Y18.0743 I-1.8185 J0.6203
G3 X-167.4726 Y18.3254 I-4.6249 J1.456
G3 X-167.3052 Y18.9998 I-25.7353 J6.7446
G1 X-167.2147 Y19.386
G1 X-167.1647 Y19.5914
G2 X-167.0364 Y20.0567 I7.3246 J-1.7692
G2 X-166.8383 Y20.5718 I3.4186 J-1.0187
G1 X-166.9596 Y20.6309
G1 X-167.0814 Y20.6891
G2 X-167.3242 Y20.8071 I2.9824 J6.4507
G2 X-167.8017 Y21.0588 I4.5103 J9.1339
G2 X-167.8642 Y21.0946 I0.3011 J0.5973
G1 X-168.0055 Y21.1789
G2 X-168.37 Y21.4234 I2.9077 J4.7286
G2 X-168.8108 Y21.8093 I1.8975 J2.6123
G2 X-169.0204 Y22.072 I1.592 J1.4859
G2 X-169.1909 Y22.4195 I1.1397 J0.7745
G2 X-169.2393 Y22.8687 I1.0314 J0.3385
G2 X-169.0735 Y23.3759 I1.3181 J-0.1503
G2 X-168.7351 Y23.7679 I1.4017 J-0.8681
G2 X-168.296 Y24.0426 I1.2005 J-1.4304
G2 X-167.9742 Y24.1678 I1.2049 J-2.6203
G2 X-167.5347 Y24.2977 I2.9786 J-9.2703
G1 X-167.2836 Y24.3693
G3 X-167.0011 Y24.4623 I-1.3557 J4.5974
G3 X-166.6901 Y24.5981 I-0.7773 J2.2024
G3 X-166.5334 Y24.6888 I-1.0274 J1.9585
G3 X-166.459 Y25.1697 I-1.4001 J0.4627
G3 X-166.5417 Y25.6492 I-1.5765 J-0.025
G3 X-166.6619 Y25.9506 I-2.2658 J-0.7291
G3 X-166.8588 Y26.3333 I-6.8205 J-3.2678
G2 X-167.1208 Y26.838 I7.4938 J4.2102
G2 X-167.2437 Y27.1378 I3.6928 J1.6891
G1 X-170.5017 Y25.2931
G2 X-172.0034 Y25.0855 I-4.4156 J26.4044
G2 X-172.0521 Y25.0803 I-0.0736 J0.463
G2 X-172.5716 Y25.0316 I-1.7243 J15.5801
G2 X-174.6568 Y24.9597 I-1.7686 J21.0161
G1 X-174.9351 Y24.9669
G2 X-176.4144 Y25.0896 I0.4119 J13.9466
G2 X-176.8059 Y25.1503 I1.9138 J13.6362
G2 X-177.6908 Y25.3449 I1.5992 J9.3823
G2 X-178.6705 Y25.687 I1.9263 J7.0907
G2 X-179.1665 Y25.9363 I2.1599 J4.9161
G2 X-179.6617 Y26.2656 I2.2549 J3.9273
G2 X-178.2033 Y26.5353 I2.0415 J-6.9617
G2 X-177.709 Y26.5637 I0.6958 J-7.7932
G2 X-177.0493 Y26.5683 I0.4284 J-14.3461
G2 X-176.1707 Y26.5437 I-1.6226 J-73.6457
G1 X-175.6688 Y26.5302
G3 X-175.4011 Y26.5273 I0.4749 J31.5927
G1 X-175.1157 Y26.5295
G3 X-174.8114 Y26.5397 I-1.2639 J42.2732
G3 X-174.1183 Y26.6031 I-0.3188 J7.3109
G3 X-172.3351 Y27.1378 I-0.7873 J5.8667
G2 X-172.5268 Y27.4597 I0.9315 J0.7728
G2 X-172.5771 Y27.831 I0.7181 J0.2863
G2 X-172.5083 Y28.0734 I0.79 J-0.0932
G2 X-172.333 Y28.3575 I1.2902 J-0.5999
G2 X-172.039 Y28.6787 I2.5332 J-2.0235
G2 X-171.9986 Y28.7177 I0.8576 J-0.8476
G1 X-171.9122 Y28.7992
G2 X-171.7155 Y28.9802 I7.3136 J-7.7528
G1 X-171.496 Y29.1853
G3 X-171.2609 Y29.4279 I-3.8747 J3.9908
G3 X-171.0309 Y29.7316 I-1.7175 J1.54
G3 X-170.8683 Y30.135 I-0.9923 J0.6345
G3 X-170.9108 Y30.6449 I-0.9715 J0.1757
G1 X-172.7368 Y30.2972
G2 X-173.1666 Y30.6621 I0.757 J1.327
G2 X-173.4202 Y31.1657 I1.0884 J0.8639
G2 X-173.4813 Y31.5376 I1.7351 J0.4757
G2 X-173.4685 Y32.0362 I3.1392 J0.169
G2 X-173.3618 Y32.6826 I6.7152 J-0.7766
G1 X-173.3442 Y32.7651
G1 X-173.2618 Y33.1386
G1 X-173.2195 Y33.3373
G3 X-173.1459 Y33.7913 I-3.965 J0.8755
G1 X-175.2844 Y32.5695
G2 X-175.5319 Y32.7236 I0.8611 J1.6592
G2 X-175.7503 Y32.9168 I0.7681 J1.0881
G2 X-176.0165 Y33.4333 I0.7759 J0.7268
G2 X-176.0346 Y33.8238 I1.3987 J0.2604
G2 X-175.938 Y34.3298 I2.8191 J-0.2759
G2 X-175.9012 Y34.4618 I2.8218 J-0.7171
G1 X-175.8133 Y34.7582
G3 X-175.7228 Y35.0947 I-4.9645 J1.5162
G3 X-175.6873 Y35.2759 I-2.5309 J0.5893
G3 X-175.6792 Y35.6938 I-1.3355 J0.2352
G3 X-175.8924 Y36.1338 I-0.8072 J-0.1195
G3 X-176.1002 Y36.3065 I-0.7959 J-0.7461
G3 X-176.3588 Y36.4437 I-0.9498 J-1.4774
G3 X-176.6536 Y36.5504 I-1.1178 J-2.6295
G1 X-176.8092 Y36.5936
G1 X-178.6427 Y34.7564
G2 X-179.0935 Y34.9564 I1.0573 J2.9902
G2 X-179.4841 Y35.2575 I0.7119 J1.3276
G2 X-179.6583 Y35.5395 I0.6991 J0.6267
G2 X-179.7158 Y35.9821 I0.9685 J0.3507
G2 X-179.6781 Y36.2353 I2.1387 J-0.189
G1 X-179.6462 Y36.3676
G1 X-179.6068 Y36.5066
G1 X-179.508 Y36.8166
G3 X-179.4953 Y36.8559 I-0.6311 J0.2264
G1 X-179.4694 Y36.9367
G1 X-179.4436 Y37.02
G3 X-179.3484 Y37.3984 I-3.5561 J1.096
G3 X-179.3246 Y37.8352 I-1.4894 J0.2999
G3 X-179.4897 Y38.3079 I-1.0523 J-0.1023
G3 X-179.6617 Y38.5182 I-0.9617 J-0.611
G3 X-180.1604 Y38.8129 I-2.0224 J-2.8525
G1 X-180.236 Y38.8468
G3 X-180.4449 Y38.9192 I-0.6314 J-1.4838
G3 X-180.7395 Y38.9472 I-0.2227 J-0.779
G3 X-181.0993 Y38.7607 I0.058 J-0.5521
G3 X-181.2371 Y38.5665 I0.7359 J-0.6684
G3 X-181.3529 Y38.3239 I1.7646 J-0.9915
G3 X-181.3594 Y38.3082 I0.0791 J-0.0419
G3 X-181.4117 Y38.1753 I2.3027 J-0.9829
G1 X-181.523 Y37.8766
G1 X-181.5844 Y37.7202
G2 X-181.6551 Y37.5585 I-3.052 J1.2393
G2 X-181.8516 Y37.225 I-1.6319 J0.7366
G2 X-182.1731 Y36.9417 I-0.7995 J0.5833
G2 X-182.651 Y36.8263 I-0.4721 J0.9079
G2 X-182.9145 Y36.8463 I-0.0138 J1.5608
G2 X-183.1878 Y36.9066 I0.4036 J2.4785
G2 X-183.3251 Y36.9488 I0.4014 J1.552
G2 X-183.695 Y37.6017 I1.2575 J1.1437
G2 X-183.781 Y38.3472 I2.0578 J0.6152
G2 X-183.3251 Y39.7455 I2.9201 J-0.1786
G3 X-183.7549 Y39.8346 I-1.1154 J-4.3031
G3 X-184.1928 Y39.8656 I-0.4103 J-2.6812
G3 X-184.4845 Y39.8363 I0.0064 J-1.5276
G3 X-184.8545 Y39.7059 I0.2195 J-1.2126
G3 X-185.2496 Y39.3567 I0.6092 J-1.0876
G3 X-185.413 Y39.1015 I1.505 J-1.1433
G3 X-185.5632 Y38.792 I4.6081 J-2.4277
G3 X-185.5985 Y38.7106 I6.3163 J-2.7845
G1 X-185.753 Y38.3419
G2 X-185.773 Y38.2953 I-0.6239 J0.2402
G2 X-185.9719 Y37.885 I-4.4196 J1.889
G2 X-186.2704 Y37.4678 I-1.8999 J1.0439
G2 X-186.7411 Y37.1222 I-1.1383 J1.0571
G2 X-187.3901 Y36.9488 I-0.8289 J1.8005
G2 X-187.6772 Y37.0506 I0.5368 J1.9688
G2 X-187.9383 Y37.2075 I0.397 J0.9564
G2 X-188.0696 Y37.3645 I0.3315 J0.4105
G2 X-188.1221 Y37.6374 I0.4199 J0.2223
G2 X-188.091 Y37.7955 I0.7035 J-0.0563
G2 X-188.0278 Y37.9667 I1.2201 J-0.3529
G1 X-188.0088 Y38.0096
G1 X-187.9173 Y38.1993
G3 X-187.8682 Y38.2991 I-3.0214 J1.5463
G1 X-187.8192 Y38.4054
G3 X-187.7402 Y38.6526 I-0.9744 J0.4478
G3 X-187.804 Y38.9439 I-0.3538 J0.0751
G3 X-187.9337 Y39.056 I-0.3607 J-0.2865
G3 X-188.1041 Y39.1356 I-0.4508 J-0.7424
G3 X-188.486 Y39.1217 I-0.1055 J-2.3503
G3 X-188.7079 Y39.076 I0.1154 J-1.1218
G0 Z5.0
G0 X-199.094 Y36.5936
G1 Z0.0
G3 X-199.8805 Y35.8316 I1.1111 J-1.9335
G3 X-200.0632 Y35.5123 I3.7119 J-2.3366
G2 X-200.1652 Y35.3288 I-7.2753 J3.9237
G1 X-200.1927 Y35.2821
G2 X-200.3305 Y35.0767 I-1.5347 J0.8807
G2 X-200.8363 Y34.6499 I-1.1977 J0.9062
G2 X-201.189 Y34.5026 I-1.1317 J2.2143
G2 X-201.6118 Y34.3956 I-1.2093 J3.8886
G2 X-201.5938 Y35.7562 I5.8916 J0.6025
G2 X-201.2977 Y37.0843 I7.7777 J-1.0373
G1 X-201.2425 Y37.2573
G1 X-201.1804 Y37.4407
G2 X-201.111 Y37.6353 I3.69 J-1.2069
G2 X-201.0929 Y37.6845 I0.5339 J-0.1686
G2 X-201.0743 Y37.7345 I0.5358 J-0.1711
G2 X-201.0552 Y37.7852 I0.5378 J-0.1737
G2 X-201.0356 Y37.8366 I0.5403 J-0.1765
G2 X-200.5841 Y38.9162 I19.3641 J-7.464
G1 X-200.4566 Y39.2009
G1 X-200.3195 Y39.5039
G1 X-200.0075 Y40.1958
G1 X-199.845 Y40.5663
G1 X-199.6774 Y40.9635
G1 X-199.5938 Y41.1697
G1 X-199.5101 Y41.3834
G1 X-199.4267 Y41.6052
G3 X-199.094 Y42.6353 I-12.658 J4.6562
G1 X-200.2134
G2 X-200.6412 Y41.7387 I-9.8595 J4.1542
G2 X-200.6722 Y41.6801 I-0.9243 J0.4503
G2 X-200.7053 Y41.6177 I-1.0008 J0.492
G2 X-200.7409 Y41.5513 I-1.0976 J0.5447
G1 X-200.9325 Y41.1979
G1 X-201.0423 Y40.9962
G1 X-201.1667 Y40.7649
G1 X-201.232 Y40.6412
G3 X-201.5602 Y39.9706 I11.8426 J-6.211
G3 X-201.8995 Y39.0338 I5.8148 J-2.6362
G3 X-201.9612 Y38.7748 I4.1802 J-1.1316
G3 X-202.0434 Y38.1706 I3.924 J-0.8415
G2 X-202.3719 Y38.1955 I-0.0567 J1.4311
G2 X-202.6885 Y38.287 I0.3352 J1.7523
G2 X-203.2694 Y38.5908 I1.1144 J2.8385
G1 X-203.4241 Y38.6964
G2 X-203.8157 Y39.0036 I3.5936 J4.9852
G2 X-204.0282 Y39.1919 I3.5563 J4.2279
G2 X-204.5616 Y39.7236 I6.1827 J6.7343
G2 X-204.5942 Y39.7587 I0.3808 J0.3868
G1 X-204.7314 Y39.9093
G2 X-206.641 Y42.4789 I14.7232 J12.9359
G2 X-206.748 Y42.6557 I3.1393 J2.0204
G3 X-206.8308 Y42.7184 I-0.1403 J-0.0994
G3 X-206.9301 Y42.7491 I-0.1973 J-0.4619
G3 X-207.1326 Y42.7782 I-0.3462 J-1.6884
G3 X-207.2681 Y42.7866 I-0.1697 J-1.6433
G3 X-207.4482 Y42.7903 I-0.1582 J-3.3535
G3 X-207.6874 Y42.7865 I-0.0486 J-4.5196
G3 X-208.6336 Y42.7205 I0.492 J-13.8589
G3 X-208.7594 Y42.7077 I0.129 J-1.9025
G1 X-209.0465 Y42.676
G3 X-209.3736 Y42.6353 I1.6936 J-14.9287
G3 X-208.918 Y41.267 I6.9921 J1.5685
G3 X-208.2346 Y39.9971 I9.2358 J4.1512
G3 X-207.7011 Y39.1975 I14.7683 J9.2751
G3 X-207.5527 Y38.9885 I9.0049 J6.2418
G3 X-207.3925 Y38.7671 I8.2476 J5.7972
G1 X-206.5294 Y37.5961
G1 X-206.3028 Y37.2815
G2 X-205.8038 Y36.5498 I-15.5479 J-11.1396
G2 X-205.743 Y36.4552 I-1.583 J-1.0845
G2 X-205.6819 Y36.3587 I-1.5187 J-1.028
G2 X-205.6207 Y36.2601 I-1.4512 J-0.97
G2 X-205.1048 Y35.3329 I-9.4556 J-5.8682
G2 X-204.6425 Y34.2098 I-7.8484 J-3.8868
G2 X-204.3303 Y32.8514 I-7.2932 J-2.3916
G2 X-204.2821 Y31.2493 I-7.9231 J-1.0401
G1 X-204.3179 Y30.5852
G1 X-204.3491 Y29.9209
G1 X-204.3667 Y29.4778
G3 X-204.4054 Y27.7047 I57.1114 J-2.1352
G3 X-204.4053 Y27.198 I18.9657 J-0.2495
G1 X-204.398 Y26.6189
G1 X-204.3908 Y26.3101
G3 X-204.3072 Y24.6648 I32.8889 J0.8455
G3 X-204.0546 Y22.4824 I27.2029 J2.043
G1 X-204.0082 Y22.2026
G3 X-203.7506 Y20.9317 I21.5925 J3.7151
G1 X-203.6713 Y20.6064
G1 X-203.5835 Y20.2722
G3 X-203.1023 Y18.7663 I17.1371 J4.6467
G3 X-203.0674 Y18.6729 I2.0926 J0.7289
G3 X-203.0316 Y18.579 I1.9846 J0.7016
G3 X-202.9951 Y18.4847 I1.8889 J0.6778
G3 X-202.6589 Y17.6886 I12.9138 J4.9835
G3 X-200.1204 Y13.8292 I13.4234 J6.0646
G3 X-199.7157 Y13.4018 I21.2841 J19.7487
G3 X-199.2983 Y12.9869 I11.2543 J10.9063
G3 X-198.4333 Y12.1887 I17.4861 J18.0807
G3 X-198.4053 Y12.1639 I0.1919 J0.1891
G3 X-198.3767 Y12.1388 I0.194 J0.1916
G3 X-198.3477 Y12.1133 I0.1961 J0.194
G3 X-198.0813 Y11.8823 I7.6564 J8.5635
G1 X-197.9381 Y11.7603
G3 X-197.1637 Y11.1232 I18.8054 J22.0676
G3 X-196.106 Y10.3054 I31.6343 J39.8173
G1 X-195.8197 Y10.0929
G3 X-194.2671 Y8.9962 I27.7532 J37.6471
G1 X-193.8462 Y8.7136
G3 X-191.5602 Y7.2724 I32.5125 J49.0353
G3 X-188.4153 Y5.517 I29.9857 J50.0281
G3 X-188.0021 Y5.3043 I28.4164 J54.7032
G1 X-187.5738 Y5.0882
G3 X-182.9019 Y3.0087 I25.1329 J50.1777
G3 X-182.2855 Y2.7728 I9.9536 J25.0895
G3 X-179.4285 Y1.8029 I16.4804 J43.8499
G3 X-176.0873 Y0.9466 I11.2224 J36.8424
G3 X-174.2748 Y0.6235 I6.4169 J30.7552
G1 X-173.8116 Y0.5587
G3 X-171.8232 Y0.3702 I3.4513 J25.8346
G3 X-171.3161 Y0.3473 I1.1611 J20.0622
G3 X-170.1541 Y0.4988 I0.1467 J3.4059
G3 X-169.0965 Y1.0032 I-1.2942 J4.0751
G3 X-168.4717 Y1.4722 I-3.2663 J5.0019
G3 X-167.7303 Y2.197 I-5.4821 J6.3485
G1 X-167.641 Y2.2967
G3 X-166.7669 Y3.4107 I-9.8396 J8.6214
G3 X-166.5526 Y3.721 I-16.6283 J11.7107
G1 X-166.4446 Y3.8827
G1 X-166.3349 Y4.0505
G1 X-166.2234 Y4.2248
G3 X-165.1254 Y6.1103 I-28.9076 J18.0974
G1 X-165.0591 Y6.2319
G3 X-164.9234 Y6.4832 I-8.2038 J4.5958
G1 X-164.7842 Y6.7427
G1 X-164.1542 Y7.9245
G1 X-163.9895 Y8.2279
G3 X-164.3032 Y8.2621 I-0.3858 J-2.0849
G3 X-164.6186 Y8.2637 I-0.1778 J-3.9738
G1 X-164.8287 Y8.2562
G2 X-165.1087 Y8.2456 I-1.097 J25.4255
G2 X-165.1834 Y8.2441 I-0.0581 J1.0373
G1 X-165.3541 Y8.2451
G2 X-165.8062 Y8.3032 I0.0314 J2.0323
G2 X-166.3349 Y8.6207 I0.2492 J1.0136
G2 X-166.5334 Y8.9235 I0.9706 J0.8528
G2 X-166.0511 Y9.4786 I4.735 J-3.6261
G2 X-165.8764 Y9.6507 I4.3826 J-4.2737
G2 X-165.1279 Y10.2834 I6.232 J-6.6136
G1 X-164.903 Y10.4504
G2 X-164.2879 Y10.8734 I11.0421 J-15.3992
G1 X-163.9294 Y11.1041
G2 X-163.516 Y11.3617 I35.0117 J-55.7365
G2 X-163.0415 Y11.6519 I37.0364 J-60.0121
G1 X-162.7884 Y11.8066
G1 X-162.5191 Y11.9726
G1 X-162.2333 Y12.1517
G1 X-161.9309 Y12.3464
G1 X-161.7761 Y12.4488
G1 X-161.6174 Y12.5562
G3 X-160.9124 Y13.0755 I-6.6731 J9.7974
G3 X-160.5556 Y13.3772 I-5.3608 J6.7032
G3 X-159.8209 Y14.1559 I-4.0235 J4.5322
G3 X-159.2068 Y15.2275 I-3.3164 J2.6124
G1 X-166.1242 Y11.1159
G1 X-166.2392 Y10.9367
G1 X-166.353 Y10.7566
G1 X-166.5778 Y10.3949
G1 X-166.7261 Y10.1528
G1 X-166.9227 Y9.8292
G2 X-167.71 Y8.5358 I-109.7595 J65.9259
G1 X-167.9394 Y8.169
G2 X-168.5718 Y7.2039 I-24.1174 J15.1128
G2 X-168.747 Y6.951 I-7.6629 J5.1229
G2 X-169.7475 Y5.6497 I-14.5015 J10.1139
G2 X-170.0368 Y5.3208 I-13.3394 J11.4435
G1 X-170.1905 Y5.1549
G2 X-170.9342 Y4.4357 I-7.6125 J7.1273
G2 X-171.8745 Y3.7146 I-5.7488 J6.5237
G2 X-173.0711 Y3.0681 I-4.0487 J6.0624
G2 X-174.5703 Y2.6196 I-2.7165 J6.3512
G2 X-174.9588 Y2.6281 I-0.1347 J2.7265
G1 X-175.0877 Y2.6403
G2 X-175.6004 Y2.7123 I0.8315 J7.7846
G2 X-175.94 Y2.7737 I1.5328 J9.4464
G1 X-176.0303 Y2.7914
G1 X-176.1266 Y2.8107
G1 X-176.2291 Y2.8319
G2 X-177.8549 Y3.2237 I6.8871 J32.149
G1 X-178.316 Y3.3489
G2 X-181.9578 Y4.4885 I16.5704 J59.3442
G2 X-184.34 Y5.3792 I16.2 J46.9576
G1 X-184.6434 Y5.5041
G1 X-184.7972 Y5.5687
G2 X-186.1815 Y6.2071 I8.2902 J19.7983
G2 X-186.8899 Y6.6079 I3.8283 J7.5914
G2 X-187.2324 Y6.8531 I1.8385 J2.9307
G2 X-187.3901 Y6.9989 I1.119 J1.3677
G2 X-187.6789 Y7.4391 I1.2265 J1.1194
G2 X-187.8226 Y7.9457 I1.8696 J0.8042
G2 X-187.8589 Y8.2947 I3.6622 J0.5569
G1 X-187.8847 Y8.7593
G1 X-187.8963 Y8.8828
G3 X-187.9502 Y9.1606 I-1.8304 J-0.2109
G3 X-188.0994 Y9.4512 I-0.7899 J-0.2219
G3 X-188.4136 Y9.678 I-0.6164 J-0.5227
G3 X-188.6143 Y9.744 I-0.4548 J-1.0458
G3 X-189.095 Y9.806 I-0.5576 J-2.4293
G3 X-189.6326 Y9.7958 I-0.1791 J-4.7532
G2 X-191.8949 Y9.6804 I-1.3395 J4.025
G2 X-192.6255 Y9.9 I1.0865 J4.9386
G2 X-193.5411 Y10.3364 I2.3093 J6.0237
G2 X-194.0345 Y10.6389 I3.7137 J6.613
G1 X-194.1588 Y10.7217
G2 X-196.11 Y12.1892 I13.4949 J19.9751
G2 X-197.8871 Y13.8633 I12.9318 J15.507
G2 X-197.9944 Y13.9788 I1.9045 J1.8776
G2 X-199.0745 Y15.2669 I13.1208 J12.0984
G2 X-199.6338 Y16.0484 I13.1434 J9.9978
G1 X-199.7016 Y16.1499
G2 X-200.9612 Y18.4279 I13.5118 J8.9586
G2 X-202.0585 Y21.7207 I15.7525 J7.0787
G1 X-202.1061 Y21.9362
G2 X-202.4283 Y23.9268 I19.8493 J4.2348
G2 X-202.5723 Y26.2241 I23.2667 J2.6116
G1 X-202.5755 Y26.5163
G1 Y26.8132
G2 X-202.441 Y29.5159 I31.9112 J-0.2339
G2 X-202.0434 Y32.5695 I40.3008 J-3.6947
G1 X-201.6379
G1 X-201.6401 Y32.314
G1 X-201.6425 Y32.0584
G1 X-201.6472 Y31.5473
G1 X-201.6537 Y30.525
G1 X-201.654 Y30.2329
G3 X-201.6088 Y27.8966 I52.8326 J-0.1455
G3 X-201.5732 Y27.2298 I37.1035 J1.6487
G1 X-201.5487 Y26.8746
G3 X-201.3403 Y24.9865 I24.6007 J1.7594
G3 X-200.7976 Y22.5104 I17.909 J2.6284
G3 X-200.7507 Y22.3563 I2.5957 J0.7039
G3 X-200.2449 Y20.9715 I14.2093 J4.4055
G3 X-200.0908 Y20.6232 I9.8333 J4.1434
G1 X-200.0087 Y20.448
G3 X-197.6408 Y17.0535 I11.3798 J5.4151
G3 X-195.8399 Y15.497 I10.2767 J10.0705
G2 X-198.3668 Y19.5803 I17.5245 J13.6686
G2 X-199.9761 Y24.1046 I20.4637 J9.8271
G2 X-200.4959 Y27.2669 I21.6298 J5.1797
G2 X-200.4362 Y31.5383 I20.3912 J1.8511
G2 X-199.9887 Y33.9427 I18.5649 J-2.2115
G2 X-199.094 Y36.5936 I17.666 J-4.486
G0 Z5.0
G0 X-197.6696 Y29.6799
G1 Z0.0
G3 X-197.7512 Y29.2987 I2.2592 J-0.683
G3 X-197.7858 Y28.9104 I3.4938 J-0.5068
G3 X-197.7693 Y28.1325 I7.0638 J-0.2398
G3 X-197.7157 Y27.6167 I8.1708 J0.5891
G3 X-197.6063 Y26.9349 I13.5428 J1.8226
G3 X-197.4081 Y26.0374 I17.2714 J3.3437
G3 X-197.401 Y26.0092 I0.2002 J0.0355
G3 X-197.3938 Y25.9809 I0.2018 J0.0362
G3 X-197.3865 Y25.9523 I0.2034 J0.0368
G3 X-197.3791 Y25.9236 I0.205 J0.0375
G3 X-197.3715 Y25.8946 I0.2066 J0.0382
G3 X-197.3639 Y25.8654 I0.2082 J0.0388
G3 X-196.9961 Y24.6371 I18.9755 J5.0125
G3 X-196.9832 Y24.5988 I0.2818 J0.0734
G3 X-196.9702 Y24.5601 I0.2841 J0.0746
G3 X-196.3486 Y22.9427 I21.4151 J7.3017
G3 X-196.1623 Y22.5199 I20.1888 J8.6436
G3 X-195.0352 Y20.3361 I22.3231 J10.1384
G3 X-193.193 Y17.6355 I19.5945 J11.3878
G3 X-191.9668 Y16.2263 I16.4722 J13.0944
G3 X-190.4111 Y14.7655 I13.6408 J12.9675
G3 X-188.4364 Y13.3327 I11.2618 J13.4451
G3 X-182.3278 Y11.1016 I8.3302 J13.3289
G3 X-178.5833 Y10.9858 I2.4034 J17.118
G2 X-177.823 Y10.9944 I0.4454 J-5.7201
G2 X-177.0733 Y10.8674 I-0.1646 J-3.2469
G2 X-176.6073 Y10.6632 I-0.5705 J-1.9363
G2 X-176.1248 Y10.1771 I-0.6806 J-1.158
G2 X-175.9984 Y9.7958 I-0.8618 J-0.4972
G2 X-176.0101 Y9.2548 I-1.1716 J-0.2454
G2 X-176.2655 Y8.7776 I-1.1775 J0.3233
G2 X-176.5269 Y8.5283 I-1.4409 J1.2494
G2 X-176.928 Y8.2709 I-1.5724 J2.0088
G2 X-177.5007 Y8.0224 I-1.9998 J3.8246
G2 X-178.2831 Y7.7994 I-2.318 J6.6487
G2 X-179.3268 Y7.6239 I-2.2291 J10.0661
G2 X-180.7032 Y7.5407 I-1.3982 J11.7047
G2 X-181.4841 Y7.5682 I-0.0159 J10.6304
G2 X-181.8969 Y7.6163 I0.3472 J4.7771
G1 X-180.8367 Y7.2954
G1 X-180.4831 Y7.1888
G3 X-179.0626 Y6.7845 I11.7981 J38.7612
G3 X-178.1057 Y6.5521 I7.1538 J27.3658
G1 X-177.8488 Y6.4974
G1 X-177.5739 Y6.4431
G3 X-176.0931 Y6.2399 I2.6058 J13.4911
G3 X-175.2387 Y6.2056 I0.8951 J11.6431
G1 X-175.018 Y6.2084
G3 X-174.5472 Y6.2318 I-0.17 J8.16
G3 X-174.0469 Y6.2848 I-0.9371 J11.2541
G3 X-173.5172 Y6.375 I-1.265 J9.022
G3 X-173.4508 Y6.389 I-0.104 J0.6596
G1 X-174.5703 Y7.6163
G2 X-173.7942 Y8.2809 I4.9975 J-5.0512
G2 X-172.9483 Y8.8539 I7.319 J-9.8937
G2 X-172.3643 Y9.2042 I9.111 J-14.5279
G1 X-172.027 Y9.398
G1 X-171.9397 Y9.4477
G3 X-171.0104 Y9.9783 I-48.2057 J85.4983
G3 X-170.4876 Y10.2952 I-12.5725 J21.3321
G3 X-170.3547 Y10.3804 I-3.6685 J5.8707
G3 X-169.7654 Y10.7965 I-4.4743 J6.9621
G3 X-169.6202 Y10.9131 I-1.782 J2.3685
G3 X-169.324 Y11.1787 I-3.2757 J3.9493
G3 X-169.0368 Y11.4927 I-2.5072 J2.5822
G3 X-168.9046 Y11.6689 I-2.2813 J1.8489
G3 X-168.6719 Y12.0811 I-2.0388 J1.4227
G2 X-170.1595 Y11.1997 I-8.7719 J13.1082
G2 X-171.7481 Y10.5169 I-5.7862 J11.2732
G2 X-172.848 Y10.1703 I-6.4277 J18.4785
G1 X-173.1442 Y10.0878
G1 X-173.2973 Y10.0462
G1 X-173.4556 Y10.004
G1 X-173.7936 Y9.9156
G1 X-174.567 Y9.7183
G1 X-174.9795 Y9.6135
G2 X-174.6483 Y10.6897 I4.4881 J-0.7917
G2 X-174.4749 Y11.0237 I3.3241 J-1.5147
G2 X-174.3589 Y11.2049 I2.5793 J-1.5225
G1 X-174.2916 Y11.2979
G2 X-173.8599 Y11.7334 I1.7988 J-1.3512
G3 X-173.8479 Y14.0424 I-4.3208 J1.1771
G3 X-174.1006 Y14.7774 I-5.0311 J-1.3187
G3 X-174.5904 Y15.688 I-5.4925 J-2.3676
G3 X-175.4349 Y16.7692 I-6.7766 J-4.4227
G3 X-176.7656 Y18.0005 I-8.7169 J-8.0858
G3 X-177.592 Y18.6175 I-9.445 J-11.7894
G3 X-178.0465 Y18.9247 I-10.765 J-15.4334
G3 X-179.1092 Y19.5747 I-12.4671 J-19.1895
G3 X-180.3559 Y20.241 I-11.8397 J-20.6561
G1 X-180.6829 Y20.4015
G3 X-181.022 Y20.5624 I-5.6626 J-11.493
G1 X-181.3736 Y20.7236
G3 X-181.5529 Y20.8037 I-1.9764 J-4.1842
G3 X-185.4107 Y22.2249 I-13.3044 J-30.1679
G3 X-187.669 Y22.8107 I-8.8491 J-29.4707
G1 X-187.9149 Y22.8657
G1 X-188.1608 Y22.9213
G1 X-188.3246 Y22.9589
G2 X-188.9784 Y23.1152 I5.8156 J25.7557
G2 X-190.2719 Y23.4812 I4.8009 J19.4368
G2 X-191.113 Y23.7922 I3.7265 J11.3725
G2 X-192.1765 Y24.3411 I2.6515 J6.4424
G2 X-191.442 Y25.0102 I2.4952 J-2.0013
G2 X-190.5576 Y25.4631 I2.5446 J-3.8791
G2 X-189.931 Y25.6767 I2.5117 J-6.3405
G2 X-189.567 Y25.7779 I2.756 J-9.2123
G1 X-189.3718 Y25.8274
G1 X-189.1632 Y25.8776
G2 X-189.0553 Y25.9027 I0.3941 J-1.4488
G1 X-188.5623 Y26.013
G1 X-188.2994 Y26.0708
G1 X-188.0196 Y26.1336
G1 X-187.7221 Y26.2036
G1 X-187.4066 Y26.284
G3 X-186.6974 Y26.5056 I-2.2089 J8.3161
G3 X-185.9294 Y26.87 I-1.4401 J4.0266
G3 X-185.5603 Y27.1378 I-1.5785 J2.5644
G3 X-187.2238 Y27.2872 I-6.2711 J-60.4748
G3 X-187.3348 Y27.2959 I-0.2003 J-1.8482
G1 X-187.9269 Y27.341
G1 X-188.7166 Y27.4006
G1 X-189.1677 Y27.4359
G2 X-190.3695 Y27.5421 I6.4237 J79.5586
G2 X-190.6897 Y27.5749 I0.8955 J10.3266
G1 X-191.0308 Y27.6126
G2 X-192.8423 Y27.8781 I3.0783 J27.3107
G2 X-193.8662 Y28.0956 I3.2586 J17.8645
G2 X-195.0179 Y28.4225 I3.7248 J15.3123
G2 X-196.2943 Y28.921 I3.9963 J12.1158
G2 X-197.6696 Y29.6799 I4.1729 J9.1883
G0 Z5.0
G0 X-164.771 Y23.5193
G1 Z0.0
G3 X-164.7825 Y23.4412 I1.0061 J-0.1884
G3 X-164.7798 Y23.0696 I1.4182 J-0.1753
G3 X-164.651 Y22.5995 I1.7424 J0.2247
G3 X-164.3 Y22.0696 I1.5055 J0.6159
G3 X-164.0028 Y21.8596 I0.7655 J0.7681
G3 X-163.5804 Y21.8009 I0.3035 J0.6343
G3 X-163.2413 Y22.0227 I-0.4216 J1.0146
G3 X-162.9952 Y22.3448 I-1.0052 J1.0229
G3 X-162.8798 Y22.5891 I-1.8293 J1.014
G3 X-162.7688 Y22.9297 I-2.983 J1.1601
G1 X-162.7569 Y22.9744
G1 X-162.7064 Y23.1788
G3 X-162.7115 Y23.368 I-0.4177 J0.0834
G3 X-162.7815 Y23.5438 I-0.7243 J-0.1865
G3 X-163.0109 Y23.8375 I-1.1038 J-0.6254
G3 X-163.6308 Y24.2148 I-1.1445 J-1.1827
G3 X-164.1123 Y24.2685 I-0.3619 J-1.0603
G3 X-164.5742 Y23.9576 I0.2838 J-0.9204
G3 X-164.771 Y23.5193 I0.8093 J-0.6268
G0 Z5.0
G0 X86.9379 Y175.2861
G1 Z0.0
G1 X100.5832 Y178.7783
G3 X100.3401 Y184.8672 I-303.2356 J-9.0599
G3 X100.2953 Y185.7366 I-217.9804 J-10.7724
G1 X100.2705 Y186.2003
G1 X100.2431 Y186.6948
G1 X100.213 Y187.2222
G1 X100.1406 Y188.4275
G3 X99.3792 Y198.0567 I-284.4901 J-17.6499
G1 X99.319 Y198.6771
G3 X98.5985 Y205.2853 I-311.8418 J-30.659
G1 X98.5481 Y205.7044
G3 X97.356 Y214.6287 I-372.4117 J-45.203
G1 X97.1877 Y215.7782
G1 X97.101 Y216.3619
G1 X96.9199 Y217.5666
G3 X96.3108 Y217.5453 I-0.1345 J-4.8714
G3 X95.7064 Y217.4674 I0.7423 J-8.1415
G3 X94.5155 Y217.2135 I2.2633 J-13.5342
G1 X94.1793 Y217.1239
G3 X91.5549 Y216.2185 I6.3065 J-22.5365
G3 X89.8725 Y215.4492 I8.9631 J-21.8269
G1 X89.8205 Y215.4226
G1 X89.7683 Y215.3957
G3 X88.8302 Y214.8728 I7.1018 J-13.8439
G3 X87.8139 Y214.183 I5.4611 J-9.139
G3 X87.3172 Y213.7536 I4.0708 J-5.2108
G3 X86.8646 Y213.2133 I2.1403 J-2.2525
G3 X86.7011 Y212.8827 I1.2871 J-0.8424
G3 X86.6479 Y212.4919 I0.8779 J-0.3185
G1 X88.4627 Y212.8397
G2 X88.8167 Y213.4455 I2.2727 J-0.9217
G2 X89.3075 Y213.9467 I2.724 J-2.176
G2 X89.6812 Y214.2278 I2.907 J-3.4763
G2 X90.2141 Y214.5481 I3.7596 J-5.6513
G2 X90.249 Y214.5667 I0.1624 J-0.263
G2 X90.3988 Y214.6436 I1.6931 J-3.1106
G2 X91.2179 Y215.0013 I4.3753 J-8.903
G2 X91.4411 Y215.0842 I1.6771 J-4.1752
G2 X92.6469 Y215.4572 I4.9024 J-13.7116
G1 X92.9724 Y215.5411
G1 X93.3205 Y215.6248
G1 X93.6926 Y215.7085
G1 X93.7873 Y215.729
G2 X93.9828 Y215.7703 I1.107 J-4.7489
G1 X94.3996 Y215.8556
G1 X94.8436 Y215.9461
G3 X95.0716 Y215.9972 I-0.966 J4.8498
G1 X96.0943 Y215.3798
G1 X97.6228 Y203.3894
G1 X96.5072 Y202.4188
G3 X96.0461 Y204.7063 I-49.3394 J-8.7549
G1 X95.9733 Y205.0317
G1 X95.7761 Y205.8986
G1 X95.514 Y207.0546
G2 X95.4809 Y207.204 I4.7571 J1.1333
G2 X95.447 Y207.3582 I4.0894 J0.9802
G2 X95.1108 Y209.0084 I57.8315 J12.6386
G2 X95.0916 Y209.1136 I1.5238 J0.3333
G2 X94.7687 Y211.3724 I26.9723 J5.0081
G2 X94.6792 Y212.6741 I20.3176 J2.0515
G1 X94.6736 Y212.8397
G1 X94.5486 Y212.8561
G3 X94.423 Y212.8658 I-0.1952 J-1.7111
G3 X94.3391 Y212.8693 I-0.0986 J-1.3525
G3 X94.0033 Y212.8659 I-0.1318 J-3.4741
G3 X93.3352 Y212.8037 I0.4525 J-8.4815
G1 X93.1455 Y212.7765
G3 X91.6497 Y212.4575 I2.106 J-13.5422
G3 X91.2291 Y212.339 I3.8396 J-14.4321
G3 X90.125 Y211.9701 I4.8946 J-16.4849
G3 X88.7024 Y211.3532 I4.9392 J-13.3385
G1 X88.5243 Y211.2619
G3 X87.7317 Y210.8046 I5.3795 J-10.2381
G1 X87.5344 Y210.6747
G3 X86.6861 Y210.0037 I3.73 J-5.5876
G3 X86.2877 Y209.5838 I3.134 J-3.3716
G3 X85.93 Y209.076 I2.5744 J-2.1934
G1 X85.9186 Y208.0573
G1 X85.9149 Y207.7177
G1 X85.9007 Y206.3594
G1 X85.877 Y203.6428
G1 X85.8666 Y201.8317
G3 X85.8971 Y194.5871 I391.477 J-1.9706
G1 X85.9126 Y193.6212
G3 X85.9603 Y191.4139 I191.2742 J3.0287
G3 X86.1812 Y185.5301 I251.9002 J6.5093
G3 X86.1858 Y185.4378 I1.3054 J0.0194
G3 X86.1905 Y185.3452 I1.3054 J0.0197
G3 X86.1953 Y185.2522 I1.3054 J0.0201
G3 X86.2001 Y185.1588 I1.3054 J0.0204
G1 X86.2413 Y184.3882
G1 X86.2866 Y183.5928
G1 X86.3107 Y183.1889
G3 X86.5666 Y179.4981 I197.4356 J11.8308
G3 X86.9379 Y175.2861 I223.8422 J17.6095
G0 Z5.0
M5
M30
G0 X129.0009 Y218.2231
G1 F1.0 Z0.0
G1 X128.9617 Y218.2208
G2 X128.9226 Y218.2186 I-0.0311 J0.2046
G1 X128.8442 Y218.2146
G1 X128.7919 Y218.2121
G1 X128.5829 Y218.2039
G1 X128.4434 Y218.1995
G1 X128.2575 Y218.195
G1 X128.0095 Y218.1908
G1 X127.6789 Y218.1878
G2 X126.3565 Y218.1962 I-0.245 J65.1467
G1 X125.9787 Y218.203
G2 X122.9581 Y218.3023 I2.3927 J118.8365
G2 X116.9262 Y218.6731 I7.7234 J174.8496
G1 X116.5375 Y218.705
G1 X116.3401 Y218.7216
G1 X116.2406 Y218.7301
G1 X115.3923 Y218.8058
G2 X113.456 Y219.0065 I6.6844 J73.9296
G1 X112.9572 Y219.0665
G1 X112.704 Y219.0986
G1 X112.447 Y219.1325
G2 X112.3175 Y219.1501 I0.5294 J4.3687
G2 X111.2155 Y219.3199 I4.2878 J31.5065
G2 X110.9367 Y219.3703 I1.5777 J9.5027
G1 X110.6545 Y219.4262
G1 X109.7567 Y219.6088
G1 X109.6283 Y219.6341
G1 X109.4814 Y219.6628
G1 X109.0895 Y219.7371
G3 X107.5143 Y219.9911 I-6.1547 J-33.1512
G3 X106.4565 Y220.1033 I-2.5733 J-19.2274
G3 X105.0382 Y220.149 I-1.203 J-15.3084
G3 X103.1531 Y219.9672 I0.1731 J-11.6588
G3 X100.736 Y219.2164 I1.8904 J-10.3525
G3 X99.4527 Y218.5392 I4.5979 J-10.2682
G3 X99.6386 Y216.966 I2.2408 J-0.5328
G3 X99.9208 Y216.5089 I2.4865 J1.2197
G3 X100.1143 Y216.2709 I3.7841 J2.8794
G3 X100.7037 Y215.7135 I3.5346 J3.1471
G3 X101.0732 Y215.4367 I3.4439 J4.2116
G3 X102.1136 Y214.8143 I5.4789 J7.9776
G3 X102.7323 Y214.5136 I5.4619 J10.4506
G3 X103.0666 Y214.366 I4.1066 J8.8516
G1 X103.152 Y214.3298
G1 X103.2389 Y214.2934
G3 X104.0341 Y213.9844 I6.2659 J14.947
G3 X106.1608 Y213.3123 I9.6171 J26.7289
G3 X106.7333 Y213.1597 I5.5366 J19.6212
G3 X109.7651 Y212.4906 I11.5725 J45.2308
G1 X110.1584 Y212.4178
G3 X114.3179 Y211.802 I11.9364 J66.2732
G3 X116.632 Y211.5967 I5.0099 J43.3203
G3 X118.9537 Y211.5121 I2.954 J49.1728
G1 X119.2635 Y211.5091
G1 X119.5939 Y211.5078
G1 X119.9464 Y211.5088
G3 X125.5739 Y211.8192 I-0.4505 J59.3248
G3 X129.2987 Y212.3165 I-5.9642 J58.8673
G1 X129.4155 Y212.336
G3 X134.3525 Y213.3917 I-8.8504 J53.4611
G3 X135.6493 Y213.7558 I-12.8873 J48.3832
G3 X138.5642 Y214.7489 I-10.4639 J35.4872
G1 X138.6542 Y214.7842
G3 X140.1714 Y215.4331 I-9.5848 J24.5104
G3 X140.9375 Y215.8065 I-8.3771 J18.1586
G3 X141.7123 Y216.2245 I-9.223 J18.0219
G3 X143.2888 Y217.2552 I-7.0291 J12.4734
G3 X144.0375 Y217.8811 I-5.9371 J7.8616
G3 X144.734 Y218.617 I-5.2404 J5.6571
G3 X145.3225 Y219.4967 I-4.0659 J3.357
G3 X145.5432 Y219.9938 I-3.5873 J1.8897
G3 X145.7563 Y221.1351 I-3.2189 J1.1918
G3 X145.534 Y222.3885 I-3.5234 J0.0215
G3 X145.2556 Y222.9997 I-4.1423 J-1.5179
G3 X144.8778 Y223.5953 I-5.0592 J-2.7918
G3 X143.424 Y225.2069 I-8.2533 J-5.9836
G3 X141.6569 Y226.4669 I-6.5245 J-7.2808
G3 X137.5026 Y227.6343 I-4.5304 J-8.1469
G1 X138.2205 Y222.5576
G2 X136.5606 Y220.7715 I-7.9155 J5.6919
G2 X134.5018 Y219.465 I-6.1749 J7.4546
G2 X132.9827 Y218.8815 I-4.7565 J10.115
G1 X132.7812 Y218.8217
G2 X130.5933 Y218.3728 I-4.1628 J14.7312
G2 X129.3253 Y218.2441 I-2.5541 J18.8569
G2 X129.2451 Y218.2385 I-0.1014 J0.8749
G2 X129.1644 Y218.2331 I-0.0993 J0.8834
G2 X129.0829 Y218.228 I-0.0972 J0.8922
G2 X129.0009 Y218.2231 I-0.095 J0.9013
G0 Z5.0
G0 X130.3919 Y220.9492
G1 Z0.0
G3 X131.5216 Y220.8362 I1.2038 J6.3306
G3 X132.6525 Y220.9357 I0.0753 J5.6212
G3 X134.7276 Y221.8323 I-0.9481 J5.0435
G3 X135.7905 Y222.9145 I-2.7412 J3.7553
G3 X136.2018 Y223.684 I-3.0511 J2.1258
G3 X136.3318 Y224.1341 I-2.668 J1.0141
G3 X136.3663 Y224.6385 I-1.9591 J0.3874
G3 X136.2142 Y225.1745 I-1.2646 J-0.0693
G3 X135.7307 Y225.612 I-0.8983 J-0.5067
G3 X135.3829 Y225.717 I-0.5656 J-1.2453
G2 X134.1744 Y225.294 I-4.2874 J10.311
G2 X132.9292 Y224.9965 I-4.1245 J14.5059
G2 X132.0877 Y224.8532 I-3.7021 J19.2023
G2 X130.9586 Y224.7143 I-3.8521 J26.6443
G2 X129.4477 Y224.5932 I-4.1092 J41.7888
G2 X129.3516 Y224.5872 I-0.1389 J1.452
G2 X129.254 Y224.5812 I-0.1417 J1.5216
G1 X128.8376 Y224.5574
G1 X128.3935 Y224.5339
G1 X127.3788 Y224.4837
G1 X126.8377 Y224.4561
G1 X126.2609 Y224.4237
G1 X125.6462 Y224.3837
G3 X125.4285 Y224.3549 I0.1209 J-1.7543
G3 X125.2193 Y224.2878 I0.1457 J-0.813
G3 X125.1034 Y224.1962 I0.1262 J-0.2788
G3 X125.0821 Y224.1095 I0.0978 J-0.07
G3 X125.1445 Y224.0114 I0.1667 J0.0371
G3 X125.2643 Y223.9408 I0.2981 J0.3693
G3 X125.4023 Y223.8968 I0.4126 J1.0544
G3 X125.7205 Y223.8575 I0.3742 J1.723
G1 X125.95 Y223.8493
G1 X126.0266 Y223.8472
G1 X126.3329 Y223.8417
G1 X126.4205 Y223.8409
G3 X127.1206 Y223.8472 I0.0414 J34.6687
G3 X128.5193 Y223.9109 I-0.941 J36.0122
G1 X128.7057 Y223.923
G1 X129.1313 Y223.9526
G1 X129.6176 Y223.9883
G1 X129.877 Y224.0076
G1 X130.1537 Y224.028
G1 X130.4489 Y224.0491
G2 X132.0244 Y224.1345 I2.9425 J-39.6924
G2 X131.6126 Y223.6324 I-1.525 J0.8308
G2 X131.0545 Y223.3001 I-1.3912 J1.7017
G2 X130.8808 Y223.2338 I-0.8275 J1.9075
G2 X130.4051 Y223.1025 I-1.325 J3.8739
G1 X130.2762 Y223.0761
G2 X129.5885 Y222.9725 I-1.7334 J9.1763
G2 X129.4046 Y222.9512 I-0.8502 J6.5264
G1 X128.9859 Y222.9054
G3 X128.8892 Y222.8889 I0.0558 J-0.6183
G3 X128.7969 Y222.8557 I0.0596 J-0.3102
G3 X128.7478 Y222.8114 I0.0646 J-0.1211
G3 X128.7516 Y222.7172 I0.0864 J-0.0437
G3 X128.828 Y222.6211 I0.3257 J0.1806
G3 X128.9431 Y222.5276 I0.6458 J0.6768
G3 X129.0789 Y222.4406 I0.7991 J1.0976
G1 X131.3066 Y222.301
G2 X131.3444 Y221.9465 I-0.9381 J-0.2791
G2 X131.2296 Y221.609 I-0.7455 J0.0652
G2 X131.0794 Y221.4235 I-0.894 J0.5703
G2 X130.8356 Y221.2235 I-1.2276 J1.2477
G2 X130.4864 Y221.0043 I-2.9449 J4.3035
G1 X130.3919 Y220.9492
G0 Z5.0
G0 X130.2251 Y226.042
G1 Z0.0
G3 X131.1192 Y226.0887 I-0.7566 J23.0923
G1 X131.3503 Y226.1077
G3 X132.5765 Y226.2707 I-1.1008 J12.9746
G3 X132.9002 Y226.3347 I-1.1124 J6.4816
G3 X133.6318 Y226.5201 I-2.1827 J10.1491
G3 X134.4459 Y226.8087 I-2.1939 J7.4816
G3 X135.3295 Y227.2541 I-2.5908 J6.239
G3 X135.3829 Y227.2865 I-0.4873 J0.8615
G3 X134.4174 Y227.685 I-1.6786 J-2.6979
G3 X133.3775 Y227.7815 I-0.891 J-3.9523
G3 X132.6843 Y227.717 I0.1599 J-5.4827
G3 X131.78 Y227.5252 I1.2397 J-8.0712
G3 X130.6122 Y227.1561 I4.0569 J-14.8683
G1 X130.3058 Y227.0447
G1 X129.9807 Y226.9224
G1 X129.8983 Y226.8909
G1 X129.7285 Y226.8255
G1 X129.5536 Y226.7578
G1 X129.4648 Y226.7232
G2 X128.6554 Y226.4119 I-20.9804 J53.3361
G1 X128.4456 Y226.3343
G1 X128.2286 Y226.2564
G2 X127.7627 Y226.1011 I-3.3669 J9.3281
G2 X127.6434 Y226.0648 I-1.0396 J3.1981
G1 X128.2136 Y226.0473
G1 X128.784 Y226.0348
G1 X129.1643 Y226.0305
G1 X129.3817 Y226.0298
G3 X130.2251 Y226.042 I0.0868 J23.1045
G0 Z5.0
G0 X140.0541 Y229.2093
G1 Z0.0
G3 X140.5589 Y228.8667 I4.8352 J6.5826
G3 X141.095 Y228.5756 I2.6179 J4.1815
G3 X141.4757 Y228.4312 I1.1419 J2.4366
G3 X142.0141 Y228.3498 I0.5341 J1.7125
G3 X142.7094 Y228.6049 I0.0002 J1.0745
G1 Y230.1744
G1 X140.0541 Y229.2093
G0 Z5.0
G0 X145.2556 Y228.385
G1 Z0.0
G3 X145.2274 Y227.8318 I2.5786 J-0.4086
G3 X145.4171 Y226.9688 I2.869 J0.1784
G3 X145.8993 Y226.0775 I3.7975 J1.4784
G3 X146.6479 Y225.2113 I4.9986 J3.5634
G2 X147.2212 Y224.4777 I-2.3814 J-2.4516
G2 X147.5997 Y223.627 I-3.7095 J-2.1602
G2 X147.7541 Y223.0256 I-5.2086 J-1.6572
G2 X147.8557 Y222.2059 I-5.9581 J-1.1552
G2 X147.8371 Y221.1089 I-7.6283 J-0.4191
G2 X147.5922 Y219.6751 I-9.1678 J0.8284
G2 X147.4905 Y219.3009 I-9.451 J2.367
G2 X146.7315 Y217.3982 I-10.6503 J3.146
G2 X145.2218 Y215.1553 I-9.9431 J5.0628
G2 X144.1301 Y214.0669 I-8.0808 J7.0142
G1 X143.8708 Y213.214
G1 X143.7816 Y212.9306
G1 X143.6579 Y212.5542
G2 X143.4814 Y212.0563 I-16.7799 J5.6697
G2 X143.3729 Y211.7745 I-11.0032 J4.0745
G2 X143.2408 Y211.4558 I-10.1436 J4.0168
G2 X143.1664 Y211.2874 I-5.0857 J2.148
G2 X142.7129 Y210.4163 I-7.2872 J3.2395
G2 X141.9202 Y209.3709 I-4.9778 J2.9516
G2 X140.4668 Y208.3749 I-3.105 J2.9725
G3 X140.1373 Y207.8923 I1.0208 J-1.0507
G3 X140.0524 Y207.3142 I1.1987 J-0.4714
G3 X140.1178 Y206.9294 I2.2588 J0.1859
G3 X140.2778 Y206.4404 I4.8893 J1.3289
G1 X140.3816 Y206.1677
G1 X140.4358 Y206.0223
G1 X140.4904 Y205.8669
G2 X140.5897 Y205.5069 I-2.5636 J-0.9009
G2 X140.6206 Y205.0822 I-1.511 J-0.3234
G2 X140.4668 Y204.6112 I-1.0392 J0.0786
G3 X142.4132 Y203.7931 I9.2788 J19.3523
G1 X142.5455 Y203.7449
G3 X144.6915 Y203.0622 I10.3752 J28.8997
G3 X149.0926 Y202.1263 I9.9648 J36.0436
G3 X152.0763 Y201.8121 I4.8245 J31.491
G3 X152.1708 Y201.807 I0.1099 J1.1704
G1 X159.1925 Y216.2538
G3 X159.101 Y217.7473 I-58.3059 J-2.8229
G3 X159.0625 Y218.2445 I-33.0813 J-2.3122
G3 X158.8703 Y220.2303 I-65.3321 J-5.3193
G3 X158.3003 Y224.1789 I-60.5192 J-6.7208
G3 X157.7564 Y226.7829 I-42.3233 J-7.4825
G3 X157.3628 Y228.2516 I-28.3683 J-6.8149
G1 X144.8294 Y206.1881
G1 X144.1301 Y206.8054
G1 X144.521 Y207.7734
G1 X144.9123 Y208.7413
G1 X145.6989 Y210.6754
G2 X147.3051 Y214.5299 I285.3211 J-116.6347
G2 X147.3572 Y214.6518 I5.2684 J-2.1768
G2 X147.4101 Y214.7757 I5.3162 J-2.2002
G2 X147.464 Y214.9014 I5.3637 J-2.2236
G2 X148.6363 Y217.5744 I137.9806 J-58.9208
G2 X148.7123 Y217.7434 I6.081 J-2.6356
G2 X148.7898 Y217.915 I6.0997 J-2.6517
G2 X148.8688 Y218.0892 I6.1156 J-2.6669
G2 X150.6151 Y221.7765 I110.1654 J-49.9153
G2 X153.1678 Y226.5812 I81.6784 J-40.3151
G2 X154.7658 Y229.2492 I62.8605 J-35.8376
G2 X154.8177 Y229.3318 I2.0293 J-1.2182
G2 X154.87 Y229.4147 I2.0207 J-1.2164
G2 X154.9226 Y229.4978 I2.0121 J-1.2146
G2 X154.9755 Y229.5812 I2.0035 J-1.2128
G2 X155.0287 Y229.6649 I1.995 J-1.211
G2 X155.0823 Y229.7488 I1.9866 J-1.2093
G2 X155.5291 Y230.4385 I34.5023 J-21.862
G2 X154.663 Y230.6219 I5.7823 J29.4403
G1 X154.3754 Y230.6882
G1 X153.9924 Y230.7783
G3 X153.4816 Y230.8983 I-21.1941 J-89.0383
G3 X152.7992 Y231.0522 I-13.2092 J-56.9879
G1 X152.4079 Y231.134
G3 X151.3573 Y231.3156 I-3.7755 J-18.7114
G1 X151.2209 Y231.3339
G3 X149.7549 Y231.4224 I-1.3224 J-9.7166
G3 X149.363 Y231.4035 I0.0594 J-5.3001
G3 X148.1288 Y231.166 I0.4141 J-5.477
G3 X146.9802 Y230.6562 I1.5978 J-5.1489
G3 X146.3008 Y230.1631 I2.1895 J-3.7308
G3 X145.5842 Y229.3007 I2.275 J-2.6194
G3 X145.2556 Y228.385 I2.2499 J-1.3244
G0 Z5.0
G0 X159.4909 Y231.3529
G1 Z0.0
G2 X159.8951 Y229.2558 I-69.1744 J-14.4221
G2 X160.4391 Y225.7668 I-86.6086 J-15.291
G2 X160.7305 Y223.4308 I-95.6568 J-13.1194
G2 X160.8763 Y222.0935 I-168.509 J-19.0437
G2 X160.885 Y222.0092 I-2.3269 J-0.2838
G2 X160.8938 Y221.9242 I-2.3283 J-0.2829
G2 X160.9026 Y221.8386 I-2.3297 J-0.282
G2 X160.9114 Y221.7522 I-2.3312 J-0.2811
G2 X160.9202 Y221.6652 I-2.3328 J-0.2803
G1 X160.9934 Y220.9227
G2 X161.335 Y216.9587 I-235.0844 J-22.2589
G1 X161.4164 Y215.9008
G1 X161.595 Y213.4826
G1 X161.6404 Y212.8585
G1 X161.7378 Y211.5272
G1 X161.8441 Y210.1074
G1 X161.9622 Y208.5934
G1 X162.0259 Y207.8122
G1 X162.094 Y207.0061
G1 X162.1673 Y206.1742
G1 X162.2464 Y205.3158
G1 X162.2881 Y204.8799
G1 X162.3315 Y204.4372
G1 X162.3768 Y203.9876
G3 X162.8556 Y199.8843 I135.7546 J13.7618
G3 X163.0991 Y199.8782 I0.1628 J1.6459
G3 X163.3395 Y199.9176 I-0.0563 J1.0955
G3 X163.72 Y200.2184 I-0.1647 J0.5993
G3 X163.8254 Y200.5305 I-0.8958 J0.4763
G3 X163.8619 Y200.957 I-2.8014 J0.4549
G1 X163.8636 Y201.197
G3 X163.8585 Y201.4233 I-6.2454 J-0.028
G3 X163.8577 Y201.4556 I-0.2445 J0.0101
G3 X163.8567 Y201.4927 I-0.2626 J0.0118
G1 X163.8483 Y201.7883
G1 X163.8274 Y202.3794
G1 X163.8106 Y202.7734
G1 X163.7851 Y203.2985
G1 X163.7691 Y203.5985
G1 X163.7602 Y203.7584
G1 X163.7081 Y204.6115
G1 X163.6753 Y205.0987
G1 X163.6353 Y205.6553
G1 X163.5867 Y206.2912
G1 X163.5277 Y207.0177
G1 X163.4561 Y207.8477
G3 X163.437 Y208.0618 I-10.1524 J-0.7996
G1 X163.417 Y208.2829
G1 X163.3221 Y209.2928
G1 X163.2074 Y210.4465
G1 X163.0693 Y211.7642
G3 X162.6691 Y215.2744 I-341.569 J-37.1636
G1 X162.5556 Y216.2096
G1 X162.5411 Y216.3275
G3 X161.8879 Y221.3489 I-380.7748 J-46.9795
G1 X161.7989 Y221.9962
G1 X161.6056 Y223.3766
G1 X161.3941 Y224.8483
G1 X161.1622 Y226.4171
G3 X160.5996 Y229.9979 I-250.9235 J-37.5875
G1 X160.5223 Y230.4517
G1 X160.4398 Y230.9119
G3 X160.3943 Y231.1432 I-4.9947 J-0.8612
G1 X160.3677 Y231.2585
G3 X160.084 Y231.923 I-2.6905 J-0.7557
G3 X159.6058 Y232.4648 I-1.6753 J-0.9969
G3 X159.1925 Y232.7164 I-1.3433 J-1.7413
G2 X159.4909 Y231.3529 I-68.876 J-15.7856
G0 Z5.0
G0 X159.1925 Y210.9151
G1 Z0.0
G1 X154.4022 Y200.8493
G1 X156.232 Y198.9191
G2 X157.1336 Y199.1523 I2.4924 J-7.778
G2 X157.4389 Y199.2095 I1.7623 J-8.5486
G2 X158.6686 Y199.3783 I3.6617 J-22.1161
G3 X159.4896 Y199.4801 I-4.4537 J39.2949
G3 X159.9554 Y199.5612 I-0.9699 J6.9445
G3 X160.2003 Y199.622 I-0.7891 J3.704
G3 X160.2511 Y201.0996 I-48.9706 J2.4226
G1 X160.2576 Y201.5924
G3 X160.2581 Y202.2495 I-34.0383 J0.3506
G3 X160.1608 Y204.8757 I-40.8084 J-0.1957
G1 X160.1488 Y205.0449
G3 X160.0846 Y205.8174 I-28.1515 J-1.9518
G3 X159.8326 Y207.8693 I-32.9039 J-3.0006
G1 X159.7908 Y208.1328
G3 X159.1925 Y210.9151 I-26.7642 J-4.3
G0 Z5.0
G0 X157.6676 Y198.0377
G1 Z0.0
G1 X155.8193
G1 X155.739 Y198.018
G1 X155.6583 Y197.9996
G2 X155.4967 Y197.9648 I-1.5055 J6.5926
G1 X155.4504 Y197.9549
G1 X155.3274 Y197.9279
G3 X154.8428 Y197.7896 I0.7119 J-3.4134
G3 X154.5434 Y197.6352 I0.4263 J-1.1946
G3 X154.4013 Y197.5026 I0.4397 J-0.6132
G3 X154.301 Y197.2985 I0.4013 J-0.324
G3 X154.2995 Y197.0285 I0.6465 J-0.1384
G3 X154.4022 Y196.7323 I1.1463 J0.2313
G2 X154.8595 Y196.5514 I-1.3928 J-4.1902
G2 X155.0057 Y196.4771 I-0.6994 J-1.5557
G2 X155.1905 Y196.3599 I-0.754 J-1.3941
G2 X155.394 Y196.1489 I-0.4314 J-0.6195
G2 X155.4464 Y195.9852 I-0.3105 J-0.1896
G2 X155.3937 Y195.7834 I-0.3576 J-0.0144
G2 X155.233 Y195.5949 I-0.646 J0.3881
G2 X155.0093 Y195.4328 I-1.0125 J1.1615
G2 X154.4022 Y195.1498 I-1.7382 J2.9356
G3 X146.5179 Y193.1172 I110.8074 J-446.1283
G3 X138.6647 Y190.9676 I183.8192 J-686.9593
G1 X136.4251 Y190.3383
G1 X135.2312 Y190.0007
G1 X132.5037 Y189.2242
G3 X132.4181 Y189.1998 I0.7107 J-2.6484
G1 X129.2906 Y188.3025
G3 X125.7178 Y187.2716 I640.6993 J-2227.1366
G1 X121.6357 Y186.0902
G1 X120.5822 Y185.7853
G1 X118.3346 Y185.1354
G1 X115.9368 Y184.4439
G1 X113.3783 Y183.7091
G1 X113.0559 Y183.6167
G1 X111.7244 Y183.2363
G1 X108.8827 Y182.4295
G1 X107.4152 Y182.016
G1 X105.8997 Y181.5916
G1 X104.3345 Y181.1563
G1 X102.7178 Y180.7104
G3 X102.5954 Y180.5176 I0.2464 J-0.2918
G3 X102.5834 Y180.2896 I0.5419 J-0.1429
G3 X102.7801 Y179.8942 I0.7148 J0.109
G3 X103.0302 Y179.7376 I0.4389 J0.4233
G3 X103.421 Y179.7435 I0.1864 J0.6053
G1 X104.7719 Y180.1222
G1 X106.1232 Y180.4998
G1 X107.0242 Y180.751
G1 X108.2258 Y181.0852
G1 X109.8282 Y181.53
G1 X116.2393 Y183.3025
G1 X120.5137 Y184.4829
G3 X126.2117 Y186.0614 I-715.2575 J2592.9489
G1 X129.4664 Y186.9682
G1 X133.1843 Y188.0105
G1 X135.1663 Y188.5696
G1 X137.2796 Y189.1689
G1 X139.5328 Y189.8118
G3 X139.8166 Y189.8931 I-4.2571 J15.4003
G3 X140.1027 Y189.9751 I-5.371 J19.2769
G3 X140.3909 Y190.0578 I-8.2133 J29.1702
G1 X140.9765 Y190.226
G1 X142.1851 Y190.5743
G3 X155.0483 Y194.3872 I-241.9067 J839.6921
G1 X156.7033 Y194.8951
G1 X156.9109 Y194.9592
G1 X157.1194 Y195.0236
G1 X158.8393 Y195.5579
G1 X160.6132 Y196.1149
G1 X162.4429 Y197.6899
G3 X162.0484 Y197.7395 I-0.439 J-1.8973
G3 X161.6513 Y197.7195 I-0.0559 J-2.8391
G3 X160.8778 Y197.5488 I0.6548 J-4.8067
G3 X160.3756 Y197.3886 I4.0267 J-13.4914
G1 X160.0904 Y197.2928
G1 X159.7642 Y197.1859
G2 X159.3886 Y197.0744 I-2.4412 J7.5346
G2 X158.9528 Y196.9724 I-1.3625 J4.8381
G2 X158.445 Y196.9089 I-0.717 J3.6751
G2 X158.2864 Y196.9477 I-0.0079 J0.3112
G2 X158.1537 Y197.0428 I0.3233 J0.5918
G2 X157.949 Y197.2897 I0.9157 J0.9671
G2 X157.6927 Y197.8601 I1.633 J1.0768
G2 X157.6676 Y198.0377 I0.7462 J0.1958
G0 Z5.0
G0 X152.5836 Y197.0856
G1 Z0.0
G2 X152.111 Y197.338 I6.5154 J12.7683
G1 X151.6438 Y197.6006
G1 X151.3332 Y197.777
G3 X150.075 Y198.4541 I-11.9836 J-20.7627
G1 X149.9035 Y198.5372
G3 X148.9668 Y198.9322 I-4.5998 J-9.6
G3 X147.6531 Y199.2748 I-2.3767 J-6.4224
G3 X146.8768 Y199.3375 I-0.8496 J-5.6819
G3 X144.8294 Y198.9191 I-0.0322 J-5.0612
G2 X145.7293 Y198.5689 I-2.6713 J-8.1976
G2 X146.5788 Y198.1096 I-2.7827 J-6.1609
G2 X147.0996 Y197.7302 I-2.6898 J-4.2401
G2 X147.3741 Y197.4843 I-4.1567 J-4.9158
G2 X147.9948 Y196.7213 I-2.8271 J-2.9337
G2 X148.4925 Y195.5031 I-3.3107 J-2.0635
G2 X148.7084 Y195.5517 I1.6307 J-6.7346
G2 X148.9255 Y195.5943 I0.8421 J-3.723
G1 X149.0708 Y195.6201
G1 X149.2648 Y195.6524
G1 X150.042 Y195.7741
G3 X150.558 Y195.8675 I-1.5635 J10.1021
G3 X150.8504 Y195.9331 I-0.9147 J4.7673
G1 X150.8874 Y195.9423
G3 X151.6554 Y196.2087 I-0.9451 J3.9642
G3 X151.8477 Y196.3104 I-1.0127 J2.1479
G3 X152.2467 Y196.612 I-0.9817 J1.7137
G3 X152.5836 Y197.0856 I-1.139 J1.1669
G0 Z5.0
G0 X146.3193 Y195.565
G1 Z0.0
G3 X146.305 Y195.6204 I-1.8172 J-0.4411
G3 X145.9999 Y196.2826 I-2.1703 J-0.5983
G3 X145.6974 Y196.6634 I-2.4375 J-1.6257
G3 X145.2143 Y197.0908 I-2.5194 J-2.3613
G3 X144.481 Y197.5265 I-2.5677 J-3.4863
G3 X143.4189 Y197.8927 I-2.2519 J-4.8089
G3 X141.9515 Y198.0387 I-1.3014 J-5.6324
G3 X140.0541 Y197.6899 I0.1739 J-6.2812
G2 X140.4655 Y196.774 I-2.7054 J-1.7657
G2 X140.5732 Y195.7759 I-3.2481 J-0.8553
G2 X140.4961 Y195.1104 I-4.5085 J0.1852
G2 X140.4119 Y194.7374 I-5.1526 J0.9667
G2 X140.2887 Y194.3189 I-8.1799 J2.1805
G1 X140.2137 Y194.0991
G2 X139.7489 Y192.963 I-15.6716 J5.7478
G1 X146.3578 Y194.8932
G3 X146.3193 Y195.565 I-1.8557 J0.2308
G0 Z5.0
G0 X139.0311 Y196.1149
G1 Z0.0
G1 X136.3906 Y194.8932
G2 X135.7961 Y195.129 I0.6493 J2.5043
G2 X135.2769 Y195.5024 I1.1124 J2.0944
G2 X135.0129 Y195.8395 I1.0282 J1.0771
G2 X134.8853 Y196.4035 I0.8434 J0.4872
G2 X134.9701 Y196.7323 I1.0895 J-0.1057
G2 X135.1784 Y196.9696 I0.8131 J-0.5038
G2 X135.4638 Y197.1047 I0.4246 J-0.5281
G2 X135.6748 Y197.1222 I0.1861 J-0.9593
G2 X135.9518 Y197.0813 I-0.0575 J-1.3472
G2 X136.301 Y196.9697 I-0.7297 J-2.8847
G1 X136.4941 Y196.8943
G1 X136.7116 Y196.8082
G1 X136.8278 Y196.7649
G3 X137.096 Y196.6844 I0.6957 J1.8291
G3 X137.4135 Y196.6598 I0.2309 J0.9185
G3 X138.0249 Y197.0711 I-1.9866 J3.6126
G1 X138.1056 Y197.139
G3 X138.6521 Y197.7793 I-1.7069 J2.0102
G3 X138.8775 Y198.2963 I-1.9199 J1.1449
G3 X138.9727 Y199.0432 I-2.4025 J0.6858
G3 X138.9396 Y199.4726 I-3.2305 J-0.033
G3 X138.8494 Y199.9542 I-4.6346 J-0.6194
G3 X138.7038 Y200.4905 I-8.4537 J-2.0064
G3 X138.6158 Y200.7722 I-7.0516 J-2.0479
G1 X138.519 Y201.0698
G2 X138.4689 Y201.223 I4.0357 J1.404
G1 X138.3653 Y201.5483
G1 X138.3148 Y201.7166
G1 X138.2661 Y201.8907
G2 X138.2205 Y202.0711 I6.8508 J1.8264
G3 X137.4546 Y201.7416 I0.8639 J-3.0637
G3 X136.828 Y201.1917 I1.24 J-2.045
G3 X136.5211 Y200.7265 I2.2756 J-1.8351
G3 X136.2139 Y200.054 I5.8351 J-3.0723
G3 X136.1964 Y200.0104 I0.3267 J-0.1562
G1 X136.1607 Y199.9204
G1 X135.9987 Y199.5108
G1 X135.9086 Y199.2945
G2 X135.6791 Y198.8138 I-5.7541 J2.4524
G2 X135.3542 Y198.3016 I-3.8303 J2.0707
G2 X134.8839 Y197.7923 I-2.7552 J2.0724
G2 X134.2343 Y197.335 I-2.4567 J2.8002
G2 X133.8544 Y197.1451 I-2.3181 J4.1611
G1 X134.2522 Y196.4701
G2 X133.8437 Y195.3436 I-5.7713 J1.4556
G2 X133.2006 Y194.3325 I-4.4812 J2.1404
G2 X131.2579 Y192.9538 I-3.4768 J2.8409
G2 X129.6856 Y192.6574 I-1.711 J4.7593
G2 X128.7714 Y192.7013 I-0.1621 J6.1774
G2 X127.7512 Y192.911 I0.8727 J6.8322
G2 X126.5685 Y193.5339 I0.8793 J3.1036
G2 X125.7368 Y194.5806 I2.1453 J2.5583
G2 X125.4265 Y195.4184 I3.4525 J1.7552
G2 X125.3184 Y196.5985 I4.0087 J0.9624
G2 X125.6939 Y198.1197 I4.1469 J-0.2168
G2 X127.0185 Y199.7064 I3.6133 J-1.6701
G2 X128.0709 Y200.2524 I2.5542 J-3.6365
G2 X128.8195 Y200.5021 I4.6505 J-12.6958
G2 X129.0718 Y200.5766 I1.9491 J-6.1303
G2 X130.0892 Y200.8446 I6.2052 J-21.4968
G1 X130.3815 Y200.9146
G1 X130.7162 Y200.9921
G1 X131.0992 Y201.0784
G2 X131.1479 Y201.0892 I0.1341 J-0.4882
G1 X131.593 Y201.1872
G1 X132.1019 Y201.2982
G1 X132.3733 Y201.3576
G3 X132.6627 Y201.4215 I-2.8681 J13.6741
G1 X133.3231 Y201.5713
G3 X135.0713 Y202.0231 I-7.4115 J32.293
G1 X135.2945 Y202.0898
G1 X135.5242 Y202.1615
G3 X135.6405 Y202.199 I-0.4689 J1.6523
G3 X136.1336 Y202.3686 I-4.2231 J13.0834
G1 X136.3858 Y202.4627
G1 X136.5132 Y202.5124
G3 X137.6494 Y203.0381 I-3.6583 J9.3974
G3 X138.2237 Y203.3818 I-4.1267 J7.548
G3 X138.7986 Y203.8085 I-3.4134 J5.1988
G3 X139.3512 Y204.3416 I-3.5171 J4.1991
G1 X138.6333 Y205.223
G2 X137.9818 Y204.9166 I-1.5387 J2.4261
G2 X137.28 Y204.7563 I-1.3176 J4.1519
G1 X137.1848 Y204.7433
G2 X136.6754 Y204.697 I-0.8747 J6.8051
G1 X136.3837 Y204.684
G1 X136.0503 Y204.6767
G1 X135.1643 Y204.6685
G1 X134.9283 Y204.6623
G3 X134.3904 Y204.6272 I0.3411 J-9.368
G1 X134.2522 Y204.6112
G3 X133.2431 Y204.4592 I3.1014 J-24.013
G3 X133.0995 Y204.434 I0.5816 J-3.7354
G3 X131.9578 Y204.1963 I3.3901 J-19.1506
G3 X131.8846 Y204.1786 I0.141 J-0.7419
G3 X131.1097 Y203.9691 I3.4011 J-14.1202
G1 X130.9049 Y203.9065
G3 X130.6876 Y203.8364 I3.4627 J-11.0981
G3 X129.5516 Y203.3969 I3.7246 J-11.3164
G3 X128.1301 Y202.6085 I3.758 J-8.4513
G1 X128.0451 Y202.5496
G3 X126.44 Y201.032 I4.2957 J-6.1507
G3 X125.7311 Y199.9802 I7.2914 J-5.679
G3 X125.5707 Y199.6946 I10.6615 J-6.1766
G1 X125.4922 Y199.5478
G3 X125.3357 Y199.2421 I15.3303 J-8.0373
G1 X125.2588 Y199.0855
G3 X124.9458 Y198.4114 I23.802 J-11.4625
G3 X124.9076 Y198.326 I2.1101 J-0.9948
G3 X124.8693 Y198.2398 I1.9472 J-0.9175
G3 X124.8308 Y198.1528 I1.8246 J-0.8596
G1 X124.5051 Y197.4126
G2 X124.4637 Y197.3195 I-1.3299 J0.5353
G2 X124.1002 Y196.5335 I-23.3101 J10.305
G2 X123.6738 Y195.7177 I-13.4023 J6.4853
G2 X123.1517 Y194.889 I-8.3748 J4.6969
G1 X123.0801 Y194.7885
G2 X121.5233 Y193.158 I-6.6177 J4.7603
G2 X120.5266 Y192.4745 I-5.654 J7.1757
G1 X120.3949 Y192.3977
G2 X120.0062 Y192.8052 I2.0237 J2.319
G2 X119.9038 Y192.963 I0.8108 J0.6382
G1 X118.8998 Y192.3511
G1 X118.39 Y192.5203
G1 X117.8817 Y192.6932
G2 X116.8753 Y193.0685 I7.6998 J22.178
G2 X116.7428 Y193.123 I1.0893 J2.8372
G2 X116.0465 Y193.4375 I5.0128 J12.0288
G2 X115.9582 Y193.4813 I0.6894 J1.4989
G2 X115.8675 Y193.5275 I0.6621 J1.414
G2 X114.9328 Y194.0807 I4.1332 J8.0487
G1 X114.8177 Y194.1608
G2 X113.6931 Y195.1498 I3.9753 J5.6547
G3 X113.3621 Y195.5671 I-2.9785 J-2.0222
G1 X113.2401 Y195.6962
G3 X112.7226 Y196.1821 I-7.0978 J-7.0405
G1 X112.5719 Y196.3178
G2 X112.1856 Y196.6956 I3.7812 J4.2531
G2 X111.9954 Y196.9396 I1.5582 J1.4106
G2 X111.8559 Y197.2689 I0.7795 J0.5243
G2 X111.9073 Y197.694 I0.7047 J0.1305
G2 X112.0241 Y197.9003 I0.929 J-0.3896
G2 X112.4005 Y198.302 I1.8461 J-1.3529
G2 X112.8859 Y198.6681 I3.1968 J-3.7338
G2 X113.8897 Y198.146 I-1.8319 J-4.748
G2 X114.759 Y197.4217 I-3.2006 J-4.7253
G1 X114.8103 Y197.3696
G2 X115.3323 Y196.792 I-9.1698 J-8.8116
G1 X115.3645 Y196.7544
G1 X115.6568 Y196.4104
G3 X115.9987 Y196.025 I7.2119 J6.0524
G1 X116.0436 Y195.9773
G3 X117.1945 Y195.1985 I2.3536 J2.2384
G3 X118.5555 Y194.9181 I1.4792 J3.7365
G3 X119.4807 Y194.9774 I0.1661 J4.6583
G3 X120.6621 Y195.3177 I-0.8455 J5.1556
G3 X122.0408 Y196.1827 I-1.9224 J4.595
G3 X123.2623 Y197.9595 I-2.8946 J3.2983
G3 X123.3363 Y198.1642 I-6.3417 J2.4095
G3 X123.3603 Y198.2326 I-1.2038 J0.461
G3 X123.4539 Y198.5074 I-15.782 J5.5298
G1 X123.5147 Y198.6911
G1 X123.755 Y199.4267
G1 X123.826 Y199.6362
G1 X123.8447 Y199.6901
G2 X124.059 Y200.2599 I9.8065 J-3.3632
G1 X124.0738 Y200.2956
G2 X124.4418 Y201.0342 I5.1892 J-2.1243
G2 X124.7132 Y201.4215 I3.0905 J-1.8769
G2 X125.0959 Y201.807 I2.1335 J-1.7354
G3 X126.3458 Y202.7866 I-9.2745 J13.1222
G1 X126.4259 Y202.8559
G3 X127.6661 Y204.0098 I-19.088 J21.7588
G1 X127.8272 Y204.1681
G1 X128.6809 Y205.0176
G2 X129.8342 Y206.134 I31.5494 J-31.4387
G2 X130.1509 Y206.422 I7.9987 J-8.4766
G2 X130.2322 Y206.4942 I2.0327 J-2.2073
G2 X130.3152 Y206.5671 I1.7537 J-1.9124
G2 X130.3999 Y206.6407 I1.555 J-1.7046
G2 X131.1964 Y207.2877 I10.6857 J-12.3423
G1 X131.4089 Y207.4457
G2 X132.4223 Y208.1108 I7.1236 J-9.7487
G1 X132.5816 Y207.9991
G1 X132.737 Y207.8818
G2 X133.0262 Y207.6214 I-1.5773 J-2.042
G2 X133.1791 Y207.4108 I-0.6915 J-0.6631
G2 X133.2205 Y207.2655 I-0.3512 J-0.1785
G2 X133.1652 Y207.0908 I-0.2658 J-0.012
G2 X132.9952 Y206.9462 I-0.4508 J0.3577
G2 X132.7697 Y206.8344 I-0.9688 J1.6713
G2 X132.6494 Y206.7861 I-0.714 J1.6035
G2 X132.5242 Y206.7393 I-0.9611 J2.3803
G1 X132.2451 Y206.638
G1 X132.0996 Y206.5826
G1 X131.9518 Y206.521
G3 X131.6607 Y206.3694 I1.0482 J-2.3677
G3 X131.4018 Y206.1438 I0.5151 J-0.8524
G3 X131.2762 Y205.7802 I0.4593 J-0.3622
G3 X131.3066 Y205.5707 I0.7885 J0.0076
G2 X132.3979 Y205.8066 I1.9912 J-6.5691
G2 X133.5114 Y205.8887 I1.2843 J-9.8259
G1 X133.8304 Y205.8921
G1 X134.195 Y205.8892
G2 X134.3894 Y205.8859 I-0.067 J-9.4336
G1 X134.8334 Y205.8766
G3 X135.3407 Y205.8706 I0.4682 J18.2457
G1 X135.4051 Y205.8708
G1 X135.4706 Y205.8712
G3 X136.0684 Y205.8926 I-0.1315 J11.989
G3 X136.7473 Y205.9764 I-0.4649 J6.5574
G3 X137.5026 Y206.1881 I-0.7736 J4.2148
G3 X137.3422 Y207.4927 I-2.2961 J0.3798
G3 X137.1396 Y207.8867 I-3.1007 J-1.3451
G3 X136.8018 Y208.3689 I-3.8619 J-2.3458
G3 X136.2932 Y208.9592 I-8.0843 J-6.4516
G3 X136.1531 Y209.1123 I-4.5519 J-4.0246
G1 X135.8355 Y209.4615
G2 X135.4871 Y209.8703 I6.6607 J6.029
G2 X135.4015 Y209.9792 I1.6273 J1.366
G2 X135.3158 Y210.0935 I2.663 J2.0854
G2 X134.9701 Y210.6454 I3.4176 J2.5252
G3 X133.9868 Y210.4454 I0.4847 J-4.8991
G3 X133.0621 Y210.0559 I1.6593 J-5.2323
G3 X132.487 Y209.7137 I3.1755 J-5.99
G3 X131.7677 Y209.1885 I5.9119 J-8.8525
G3 X130.866 Y208.4213 I13.9826 J-17.3489
G3 X130.8098 Y208.3713 I0.5396 J-0.6623
G1 X130.2989 Y207.9138
G2 X129.488 Y207.2255 I-13.6501 J15.2591
G1 X129.2092 Y207.0064
G1 X129.0479 Y206.8838
G2 X128.6103 Y206.567 I-8.0447 J10.6528
G1 X128.5529 Y206.5273
G2 X127.9302 Y206.121 I-6.9106 J9.913
G2 X127.0651 Y205.6362 I-6.5768 J10.7227
G2 X125.8504 Y205.1129 I-4.5557 J8.9027
G2 X124.1385 Y204.6828 I-3.1097 J8.754
G2 X121.7819 Y204.6447 I-1.3248 J9.0479
G2 X120.9994 Y204.7671 I1.3032 J10.8957
G2 X120.9475 Y204.7772 I0.1394 J0.8519
G1 X120.6717 Y204.8348
G2 X119.5803 Y205.1134 I4.2431 J18.8992
G1 X119.2712 Y205.2032
G1 X119.1067 Y205.2523
G2 X118.2322 Y205.5219 I16.1249 J53.8578
G1 X117.7328 Y205.6768
G3 X116.3939 Y206.064 I-10.6519 J-34.3222
G1 X116.0336 Y206.1556
G3 X115.847 Y206.2003 I-1.0088 J-3.8043
G3 X114.9878 Y206.3775 I-4.2772 J-18.5624
G1 X114.7646 Y206.4152
G1 X114.5335 Y206.4502
G2 X114.3408 Y206.6008 I0.0247 J0.2302
G2 X114.3179 Y206.8445 I0.4745 J0.1673
G1 X118.487 Y207.1531
G2 X116.9895 Y207.6832 I8.0808 J25.212
G2 X116.8905 Y207.7209 I0.5085 J1.4812
G2 X116.7849 Y207.7614 I0.5215 J1.5191
G2 X116.7305 Y207.7823 I0.3844 J1.0823
G2 X116.6742 Y207.8039 I0.3894 J1.0964
G2 X116.6162 Y207.8263 I0.3944 J1.1109
G1 X116.3511 Y207.9285
G1 X115.6433 Y208.1983
G3 X114.6919 Y208.537 I-10.2761 J-27.3565
G3 X113.3981 Y208.9121 I-5.0812 J-15.1066
G3 X112.6437 Y209.0679 I-3.0859 J-13.0438
G3 X112.5958 Y209.076 I-0.1042 J-0.4708
G2 X112.1587 Y208.635 I-3.0614 J2.5978
G2 X111.6659 Y208.2576 I-3.8535 J4.5212
G1 X111.5975 Y208.2109
G1 X111.524 Y208.1618
G2 X111.1277 Y207.908 I-27.0501 J41.8044
G3 X110.6 Y207.5697 I16.6042 J-26.478
G3 X110.5331 Y207.5242 I0.7028 J-1.1076
G3 X110.4645 Y207.4766 I0.5916 J-0.9265
G3 X110.3942 Y207.4267 I0.5137 J-0.797
G3 X110.0828 Y207.1855 I3.6372 J-5.0186
G3 X110.0446 Y207.1531 I0.2351 J-0.3159
G1 X111.8632
G3 X111.3952 Y206.6051 I1.6319 J-1.8674
G3 X111.1506 Y205.9272 I1.4773 J-0.916
G3 X111.1493 Y205.4441 I1.9872 J-0.247
G3 X111.3034 Y204.8219 I2.7655 J0.3548
G3 X111.655 Y204.0568 I5.5023 J2.0651
G3 X111.8889 Y203.6415 I10.7161 J5.7612
G3 X112.0171 Y203.4236 I6.3709 J3.6022
G1 X112.307 Y202.9322
G2 X112.6156 Y202.3674 I-10.466 J-6.0854
G2 X112.6518 Y202.2942 I-0.9697 J-0.5256
G2 X112.9241 Y201.608 I-3.9193 J-1.9525
G2 X112.9707 Y201.4231 I-1.6975 J-0.5259
G2 X113.02 Y201.019 I-1.953 J-0.4434
G2 X112.7724 Y200.0985 I-1.6618 J-0.0466
G2 X112.4441 Y199.6871 I-1.9124 J1.1893
G2 X112.0053 Y199.3221 I-2.2552 J2.2654
G2 X111.4836 Y199.0019 I-2.8805 J4.1072
G2 X110.8988 Y198.7194 I-3.5537 J6.6091
G1 X110.7475 Y198.6551
G2 X110.4556 Y199.0571 I8.2886 J6.3251
G2 X110.1951 Y199.4802 I3.3195 J2.3356
G2 X110.0641 Y199.7849 I1.9459 J1.0173
G2 X109.9887 Y200.2225 I1.3431 J0.4568
G2 X110.1004 Y200.8086 I1.6281 J-0.0066
G2 X110.2423 Y201.12 I2.1817 J-0.8061
G2 X110.4426 Y201.4537 I3.0331 J-1.5935
G1 X108.6275
G1 X108.7096 Y201.5838
G1 X108.7376 Y201.6268
G1 X108.7753 Y201.684
G1 X108.9285 Y201.9106
G3 X109.2349 Y202.364 I-18.346 J12.7289
G3 X109.3195 Y202.4954 I-3.7143 J2.485
G1 X109.4132 Y202.6477
G3 X109.6358 Y203.0692 I-3.1308 J1.9233
G3 X109.7323 Y203.3246 I-1.6715 J0.7768
G3 X109.7892 Y203.633 I-1.2171 J0.384
G3 X109.7248 Y203.9938 I-0.7588 J0.0507
G3 X109.4027 Y203.9776 I-0.1293 J-0.6375
G3 X109.1172 Y203.8273 I0.2937 J-0.904
G1 X109.0443 Y203.7708
G3 X108.8618 Y203.6089 I2.1119 J-2.5634
G1 X108.7607 Y203.5138
G1 X108.6435 Y203.408
G2 X108.5013 Y203.2981 I-1.196 J1.3997
G2 X108.3173 Y203.2063 I-0.413 J0.5977
G2 X108.0761 Y203.1979 I-0.1354 J0.4204
G2 X107.8199 Y203.3338 I0.1799 J0.6487
G2 X107.5864 Y203.5736 I1.073 J1.2782
G1 X109.7248 Y205.5707
G1 X108.1534 Y205.3091
G2 X107.6284 Y205.2296 I-4.2324 J26.1556
G1 X107.4881 Y205.2102
G2 X107.1669 Y205.1699 I-1.2254 J8.4677
G1 X107.0839 Y205.1606
G2 X106.1943 Y205.1042 I-0.9815 J8.4454
G1 X106.0792 Y205.1055
G1 X106.0207 Y205.1072
G2 X105.4888 Y205.1741 I0.0558 J2.5919
G2 X105.4229 Y205.1922 I0.3176 J1.2868
G2 X105.1546 Y205.3138 I0.2667 J0.9455
G2 X104.9458 Y205.5707 I0.2915 J0.45
G3 X104.6288 Y205.2529 I0.9078 J-1.2225
G3 X104.4144 Y204.8586 I1.3695 J-1.0002
G3 X104.3182 Y204.5751 I3.7802 J-1.4418
G1 X104.205 Y204.1946
G1 X104.1716 Y204.0943
G2 X103.9308 Y203.5869 I-2.2159 J0.741
G2 X103.421 Y203.0361 I-1.8884 J1.2365
G2 X103.1212 Y203.0451 I-0.0499 J3.3542
G2 X102.8234 Y203.0807 I0.1098 J2.182
G2 X102.7395 Y203.0979 I0.1774 J1.0746
G2 X102.6446 Y203.1225 I0.1784 J0.8837
G2 X101.9865 Y203.5435 I0.3612 J1.2894
G2 X101.6952 Y203.9808 I1.6905 J1.4419
G3 X101.7484 Y204.0599 I-0.9457 J0.6928
G1 X101.7974 Y204.1415
G1 X101.8272 Y204.1974
G3 X101.9105 Y204.4372 I-0.773 J0.4026
G3 X101.9056 Y204.6077 I-0.4102 J0.0737
G3 X101.7738 Y204.7999 I-0.3365 J-0.0896
G3 X101.6562 Y204.8682 I-0.3289 J-0.4311
G3 X101.3173 Y204.9522 I-0.462 J-1.1384
G3 X100.8882 Y204.959 I-0.2486 J-2.1401
G3 X100.9199 Y204.2245 I4.4419 J-0.1766
G3 X101.0917 Y203.5097 I3.4084 J0.4413
G3 X101.9297 Y202.3098 I2.6297 J0.944
G3 X102.7727 Y201.8036 I2.0675 J2.4879
G3 X104.0402 Y201.5105 I1.5148 J3.6644
G3 X104.3885 Y201.5138 I0.1496 J2.6209
G3 X104.5664 Y201.5448 I-0.0935 J1.0626
G3 X105.2268 Y201.8162 I-1.3805 J4.2986
G3 X105.8487 Y202.167 I-3.2973 J6.5718
G3 X106.2495 Y202.4238 I-6.2926 J10.2629
G1 X106.7792 Y202.7721
G3 X106.6001 Y202.0413 I2.7287 J-1.0559
G3 X106.5874 Y201.2891 I4.0682 J-0.4449
G3 X106.6073 Y201.0748 I2.9329 J0.1637
G3 X106.6998 Y200.5097 I6.5626 J0.7845
G3 X106.894 Y199.7732 I8.0329 J1.7237
G3 X107.2433 Y198.8237 I11.1696 J3.5701
G3 X107.4777 Y198.2964 I11.0595 J4.602
G3 X107.6112 Y198.0195 I8.2546 J3.8082
G1 X107.7594 Y197.7272
G3 X108.1176 Y197.0715 I20.4684 J10.7549
G3 X108.141 Y197.0306 I0.4283 J0.2187
G3 X108.1648 Y196.9895 I0.4351 J0.2237
G3 X109.251 Y195.2975 I19.2787 J11.1815
G1 X109.4013 Y195.0861
G1 X109.5586 Y194.8697
G1 X109.6394 Y194.7604
G1 X109.722 Y194.6499
G3 X111.607 Y192.4151 I20.5439 J15.4159
G1 X111.8695 Y192.1441
G3 X113.1385 Y190.9816 I10.9614 J10.6921
G3 X113.8833 Y190.4434 I4.975 J6.1004
G1 X113.9823 Y190.3832
G3 X114.4107 Y190.1662 I1.7368 J2.8972
G1 X115.9505 Y189.4633
G1 X116.8358 Y189.824
G1 X118.487 Y188.2416
G3 X118.764 Y188.4866 I-0.7348 J1.11
G1 X118.846 Y188.579
G2 X118.9586 Y188.699 I1.0556 J-0.8778
G2 X119.1351 Y188.83 I0.5526 J-0.5601
G2 X119.4291 Y188.8809 I0.2325 J-0.4688
G2 X119.599 Y188.846 I-0.067 J-0.7572
G2 X119.8143 Y188.6801 I-0.1847 J-0.4623
G2 X119.9074 Y188.4248 I-0.4501 J-0.3089
G2 X119.9165 Y188.2443 I-1.015 J-0.1413
G1 X119.9133 Y188.1416
G1 X119.9076 Y188.0255
G1 X119.9038 Y187.8938
G2 X121.8746 Y188.4743 I8.0539 J-23.709
G2 X123.8773 Y188.9327 I10.9874 J-43.4024
G1 X124.4524 Y189.0504
G1 X125.1105 Y189.1807
G1 X126.8668 Y189.5183
G1 X127.3351 Y189.6088
G3 X128.4042 Y189.8211 I-12.4294 J65.3926
G3 X129.6225 Y190.0807 I-11.0334 J54.7597
G1 X129.936 Y190.1519
G1 X130.2591 Y190.2277
G3 X131.7273 Y190.6099 I-7.4141 J31.4888
G1 X132.1031 Y190.7202
G1 X132.2933 Y190.7784
G3 X134.0068 Y191.3916 I-5.6625 J18.521
G3 X134.8919 Y191.793 I-4.9816 J12.1616
G3 X135.8015 Y192.2945 I-4.8822 J9.9318
G3 X136.7142 Y192.9289 I-5.062 J8.2561
G3 X137.5922 Y193.736 I-5.0162 J6.3373
G3 X139.0311 Y196.1149 I-4.9502 J4.619
G0 Z5.0
G0 X135.3829 Y200.5015
G1 Z0.0
G1 X135.2561 Y200.4747
G2 X135.2138 Y200.4661 I-0.1112 J0.4377
G2 X135.0443 Y200.4331 I-0.6931 J3.1045
G2 X134.9958 Y200.424 I-0.12 J0.5084
G2 X134.9402 Y200.4138 I-0.1306 J0.5563
G1 X134.7921 Y200.3877
G2 X134.1981 Y200.2925 I-3.3653 J19.1048
G1 X133.8015 Y200.2329
G1 X133.2733 Y200.1506
G3 X132.5722 Y200.0211 I2.648 J-16.2888
G3 X131.6538 Y199.7738 I1.6618 J-8.0013
G3 X131.1483 Y199.5716 I1.6654 J-4.8973
G3 X130.6037 Y199.2669 I1.662 J-3.6088
G3 X131.9357 Y199.2391 I0.8485 J8.7335
G1 X132.0245 Y199.2448
G3 X133.4242 Y199.4896 I-0.4499 J6.6957
G3 X134.3107 Y199.828 I-1.6116 J5.5522
G3 X135.3829 Y200.5015 I-2.4148 J5.0346
G0 Z5.0
G0 X133.1402 Y196.7323
G1 Z0.0
G2 X132.3303 Y196.9691 I1.0557 J5.1148
G2 X131.5541 Y197.3001 I3.8831 J10.1793
G2 X131.3364 Y197.4035 I2.9626 J6.5209
G1 X130.758 Y197.6834
G3 X130.4257 Y197.8391 I-7.9266 J-16.4836
G3 X130.0409 Y198.0058 I-5.9815 J-13.2748
G3 X129.5913 Y198.172 I-2.4092 J-5.8294
G3 X129.0612 Y198.3131 I-1.4365 J-4.3289
G3 X128.436 Y198.3837 I-0.6828 J-3.2439
G3 X127.7148 Y198.3145 I-0.0627 J-3.1376
G3 X126.9254 Y198.0377 I0.7359 J-3.3627
G3 X126.6604 Y197.3414 I3.7698 J-1.8334
G3 X126.5425 Y196.6057 I3.1108 J-0.876
G3 X126.5752 Y196.1087 I2.4059 J-0.091
G3 X126.7949 Y195.4799 I1.9674 J0.3345
G3 X127.3948 Y194.8178 I1.7679 J0.9992
G3 X127.8405 Y194.5617 I1.5392 J2.1618
G3 X128.3906 Y194.3648 I1.4979 J3.319
G3 X129.0383 Y194.2364 I1.2896 J4.8088
G3 X129.7774 Y194.1803 I0.916 J7.1668
G3 X130.6037 Y194.1977 I0.2128 J9.5235
G3 X131.2229 Y194.3377 I-0.5573 J3.9039
G3 X131.8041 Y194.593 I-0.9229 J2.8906
G3 X132.7054 Y195.4791 I-1.2559 J2.1788
G3 X133.0372 Y196.2592 I-2.7162 J1.616
G3 X133.1402 Y196.7323 I-4.0669 J1.1329
G0 Z5.0
G0 X127.2162 Y207.3558
G1 Z0.0
G3 X127.8904 Y207.75 I-9.3339 J16.7384
G1 X128.122 Y207.894
G1 X128.1802 Y207.9307
G1 X128.2386 Y207.9678
G3 X128.4785 Y208.1226 I-39.0336 J60.7725
G1 X128.7241 Y208.2845
G1 X128.8483 Y208.3675
G3 X128.9986 Y208.5036 I-0.306 J0.4891
G3 X129.0267 Y208.5658 I-0.1449 J0.1027
G3 X128.9819 Y208.6528 I-0.0776 J0.0151
G3 X128.8511 Y208.68 I-0.1223 J-0.2601
G3 X128.6937 Y208.6614 I-0.0071 J-0.6146
G3 X128.5434 Y208.6166 I0.1944 J-0.9276
G1 X128.3758 Y208.5519
G1 X128.3199 Y208.5301
G3 X128.0969 Y208.4423 I5.0402 J-13.123
G1 X128.0332 Y208.417
G3 X127.5245 Y208.2134 I14.7327 J-37.5599
G1 X127.4566 Y208.1863
G2 X126.3646 Y207.7694 I-10.0833 J24.7735
G1 X126.0486 Y207.6613
G2 X125.1933 Y207.4122 I-3.6431 J10.9174
