( Made using CamBam - http://www.cambam.co.uk )
( Skull 1/23/2014 10:48:37 AM )
( T0 : 0.0 )
G21 G90 G64 G40
G0 Z5.0
( T0 : 0.0 )
T0 M6
( Profile1 )
G17
M3 S1000
G0 X-295.3148 Y68.4616
G1 F1.0 Z0.0
G1 X-284.126 Y57.2728
G0 Z5.0
G0 X-295.3148
G1 Z0.0
G1 X-284.126 Y46.084
G0 Z5.0
G0 X-295.3148
G1 Z0.0
G1 X-270.6994 Y21.4685
G0 Z5.0
G0 X-272.9372 Y34.8952
G1 Z0.0
G1 X-259.5106 Y21.4685
G0 Z5.0
G0 X-261.7484 Y34.8952
G1 Z0.0
G1 X-250.5596 Y23.7063
G0 Z5.0
G0 Y34.8952
G1 Z0.0
G1 X-243.8462 Y28.182
G0 Z5.0
G0 X-244.9652 Y34.8952
G1 Z0.0
G1 X-240.4896 Y30.4195
G0 Z5.0
G0 X-239.3708 Y40.4896
G1 Z0.0
G1 X-232.6574 Y33.7764
G0 Z5.0
G0 X-222.5876 Y40.4896
G1 Z0.0
G1 X-206.9232 Y24.8251
G0 Z5.0
G0 X-205.8044 Y34.8952
G1 Z0.0
G1 X-187.9021 Y16.9929
G0 Z5.0
G0 X-177.8321 Y23.7063
G1 Z0.0
G1 X-164.4058 Y10.2797
G0 Z5.0
G0 X-172.2377 Y1.3287
G1 Z0.0
G1 X-147.6225 Y-23.2867
G0 Z5.0
G0 X-133.0769 Y-15.4548
G1 Z0.0
G1 X-121.8881 Y-26.6436
G0 Z5.0
G0 Y-15.4548
G1 Z0.0
G1 X-112.9371 Y-24.4055
G0 Z5.0
G0 X-116.2937 Y-15.4548
G1 Z0.0
G1 X-107.3427 Y-24.4055
G0 Z5.0
G0 X-99.5104 Y-26.6436
G1 Z0.0
G1 X-90.5595 Y-35.5943
G0 Z5.0
G0 X-99.5104 Y-32.238
G1 Z0.0
G1 X-92.7973 Y-38.9511
G0 Z5.0
G0 X-105.1048 Y-37.8324
G1 Z0.0
G1 X-98.3917 Y-44.5455
G0 Z5.0
G0 X-110.6993 Y-43.4268
G1 Z0.0
G1 X-101.7483 Y-52.3775
G0 Z5.0
G0 X-110.6993 Y-49.0212
G1 Z0.0
G1 X-103.9861 Y-55.7344
G0 Z5.0
G0 X-93.916 Y-60.21
G1 Z0.0
G1 X-91.6782 Y-62.4475
G0 Z5.0
G0 X-88.3216 Y-60.21
G1 Z0.0
G1 X-86.0838 Y-62.4475
G0 Z5.0
G0 X-88.3216 Y-54.6156
G1 Z0.0
G1 X-86.0838 Y-56.8531
G0 Z5.0
G0 X-93.916 Y-65.8044
G1 Z0.0
G1 X-80.4894 Y-79.2307
G0 Z5.0
G0 X-82.7272 Y-71.3988
G1 Z0.0
G1 X-80.4894 Y-73.6363
G0 Z5.0
G0 X-77.1328 Y-71.3988
G1 Z0.0
G1 X-63.7062 Y-84.8251
G0 Z5.0
G0 X-71.5384 Y-82.5876
G1 Z0.0
G1 X-64.8253 Y-89.3008
G0 Z5.0
G0 X-71.5384 Y-88.182
G1 Z0.0
G1 X-64.8253 Y-94.8952
G0 Z5.0
G0 X-71.5384 Y-93.7764
G1 Z0.0
G1 X-64.8253 Y-100.4896
G0 Z5.0
G0 X-71.5384 Y-99.3708
G1 Z0.0
G1 X-64.8253 Y-106.084
G0 Z5.0
G0 X-71.5384 Y-104.9652
G1 Z0.0
G1 X-64.8253 Y-111.6784
G0 Z5.0
G0 X-71.5384 Y-110.5596
G1 Z0.0
G1 X-53.6365 Y-128.4616
G0 Z5.0
G0 X-54.7552 Y-121.7484
G1 Z0.0
G1 X-48.0421 Y-128.4616
G0 Z5.0
G0 X-49.1608 Y-116.154
G1 Z0.0
G1 X-24.5454 Y-140.7692
G0 Z5.0
G0 X-26.7832 Y-127.3428
G1 Z0.0
G1 X-15.5944 Y-138.5316
G0 Z5.0
G0 Y-127.3428
G1 Z0.0
G1 X-6.6434 Y-136.2935
G0 Z5.0
G0 X-10.0 Y-127.3428
G1 Z0.0
G1 X-3.2868 Y-134.056
G0 Z5.0
G0 X-4.4056 Y-121.7484
G1 Z0.0
G1 X11.2588 Y-137.4129
G0 Z5.0
G0 X12.3776 Y-127.3428
G1 Z0.0
G1 X23.5664 Y-138.5316
G0 Z5.0
G0 Y-127.3428
G1 Z0.0
G1 X30.2796 Y-134.056
G0 Z5.0
G0 X23.5664 Y-121.7484
G1 Z0.0
G1 X30.2796 Y-128.4616
G0 Z5.0
G0 X17.972 Y-127.3428
G1 Z0.0
G1 X26.923 Y-136.2935
G0 Z5.0
G0 X23.5664 Y-116.154
G1 Z0.0
G1 X34.7552 Y-127.3428
G0 Z5.0
G0 Y-116.154
G1 Z0.0
G1 X43.7062 Y-125.1047
G0 Z5.0
G0 X45.944 Y-116.154
G1 Z0.0
G1 X52.6575 Y-122.8672
G0 Z5.0
G0 X45.944 Y-110.5596
G1 Z0.0
G1 X61.6085 Y-126.2241
G0 Z5.0
G0 X68.3216 Y-116.154
G1 Z0.0
G1 X72.7973 Y-120.6297
G0 Z5.0
G0 X68.3216 Y-110.5596
G1 Z0.0
G1 X75.0351 Y-117.2728
G0 Z5.0
G0 X68.3216 Y-104.9652
G1 Z0.0
G1 X77.2726 Y-113.9159
G0 Z5.0
G0 X79.5104 Y-99.3708
G1 Z0.0
G1 X88.4614 Y-108.3215
G0 Z5.0
G0 X85.1048 Y-99.3708
G1 Z0.0
G1 X91.8183 Y-106.084
G0 Z5.0
G0 X85.1048 Y-93.7764
G1 Z0.0
G1 X94.0558 Y-102.7271
G0 Z5.0
G0 X85.1048 Y-88.182
G1 Z0.0
G1 X96.2937 Y-99.3708
G0 Z5.0
G0 Y-82.5876
G1 Z0.0
G1 X114.1959 Y-100.4896
G0 Z5.0
G0 X113.0769 Y-88.182
G1 Z0.0
G1 X133.2169 Y-108.3215
G0 Z5.0
G0 X141.0489 Y-99.3708
G1 Z0.0
G1 X158.9509 Y-117.2728
G0 Z5.0
G0 X157.8321 Y-104.9652
G1 Z0.0
G1 X177.9722 Y-125.1047
G0 Z5.0
G0 X180.2097 Y-110.5596
G1 Z0.0
G1 X204.8254 Y-135.1748
G0 Z5.0
G0 X208.1817 Y-121.7484
G1 Z0.0
G1 X237.2731 Y-150.8392
G0 Z5.0
G0 X224.9649 Y-149.7204
G1 Z0.0
G1 X247.3425 Y-172.098
G0 Z5.0
G0 Y-160.9092
G1 Z0.0
G1 X258.5313 Y-172.098
G0 Z5.0
G0 Y-160.9092
G1 Z0.0
G1 X267.4826 Y-169.8599
G0 Z5.0
G0 X264.1257 Y-160.9092
G1 Z0.0
G1 X270.8395 Y-167.6224
G0 Z5.0
G0 X269.7201 Y-155.3148
G1 Z0.0
G1 X276.4339 Y-162.028
G0 Z5.0
G0 X275.3145 Y-149.7204
G1 Z0.0
G1 X284.2658 Y-158.6711
G0 Z5.0
G0 X280.909 Y-149.7204
G1 Z0.0
G1 X287.6227 Y-156.4336
G0 Z5.0
G0 X286.5034 Y-144.126
G1 Z0.0
G1 X297.6922 Y-155.3148
G0 Z5.0
G0 Y-144.126
G1 Z0.0
G1 X304.4059 Y-150.8392
G0 Z5.0
G0 X303.2866 Y-138.5316
G1 Z0.0
G1 X310.0003 Y-145.2448
G0 Z5.0
G0 X297.6922 Y-138.5316
G1 Z0.0
G1 X306.6434 Y-147.4823
G0 Z5.0
G0 X292.0978 Y-144.126
G1 Z0.0
G1 X301.049 Y-153.0767
G0 Z5.0
G0 X280.909 Y-144.126
G1 Z0.0
G1 X294.3359 Y-157.5524
G0 Z5.0
G0 X269.7201 Y-149.7204
G1 Z0.0
G1 X278.6714 Y-158.6711
G0 Z5.0
G0 X264.1257 Y-155.3148
G1 Z0.0
G1 X273.077 Y-164.2655
G0 Z5.0
G0 X252.9369 Y-160.9092
G1 Z0.0
G1 X264.1257 Y-172.098
G0 Z5.0
G0 Y-138.5316
G1 Z0.0
G1 X268.6014 Y-143.0073
G0 Z5.0
G0 X269.7201 Y-138.5316
G1 Z0.0
G1 X274.1958 Y-143.0073
G0 Z5.0
G0 X275.3145 Y-132.9372
G1 Z0.0
G1 X277.5527 Y-135.1748
G0 Z5.0
G0 X269.7201 Y-132.9372
G1 Z0.0
G1 X276.4339 Y-139.6504
G0 Z5.0
G0 X297.6922 Y-127.3428
G1 Z0.0
G1 X311.1191 Y-140.7692
G0 Z5.0
G0 X292.0978 Y-110.5596
G1 Z0.0
G1 X312.2378 Y-130.6991
G0 Z5.0
G0 X292.0978 Y-104.9652
G1 Z0.0
G1 X312.2378 Y-125.1047
G0 Z5.0
G0 X292.0978 Y-99.3708
G1 Z0.0
G1 X307.7622 Y-115.0353
G0 Z5.0
G0 X292.0978 Y-93.7764
G1 Z0.0
G1 X301.049 Y-102.7271
G0 Z5.0
G0 X280.909 Y-104.9652
G1 Z0.0
G1 X312.2378 Y-136.2935
G0 Z5.0
G0 X275.3145 Y-110.5596
G1 Z0.0
G1 X277.5527 Y-112.7971
G0 Z5.0
G0 X275.3145 Y-104.9652
G1 Z0.0
G1 X290.979 Y-120.6297
G0 Z5.0
G0 X258.5313 Y-82.5876
G1 Z0.0
G1 X260.7695 Y-84.8251
G0 Z5.0
G0 X252.9369 Y-82.5876
G1 Z0.0
G1 X255.175 Y-84.8251
G0 Z5.0
G0 X247.3425 Y-65.8044
G1 Z0.0
G1 X254.0563 Y-72.5176
G0 Z5.0
G0 X252.9369 Y-60.21
G1 Z0.0
G1 X264.1257 Y-71.3988
G0 Z5.0
G0 X258.5313 Y-60.21
G1 Z0.0
G1 X271.9583 Y-73.6363
G0 Z5.0
G0 X275.3145 Y-60.21
G1 Z0.0
G1 X299.9303 Y-84.8251
G0 Z5.0
G0 X280.909 Y-60.21
G1 Z0.0
G1 X298.8115 Y-78.112
G0 Z5.0
G0 X264.1257 Y-54.6156
G1 Z0.0
G1 X302.1678 Y-92.6571
G0 Z5.0
G0 X258.5313 Y-54.6156
G1 Z0.0
G1 X301.049 Y-97.1327
G0 Z5.0
G0 X247.3425 Y-60.21
G1 Z0.0
G1 X258.5313 Y-71.3988
G0 Z5.0
G0 X241.7481 Y-65.8044
G1 Z0.0
G1 X250.6994 Y-74.7551
G0 Z5.0
G0 X236.1537 Y-71.3988
G1 Z0.0
G1 X249.5806 Y-84.8251
G0 Z5.0
G0 X236.1537 Y-65.8044
G1 Z0.0
G1 X247.3425 Y-76.9932
G0 Z5.0
G0 X230.5593 Y-71.3988
G1 Z0.0
G1 X243.9862 Y-84.8251
G0 Z5.0
G0 X224.9649 Y-71.3988
G1 Z0.0
G1 X240.6294 Y-87.0627
G0 Z5.0
G0 X219.3705 Y-71.3988
G1 Z0.0
G1 X235.035 Y-87.0627
G0 Z5.0
G0 X213.7761 Y-71.3988
G1 Z0.0
G1 X229.4406 Y-87.0627
G0 Z5.0
G0 X208.1817 Y-71.3988
G1 Z0.0
G1 X223.8462 Y-87.0627
G0 Z5.0
G0 X196.9929 Y-65.8044
G1 Z0.0
G1 X217.133 Y-85.9439
G0 Z5.0
G0 X191.3985 Y-65.8044
G1 Z0.0
G1 X211.5386 Y-85.9439
G0 Z5.0
G0 X185.8041 Y-65.8044
G1 Z0.0
G1 X205.9442 Y-85.9439
G0 Z5.0
G0 X196.9929 Y-116.154
G1 Z0.0
G1 X255.175 Y-174.3356
G0 Z5.0
G0 X224.9649 Y-155.3148
G1 Z0.0
G1 X238.3918 Y-168.7412
G0 Z5.0
G0 X230.5593 Y-127.3428
G1 Z0.0
G1 X232.7974 Y-129.5804
G0 Z5.0
G0 X224.9649 Y-127.3428
G1 Z0.0
G1 X233.9162 Y-136.2935
G0 Z5.0
G0 X219.3705 Y-127.3428
G1 Z0.0
G1 X235.035 Y-143.0073
G0 Z5.0
G0 X191.3985 Y-116.154
G1 Z0.0
G1 X213.7761 Y-138.5316
G0 Z5.0
G0 X174.6153 Y-110.5596
G1 Z0.0
G1 X196.9929 Y-132.9372
G0 Z5.0
G0 X163.4265 Y-104.9652
G1 Z0.0
G1 X188.0422 Y-129.5804
G0 Z5.0
G0 X169.0209 Y-88.182
G1 Z0.0
G1 X171.259 Y-90.4195
G0 Z5.0
G0 X152.2377 Y-82.5876
G1 Z0.0
G1 X156.7133 Y-87.0627
G0 Z5.0
G0 X146.6433 Y-99.3708
G1 Z0.0
G1 X169.0209 Y-121.7484
G0 Z5.0
G0 X129.8601 Y-93.7764
G1 Z0.0
G1 X150.0002 Y-113.9159
G0 Z5.0
G0 X135.4545 Y-76.9932
G1 Z0.0
G1 X139.9301 Y-81.4683
G0 Z5.0
G0 X124.2657 Y-71.3988
G1 Z0.0
G1 X130.9791 Y-78.112
G0 Z5.0
G0 X118.6713 Y-88.182
G1 Z0.0
G1 X141.0489 Y-110.5596
G0 Z5.0
G0 X101.8881 Y-82.5876
G1 Z0.0
G1 X122.0281 Y-102.7271
G0 Z5.0
G0 X101.8881 Y-76.9932
G1 Z0.0
G1 X104.1259 Y-79.2307
G0 Z5.0
G0 X101.8881 Y-71.3988
G1 Z0.0
G1 X104.1259 Y-73.6363
G0 Z5.0
G0 X113.0769 Y-65.8044
G1 Z0.0
G1 X122.0281 Y-74.7551
G0 Z5.0
G0 X135.4545 Y-49.0212
G1 Z0.0
G1 X155.5946 Y-69.1607
G0 Z5.0
G0 X157.8321 Y-54.6156
G1 Z0.0
G1 X182.4478 Y-79.2307
G0 Z5.0
G0 X174.6153 Y-60.21
G1 Z0.0
G1 X196.9929 Y-82.5876
G0 Z5.0
G0 X169.0209 Y-60.21
G1 Z0.0
G1 X189.161 Y-80.3495
G0 Z5.0
G0 X152.2377 Y-54.6156
G1 Z0.0
G1 X174.6153 Y-76.9932
G0 Z5.0
G0 X141.0489 Y-49.0212
G1 Z0.0
G1 X165.6646 Y-73.6363
G0 Z5.0
G0 X124.2657 Y-43.4268
G1 Z0.0
G1 X146.6433 Y-65.8044
G0 Z5.0
G0 X118.6713 Y-43.4268
G1 Z0.0
G1 X136.5732 Y-61.3288
G0 Z5.0
G0 X96.2937 Y-49.0212
G1 Z0.0
G1 X98.5315 Y-51.2587
G0 Z5.0
G0 X96.2937 Y-43.4268
G1 Z0.0
G1 X107.4825 Y-54.6156
G0 Z5.0
G0 X90.6993
G1 Z0.0
G1 X106.3637 Y-70.2794
G0 Z5.0
G0 X85.1048 Y-82.5876
G1 Z0.0
G1 X98.5315 Y-96.0139
G0 Z5.0
G0 X68.3216 Y-93.7764
G1 Z0.0
G1 X83.9861 Y-109.4409
G0 Z5.0
G0 X68.3216 Y-99.3708
G1 Z0.0
G1 X79.5104 Y-110.5596
G0 Z5.0
G0 X68.3216 Y-88.182
G1 Z0.0
G1 X75.0351 Y-94.8952
G0 Z5.0
G0 X68.3216 Y-82.5876
G1 Z0.0
G1 X72.7973 Y-87.0627
G0 Z5.0
G0 X68.3216 Y-76.9932
G1 Z0.0
G1 X72.7973 Y-81.4683
G0 Z5.0
G0 X79.5104 Y-71.3988
G1 Z0.0
G1 X104.1259 Y-96.0139
G0 Z5.0
G0 X79.5104 Y-60.21
G1 Z0.0
G1 X88.4614 Y-69.1607
G0 Z5.0
G0 X85.1048 Y-54.6156
G1 Z0.0
G1 X87.3427 Y-56.8531
G0 Z5.0
G0 X90.6993 Y-49.0212
G1 Z0.0
G1 X115.3147 Y-73.6363
G0 Z5.0
G0 X96.2937 Y-37.8324
G1 Z0.0
G1 X111.9581 Y-53.4962
G0 Z5.0
G0 X85.1048 Y-43.4268
G1 Z0.0
G1 X87.3427 Y-45.6643
G0 Z5.0
G0 X85.1048 Y-37.8324
G1 Z0.0
G1 X89.5805 Y-42.3074
G0 Z5.0
G0 X90.6993 Y-26.6436
G1 Z0.0
G1 X119.7903 Y-55.7344
G0 Z5.0
G0 X73.916 Y-60.21
G1 Z0.0
G1 X89.5805 Y-75.8739
G0 Z5.0
G0 X68.3216 Y-65.8044
G1 Z0.0
G1 X70.5595 Y-68.0419
G0 Z5.0
G0 X68.3216 Y-60.21
G1 Z0.0
G1 X72.7973 Y-64.685
G0 Z5.0
G0 X62.7272 Y-65.8044
G1 Z0.0
G1 X71.6782 Y-74.7551
G0 Z5.0
G0 X51.5384 Y-65.8044
G1 Z0.0
G1 X56.0141 Y-70.2794
G0 Z5.0
G0 X45.944 Y-71.3988
G1 Z0.0
G1 X52.6575 Y-78.112
G0 Z5.0
G0 X45.944 Y-76.9932
G1 Z0.0
G1 X52.6575 Y-83.7064
G0 Z5.0
G0 X45.944 Y-82.5876
G1 Z0.0
G1 X52.6575 Y-89.3008
G0 Z5.0
G0 X45.944 Y-88.182
G1 Z0.0
G1 X52.6575 Y-94.8952
G0 Z5.0
G0 X45.944 Y-99.3708
G1 Z0.0
G1 X70.5595 Y-123.986
G0 Z5.0
G0 X45.944 Y-104.9652
G1 Z0.0
G1 X66.0838 Y-125.1047
G0 Z5.0
G0 X40.3496 Y-116.154
G1 Z0.0
G1 X49.3006 Y-125.1047
G0 Z5.0
G0 X23.5664 Y-110.5596
G1 Z0.0
G1 X41.4687 Y-128.4616
G0 Z5.0
G0 X23.5664 Y-104.9652
G1 Z0.0
G1 X30.2796 Y-111.6784
G0 Z5.0
G0 X23.5664 Y-99.3708
G1 Z0.0
G1 X28.0421 Y-103.8464
G0 Z5.0
G0 X23.5664 Y-93.7764
G1 Z0.0
G1 X28.0421 Y-98.252
G0 Z5.0
G0 X23.5664 Y-76.9932
G1 Z0.0
G1 X30.2796 Y-83.7064
G0 Z5.0
G0 X23.5664 Y-71.3988
G1 Z0.0
G1 X30.2796 Y-78.112
G0 Z5.0
G0 X29.1608 Y-65.8044
G1 Z0.0
G1 X31.3986 Y-68.0419
G0 Z5.0
G0 X34.7552 Y-65.8044
G1 Z0.0
G1 X36.993 Y-68.0419
G0 Z5.0
G0 X40.3496 Y-60.21
G1 Z0.0
G1 X53.7763 Y-73.6363
G0 Z5.0
G0 X51.5384 Y-54.6156
G1 Z0.0
G1 X53.7763 Y-56.8531
G0 Z5.0
G0 X51.5384 Y-49.0212
G1 Z0.0
G1 X56.0141 Y-53.4962
G0 Z5.0
G0 X51.5384 Y-43.4268
G1 Z0.0
G1 X53.7763 Y-45.6643
G0 Z5.0
G0 X62.7272 Y-32.238
G1 Z0.0
G1 X67.2029 Y-36.713
G0 Z5.0
G0 X73.916 Y-26.6436
G1 Z0.0
G1 X78.3917 Y-31.1186
G0 Z5.0
G0 X73.916 Y-21.0492
G1 Z0.0
G1 X78.3917 Y-25.5242
G0 Z5.0
G0 X73.916 Y-15.4548
G1 Z0.0
G1 X76.1539 Y-17.6923
G0 Z5.0
G0 X85.1048 Y-15.4548
G1 Z0.0
G1 X127.6225 Y-57.9719
G0 Z5.0
G0 X107.4825 Y-9.8604
G1 Z0.0
G1 X114.1959 Y-16.5735
G0 Z5.0
G0 X113.0769 Y-4.266
G1 Z0.0
G1 X126.5035 Y-17.6923
G0 Z5.0
G0 X124.2657 Y-4.266
G1 Z0.0
G1 X137.6926 Y-17.6923
G0 Z5.0
G0 X135.4545 Y-4.266
G1 Z0.0
G1 X146.6433 Y-15.4548
G0 Z5.0
G0 X141.0489 Y-4.266
G1 Z0.0
G1 X150.0002 Y-13.2167
G0 Z5.0
G0 X146.6433 Y1.3287
G1 Z0.0
G1 X155.5946 Y-7.6223
G0 Z5.0
G0 X152.2377 Y6.9231
G1 Z0.0
G1 X161.189 Y-2.0279
G0 Z5.0
G0 X152.2377 Y12.5175
G1 Z0.0
G1 X163.4265 Y1.3287
G0 Z5.0
G0 X169.0209 Y18.1119
G1 Z0.0
G1 X177.9722 Y9.161
G0 Z5.0
G0 X174.6153 Y18.1119
G1 Z0.0
G1 X181.3285 Y11.3985
G0 Z5.0
G0 X180.2097 Y23.7063
G1 Z0.0
G1 X191.3985 Y12.5175
G0 Z5.0
G0 X185.8041 Y23.7063
G1 Z0.0
G1 X194.7554 Y14.7554
G0 Z5.0
G0 X196.9929 Y29.3007
G1 Z0.0
G1 X205.9442 Y20.3498
G0 Z5.0
G0 X202.5873 Y29.3007
G1 Z0.0
G1 X209.3005 Y22.5876
G0 Z5.0
G0 X208.1817 Y34.8952
G1 Z0.0
G1 X217.133 Y25.9442
G0 Z5.0
G0 X219.3705 Y34.8952
G1 Z0.0
G1 X226.0837 Y28.182
G0 Z5.0
G0 X224.9649 Y40.4896
G1 Z0.0
G1 X233.9162 Y31.5386
G0 Z5.0
G0 X236.1537 Y40.4896
G1 Z0.0
G1 X242.8675 Y33.7764
G0 Z5.0
G0 X241.7481 Y46.084
G1 Z0.0
G1 X257.4126 Y30.4195
G0 Z5.0
G0 X264.1257 Y40.4896
G1 Z0.0
G1 X282.0283 Y22.5876
G0 Z5.0
G0 X280.909 Y34.8952
G1 Z0.0
G1 X289.8602 Y25.9442
G0 Z5.0
G0 X286.5034 Y34.8952
G1 Z0.0
G1 X293.2171 Y28.182
G0 Z5.0
G0 X292.0978 Y40.4896
G1 Z0.0
G1 X301.049 Y31.5386
G0 Z5.0
G0 X297.6922 Y46.084
G1 Z0.0
G1 X306.6434 Y37.133
G0 Z5.0
G0 X303.2866 Y51.6784
G1 Z0.0
G1 X312.2378 Y42.7274
G0 Z5.0
G0 X303.2866 Y57.2728
G1 Z0.0
G1 X312.2378 Y48.3218
G0 Z5.0
G0 X297.6922 Y51.6784
G1 Z0.0
G1 X308.881 Y40.4896
G0 Z5.0
G0 X292.0978 Y46.084
G1 Z0.0
G1 X303.2866 Y34.8952
G0 Z5.0
G0 X286.5034 Y40.4896
G1 Z0.0
G1 X297.6922 Y29.3007
G0 Z5.0
G0 X275.3145 Y34.8952
G1 Z0.0
G1 X286.5034 Y23.7063
G0 Z5.0
G0 X275.3145 Y51.6784
G1 Z0.0
G1 X277.5527 Y49.4405
G0 Z5.0
G0 X269.7201 Y51.6784
G1 Z0.0
G1 X274.1958 Y47.2027
G0 Z5.0
G0 X264.1257 Y51.6784
G1 Z0.0
G1 X270.8395 Y44.9652
G0 Z5.0
G0 X252.9369 Y46.084
G1 Z0.0
G1 X275.3145 Y23.7063
G0 Z5.0
G0 X241.7481 Y51.6784
G1 Z0.0
G1 X266.3639 Y27.0629
G0 Z5.0
G0 X236.1537 Y46.084
G1 Z0.0
G1 X249.5806 Y32.6573
G0 Z5.0
G0 X230.5593 Y40.4896
G1 Z0.0
G1 X237.2731 Y33.7764
G0 Z5.0
G0 X219.3705 Y40.4896
G1 Z0.0
G1 X230.5593 Y29.3007
G0 Z5.0
G0 X213.7761 Y34.8952
G1 Z0.0
G1 X222.7274 Y25.9442
G0 Z5.0
G0 X202.5873 Y34.8952
G1 Z0.0
G1 X213.7761 Y23.7063
G0 Z5.0
G0 X208.1817 Y46.084
G1 Z0.0
G1 X210.4198 Y43.8461
G0 Z5.0
G0 X202.5873 Y46.084
G1 Z0.0
G1 X207.0629 Y41.6083
G0 Z5.0
G0 X196.9929 Y40.4896
G1 Z0.0
G1 X199.231 Y38.2517
G0 Z5.0
G0 X196.9929 Y46.084
G1 Z0.0
G1 X203.7061 Y39.3708
G0 Z5.0
G0 X191.3985 Y40.4896
G1 Z0.0
G1 X195.8741 Y36.0139
G0 Z5.0
G0 X191.3985 Y29.3007
G1 Z0.0
G1 X202.5873 Y18.1119
G0 Z5.0
G0 X185.8041 Y29.3007
G1 Z0.0
G1 X199.231 Y15.8741
G0 Z5.0
G0 X174.6153 Y23.7063
G1 Z0.0
G1 X185.8041 Y12.5175
G0 Z5.0
G0 X174.6153 Y34.8952
G1 Z0.0
G1 X176.8534 Y32.6573
G0 Z5.0
G0 X185.8041 Y40.4896
G1 Z0.0
G1 X190.2797 Y36.0139
G0 Z5.0
G0 X185.8041 Y57.2728
G1 Z0.0
G1 X192.5173 Y50.5596
G0 Z5.0
G0 X191.3985 Y62.8672
G1 Z0.0
G1 X200.3498 Y53.9162
G0 Z5.0
G0 X196.9929 Y62.8672
G1 Z0.0
G1 X203.7061 Y56.154
G0 Z5.0
G0 X202.5873 Y68.4616
G1 Z0.0
G1 X211.5386 Y59.5106
G0 Z5.0
G0 X208.1817 Y68.4616
G1 Z0.0
G1 X214.8949 Y61.7484
G0 Z5.0
G0 X219.3705 Y51.6784
G1 Z0.0
G1 X221.6086 Y49.4405
G0 Z5.0
G0 X219.3705 Y74.056
G1 Z0.0
G1 X226.0837 Y67.3428
G0 Z5.0
G0 X224.9649 Y74.056
G1 Z0.0
G1 X231.6787 Y67.3428
G0 Z5.0
G0 X230.5593 Y79.6504
G1 Z0.0
G1 X237.2731 Y72.9372
G0 Z5.0
G0 X236.1537 Y85.2448
G1 Z0.0
G1 X242.8675 Y78.5316
G0 Z5.0
G0 X236.1537 Y90.8392
G1 Z0.0
G1 X245.105 Y81.8882
G0 Z5.0
G0 X241.7481 Y96.4336
G1 Z0.0
G1 X248.4619 Y89.7204
G0 Z5.0
G0 X247.3425 Y102.028
G1 Z0.0
G1 X254.0563 Y95.3148
G0 Z5.0
G0 X252.9369 Y107.6224
G1 Z0.0
G1 X266.3639 Y94.1958
G0 Z5.0
G0 X269.7201 Y85.2448
G1 Z0.0
G1 X283.1471 Y71.8182
G0 Z5.0
G0 X269.7201 Y74.056
G1 Z0.0
G1 X274.1958 Y69.5803
G0 Z5.0
G0 X269.7201 Y79.6504
G1 Z0.0
G1 X278.6714 Y70.6994
G0 Z5.0
G0 X275.3145 Y85.2448
G1 Z0.0
G1 X288.7415 Y71.8182
G0 Z5.0
G0 X292.0978 Y85.2448
G1 Z0.0
G1 X312.2378 Y65.105
G0 Z5.0
G0 X297.6922 Y85.2448
G1 Z0.0
G1 X311.1191 Y71.8182
G0 Z5.0
G0 X264.1257 Y74.056
G1 Z0.0
G1 X268.6014 Y69.5803
G0 Z5.0
G0 X258.5313 Y74.056
G1 Z0.0
G1 X265.2451 Y67.3428
G0 Z5.0
G0 X230.5593 Y85.2448
G1 Z0.0
G1 X239.5106 Y76.2938
G0 Z5.0
G0 X224.9649 Y79.6504
G1 Z0.0
G1 X233.9162 Y70.6994
G0 Z5.0
G0 X213.7761 Y74.056
G1 Z0.0
G1 X222.7274 Y65.105
G0 Z5.0
G0 X208.1817 Y74.056
G1 Z0.0
G1 X219.3705 Y62.8672
G0 Z5.0
G0 X196.9929 Y68.4616
G1 Z0.0
G1 X208.1817 Y57.2728
G0 Z5.0
G0 X185.8041 Y62.8672
G1 Z0.0
G1 X196.9929 Y51.6784
G0 Z5.0
G0 X180.2097 Y57.2728
G1 Z0.0
G1 X189.161 Y48.3218
G0 Z5.0
G0 X163.4265 Y40.4896
G1 Z0.0
G1 X165.6646 Y38.2517
G0 Z5.0
G0 X157.8321 Y40.4896
G1 Z0.0
G1 X164.5453 Y33.7764
G0 Z5.0
G0 X157.8321 Y34.8952
G1 Z0.0
G1 X166.7834 Y25.9442
G0 Z5.0
G0 X157.8321 Y23.7063
G1 Z0.0
G1 X173.4965 Y8.0419
G0 Z5.0
G0 X152.2377 Y18.1119
G1 Z0.0
G1 X167.9021 Y2.4475
G0 Z5.0
G0 X146.6433 Y6.9231
G1 Z0.0
G1 X160.0702 Y-6.5035
G0 Z5.0
G0 X141.0489 Y1.3287
G1 Z0.0
G1 X154.4758 Y-12.0979
G0 Z5.0
G0 X129.8601 Y-4.266
G1 Z0.0
G1 X143.287 Y-17.6923
G0 Z5.0
G0 X118.6713 Y-4.266
G1 Z0.0
G1 X132.0979 Y-17.6923
G0 Z5.0
G0 X101.8881 Y-9.8604
G1 Z0.0
G1 X110.839 Y-18.8111
G0 Z5.0
G0 X96.2937 Y-15.4548
G1 Z0.0
G1 X109.7203 Y-28.8811
G0 Z5.0
G0 X96.2937 Y-9.8604
G1 Z0.0
G1 X107.4825 Y-21.0492
G0 Z5.0
G0 X101.8881 Y1.3287
G1 Z0.0
G1 X117.5525 Y-14.3354
G0 Z5.0
G0 X96.2937 Y1.3287
G1 Z0.0
G1 X100.7693 Y-3.1466
G0 Z5.0
G0 X90.6993 Y-4.266
G1 Z0.0
G1 X92.9371 Y-6.5035
G0 Z5.0
G0 X85.1048 Y-9.8604
G1 Z0.0
G1 X111.9581 Y-36.713
G0 Z5.0
G0 X73.916 Y-4.266
G1 Z0.0
G1 X76.1539 Y-6.5035
G0 Z5.0
G0 X73.916 Y1.3287
G1 Z0.0
G1 X76.1539 Y-0.9091
G0 Z5.0
G0 X79.5104 Y6.9231
G1 Z0.0
G1 X81.7483 Y4.6853
G0 Z5.0
G0 X85.1048 Y6.9231
G1 Z0.0
G1 X96.2937 Y-4.266
G0 Z5.0
G0 X68.3216 Y12.5175
G1 Z0.0
G1 X79.5104 Y1.3287
G0 Z5.0
G0 X62.7272 Y12.5175
G1 Z0.0
G1 X69.4407 Y5.8041
G0 Z5.0
G0 X57.1328 Y6.9231
G1 Z0.0
G1 X66.0838 Y-2.0279
G0 Z5.0
G0 X57.1328 Y-4.266
G1 Z0.0
G1 X63.8463 Y-10.9791
G0 Z5.0
G0 X57.1328 Y-9.8604
G1 Z0.0
G1 X66.0838 Y-18.8111
G0 Z5.0
G0 X57.1328 Y-21.0492
G1 Z0.0
G1 X68.3216 Y-32.238
G0 Z5.0
G0 X57.1328 Y-15.4548
G1 Z0.0
G1 X66.0838 Y-24.4055
G0 Z5.0
G0 X57.1328 Y1.3287
G1 Z0.0
G1 X63.8463 Y-5.3847
G0 Z5.0
G0 X51.5384 Y6.9231
G1 Z0.0
G1 X53.7763 Y4.6853
G0 Z5.0
G0 X45.944 Y6.9231
G1 Z0.0
G1 X50.4197 Y2.4475
G0 Z5.0
G0 X40.3496 Y1.3287
G1 Z0.0
G1 X42.5874 Y-0.9091
G0 Z5.0
G0 X40.3496 Y-4.266
G1 Z0.0
G1 X42.5874 Y-6.5035
G0 Z5.0
G0 X40.3496 Y-9.8604
G1 Z0.0
G1 X42.5874 Y-12.0979
G0 Z5.0
G0 X57.1328 Y12.5175
G1 Z0.0
G1 X66.0838 Y3.5666
G0 Z5.0
G0 X68.3216 Y34.8952
G1 Z0.0
G1 X72.7973 Y30.4195
G0 Z5.0
G0 X73.916 Y34.8952
G1 Z0.0
G1 X78.3917 Y30.4195
G0 Z5.0
G0 X79.5104 Y34.8952
G1 Z0.0
G1 X83.9861 Y30.4195
G0 Z5.0
G0 X85.1048 Y34.8952
G1 Z0.0
G1 X94.0558 Y25.9442
G0 Z5.0
G0 X96.2937 Y29.3007
G1 Z0.0
G1 X100.7693 Y24.8251
G0 Z5.0
G0 X101.8881 Y29.3007
G1 Z0.0
G1 X104.1259 Y27.0629
G0 Z5.0
G0 X107.4825 Y29.3007
G1 Z0.0
G1 X111.9581 Y24.8251
G0 Z5.0
G0 X113.0769 Y29.3007
G1 Z0.0
G1 X117.5525 Y24.8251
G0 Z5.0
G0 X118.6713 Y29.3007
G1 Z0.0
G1 X120.9091 Y27.0629
G0 Z5.0
G0 X124.2657 Y29.3007
G1 Z0.0
G1 X126.5035 Y27.0629
G0 Z5.0
G0 X152.2377 Y23.7063
G1 Z0.0
G1 X170.1397 Y5.8041
G0 Z5.0
G0 X157.8321 Y29.3007
G1 Z0.0
G1 X162.3077 Y24.8251
G0 Z5.0
G0 X152.2377 Y57.2728
G1 Z0.0
G1 X167.9021 Y41.6083
G0 Z5.0
G0 X152.2377 Y62.8672
G1 Z0.0
G1 X172.3778 Y42.7274
G0 Z5.0
G0 X163.4265 Y68.4616
G1 Z0.0
G1 X183.5666 Y48.3218
G0 Z5.0
G0 X169.0209 Y74.056
G1 Z0.0
G1 X177.9722 Y65.105
G0 Z5.0
G0 X174.6153 Y79.6504
G1 Z0.0
G1 X183.5666 Y70.6994
G0 Z5.0
G0 X174.6153 Y85.2448
G1 Z0.0
G1 X185.8041 Y74.056
G0 Z5.0
G0 X169.0209 Y79.6504
G1 Z0.0
G1 X182.4478 Y66.2237
G0 Z5.0
G0 X163.4265 Y74.056
G1 Z0.0
G1 X174.6153 Y62.8672
G0 Z5.0
G0 X157.8321 Y68.4616
G1 Z0.0
G1 X180.2097 Y46.084
G0 Z5.0
G0 X152.2377 Y68.4616
G1 Z0.0
G1 X176.8534 Y43.8461
G0 Z5.0
G0 X174.6153 Y90.8392
G1 Z0.0
G1 X188.0422 Y77.4126
G0 Z5.0
G0 X180.2097 Y96.4336
G1 Z0.0
G1 X191.3985 Y85.2448
G0 Z5.0
G0 X180.2097 Y102.028
G1 Z0.0
G1 X193.6366 Y88.6014
G0 Z5.0
G0 X185.8041 Y107.6224
G1 Z0.0
G1 X196.9929 Y96.4336
G0 Z5.0
G0 X185.8041 Y113.2168
G1 Z0.0
G1 X196.9929 Y102.028
G0 Z5.0
G0 X191.3985 Y118.8112
G1 Z0.0
G1 X200.3498 Y109.8602
G0 Z5.0
G0 X191.3985 Y124.4056
G1 Z0.0
G1 X202.5873 Y113.2168
G0 Z5.0
G0 X185.8041 Y118.8112
G1 Z0.0
G1 X199.231 Y105.3846
G0 Z5.0
G0 X180.2097 Y107.6224
G1 Z0.0
G1 X193.6366 Y94.1958
G0 Z5.0
G0 X174.6153 Y96.4336
G1 Z0.0
G1 X190.2797 Y80.7691
G0 Z5.0
G0 X236.1537 Y96.4336
G1 Z0.0
G1 X247.3425 Y85.2448
G0 Z5.0
G0 X241.7481 Y102.028
G1 Z0.0
G1 X250.6994 Y93.077
G0 Z5.0
G0 X247.3425 Y107.6224
G1 Z0.0
G1 X260.7695 Y94.1958
G0 Z5.0
G0 X258.5313 Y107.6224
G1 Z0.0
G1 X314.4754 Y51.6784
G0 Z5.0
G0 X275.3145 Y107.6224
G1 Z0.0
G1 X286.5034 Y96.4336
G0 Z5.0
G0 X269.7201 Y107.6224
G1 Z0.0
G1 X285.3846 Y91.9579
G0 Z5.0
G0 X264.1257 Y107.6224
G1 Z0.0
G1 X313.3566 Y58.3915
G0 Z5.0
G0 X191.3985 Y130.0
G1 Z0.0
G1 X202.5873 Y118.8112
G0 Z5.0
G0 X191.3985 Y135.5944
G1 Z0.0
G1 X204.8254 Y122.1678
G0 Z5.0
G0 X196.9929 Y141.1888
G1 Z0.0
G1 X208.1817 Y130.0
G0 Z5.0
G0 X196.9929 Y146.7832
G1 Z0.0
G1 X208.1817 Y135.5944
G0 Z5.0
G0 X191.3985 Y141.1888
G1 Z0.0
G1 X207.0629 Y125.5247
G0 Z5.0
G0 X185.8041 Y135.5944
G1 Z0.0
G1 X188.0422 Y133.3566
G0 Z5.0
G0 X196.9929 Y152.3776
G1 Z0.0
G1 X210.4198 Y138.951
G0 Z5.0
G0 X196.9929 Y157.972
G1 Z0.0
G1 X212.6574 Y142.3079
G0 Z5.0
G0 X196.9929 Y163.5664
G1 Z0.0
G1 X212.6574 Y147.9023
G0 Z5.0
G0 X180.2097 Y163.5664
G1 Z0.0
G1 X182.4478 Y161.3286
G0 Z5.0
G0 X169.0209 Y157.972
G1 Z0.0
G1 X175.7341 Y151.2588
G0 Z5.0
G0 X169.0209 Y152.3776
G1 Z0.0
G1 X175.7341 Y145.6644
G0 Z5.0
G0 X163.4265 Y152.3776
G1 Z0.0
G1 X174.6153 Y141.1888
G0 Z5.0
G0 X157.8321 Y152.3776
G1 Z0.0
G1 X173.4965 Y136.7135
G0 Z5.0
G0 X152.2377 Y152.3776
G1 Z0.0
G1 X172.3778 Y132.2378
G0 Z5.0
G0 X146.6433 Y152.3776
G1 Z0.0
G1 X171.259 Y127.7622
G0 Z5.0
G0 X135.4545 Y157.972
G1 Z0.0
G1 X169.0209 Y124.4056
G0 Z5.0
G0 X129.8601 Y157.972
G1 Z0.0
G1 X167.9021 Y119.9302
G0 Z5.0
G0 X124.2657 Y169.1608
G1 Z0.0
G1 X126.5035 Y166.923
G0 Z5.0
G0 X118.6713 Y169.1608
G1 Z0.0
G1 X123.1469 Y164.6855
G0 Z5.0
G0 X118.6713 Y163.5664
G1 Z0.0
G1 X167.9021 Y114.3358
G0 Z5.0
G0 X129.8601 Y174.7552
G1 Z0.0
G1 X132.0979 Y172.5174
G0 Z5.0
G0 X135.4545 Y180.3496
G1 Z0.0
G1 X137.6926 Y178.1118
G0 Z5.0
G0 X152.2377 Y197.1328
G1 Z0.0
G1 X163.4265 Y185.944
G0 Z5.0
G0 X157.8321 Y197.1328
G1 Z0.0
G1 X169.0209 Y185.944
G0 Z5.0
G0 X180.2097
G1 Z0.0
G1 X213.7761 Y152.3776
G0 Z5.0
G0 X185.8041 Y191.5384
G1 Z0.0
G1 X214.8949 Y162.4477
G0 Z5.0
G0 X185.8041 Y197.1328
G1 Z0.0
G1 X212.6574 Y170.2799
G0 Z5.0
G0 X180.2097 Y191.5384
G1 Z0.0
G1 X213.7761 Y157.972
G0 Z5.0
G0 X185.8041 Y202.7272
G1 Z0.0
G1 X199.231 Y189.3009
G0 Z5.0
G0 X185.8041 Y208.3216
G1 Z0.0
G1 X199.231 Y194.8953
G0 Z5.0
G0 X191.3985 Y213.916
G1 Z0.0
G1 X200.3498 Y204.9651
G0 Z5.0
G0 X191.3985 Y219.5104
G1 Z0.0
G1 X202.5873 Y208.3216
G0 Z5.0
G0 X185.8041 Y213.916
G1 Z0.0
G1 X201.4685 Y198.2519
G0 Z5.0
G0 X191.3985 Y225.1048
G1 Z0.0
G1 X202.5873 Y213.916
G0 Z5.0
G0 X191.3985 Y230.6993
G1 Z0.0
G1 X202.5873 Y219.5104
G0 Z5.0
G0 X191.3985 Y236.2937
G1 Z0.0
G1 X202.5873 Y225.1048
G0 Z5.0
G0 X191.3985 Y241.8881
G1 Z0.0
G1 X202.5873 Y230.6993
G0 Z5.0
G0 X191.3985 Y247.4825
G1 Z0.0
G1 X202.5873 Y236.2937
G0 Z5.0
G0 X191.3985 Y253.0769
G1 Z0.0
G1 X202.5873 Y241.8881
G0 Z5.0
G0 X185.8041 Y264.266
G1 Z0.0
G1 X203.7061 Y246.3637
G0 Z5.0
G0 X185.8041 Y269.8604
G1 Z0.0
G1 X203.7061 Y251.9581
G0 Z5.0
G0 X185.8041 Y275.4548
G1 Z0.0
G1 X203.7061 Y257.5525
G0 Z5.0
G0 X185.8041 Y281.0492
G1 Z0.0
G1 X203.7061 Y263.1469
G0 Z5.0
G0 X180.2097 Y292.238
G1 Z0.0
G1 X202.5873 Y269.8604
G0 Z5.0
G0 X180.2097 Y297.8324
G1 Z0.0
G1 X200.3498 Y277.6923
G0 Z5.0
G0 X174.6153 Y309.0212
G1 Z0.0
G1 X199.231 Y284.4058
G0 Z5.0
G0 X163.4265 Y325.8044
G1 Z0.0
G1 X196.9929 Y292.238
G0 Z5.0
G0 X152.2377 Y247.4825
G1 Z0.0
G1 X154.4758 Y245.2449
G0 Z5.0
G0 X157.8321 Y230.6993
G1 Z0.0
G1 X160.0702 Y228.4617
G0 Z5.0
G0 X157.8321 Y225.1048
G1 Z0.0
G1 X162.3077 Y220.6295
G0 Z5.0
G0 X157.8321 Y219.5104
G1 Z0.0
G1 X164.5453 Y212.7973
G0 Z5.0
G0 X157.8321 Y213.916
G1 Z0.0
G1 X162.3077 Y209.4407
G0 Z5.0
G0 X157.8321 Y208.3216
G1 Z0.0
G1 X162.3077 Y203.8463
G0 Z5.0
G0 X157.8321 Y202.7272
G1 Z0.0
G1 X177.9722 Y182.5874
G0 Z5.0
G0 X113.0769 Y163.5664
G1 Z0.0
G1 X164.5453 Y112.098
G0 Z5.0
G0 X107.4825 Y157.972
G1 Z0.0
G1 X161.189 Y104.2658
G0 Z5.0
G0 X107.4825 Y163.5664
G1 Z0.0
G1 X163.4265 Y107.6224
G0 Z5.0
G0 X101.8881 Y157.972
G1 Z0.0
G1 X160.0702 Y99.7902
G0 Z5.0
G0 X96.2937 Y152.3776
G1 Z0.0
G1 X154.4758 Y94.1958
G0 Z5.0
G0 X96.2937 Y157.972
G1 Z0.0
G1 X156.7133 Y97.5523
G0 Z5.0
G0 X90.6993 Y152.3776
G1 Z0.0
G1 X151.1189 Y91.9579
G0 Z5.0
G0 X85.1048 Y152.3776
G1 Z0.0
G1 X150.0002 Y87.4826
G0 Z5.0
G0 X73.916 Y141.1888
G1 Z0.0
G1 X136.5732 Y78.5316
G0 Z5.0
G0 X62.7272 Y34.8952
G1 Z0.0
G1 X67.2029 Y30.4195
G0 Z5.0
G0 X57.1328 Y34.8952
G1 Z0.0
G1 X61.6085 Y30.4195
G0 Z5.0
G0 X23.5664 Y74.056
G1 Z0.0
G1 X39.2309 Y58.3915
G0 Z5.0
G0 X17.972 Y85.2448
G1 Z0.0
G1 X53.7763 Y49.4405
G0 Z5.0
G0 X1.1888 Y40.4896
G1 Z0.0
G1 X30.2796 Y11.3985
G0 Z5.0
G0 X6.7832 Y1.3287
G1 Z0.0
G1 X24.6852 Y-16.5735
G0 Z5.0
G0 X6.7832 Y-15.4548
G1 Z0.0
G1 X13.4964 Y-22.1679
G0 Z5.0
G0 X6.7832 Y-21.0492
G1 Z0.0
G1 X11.2588 Y-25.5242
G0 Z5.0
G0 X6.7832 Y-26.6436
G1 Z0.0
G1 X9.021 Y-28.8811
G0 Z5.0
G0 X-4.4056 Y-37.8324
G1 Z0.0
G1 X2.3076 Y-44.5455
G0 Z5.0
G0 X-4.4056 Y-43.4268
G1 Z0.0
G1 X2.3076 Y-50.1399
G0 Z5.0
G0 X-4.4056 Y-49.0212
G1 Z0.0
G1 X2.3076 Y-55.7344
G0 Z5.0
G0 X-4.4056 Y-54.6156
G1 Z0.0
G1 X0.07 Y-59.0906
G0 Z5.0
G0 X-4.4056 Y-60.21
G1 Z0.0
G1 X2.3076 Y-66.9232
G0 Z5.0
G0 X-4.4056 Y-65.8044
G1 Z0.0
G1 X-2.1678 Y-68.0419
G0 Z5.0
G0 X-10.0 Y-65.8044
G1 Z0.0
G1 X-3.2868 Y-72.5176
G0 Z5.0
G0 X-10.0 Y-71.3988
G1 Z0.0
G1 X-3.2868 Y-78.112
G0 Z5.0
G0 X-4.4056 Y-82.5876
G1 Z0.0
G1 X-2.1678 Y-84.8251
G0 Z5.0
G0 X-4.4056 Y-88.182
G1 Z0.0
G1 X-2.1678 Y-90.4195
G0 Z5.0
G0 X-4.4056 Y-93.7764
G1 Z0.0
G1 X-2.1678 Y-96.0139
G0 Z5.0
G0 X-4.4056 Y-99.3708
G1 Z0.0
G1 X-2.1678 Y-101.6083
G0 Z5.0
G0 X-4.4056 Y-104.9652
G1 Z0.0
G1 X0.07 Y-109.4409
G0 Z5.0
G0 X-4.4056 Y-110.5596
G1 Z0.0
G1 X0.07 Y-115.0353
G0 Z5.0
G0 X-4.4056 Y-116.154
G1 Z0.0
G1 X17.972 Y-138.5316
G0 Z5.0
G0 X-10.0 Y-121.7484
G1 Z0.0
G1 X1.1888 Y-132.9372
G0 Z5.0
G0 X-21.1888 Y-127.3428
G1 Z0.0
G1 X-10.0 Y-138.5316
G0 Z5.0
G0 X-43.5664 Y-110.5596
G1 Z0.0
G1 X-36.8533 Y-117.2728
G0 Z5.0
G0 X-43.5664 Y-104.9652
G1 Z0.0
G1 X-36.8533 Y-111.6784
G0 Z5.0
G0 X-49.1608 Y-110.5596
G1 Z0.0
G1 X-20.07 Y-139.6504
G0 Z5.0
G0 X-54.7552 Y-116.154
G1 Z0.0
G1 X-30.1398 Y-140.7692
G0 Z5.0
G0 X-43.5664 Y-99.3708
G1 Z0.0
G1 X-39.0908 Y-103.8464
G0 Z5.0
G0 X-43.5664 Y-93.7764
G1 Z0.0
G1 X-39.0908 Y-98.252
G0 Z5.0
G0 X-43.5664 Y-88.182
G1 Z0.0
G1 X-39.0908 Y-92.6571
G0 Z5.0
G0 X-43.5664 Y-82.5876
G1 Z0.0
G1 X-39.0908 Y-87.0627
G0 Z5.0
G0 X-37.972 Y-71.3988
G1 Z0.0
G1 X-35.7342 Y-73.6363
G0 Z5.0
G0 X-43.5664 Y-71.3988
G1 Z0.0
G1 X-36.8533 Y-78.112
G0 Z5.0
G0 X-32.3776 Y-65.8044
G1 Z0.0
G1 X-30.1398 Y-68.0419
G0 Z5.0
G0 X-26.7832 Y-65.8044
G1 Z0.0
G1 X-24.5454 Y-68.0419
G0 Z5.0
G0 X-37.972 Y-54.6156
G1 Z0.0
G1 X-35.7342 Y-56.8531
G0 Z5.0
G0 X-37.972 Y-49.0212
G1 Z0.0
G1 X-35.7342 Y-51.2587
G0 Z5.0
G0 X-43.5664 Y-54.6156
G1 Z0.0
G1 X-36.8533 Y-61.3288
G0 Z5.0
G0 X-43.5664 Y-60.21
G1 Z0.0
G1 X-39.0908 Y-64.685
G0 Z5.0
G0 X-43.5664 Y-65.8044
G1 Z0.0
G1 X-41.3286 Y-68.0419
G0 Z5.0
G0 X-49.1608 Y-71.3988
G1 Z0.0
G1 X-37.972 Y-82.5876
G0 Z5.0
G0 X-54.7552 Y-71.3988
G1 Z0.0
G1 X-52.5174 Y-73.6363
G0 Z5.0
G0 X-65.944 Y-71.3988
G1 Z0.0
G1 X-61.4687 Y-75.8739
G0 Z5.0
G0 X-71.5384 Y-71.3988
G1 Z0.0
G1 X-64.8253 Y-78.112
G0 Z5.0
G0 X-65.944 Y-60.21
G1 Z0.0
G1 X-63.7062 Y-62.4475
G0 Z5.0
G0 X-65.944 Y-54.6156
G1 Z0.0
G1 X-61.4687 Y-59.0906
G0 Z5.0
G0 X-60.3496 Y-49.0212
G1 Z0.0
G1 X-58.1118 Y-51.2587
G0 Z5.0
G0 X-71.5384 Y-43.4268
G1 Z0.0
G1 X-69.3006 Y-45.6643
G0 Z5.0
G0 X-71.5384 Y-37.8324
G1 Z0.0
G1 X-67.0631 Y-42.3074
G0 Z5.0
G0 X-65.944 Y-32.238
G1 Z0.0
G1 X-63.7062 Y-34.4755
G0 Z5.0
G0 X-65.944 Y-26.6436
G1 Z0.0
G1 X-61.4687 Y-31.1186
G0 Z5.0
G0 X-65.944 Y-21.0492
G1 Z0.0
G1 X-59.2309 Y-27.7623
G0 Z5.0
G0 X-60.3496 Y-15.4548
G1 Z0.0
G1 X-55.8743 Y-19.9298
G0 Z5.0
G0 X-65.944 Y-15.4548
G1 Z0.0
G1 X-56.993 Y-24.4055
G0 Z5.0
G0 X-77.1328 Y-21.0492
G1 Z0.0
G1 X-74.895 Y-23.2867
G0 Z5.0
G0 X-77.1328 Y-15.4548
G1 Z0.0
G1 X-72.6575 Y-19.9298
G0 Z5.0
G0 X-77.1328 Y-4.266
G1 Z0.0
G1 X-70.4197 Y-10.9791
G0 Z5.0
G0 X-71.5384 Y1.3287
G1 Z0.0
G1 X-55.8743 Y-14.3354
G0 Z5.0
G0 X-54.7552 Y1.3287
G1 Z0.0
G1 X-43.5664 Y-9.8604
G0 Z5.0
G0 X-32.3776 Y1.3287
G1 Z0.0
G1 X-5.5244 Y-25.5242
G0 Z5.0
G0 X-10.0 Y-26.6436
G1 Z0.0
G1 X-7.7622 Y-28.8811
G0 Z5.0
G0 X-26.7832 Y-15.4548
G1 Z0.0
G1 X-22.3076 Y-19.9298
G0 Z5.0
G0 X-26.7832 Y-9.8604
G1 Z0.0
G1 X-20.07 Y-16.5735
G0 Z5.0
G0 X-32.3776 Y6.9231
G1 Z0.0
G1 X-5.5244 Y-19.9298
G0 Z5.0
G0 X6.7832 Y-9.8604
G1 Z0.0
G1 X15.7342 Y-18.8111
G0 Z5.0
G0 X6.7832 Y-4.266
G1 Z0.0
G1 X24.6852 Y-22.1679
G0 Z5.0
G0 X29.1608 Y-43.4268
G1 Z0.0
G1 X31.3986 Y-45.6643
G0 Z5.0
G0 X29.1608 Y-49.0212
G1 Z0.0
G1 X35.8743 Y-55.7344
G0 Z5.0
G0 X29.1608 Y-54.6156
G1 Z0.0
G1 X33.6365 Y-59.0906
G0 Z5.0
G0 X23.5664 Y-60.21
G1 Z0.0
G1 X25.8042 Y-62.4475
G0 Z5.0
G0 X17.972 Y-60.21
G1 Z0.0
G1 X29.1608 Y-71.3988
G0 Z5.0
G0 X12.3776 Y-60.21
G1 Z0.0
G1 X16.8533 Y-64.685
G0 Z5.0
G0 X1.1888 Y12.5175
G1 Z0.0
G1 X25.8042 Y-12.0979
G0 Z5.0
G0 X1.1888 Y18.1119
G1 Z0.0
G1 X25.8042 Y-6.5035
G0 Z5.0
G0 X1.1888 Y23.7063
G1 Z0.0
G1 X25.8042 Y-0.9091
G0 Z5.0
G0 X1.1888 Y29.3007
G1 Z0.0
G1 X28.0421 Y2.4475
G0 Z5.0
G0 X1.1888 Y34.8952
G1 Z0.0
G1 X28.0421 Y8.0419
G0 Z5.0
G0 X-32.3776 Y29.3007
G1 Z0.0
G1 X-7.7622 Y4.6853
G0 Z5.0
G0 X-37.972 Y18.1119
G1 Z0.0
G1 X-6.6434 Y-13.2167
G0 Z5.0
G0 X-37.972 Y23.7063
G1 Z0.0
G1 X-6.6434 Y-7.6223
G0 Z5.0
G0 X-37.972 Y29.3007
G1 Z0.0
G1 X-6.6434 Y-2.0279
G0 Z5.0
G0 X-32.3776 Y34.8952
G1 Z0.0
G1 X-7.7622 Y10.2797
G0 Z5.0
G0 X-32.3776 Y40.4896
G1 Z0.0
G1 X-5.5244 Y13.6363
G0 Z5.0
G0 X-26.7832 Y46.084
G1 Z0.0
G1 X-4.4056 Y23.7063
G0 Z5.0
G0 X-26.7832 Y51.6784
G1 Z0.0
G1 X-4.4056 Y29.3007
G0 Z5.0
G0 X-21.1888 Y57.2728
G1 Z0.0
G1 X-3.2868 Y39.3708
G0 Z5.0
G0 X-21.1888 Y62.8672
G1 Z0.0
G1 X-3.2868 Y44.9652
G0 Z5.0
G0 X-15.5944 Y68.4616
G1 Z0.0
G1 X33.6365 Y19.2307
G0 Z5.0
G0 X-32.3776 Y46.084
G1 Z0.0
G1 X-5.5244 Y19.2307
G0 Z5.0
G0 X-26.7832 Y57.2728
G1 Z0.0
G1 X-4.4056 Y34.8952
G0 Z5.0
G0 X-21.1888 Y68.4616
G1 Z0.0
G1 X32.5174 Y14.7554
G0 Z5.0
G0 X-15.5944 Y74.056
G1 Z0.0
G1 X35.8743 Y22.5876
G0 Z5.0
G0 X17.972 Y90.8392
G1 Z0.0
G1 X58.2519 Y50.5596
G0 Z5.0
G0 X40.3496 Y113.2168
G1 Z0.0
G1 X91.8183 Y61.7484
G0 Z5.0
G0 X51.5384 Y118.8112
G1 Z0.0
G1 X105.2446 Y65.105
G0 Z5.0
G0 X57.1328 Y124.4056
G1 Z0.0
G1 X117.5525 Y63.9859
G0 Z5.0
G0 X62.7272 Y130.0
G1 Z0.0
G1 X127.6225 Y65.105
G0 Z5.0
G0 X68.3216 Y135.5944
G1 Z0.0
G1 X133.2169 Y70.6994
G0 Z5.0
G0 X68.3216 Y141.1888
G1 Z0.0
G1 X135.4545 Y74.056
G0 Z5.0
G0 X73.916 Y146.7832
G1 Z0.0
G1 X138.8114 Y81.8882
G0 Z5.0
G0 X79.5104 Y152.3776
G1 Z0.0
G1 X146.6433 Y85.2448
G0 Z5.0
G0 X62.7272 Y135.5944
G1 Z0.0
G1 X134.3357 Y63.9859
G0 Z5.0
G0 X57.1328 Y130.0
G1 Z0.0
G1 X122.0281 Y65.105
G0 Z5.0
G0 X51.5384 Y124.4056
G1 Z0.0
G1 X111.9581 Y63.9859
G0 Z5.0
G0 X45.944 Y118.8112
G1 Z0.0
G1 X99.6502 Y65.105
G0 Z5.0
G0 X40.3496 Y118.8112
G1 Z0.0
G1 X96.2937 Y62.8672
G0 Z5.0
G0 X34.7552 Y113.2168
G1 Z0.0
G1 X86.2239 Y61.7484
G0 Z5.0
G0 X29.1608 Y113.2168
G1 Z0.0
G1 X82.867 Y59.5106
G0 Z5.0
G0 X23.5664 Y113.2168
G1 Z0.0
G1 X79.5104 Y57.2728
G0 Z5.0
G0 X12.3776 Y102.028
G1 Z0.0
G1 X63.8463 Y50.5596
G0 Z5.0
G0 X12.3776 Y107.6224
G1 Z0.0
G1 X66.0838 Y53.9162
G0 Z5.0
G0 X17.972 Y113.2168
G1 Z0.0
G1 X73.916 Y57.2728
G0 Z5.0
G0 X-10.0 Y79.6504
G1 Z0.0
G1 X36.993 Y32.6573
G0 Z5.0
G0 X-10.0 Y85.2448
G1 Z0.0
G1 X36.993 Y38.2517
G0 Z5.0
G0 X-15.5944 Y79.6504
G1 Z0.0
G1 X35.8743 Y28.182
G0 Z5.0
G0 X-10.0 Y90.8392
G1 Z0.0
G1 X30.2796 Y50.5596
G0 Z5.0
G0 X-10.0 Y96.4336
G1 Z0.0
G1 X23.5664 Y62.8672
G0 Z5.0
G0 X-10.0 Y102.028
G1 Z0.0
G1 X12.3776 Y79.6504
G0 Z5.0
G0 X-4.4056 Y107.6224
G1 Z0.0
G1 X6.7832 Y96.4336
G0 Z5.0
G0 X-4.4056 Y113.2168
G1 Z0.0
G1 X2.3076 Y106.5036
G0 Z5.0
G0 X-10.0 Y107.6224
G1 Z0.0
G1 X10.1398 Y87.4826
G0 Z5.0
G0 X6.7832 Y118.8112
G1 Z0.0
G1 X69.4407 Y56.154
G0 Z5.0
G0 X34.7552 Y141.1888
G1 Z0.0
G1 X36.993 Y138.951
G0 Z5.0
G0 X34.7552 Y146.7832
G1 Z0.0
G1 X39.2309 Y142.3079
G0 Z5.0
G0 X40.3496 Y146.7832
G1 Z0.0
G1 X42.5874 Y144.5454
G0 Z5.0
G0 X45.944 Y152.3776
G1 Z0.0
G1 X48.1818 Y150.1398
G0 Z5.0
G0 X51.5384 Y163.5664
G1 Z0.0
G1 X53.7763 Y161.3286
G0 Z5.0
G0 X57.1328 Y174.7552
G1 Z0.0
G1 X59.3707 Y172.5174
G0 Z5.0
G0 X73.916 Y152.3776
G1 Z0.0
G1 X143.287 Y83.007
G0 Z5.0
G0 X107.4825 Y197.1328
G1 Z0.0
G1 X109.7203 Y194.8953
G0 Z5.0
G0 X107.4825 Y202.7272
G1 Z0.0
G1 X114.1959 Y196.0141
G0 Z5.0
G0 X101.8881 Y197.1328
G1 Z0.0
G1 X106.3637 Y192.6575
G0 Z5.0
G0 X107.4825 Y208.3216
G1 Z0.0
G1 X116.4337 Y199.3707
G0 Z5.0
G0 X107.4825 Y213.916
G1 Z0.0
G1 X118.6713 Y202.7272
G0 Z5.0
G0 X101.8881 Y225.1048
G1 Z0.0
G1 X115.3147 Y211.6785
G0 Z5.0
G0 X101.8881 Y230.6993
G1 Z0.0
G1 X106.3637 Y226.2239
G0 Z5.0
G0 X96.2937 Y241.8881
G1 Z0.0
G1 X103.0071 Y235.1749
G0 Z5.0
G0 X96.2937 Y247.4825
G1 Z0.0
G1 X100.7693 Y243.0071
G0 Z5.0
G0 X96.2937 Y253.0769
G1 Z0.0
G1 X100.7693 Y248.6015
G0 Z5.0
G0 X101.8881 Y269.8604
G1 Z0.0
G1 X104.1259 Y267.6225
G0 Z5.0
G0 X101.8881 Y275.4548
G1 Z0.0
G1 X106.3637 Y270.9791
G0 Z5.0
G0 X107.4825 Y281.0492
G1 Z0.0
G1 X109.7203 Y278.8114
G0 Z5.0
G0 X107.4825 Y286.6436
G1 Z0.0
G1 X109.7203 Y284.4058
G0 Z5.0
G0 X113.0769 Y297.8324
G1 Z0.0
G1 X115.3147 Y295.5946
G0 Z5.0
G0 X113.0769 Y336.9932
G1 Z0.0
G1 X115.3147 Y334.7554
G0 Z5.0
G0 X113.0769 Y342.5876
G1 Z0.0
G1 X115.3147 Y340.3498
G0 Z5.0
G0 X107.4825 Y353.7764
G1 Z0.0
G1 X114.1959 Y347.0629
G0 Z5.0
G0 X101.8881 Y364.9652
G1 Z0.0
G1 X113.0769 Y353.7764
G0 Z5.0
G0 X129.8601 Y381.7484
G1 Z0.0
G1 X179.0909 Y332.5176
G0 Z5.0
G0 X118.6713 Y387.3428
G1 Z0.0
G1 X185.8041 Y320.21
G0 Z5.0
G0 X107.4825 Y392.9372
G1 Z0.0
G1 X190.2797 Y310.1399
G0 Z5.0
G0 X96.2937 Y398.5316
G1 Z0.0
G1 X194.7554 Y300.0699
G0 Z5.0
G0 X85.1048 Y404.126
G1 Z0.0
G1 X125.3847 Y363.8462
G0 Z5.0
G0 X79.5104 Y404.126
G1 Z0.0
G1 X110.839 Y372.7974
G0 Z5.0
G0 X68.3216 Y409.7204
G1 Z0.0
G1 X110.839 Y367.203
G0 Z5.0
G0 X62.7272 Y409.7204
G1 Z0.0
G1 X114.1959 Y358.2518
G0 Z5.0
G0 X51.5384 Y415.3148
G1 Z0.0
G1 X78.3917 Y388.4616
G0 Z5.0
G0 X45.944 Y415.3148
G1 Z0.0
G1 X68.3216 Y392.9372
G0 Z5.0
G0 X40.3496 Y415.3148
G1 Z0.0
G1 X60.4894 Y395.175
G0 Z5.0
G0 X29.1608 Y420.9092
G1 Z0.0
G1 X53.7763 Y396.2938
G0 Z5.0
G0 X23.5664 Y420.9092
G1 Z0.0
G1 X45.944 Y398.5316
G0 Z5.0
G0 X17.972 Y420.9092
G1 Z0.0
G1 X38.1118 Y400.7695
G0 Z5.0
G0 X12.3776 Y420.9092
G1 Z0.0
G1 X30.2796 Y403.007
G0 Z5.0
G0 X6.7832 Y420.9092
G1 Z0.0
G1 X24.6852 Y403.007
G0 Z5.0
G0 X1.1888 Y420.9092
G1 Z0.0
G1 X16.8533 Y405.2448
G0 Z5.0
G0 X-4.4056 Y420.9092
G1 Z0.0
G1 X11.2588 Y405.2448
G0 Z5.0
G0 X-10.0 Y420.9092
G1 Z0.0
G1 X5.6644 Y405.2448
G0 Z5.0
G0 X-15.5944 Y420.9092
G1 Z0.0
G1 X-2.1678 Y407.4826
G0 Z5.0
G0 X-21.1888 Y420.9092
G1 Z0.0
G1 X-7.7622 Y407.4826
G0 Z5.0
G0 X-26.7832 Y420.9092
G1 Z0.0
G1 X-13.3566 Y407.4826
G0 Z5.0
G0 X-32.3776 Y420.9092
G1 Z0.0
G1 X-18.951 Y407.4826
G0 Z5.0
G0 X-37.972 Y415.3148
G1 Z0.0
G1 X-26.7832 Y404.126
G0 Z5.0
G0 X-37.972 Y420.9092
G1 Z0.0
G1 X-22.3076 Y405.2448
G0 Z5.0
G0 X-43.5664 Y415.3148
G1 Z0.0
G1 X-32.3776 Y404.126
G0 Z5.0
G0 X-49.1608 Y415.3148
G1 Z0.0
G1 X-37.972 Y404.126
G0 Z5.0
G0 X-54.7552 Y415.3148
G1 Z0.0
G1 X-43.5664 Y404.126
G0 Z5.0
G0 X-60.3496 Y415.3148
G1 Z0.0
G1 X-49.1608 Y404.126
G0 Z5.0
G0 X-65.944 Y415.3148
G1 Z0.0
G1 X-52.5174 Y401.8882
G0 Z5.0
G0 X-71.5384 Y409.7204
G1 Z0.0
G1 X-62.5874 Y400.7695
G0 Z5.0
G0 X-77.1328 Y409.7204
G1 Z0.0
G1 X-68.1818 Y400.7695
G0 Z5.0
G0 X-71.5384 Y415.3148
G1 Z0.0
G1 X-58.1118 Y401.8882
G0 Z5.0
G0 X-82.7272 Y409.7204
G1 Z0.0
G1 X-71.5384 Y398.5316
G0 Z5.0
G0 X-88.3216 Y404.126
G1 Z0.0
G1 X-81.6085 Y397.4126
G0 Z5.0
G0 X-93.916 Y404.126
G1 Z0.0
G1 X-84.9651 Y395.175
G0 Z5.0
G0 X-88.3216 Y409.7204
G1 Z0.0
G1 X-77.1328 Y398.5316
G0 Z5.0
G0 X-99.5104 Y404.126
G1 Z0.0
G1 X-90.5595 Y395.175
G0 Z5.0
G0 X-105.1048 Y398.5316
G1 Z0.0
G1 X-98.3917 Y391.8182
G0 Z5.0
G0 X-110.6993 Y398.5316
G1 Z0.0
G1 X-101.7483 Y389.5806
G0 Z5.0
G0 X-105.1048 Y404.126
G1 Z0.0
G1 X-93.916 Y392.9372
G0 Z5.0
G0 X-116.2937
G1 Z0.0
G1 X-109.5805 Y386.2238
G0 Z5.0
G0 X-121.8881 Y392.9372
G1 Z0.0
G1 X-115.1749 Y386.2238
G0 Z5.0
G0 X-116.2937 Y398.5316
G1 Z0.0
G1 X-107.3427 Y389.5806
G0 Z5.0
G0 X-127.4825 Y392.9372
G1 Z0.0
G1 X-118.5315 Y383.9862
G0 Z5.0
G0 X-133.0769 Y387.3428
G1 Z0.0
G1 X-126.3637 Y380.6294
G0 Z5.0
G0 X-138.6713 Y381.7484
G1 Z0.0
G1 X-131.9581 Y375.035
G0 Z5.0
G0 X-144.2657 Y381.7484
G1 Z0.0
G1 X-137.5525 Y375.035
G0 Z5.0
G0 X-149.8601 Y376.154
G1 Z0.0
G1 X-143.1469 Y369.4406
G0 Z5.0
G0 X-155.4545 Y376.154
G1 Z0.0
G1 X-146.5035 Y367.203
G0 Z5.0
G0 X-161.0489 Y370.5596
G1 Z0.0
G1 X-154.3357 Y363.8462
G0 Z5.0
G0 X-166.6433 Y364.9652
G1 Z0.0
G1 X-159.9301 Y358.2518
G0 Z5.0
G0 X-172.2377 Y359.3708
G1 Z0.0
G1 X-165.5245 Y352.6574
G0 Z5.0
G0 X-177.8321 Y353.7764
G1 Z0.0
G1 X-171.1189 Y347.0629
G0 Z5.0
G0 X-183.4265 Y348.182
G1 Z0.0
G1 X-176.7133 Y341.4685
G0 Z5.0
G0 X-189.0209 Y342.5876
G1 Z0.0
G1 X-182.3077 Y335.8741
G0 Z5.0
G0 X-194.6153 Y336.9932
G1 Z0.0
G1 X-187.9021 Y330.2797
G0 Z5.0
G0 X-200.2097 Y331.3988
G1 Z0.0
G1 X-191.2587 Y322.4475
G0 Z5.0
G0 X-200.2097 Y325.8044
G1 Z0.0
G1 X-193.4965 Y319.0909
G0 Z5.0
G0 X-205.8044 Y320.21
G1 Z0.0
G1 X-196.8531 Y311.2587
G0 Z5.0
G0 X-205.8044 Y314.6156
G1 Z0.0
G1 X-199.0909 Y307.9021
G0 Z5.0
G0 X-211.3988 Y309.0212
G1 Z0.0
G1 X-202.4475 Y300.0699
G0 Z5.0
G0 X-211.3988 Y303.4268
G1 Z0.0
G1 X-204.6853 Y296.7133
G0 Z5.0
G0 X-216.9932 Y297.8324
G1 Z0.0
G1 X-205.8044 Y286.6436
G0 Z5.0
G0 X-216.9932
G1 Z0.0
G1 X-208.0419 Y277.6923
G0 Z5.0
G0 X-222.5876 Y275.4548
G1 Z0.0
G1 X-211.3988 Y264.266
G0 Z5.0
G0 X-222.5876
G1 Z0.0
G1 X-211.3988 Y253.0769
G0 Z5.0
G0 X-228.182
G1 Z0.0
G1 X-214.7554 Y239.6505
G0 Z5.0
G0 X-228.182 Y241.8881
G1 Z0.0
G1 X-214.7554 Y228.4617
G0 Z5.0
G0 X-228.182 Y230.6993
G1 Z0.0
G1 X-212.5176 Y215.0351
G0 Z5.0
G0 X-228.182 Y213.916
G1 Z0.0
G1 X-210.2797 Y196.0141
G0 Z5.0
G0 X-222.5876 Y191.5384
G1 Z0.0
G1 X-204.6853 Y173.6365
G0 Z5.0
G0 X-200.2097 Y174.7552
G1 Z0.0
G1 X-197.9722 Y172.5174
G0 Z5.0
G0 X-200.2097 Y180.3496
G1 Z0.0
G1 X-197.9722 Y178.1118
G0 Z5.0
G0 X-194.6153 Y185.944
G1 Z0.0
G1 X-190.1399 Y181.4687
G0 Z5.0
G0 X-189.0209 Y185.944
G1 Z0.0
G1 X-184.5455 Y181.4687
G0 Z5.0
G0 X-183.4265 Y185.944
G1 Z0.0
G1 X-178.9511 Y181.4687
G0 Z5.0
G0 X-177.8321 Y185.944
G1 Z0.0
G1 X-175.5946 Y183.7065
G0 Z5.0
G0 X-172.2377 Y185.944
G1 Z0.0
G1 X-170.0002 Y183.7065
G0 Z5.0
G0 X-172.2377 Y191.5384
G1 Z0.0
G1 X-167.7623 Y187.0631
G0 Z5.0
G0 X-166.6433 Y191.5384
G1 Z0.0
G1 X-164.4058 Y189.3009
G0 Z5.0
G0 X-172.2377 Y202.7272
G1 Z0.0
G1 X-163.2867 Y193.7763
G0 Z5.0
G0 X-172.2377 Y208.3216
G1 Z0.0
G1 X-165.5245 Y201.6085
G0 Z5.0
G0 X-172.2377 Y213.916
G1 Z0.0
G1 X-167.7623 Y209.4407
G0 Z5.0
G0 X-172.2377 Y219.5104
G1 Z0.0
G1 X-167.7623 Y215.0351
G0 Z5.0
G0 X-172.2377 Y247.4825
G1 Z0.0
G1 X-170.0002 Y245.2449
G0 Z5.0
G0 X-127.4825 Y230.6993
G1 Z0.0
G1 X-125.2446 Y228.4617
G0 Z5.0
G0 X-127.4825 Y225.1048
G1 Z0.0
G1 X-123.0071 Y220.6295
G0 Z5.0
G0 X-127.4825 Y219.5104
G1 Z0.0
G1 X-111.8183 Y203.8463
G0 Z5.0
G0 X-127.4825 Y208.3216
G1 Z0.0
G1 X-125.2446 Y206.0841
G0 Z5.0
G0 X-127.4825 Y213.916
G1 Z0.0
G1 X-114.0558 Y200.4897
G0 Z5.0
G0 X-127.4825 Y174.7552
G1 Z0.0
G1 X-29.021 Y76.2938
G0 Z5.0
G0 X-26.7832 Y107.6224
G1 Z0.0
G1 X-22.3076 Y103.147
G0 Z5.0
G0 X-26.7832 Y113.2168
G1 Z0.0
G1 X-20.07 Y106.5036
G0 Z5.0
G0 X-32.3776 Y107.6224
G1 Z0.0
G1 X-21.1888 Y96.4336
G0 Z5.0
G0 X-43.5664 Y113.2168
G1 Z0.0
G1 X-23.4266 Y93.077
G0 Z5.0
G0 X-49.1608 Y113.2168
G1 Z0.0
G1 X-24.5454 Y88.6014
G0 Z5.0
G0 X-60.3496 Y118.8112
G1 Z0.0
G1 X-24.5454 Y83.007
G0 Z5.0
G0 X1.1888 Y130.0
G1 Z0.0
G1 X5.6644 Y125.5247
G0 Z5.0
G0 X6.7832 Y135.5944
G1 Z0.0
G1 X11.2588 Y131.1191
G0 Z5.0
G0 X6.7832 Y141.1888
G1 Z0.0
G1 X13.4964 Y134.4756
G0 Z5.0
G0 X17.972 Y141.1888
G1 Z0.0
G1 X22.4477 Y136.7135
G0 Z5.0
G0 X23.5664 Y141.1888
G1 Z0.0
G1 X28.0421 Y136.7135
G0 Z5.0
G0 X29.1608 Y141.1888
G1 Z0.0
G1 X31.3986 Y138.951
G0 Z5.0
G0 X6.7832 Y146.7832
G1 Z0.0
G1 X17.972 Y135.5944
G0 Z5.0
G0 X6.7832 Y152.3776
G1 Z0.0
G1 X11.2588 Y147.9023
G0 Z5.0
G0 X1.1888 Y163.5664
G1 Z0.0
G1 X12.3776 Y152.3776
G0 Z5.0
G0 X1.1888 Y169.1608
G1 Z0.0
G1 X10.1398 Y160.2098
G0 Z5.0
G0 X-21.1888 Y141.1888
G1 Z0.0
G1 X-16.7132 Y136.7135
G0 Z5.0
G0 X-32.3776 Y146.7832
G1 Z0.0
G1 X-16.7132 Y131.1191
G0 Z5.0
G0 X-37.972 Y146.7832
G1 Z0.0
G1 X-17.8322 Y126.6434
G0 Z5.0
G0 X-43.5664 Y146.7832
G1 Z0.0
G1 X-36.8533 Y140.07
G0 Z5.0
G0 X-49.1608 Y146.7832
G1 Z0.0
G1 X-44.6852 Y142.3079
G0 Z5.0
G0 X-71.5384 Y163.5664
G1 Z0.0
G1 X-51.3986 Y143.4266
G0 Z5.0
G0 X-116.2937 Y157.972
G1 Z0.0
G1 X-29.021 Y70.6994
G0 Z5.0
G0 X-60.3496 Y34.8952
G1 Z0.0
G1 X-51.3986 Y25.9442
G0 Z5.0
G0 X-65.944 Y34.8952
G1 Z0.0
G1 X-59.2309 Y28.182
G0 Z5.0
G0 X-60.3496 Y1.3287
G1 Z0.0
G1 X-51.3986 Y-7.6223
G0 Z5.0
G0 X-65.944 Y1.3287
G1 Z0.0
G1 X-54.7552 Y-9.8604
G0 Z5.0
G0 X-77.1328 Y1.3287
G1 Z0.0
G1 X-70.4197 Y-5.3847
G0 Z5.0
G0 X-82.7272 Y-4.266
G1 Z0.0
G1 X-71.5384 Y-15.4548
G0 Z5.0
G0 X-88.3216 Y-4.266
G1 Z0.0
G1 X-83.8463 Y-8.741
G0 Z5.0
G0 X-93.916 Y-9.8604
G1 Z0.0
G1 X-84.9651 Y-18.8111
G0 Z5.0
G0 X-93.916 Y-4.266
G1 Z0.0
G1 X-87.2029 Y-10.9791
G0 Z5.0
G0 X-99.5104 Y-9.8604
G1 Z0.0
G1 X-86.0838 Y-23.2867
G0 Z5.0
G0 X-105.1048 Y-32.238
G1 Z0.0
G1 X-96.1539 Y-41.1887
G0 Z5.0
G0 X-110.6993 Y-37.8324
G1 Z0.0
G1 X-99.5104 Y-49.0212
G0 Z5.0
G0 X-116.2937
G1 Z0.0
G1 X-82.7272 Y-82.5876
G0 Z5.0
G0 X-99.5104
G1 Z0.0
G1 X-86.0838 Y-96.0139
G0 Z5.0
G0 X-82.7272 Y-110.5596
G1 Z0.0
G1 X-60.3496 Y-132.9372
G0 Z5.0
G0 X-77.1328 Y-110.5596
G1 Z0.0
G1 X-56.993 Y-130.6991
G0 Z5.0
G0 X-99.5104 Y-121.7484
G1 Z0.0
G1 X-95.0351 Y-126.2241
G0 Z5.0
G0 X-99.5104 Y-116.154
G1 Z0.0
G1 X-88.3216 Y-127.3428
G0 Z5.0
G0 X-99.5104 Y-110.5596
G1 Z0.0
G1 X-83.8463 Y-126.2241
G0 Z5.0
G0 X-99.5104 Y-88.182
G1 Z0.0
G1 X-86.0838 Y-101.6083
G0 Z5.0
G0 X-105.1048 Y-88.182
G1 Z0.0
G1 X-87.2029 Y-106.084
G0 Z5.0
G0 X-110.6993 Y-93.7764
G1 Z0.0
G1 X-81.6085 Y-122.8672
G0 Z5.0
G0 X-116.2937 Y-93.7764
G1 Z0.0
G1 X-105.1048 Y-104.9652
G0 Z5.0
G0 X-121.8881 Y-99.3708
G1 Z0.0
G1 X-112.9371 Y-108.3215
G0 Z5.0
G0 X-121.8881 Y-93.7764
G1 Z0.0
G1 X-110.6993 Y-104.9652
G0 Z5.0
G0 X-127.4825 Y-99.3708
G1 Z0.0
G1 X-118.5315 Y-108.3215
G0 Z5.0
G0 X-133.0769 Y-99.3708
G1 Z0.0
G1 X-121.8881 Y-110.5596
G0 Z5.0
G0 X-138.6713 Y-104.9652
G1 Z0.0
G1 X-129.7203 Y-113.9159
G0 Z5.0
G0 X-138.6713 Y-99.3708
G1 Z0.0
G1 X-127.4825 Y-110.5596
G0 Z5.0
G0 X-144.2657 Y-104.9652
G1 Z0.0
G1 X-135.3147 Y-113.9159
G0 Z5.0
G0 X-149.8601 Y-110.5596
G1 Z0.0
G1 X-143.1469 Y-117.2728
G0 Z5.0
G0 X-149.8601 Y-104.9652
G1 Z0.0
G1 X-138.6713 Y-116.154
G0 Z5.0
G0 X-155.4545 Y-110.5596
G1 Z0.0
G1 X-148.7413 Y-117.2728
G0 Z5.0
G0 X-161.0489 Y-116.154
G1 Z0.0
G1 X-154.3357 Y-122.8672
G0 Z5.0
G0 X-166.6433 Y-116.154
G1 Z0.0
G1 X-157.6923 Y-125.1047
G0 Z5.0
G0 X-161.0489 Y-110.5596
G1 Z0.0
G1 X-152.0979 Y-119.5103
G0 Z5.0
G0 X-172.2377 Y-121.7484
G1 Z0.0
G1 X-163.2867 Y-130.6991
G0 Z5.0
G0 X-172.2377 Y-116.154
G1 Z0.0
G1 X-161.0489 Y-127.3428
G0 Z5.0
G0 X-177.8321 Y-121.7484
G1 Z0.0
G1 X-168.8811 Y-130.6991
G0 Z5.0
G0 X-183.4265 Y-121.7484
G1 Z0.0
G1 X-172.2377 Y-132.9372
G0 Z5.0
G0 X-194.6153 Y-127.3428
G1 Z0.0
G1 X-183.4265 Y-138.5316
G0 Z5.0
G0 X-200.2097
G1 Z0.0
G1 X-191.2587 Y-147.4823
G0 Z5.0
G0 X-205.8044 Y-144.126
G1 Z0.0
G1 X-196.8531 Y-153.0767
G0 Z5.0
G0 X-211.3988 Y-155.3148
G1 Z0.0
G1 X-204.6853 Y-162.028
G0 Z5.0
G0 X-211.3988 Y-149.7204
G1 Z0.0
G1 X-202.4475 Y-158.6711
G0 Z5.0
G0 X-216.9932 Y-155.3148
G1 Z0.0
G1 X-208.0419 Y-164.2655
G0 Z5.0
G0 X-222.5876 Y-160.9092
G1 Z0.0
G1 X-213.6363 Y-169.8599
G0 Z5.0
G0 X-222.5876 Y-155.3148
G1 Z0.0
G1 X-211.3988 Y-166.5036
G0 Z5.0
G0 X-228.182 Y-160.9092
G1 Z0.0
G1 X-219.2307 Y-169.8599
G0 Z5.0
G0 X-233.7764 Y-160.9092
G1 Z0.0
G1 X-224.8251 Y-169.8599
G0 Z5.0
G0 X-244.9652 Y-155.3148
G1 Z0.0
G1 X-229.3008 Y-170.9793
G0 Z5.0
G0 X-250.5596 Y-155.3148
G1 Z0.0
G1 X-234.8952 Y-170.9793
G0 Z5.0
G0 X-211.3988 Y-144.126
G1 Z0.0
G1 X-200.2097 Y-155.3148
G0 Z5.0
G0 X-205.8044 Y-138.5316
G1 Z0.0
G1 X-194.6153 Y-149.7204
G0 Z5.0
G0 X-200.2097 Y-132.9372
G1 Z0.0
G1 X-189.0209 Y-144.126
G0 Z5.0
G0 X-200.2097 Y-127.3428
G1 Z0.0
G1 X-186.7834 Y-140.7692
G0 Z5.0
G0 X-194.6153 Y-121.7484
G1 Z0.0
G1 X-181.189 Y-135.1748
G0 Z5.0
G0 X-189.0209 Y-116.154
G1 Z0.0
G1 X-186.7834 Y-118.3915
G0 Z5.0
G0 X-194.6153 Y-116.154
G1 Z0.0
G1 X-176.7133 Y-134.056
G0 Z5.0
G0 X-189.0209 Y-110.5596
G1 Z0.0
G1 X-184.5455 Y-115.0353
G0 Z5.0
G0 X-177.8321 Y-104.9652
G1 Z0.0
G1 X-175.5946 Y-107.2027
G0 Z5.0
G0 X-194.6153 Y-76.9932
G1 Z0.0
G1 X-187.9021 Y-83.7064
G0 Z5.0
G0 X-189.0209 Y-71.3988
G1 Z0.0
G1 X-180.0699 Y-80.3495
G0 Z5.0
G0 X-177.8321 Y-71.3988
G1 Z0.0
G1 X-168.8811 Y-80.3495
G0 Z5.0
G0 X-166.6433 Y-71.3988
G1 Z0.0
G1 X-159.9301 Y-78.112
G0 Z5.0
G0 X-161.0489 Y-71.3988
G1 Z0.0
G1 X-156.5735 Y-75.8739
G0 Z5.0
G0 X-155.4545 Y-65.8044
G1 Z0.0
G1 X-146.5035 Y-74.7551
G0 Z5.0
G0 X-144.2657 Y-65.8044
G1 Z0.0
G1 X-139.7903 Y-70.2794
G0 Z5.0
G0 X-138.6713 Y-60.21
G1 Z0.0
G1 X-131.9581 Y-66.9232
G0 Z5.0
G0 X-133.0769 Y-60.21
G1 Z0.0
G1 X-128.6015 Y-64.685
G0 Z5.0
G0 X-127.4825 Y-60.21
G1 Z0.0
G1 X-123.0071 Y-64.685
G0 Z5.0
G0 X-121.8881 Y-54.6156
G1 Z0.0
G1 X-117.4127 Y-59.0906
G0 Z5.0
G0 X-116.2937 Y-54.6156
G1 Z0.0
G1 X-102.867 Y-68.0419
G0 Z5.0
G0 X-99.5104 Y-71.3988
G1 Z0.0
G1 X-83.8463 Y-87.0627
G0 Z5.0
G0 X-99.5104 Y-76.9932
G1 Z0.0
G1 X-83.8463 Y-92.6571
G0 Z5.0
G0 X-110.6993 Y-76.9932
G1 Z0.0
G1 X-108.4614 Y-79.2307
G0 Z5.0
G0 X-110.6993 Y-71.3988
G1 Z0.0
G1 X-108.4614 Y-73.6363
G0 Z5.0
G0 X-110.6993 Y-65.8044
G1 Z0.0
G1 X-106.2239 Y-70.2794
G0 Z5.0
G0 X-116.2937 Y-76.9932
G1 Z0.0
G1 X-111.8183 Y-81.4683
G0 Z5.0
G0 X-116.2937 Y-82.5876
G1 Z0.0
G1 X-67.0631 Y-131.8185
G0 Z5.0
G0 X-71.5384 Y-60.21
G1 Z0.0
G1 X-58.1118 Y-73.6363
G0 Z5.0
G0 X-121.8881 Y-82.5876
G1 Z0.0
G1 X-119.6502 Y-84.8251
G0 Z5.0
G0 X-127.4825 Y-82.5876
G1 Z0.0
G1 X-123.0071 Y-87.0627
G0 Z5.0
G0 X-133.0769 Y-88.182
G1 Z0.0
G1 X-130.8393 Y-90.4195
G0 Z5.0
G0 X-138.6713 Y-88.182
G1 Z0.0
G1 X-136.4337 Y-90.4195
G0 Z5.0
G0 X-149.8601 Y-65.8044
G1 Z0.0
G1 X-143.1469 Y-72.5176
G0 Z5.0
G0 X-144.2657 Y-60.21
G1 Z0.0
G1 X-135.3147 Y-69.1607
G0 Z5.0
G0 X-127.4825 Y-54.6156
G1 Z0.0
G1 X-120.7693 Y-61.3288
G0 Z5.0
G0 X-161.0489 Y-65.8044
G1 Z0.0
G1 X-152.0979 Y-74.7551
G0 Z5.0
G0 X-172.2377 Y-71.3988
G1 Z0.0
G1 X-165.5245 Y-78.112
G0 Z5.0
G0 X-183.4265 Y-71.3988
G1 Z0.0
G1 X-174.4755 Y-80.3495
G0 Z5.0
G0 X-194.6153 Y-71.3988
G1 Z0.0
G1 X-185.6643 Y-80.3495
G0 Z5.0
G0 X-200.2097 Y-76.9932
G1 Z0.0
G1 X-193.4965 Y-83.7064
G0 Z5.0
G0 X-205.8044 Y-76.9932
G1 Z0.0
G1 X-196.8531 Y-85.9439
G0 Z5.0
G0 X-222.5876 Y-82.5876
G1 Z0.0
G1 X-220.3498 Y-84.8251
G0 Z5.0
G0 X-228.182 Y-82.5876
G1 Z0.0
G1 X-225.9442 Y-84.8251
G0 Z5.0
G0 X-222.5876 Y-65.8044
G1 Z0.0
G1 X-202.4475 Y-85.9439
G0 Z5.0
G0 X-233.7764 Y-60.21
G1 Z0.0
G1 X-209.161 Y-84.8251
G0 Z5.0
G0 X-244.9652 Y-54.6156
G1 Z0.0
G1 X-213.6363 Y-85.9439
G0 Z5.0
G0 X-250.5596 Y-60.21
G1 Z0.0
G1 X-243.8462 Y-66.9232
G0 Z5.0
G0 X-250.5596 Y-54.6156
G1 Z0.0
G1 X-230.4195 Y-74.7551
G0 Z5.0
G0 X-256.154 Y-60.21
G1 Z0.0
G1 X-247.2027 Y-69.1607
G0 Z5.0
G0 X-261.7484 Y-65.8044
G1 Z0.0
G1 X-255.035 Y-72.5176
G0 Z5.0
G0 X-261.7484 Y-60.21
G1 Z0.0
G1 X-250.5596 Y-71.3988
G0 Z5.0
G0 X-267.3428 Y-65.8044
G1 Z0.0
G1 X-258.3915 Y-74.7551
G0 Z5.0
G0 X-272.9372 Y-71.3988
G1 Z0.0
G1 X-263.986 Y-80.3495
G0 Z5.0
G0 X-278.5316 Y-82.5876
G1 Z0.0
G1 X-271.8182 Y-89.3008
G0 Z5.0
G0 X-278.5316 Y-99.3708
G1 Z0.0
G1 X-265.105 Y-112.7971
G0 Z5.0
G0 X-267.3428 Y-104.9652
G1 Z0.0
G1 X-262.8672 Y-109.4409
G0 Z5.0
G0 X-261.7484 Y-104.9652
G1 Z0.0
G1 X-259.5106 Y-107.2027
G0 Z5.0
G0 X-256.154 Y-104.9652
G1 Z0.0
G1 X-253.9162 Y-107.2027
G0 Z5.0
G0 X-278.5316 Y-104.9652
G1 Z0.0
G1 X-267.3428 Y-116.154
G0 Z5.0
G0 X-278.5316 Y-110.5596
G1 Z0.0
G1 X-269.5804 Y-119.5103
G0 Z5.0
G0 X-284.126 Y-121.7484
G1 Z0.0
G1 X-275.1748 Y-130.6991
G0 Z5.0
G0 X-284.126 Y-132.9372
G1 Z0.0
G1 X-250.5596 Y-166.5036
G0 Z5.0
G0 X-267.3428 Y-144.126
G1 Z0.0
G1 X-242.7274 Y-168.7412
G0 Z5.0
G0 X-284.126 Y-138.5316
G1 Z0.0
G1 X-261.7484 Y-160.9092
G0 Z5.0
G0 X-284.126 Y-127.3428
G1 Z0.0
G1 X-275.1748 Y-136.2935
G0 Z5.0
G0 X-284.126 Y-116.154
G1 Z0.0
G1 X-275.1748 Y-125.1047
G0 Z5.0
G0 X-284.126 Y-110.5596
G1 Z0.0
G1 X-272.9372 Y-121.7484
G0 Z5.0
G0 X-284.126 Y-88.182
G1 Z0.0
G1 X-270.6994 Y-101.6083
G0 Z5.0
G0 X-284.126 Y-82.5876
G1 Z0.0
G1 X-272.9372 Y-93.7764
G0 Z5.0
G0 X-278.5316 Y-76.9932
G1 Z0.0
G1 X-269.5804 Y-85.9439
G0 Z5.0
G0 X-278.5316 Y-71.3988
G1 Z0.0
G1 X-267.3428 Y-82.5876
G0 Z5.0
G0 X-272.9372 Y-65.8044
G1 Z0.0
G1 X-261.7484 Y-76.9932
G0 Z5.0
G0 X-256.154 Y34.8952
G1 Z0.0
G1 X-247.2027 Y25.9442
G0 Z5.0
G0 X-244.9652 Y40.4896
G1 Z0.0
G1 X-236.0139 Y31.5386
G0 Z5.0
G0 X-233.7764 Y46.084
G1 Z0.0
G1 X-215.8741 Y28.182
G0 Z5.0
G0 X-216.9932 Y40.4896
G1 Z0.0
G1 X-196.8531 Y20.3498
G0 Z5.0
G0 X-189.0209 Y29.3007
G1 Z0.0
G1 X-133.0769 Y-26.6436
G0 Z5.0
G0 X-127.4825 Y-15.4548
G1 Z0.0
G1 X-116.2937 Y-26.6436
G0 Z5.0
G0 Y-9.8604
G1 Z0.0
G1 X-102.867 Y-23.2867
G0 Z5.0
G0 X-105.1048 Y-9.8604
G1 Z0.0
G1 X-80.4894 Y-34.4755
G0 Z5.0
G0 X-110.6993 Y-9.8604
G1 Z0.0
G1 X-88.3216 Y-32.238
G0 Z5.0
G0 Y29.3007
G1 Z0.0
G1 X-86.0838 Y27.0629
G0 Z5.0
G0 X-93.916 Y29.3007
G1 Z0.0
G1 X-91.6782 Y27.0629
G0 Z5.0
G0 X-149.8601 Y-4.266
G1 Z0.0
G1 X-127.4825 Y-26.6436
G0 Z5.0
G0 X-172.2377 Y23.7063
G1 Z0.0
G1 X-170.0002 Y21.4685
G0 Z5.0
G0 X-172.2377 Y29.3007
G1 Z0.0
G1 X-165.5245 Y22.5876
G0 Z5.0
G0 X-166.6433 Y29.3007
G1 Z0.0
G1 X-164.4058 Y27.0629
G0 Z5.0
G0 X-161.0489 Y46.084
G1 Z0.0
G1 X-154.3357 Y39.3708
G0 Z5.0
G0 X-177.8321 Y46.084
G1 Z0.0
G1 X-159.9301 Y28.182
G0 Z5.0
G0 X-183.4265 Y46.084
G1 Z0.0
G1 X-176.7133 Y39.3708
G0 Z5.0
G0 X-194.6153 Y51.6784
G1 Z0.0
G1 X-185.6643 Y42.7274
G0 Z5.0
G0 X-200.2097 Y34.8952
G1 Z0.0
G1 X-139.7903 Y-25.5242
G0 Z5.0
G0 X-200.2097 Y51.6784
G1 Z0.0
G1 X-195.7344 Y47.2027
G0 Z5.0
G0 X-216.9932 Y57.2728
G1 Z0.0
G1 X-214.7554 Y55.0349
G0 Z5.0
G0 X-233.7764 Y57.2728
G1 Z0.0
G1 X-231.5386 Y55.0349
G0 Z5.0
G0 X-233.7764 Y51.6784
G1 Z0.0
G1 X-231.5386 Y49.4405
G0 Z5.0
G0 X-239.3708 Y46.084
G1 Z0.0
G1 X-225.9442 Y32.6573
G0 Z5.0
G0 X-267.3428 Y34.8952
G1 Z0.0
G1 X-253.9162 Y21.4685
G0 Z5.0
G0 X-295.3148 Y40.4896
G1 Z0.0
G1 X-281.8882 Y27.0629
G0 Z5.0
G0 X-295.3148 Y51.6784
G1 Z0.0
G1 X-263.986 Y20.3498
G0 Z5.0
G0 X-250.5596 Y68.4616
G1 Z0.0
G1 X-246.084 Y63.9859
G0 Z5.0
G0 X-250.5596 Y74.056
G1 Z0.0
G1 X-246.084 Y69.5803
G0 Z5.0
G0 X-233.7764 Y79.6504
G1 Z0.0
G1 X-220.3498 Y66.2237
G0 Z5.0
G0 X-216.9932 Y79.6504
G1 Z0.0
G1 X-194.6153 Y57.2728
G0 Z5.0
G0 X-211.3988 Y79.6504
G1 Z0.0
G1 X-184.5455 Y52.7971
G0 Z5.0
G0 X-177.8321 Y90.8392
G1 Z0.0
G1 X-157.6923 Y70.6994
G0 Z5.0
G0 X-177.8321 Y96.4336
G1 Z0.0
G1 X-139.7903 Y58.3915
G0 Z5.0
G0 X-183.4265 Y107.6224
G1 Z0.0
G1 X-134.1959 Y58.3915
G0 Z5.0
G0 X-189.0209 Y118.8112
G1 Z0.0
G1 X-128.6015 Y58.3915
G0 Z5.0
G0 X-216.9932 Y90.8392
G1 Z0.0
G1 X-158.8114 Y32.6573
G0 Z5.0
G0 X-216.9932 Y96.4336
G1 Z0.0
G1 X-154.3357 Y33.7764
G0 Z5.0
G0 X-222.5876 Y107.6224
G1 Z0.0
G1 X-200.2097 Y85.2448
G0 Z5.0
G0 X-239.3708 Y102.028
G1 Z0.0
G1 X-225.9442 Y88.6014
G0 Z5.0
G0 X-244.9652 Y102.028
G1 Z0.0
G1 X-202.4475 Y59.5106
G0 Z5.0
G0 X-250.5596 Y102.028
G1 Z0.0
G1 X-210.2797 Y61.7484
G0 Z5.0
G0 X-228.182 Y118.8112
G1 Z0.0
G1 X-201.3288 Y91.9579
G0 Z5.0
G0 X-194.6153 Y130.0
G1 Z0.0
G1 X-123.0071 Y58.3915
G0 Z5.0
G0 X-166.6433 Y146.7832
G1 Z0.0
G1 X-63.7062 Y43.8461
G0 Z5.0
G0 X-127.4825 Y163.5664
G1 Z0.0
G1 X-31.2588 Y67.3428
G0 Z5.0
G0 X-116.2937 Y169.1608
G1 Z0.0
G1 X-26.7832 Y79.6504
G0 Z5.0
G0 X-133.0769 Y163.5664
G1 Z0.0
G1 X-34.6154 Y65.105
G0 Z5.0
G0 X-138.6713 Y163.5664
G1 Z0.0
G1 X-37.972 Y62.8672
G0 Z5.0
G0 X-144.2657 Y157.972
G1 Z0.0
G1 X-43.5664 Y57.2728
G0 Z5.0
G0 X-144.2657 Y163.5664
G1 Z0.0
G1 X-41.3286 Y60.6293
G0 Z5.0
G0 X-149.8601 Y157.972
G1 Z0.0
G1 X-46.923 Y55.0349
G0 Z5.0
G0 X-155.4545 Y157.972
G1 Z0.0
G1 X-50.2799 Y52.7971
G0 Z5.0
G0 X-161.0489 Y157.972
G1 Z0.0
G1 X-51.3986 Y48.3218
G0 Z5.0
G0 X-166.6433 Y152.3776
G1 Z0.0
G1 X-59.2309 Y44.9652
G0 Z5.0
G0 X-172.2377 Y146.7832
G1 Z0.0
G1 X-73.7763 Y48.3218
G0 Z5.0
G0 X-177.8321 Y146.7832
G1 Z0.0
G1 X-83.8463 Y52.7971
G0 Z5.0
G0 X-183.4265 Y146.7832
G1 Z0.0
G1 X-91.6782 Y55.0349
G0 Z5.0
G0 X-194.6153 Y135.5944
G1 Z0.0
G1 X-118.5315 Y59.5106
G0 Z5.0
G0 X-194.6153 Y146.7832
G1 Z0.0
G1 X-107.3427 Y59.5106
G0 Z5.0
G0 X-172.2377 Y163.5664
G1 Z0.0
G1 X-55.8743 Y47.2027
G0 Z5.0
G0 X-194.6153 Y152.3776
G1 Z0.0
G1 X-100.6295 Y58.3915
G0 Z5.0
G0 X-205.8044 Y152.3776
G1 Z0.0
G1 X-111.8183 Y58.3915
G0 Z5.0
G0 X-228.182 Y124.4056
G1 Z0.0
G1 X-203.5666 Y99.7902
G0 Z5.0
G0 X-256.154 Y102.028
G1 Z0.0
G1 X-242.7274 Y88.6014
G0 Z5.0
G0 X-261.7484 Y102.028
G1 Z0.0
G1 X-250.5596 Y90.8392
G0 Z5.0
G0 X-267.3428 Y102.028
G1 Z0.0
G1 X-256.154 Y90.8392
G0 Z5.0
G0 X-272.9372
G1 Z0.0
G1 X-263.986 Y81.8882
G0 Z5.0
G0 X-272.9372 Y79.6504
G1 Z0.0
G1 X-259.5106 Y66.2237
G0 Z5.0
G0 X-278.5316 Y74.056
G1 Z0.0
G1 X-271.8182 Y67.3428
G0 Z5.0
G0 X-278.5316 Y79.6504
G1 Z0.0
G1 X-265.105 Y66.2237
G0 Z5.0
G0 X-272.9372 Y85.2448
G1 Z0.0
G1 X-252.7971 Y65.105
G0 Z5.0
G0 X-284.126 Y74.056
G1 Z0.0
G1 X-275.1748 Y65.105
G0 Z5.0
G0 X-289.7204 Y68.4616
G1 Z0.0
G1 X-283.007 Y61.7484
G0 Z5.0
G0 X-295.3148 Y62.8672
G1 Z0.0
G1 X-286.3639 Y53.9162
G0 Z5.0
G0 X-289.7204 Y74.056
G1 Z0.0
G1 X-278.5316 Y62.8672
G0 Z5.0
G0 X-272.9372 Y96.4336
G1 Z0.0
G1 X-263.986 Y87.4826
G0 Z5.0
G0 X-272.9372 Y102.028
G1 Z0.0
G1 X-259.5106 Y88.6014
G0 Z5.0
G0 X-239.3708 Y141.1888
G1 Z0.0
G1 X-205.8044 Y107.6224
G0 Z5.0
G0 X-239.3708 Y146.7832
G1 Z0.0
G1 X-208.0419 Y115.4546
G0 Z5.0
G0 X-239.3708 Y152.3776
G1 Z0.0
G1 X-212.5176 Y125.5247
G0 Z5.0
G0 X-239.3708 Y157.972
G1 Z0.0
G1 X-216.9932 Y135.5944
G0 Z5.0
G0 X-233.7764 Y163.5664
G1 Z0.0
G1 X-227.0629 Y156.8533
G0 Z5.0
G0 X-228.182 Y169.1608
G1 Z0.0
G1 X-221.4685 Y162.4477
G0 Z5.0
G0 X-222.5876 Y174.7552
G1 Z0.0
G1 X-215.8741 Y168.0421
G0 Z5.0
G0 X-222.5876 Y180.3496
G1 Z0.0
G1 X-211.3988 Y169.1608
G0 Z5.0
G0 X-228.182 Y174.7552
G1 Z0.0
G1 X-219.2307 Y165.8042
G0 Z5.0
G0 X-233.7764 Y169.1608
G1 Z0.0
G1 X-224.8251 Y160.2098
G0 Z5.0
G0 X-239.3708 Y163.5664
G1 Z0.0
G1 X-221.4685 Y145.6644
G0 Z5.0
G0 X-222.5876 Y185.944
G1 Z0.0
G1 X-206.9232 Y170.2799
G0 Z5.0
G0 X-228.182 Y202.7272
G1 Z0.0
G1 X-208.0419 Y182.5874
G0 Z5.0
G0 X-228.182 Y208.3216
G1 Z0.0
G1 X-210.2797 Y190.4197
G0 Z5.0
G0 X-228.182 Y219.5104
G1 Z0.0
G1 X-212.5176 Y203.8463
G0 Z5.0
G0 X-228.182 Y225.1048
G1 Z0.0
G1 X-212.5176 Y209.4407
G0 Z5.0
G0 X-228.182 Y236.2937
G1 Z0.0
G1 X-214.7554 Y222.8673
G0 Z5.0
G0 X-228.182 Y247.4825
G1 Z0.0
G1 X-214.7554 Y234.0561
G0 Z5.0
G0 X-228.182 Y258.6713
G1 Z0.0
G1 X-212.5176 Y243.0071
G0 Z5.0
G0 X-228.182 Y264.266
G1 Z0.0
G1 X-212.5176 Y248.6015
G0 Z5.0
G0 X-222.5876 Y269.8604
G1 Z0.0
G1 X-211.3988 Y258.6713
G0 Z5.0
G0 X-222.5876 Y281.0492
G1 Z0.0
G1 X-211.3988 Y269.8604
G0 Z5.0
G0 X-222.5876 Y286.6436
G1 Z0.0
G1 X-209.161 Y273.2169
G0 Z5.0
G0 X-216.9932 Y292.238
G1 Z0.0
G1 X-208.0419 Y283.2867
G0 Z5.0
G0 X-216.9932 Y303.4268
G1 Z0.0
G1 X-205.8044 Y292.238
G0 Z5.0
G0 X-211.3988 Y314.6156
G1 Z0.0
G1 X-200.2097 Y303.4268
G0 Z5.0
G0 X-205.8044 Y325.8044
G1 Z0.0
G1 X-194.6153 Y314.6156
G0 Z5.0
G0 X-200.2097 Y336.9932
G1 Z0.0
G1 X-189.0209 Y325.8044
G0 Z5.0
G0 X-194.6153 Y342.5876
G1 Z0.0
G1 X-185.6643 Y333.6363
G0 Z5.0
G0 X-189.0209 Y348.182
G1 Z0.0
G1 X-180.0699 Y339.231
G0 Z5.0
G0 X-183.4265 Y353.7764
G1 Z0.0
G1 X-174.4755 Y344.8254
G0 Z5.0
G0 X-177.8321 Y359.3708
G1 Z0.0
G1 X-168.8811 Y350.4198
G0 Z5.0
G0 X-172.2377 Y364.9652
G1 Z0.0
G1 X-163.2867 Y356.0142
G0 Z5.0
G0 X-166.6433 Y370.5596
G1 Z0.0
G1 X-155.4545 Y359.3708
G0 Z5.0
G0 X-161.0489 Y376.154
G1 Z0.0
G1 X-149.8601 Y364.9652
G0 Z5.0
G0 Y381.7484
G1 Z0.0
G1 X-140.9091 Y372.7974
G0 Z5.0
G0 X-138.6713 Y387.3428
G1 Z0.0
G1 X-129.7203 Y378.3918
G0 Z5.0
G0 X-133.0769 Y392.9372
G1 Z0.0
G1 X-121.8881 Y381.7484
G0 Z5.0
G0 X-127.4825 Y264.266
G1 Z0.0
G1 X-125.2446 Y262.0281
G0 Z5.0
M5
M30
