( Made using CamBam - http://www.cambam.co.uk )
( cross 1/26/2014 9:36:23 AM )
( T0 : 0.0 )
G21 G90 G64 G40
G0 Z5.0
( T0 : 0.0 )
T0 M6
( Profile1 )
G17
M3 S1000
G0 X26.8726 Y393.1034
G1 F1.0 Z0.0
G2 X27.5985 Y389.4932 I-29.8696 J-7.8839
G1 X27.6309 Y389.2498
G2 X27.8405 Y385.3277 I-25.3993 J-3.3234
G1 X27.8326 Y385.0741
G2 X26.0776 Y377.1804 I-21.9353 J0.7348
G2 X25.0578 Y375.0928 I-22.0932 J9.4997
G2 X23.6552 Y372.839 I-22.1659 J12.2317
G2 X23.2571 Y372.2813 I-16.1864 J11.1331
G2 X21.2802 Y369.8577 I-25.1625 J18.5067
G2 X18.7703 Y367.3253 I-28.8092 J26.0431
G1 X18.4363 Y367.0197
G2 X16.9821 Y365.7537 I-34.1419 J37.7487
G2 X16.2148 Y365.1218 I-49.0468 J58.7739
G1 X15.8212 Y364.8059
G1 X15.4191 Y364.4884
G1 X15.0084 Y364.1692
G1 X14.9049 Y364.0895
G1 X14.8009 Y364.0097
G2 X13.9383 Y363.3588 I-32.1784 J41.7466
G2 X12.0783 Y362.009 I-57.5435 J77.3362
G1 X11.6019 Y361.6724
G1 X11.4821 Y361.5882
G1 X11.3619 Y361.5039
G1 X10.8728 Y361.1625
G1 X10.3754 Y360.8175
G1 X10.1245 Y360.6442
G3 X9.9543 Y361.0381 I-5.5055 J-2.1454
G3 X9.7571 Y361.4191 I-7.1741 J-3.4701
G3 X9.2788 Y362.1308 I-4.9885 J-2.8366
G3 X8.0049 Y363.272 I-3.9872 J-3.1693
G3 X6.9829 Y363.7838 I-3.1496 J-5.0133
G2 X8.3457 Y366.4381 I11.5675 J-4.262
G2 X8.9323 Y367.244 I11.0871 J-7.4543
G2 X9.7935 Y368.2552 I13.9549 J-11.0117
G2 X11.0451 Y369.5058 I16.6001 J-15.3616
G2 X11.7956 Y370.1823 I20.881 J-22.4127
G2 X12.6712 Y370.9335 I34.7949 J-39.6688
G1 X13.681 Y371.7786
G1 X14.2185 Y372.2298
G1 X14.4946 Y372.4642
G1 X14.7782 Y372.7075
G1 X15.0689 Y372.9608
G3 X16.3602 Y374.1575 I-19.7764 J22.6363
G3 X17.7175 Y375.6416 I-13.0247 J13.2747
G1 X17.8772 Y375.8411
G3 X19.1631 Y377.7969 I-10.4584 J8.2768
G3 X20.1608 Y380.2967 I-10.8384 J5.7746
G3 X20.4681 Y381.7068 I-12.2832 J3.4154
G3 X20.5687 Y382.4465 I-13.6871 J2.2383
G1 X20.5881 Y382.6337
G3 X19.9212 Y383.5175 I-2.9495 J-1.5321
G3 X18.9813 Y384.1029 I-1.9964 J-2.158
G3 X18.2692 Y384.3038 I-1.4305 J-3.7077
G3 X17.2941 Y384.4033 I-1.1451 J-6.3975
G3 X16.7364 Y384.4072 I-0.3594 J-11.2699
G3 X16.4397 Y384.4002 I0.2264 J-15.7851
G1 X16.1245 Y384.3883
G1 X15.7894 Y384.3729
G3 X15.7043 Y384.3687 I0.0085 J-1.0544
G1 X15.3429 Y384.3515
G1 X14.9586 Y384.336
G1 X14.861 Y384.333
G2 X13.9757 I-0.4419 J14.2971
G2 X13.5059 Y384.3641 I0.3889 J9.4377
G2 X13.0094 Y384.4325 I0.5344 J5.7156
G2 X12.49 Y384.5572 I0.8485 J4.6785
G2 X11.9572 Y384.7629 I1.1225 J3.7004
G2 X10.9 Y385.5568 I1.4389 J3.0168
G2 X10.474 Y386.1335 I2.9457 J2.622
G2 X10.1245 Y386.8217 I4.4605 J2.6982
G2 X11.7846 Y388.3669 I11.2869 J-10.4618
G2 X13.6476 Y389.6605 I10.3952 J-12.9819
G2 X14.9756 Y390.3843 I9.7053 J-16.2279
G1 X15.151 Y390.4699
G1 X15.333 Y390.5565
G2 X17.3199 Y391.3699 I9.1429 J-19.5014
G2 X20.0636 Y392.1728 I8.751 J-24.8132
G2 X21.6616 Y392.5078 I7.6361 J-32.4481
G2 X21.7121 Y392.517 I0.1259 J-0.5465
G2 X21.7627 Y392.5262 I0.1255 J-0.548
G2 X23.6193 Y392.8114 I6.6062 J-36.8246
G1 X24.1003 Y392.8701
G1 X24.5974 Y392.9248
G2 X26.8726 Y393.1034 I4.7934 J-46.4593
G0 Z5.0
G0 X13.563 Y382.2057
G1 Z0.0
G1 X13.612 Y382.1458
G1 X13.7656 Y381.9515
G2 X14.9176 Y380.1703 I-9.2534 J-7.2483
G2 X15.3675 Y379.165 I-8.2113 J-4.2775
G2 X15.6924 Y378.066 I-7.0006 J-2.6674
G2 X15.8412 Y376.877 I-6.7803 J-1.4521
G2 X15.3543 Y374.2575 I-6.1357 J-0.2146
G3 X13.4683 Y375.3281 I-61.8961 J-106.851
G1 X12.8361 Y375.6785
G1 X11.9906 Y376.1413
G3 X8.584 Y377.9461 I-85.802 J-157.8385
G1 X8.127 Y378.1814
G3 X0.7312 Y381.7778 I-85.4494 J-166.3174
G1 X0.2487 Y381.9985
G3 X-4.942 Y384.2544 I-66.5532 J-146.0365
G1 X-5.2744 Y384.391
G1 X-5.9618 Y384.6704
G1 X-6.3115 Y384.8109
G1 X-7.0348 Y385.0977
G1 X-7.2173 Y385.1693
G1 X-7.9721 Y385.4617
G1 X-8.7534 Y385.7582
G1 X-9.151 Y385.9067
G1 X-9.9737 Y386.2083
G1 X-10.8256 Y386.5126
G1 X-11.0407 Y386.588
G3 X-15.0065 Y387.8715 I-27.4793 J-78.1399
G2 X-13.255 Y389.0052 I7.3485 J-9.4333
G2 X-11.3415 Y389.8368 I6.3087 J-11.9003
G2 X-10.7738 Y390.0203 I4.4362 J-12.7531
G2 X-9.2297 Y390.3989 I4.3267 J-14.3075
G2 X-8.3334 Y390.5469 I2.9932 J-15.3345
G2 X-5.9218 Y390.7223 I2.566 J-18.6153
G2 X-2.7123 Y390.5259 I0.2099 J-22.8936
G2 X-0.9014 Y390.2246 I-3.5783 J-27.0973
G2 X1.1337 Y389.7321 I-5.3335 J-26.4875
G2 X6.3068 Y387.7313 I-8.0451 J-28.4885
G2 X9.0523 Y386.157 I-12.1206 J-24.3201
G2 X10.4307 Y385.1841 I-13.9991 J-21.2967
G1 X10.5993 Y385.0545
G2 X11.2816 Y384.5027 I-12.6461 J-16.3315
G1 X11.4498 Y384.3592
G2 X11.7867 Y384.062 I-10.4957 J-12.2362
G2 X13.1397 Y382.7038 I-11.3902 J-12.6996
G1 X13.2988 Y382.5219
G1 X13.4563 Y382.3359
G1 X13.563 Y382.2057
G0 Z5.0
G0 X6.0846 Y376.8112
G1 Z0.0
G2 X6.1066 Y376.7805 I-6.7021 J-4.8345
G2 X6.393 Y376.3546 I-7.9565 J-5.658
G2 X6.9224 Y375.4213 I-9.3388 J-5.9137
G2 X6.9829 Y375.3007 I-2.5304 J-1.3464
G3 X4.6947 Y374.1616 I8.0238 J-18.9854
G3 X2.5521 Y372.7678 I12.1816 J-21.0705
G3 X1.1982 Y371.7328 I21.0701 J-28.9621
G1 X1.0272 Y371.5945
G1 X0.8514 Y371.4508
G3 X0.4791 Y371.1413 I29.3578 J-35.7061
G1 X0.2881 Y370.9802
G1 X-0.1168 Y370.6334
G3 X-1.0315 Y369.8293 I53.6009 J-61.9002
G1 X-1.5152 Y369.396
G1 X-2.6163 Y368.4018
G2 X-2.7562 Y368.2756 I-6.9826 J7.603
G2 X-4.0426 Y367.1319 I-58.3636 J64.3466
G2 X-4.1243 Y367.0607 I-2.4073 J2.6814
G2 X-4.2069 Y366.989 I-2.3382 J2.6101
G2 X-5.741 Y365.7103 I-30.0958 J34.5483
G2 X-7.5759 Y364.3529 I-18.6839 J23.338
G2 X-9.8115 Y363.0038 I-13.0318 J19.0679
G2 X-12.5561 Y361.8122 I-9.1585 J17.3387
G2 X-12.9169 Y361.6914 I-4.512 J12.8681
G3 X-13.4629 Y362.7661 I-5.4767 J-2.1066
G3 X-13.6945 Y363.0952 I-4.504 J-2.9236
G1 X-13.7605 Y363.1799
G3 X-15.0363 Y364.3199 I-4.0083 J-3.2019
G3 X-16.0591 Y364.8309 I-3.1672 J-5.0593
G1 X-15.8499 Y365.0848
G1 X-15.6411 Y365.339
G1 X-15.502 Y365.5086
G1 X-15.4225 Y365.6055
G1 X-14.7861 Y366.3803
G2 X-13.5036 Y367.9217 I113.5652 J-93.1869
G2 X-10.861 Y370.9384 I75.3786 J-63.3657
G1 X-10.4981 Y371.3313
G1 X-10.3096 Y371.533
G1 X-9.905 Y371.9607
G2 X-7.6742 Y374.1715 I38.6162 J-36.7339
G1 X-7.5278 Y374.3071
G1 X-7.3786 Y374.4442
G2 X-5.9808 Y375.6605 I26.4809 J-29.0208
G2 X-4.2977 Y376.9479 I17.4291 J-21.0413
G1 X-4.0765 Y377.1011
G1 X-3.8497 Y377.254
G2 X-2.8579 Y377.8707 I9.8534 J-14.7422
G1 X-2.5995 Y378.0166
G1 X-2.3341 Y378.1598
G2 X-2.0614 Y378.2996 I3.938 J-7.3436
G1 X-1.7811 Y378.4354
G2 X-1.191 Y378.6935 I4.6352 J-9.7957
G2 X0.1215 Y379.1186 I3.4758 J-8.4912
G2 X1.5958 Y379.3071 I1.5631 J-6.3669
G2 X3.199 Y379.0674 I0.0676 J-5.0301
G2 X4.7792 Y378.208 I-1.5767 J-4.7814
G2 X5.4759 Y377.559 I-3.9721 J-4.9618
G2 X6.0846 Y376.8112 I-6.0933 J-5.5823
G0 Z5.0
G0 X1.9753 Y366.7615
G1 Z0.0
G2 X2.8098 Y366.3587 I-2.8512 J-6.973
G1 X3.0273 Y366.233
G2 X3.9737 Y365.5884 I-5.4718 J-9.0506
G2 X4.9683 Y364.7477 I-7.9162 J-10.3732
G2 X4.9983 Y364.7199 I-0.2608 J-0.3117
G2 X5.0283 Y364.6919 I-0.2628 J-0.3124
G2 X5.0584 Y364.6638 I-0.2648 J-0.3132
G2 X5.0886 Y364.6354 I-0.2668 J-0.314
G2 X5.1187 Y364.6069 I-0.2688 J-0.3148
G2 X5.149 Y364.5782 I-0.2708 J-0.3157
G2 X6.2043 Y363.4985 I-16.027 J-16.7214
G2 X6.2364 Y363.4636 I-0.3629 J-0.3648
G2 X6.3657 Y363.3213 I-2.94 J-2.8032
G2 X7.5014 Y362.0058 I-31.8653 J-28.6566
G2 X8.7418 Y360.4888 I-105.3488 J-87.4106
G3 X8.8984 Y360.2959 I8.8977 J7.0626
G3 X9.5647 Y359.481 I88.1482 J71.3959
G1 X9.6492 Y359.3789
G1 X9.9986 Y358.9604
G1 X10.3623 Y358.5334
G3 X10.5488 Y358.3186 I6.6614 J5.5928
G1 X10.7394 Y358.1021
G1 X10.9346 Y357.8842
G1 X11.1345 Y357.665
G1 X11.185 Y357.6103
G3 X12.0658 Y356.7065 I18.8166 J17.4559
G3 X13.0624 Y355.8131 I11.1774 J11.4657
G1 X13.1934 Y355.7069
G3 X13.4634 Y355.4966 I5.655 J6.9835
G3 X14.6806 Y354.6976 I6.3647 J8.3692
G3 X15.3543 Y354.3625 I4.2767 J7.7524
G2 X14.8077 Y353.2269 I-57.075 J26.7745
G1 X14.7276 Y353.0656
G1 X14.6355 Y352.8815
G1 X14.5298 Y352.6714
G1 X14.4082 Y352.4317
G1 X14.0815 Y351.7937
G1 X13.643 Y350.9445
G3 X13.5865 Y350.8349 I3.7315 J-1.9966
G1 X13.3284 Y350.3338
G1 X13.0356 Y349.7599
G1 X12.7058 Y349.1016
G3 X12.5328 Y348.7491 I18.1449 J-9.1277
G3 X12.4892 Y348.6594 I1.3189 J-0.6963
G3 X12.445 Y348.5682 I1.3048 J-0.6873
G3 X12.4004 Y348.4754 I1.2911 J-0.6786
G3 X12.2121 Y348.0787 I66.564 J-31.8386
G3 X11.0842 Y349.1481 I-23.0388 J-23.1692
G3 X11.0073 Y349.2176 I-2.0071 J-2.146
G3 X10.925 Y349.2914 I-2.0348 J-2.1843
G3 X9.583 Y350.443 I-30.1516 J-33.7788
G3 X9.495 Y350.5156 I-1.8308 J-2.1296
G1 X9.0909 Y350.8453
G1 X8.6259 Y351.2182
G1 X8.0912 Y351.6402
G1 X7.4768 Y352.1182
G1 X6.772 Y352.6611
G3 X6.5898 Y352.8009 I-6.3386 J-8.07
G3 X6.4018 Y352.9452 I-9.0825 J-11.6449
G1 X5.5428 Y353.6052
G1 X5.0858 Y353.9587
G1 X4.6001 Y354.3379
G1 X4.3503 Y354.5347
G1 X4.0932 Y354.7389
G1 X3.5477 Y355.1781
G1 X3.2681 Y355.4071
G1 X2.9809 Y355.6453
G1 X2.6864 Y355.8935
G1 X2.3844 Y356.1521
G1 X2.0752 Y356.422
G2 X0.7003 Y357.6994 I24.3719 J27.6105
G2 X0.3579 Y358.0421 I19.1247 J19.4537
G2 X-1.1256 Y359.6887 I17.3449 J17.118
G2 X-1.1696 Y359.7426 I1.048 J0.9012
G2 X-1.8939 Y360.6843 I15.831 J12.9246
G2 X-3.3308 Y362.9964 I15.3601 J11.149
G2 X-4.5354 Y365.8794 I15.8586 J8.3193
G2 X-3.274 Y366.5494 I5.9853 J-9.7479
G2 X-1.9265 Y367.0231 I3.4787 J-7.7405
G2 X-0.9881 Y367.1923 I1.6453 J-6.4406
G2 X0.2845 Y367.1937 I0.6429 J-5.9797
G2 X1.9321 Y366.779 I-0.6862 J-6.2073
G2 X1.9753 Y366.7615 I-2.808 J-6.9905
G0 Z5.0
G0 X-1.2291 Y357.4455
G1 Z0.0
G2 X-0.5308 Y357.1193 I-1.188 J-3.4537
G2 X0.2211 Y356.5384 I-2.3087 J-3.7656
G2 X0.414 Y356.3471 I-4.6867 J-4.9177
G2 X0.8939 Y355.8064 I-7.6387 J-7.2633
G1 X1.1549 Y355.4869
G1 X1.4512 Y355.1214
G3 X1.7986 Y354.7123 I11.2164 J9.1734
G1 X1.8914 Y354.6095
G1 X1.989 Y354.5052
G3 X2.2042 Y354.2897 I3.7724 J3.5515
G3 X2.4461 Y354.0729 I5.0807 J5.4264
G3 X3.0553 Y353.6463 I2.5262 J2.9593
G3 X3.8434 Y353.3139 I1.8389 J3.2599
G2 X2.3872 Y350.806 I-19.9096 J9.8832
G2 X0.6434 Y348.4889 I-22.1964 J14.8896
G2 X0.1033 Y347.8601 I-20.7768 J17.3
G1 X-0.191 Y347.5303
G2 X-0.8782 Y346.7898 I-25.4381 J22.9196
G1 X-1.2521 Y346.4019
G2 X-2.1226 Y345.5314 I-34.4208 J33.5524
G2 X-2.3504 Y345.31 I-8.997 J9.0257
G2 X-2.5867 Y345.0826 I-8.2212 J8.3053
G2 X-2.7071 Y344.9675 I-5.5781 J5.7171
G2 X-2.8297 Y344.8509 I-5.4856 J5.6447
G2 X-2.9545 Y344.7327 I-5.4328 J5.6126
G2 X-3.0815 Y344.613 I-5.4147 J5.616
G2 X-3.2108 Y344.4916 I-5.4292 J5.653
G2 X-4.4014 Y343.3921 I-68.1532 J72.6074
G2 X-4.5534 Y343.2535 I-7.9064 J8.5133
G2 X-4.7079 Y343.1127 I-8.8055 J9.5123
G2 X-4.865 Y342.9698 I-10.1647 J11.0169
G1 X-6.3002 Y341.6647
G1 X-7.0612 Y340.9643
G1 X-7.4516 Y340.6002
G1 X-7.8521 Y340.222
G1 X-8.2626 Y339.8286
G1 X-8.6826 Y339.4187
G1 X-9.1115 Y338.991
G3 X-10.0079 Y338.0607 I31.3564 J-31.1093
G3 X-10.9299 Y337.0366 I27.1967 J-25.413
G3 X-10.9865 Y336.9711 I1.6485 J-1.4795
G3 X-12.9169 Y334.4641 I20.7489 J-17.9731
G2 X-13.7674 Y334.8462 I1.3646 J4.1744
G2 X-14.525 Y335.3897 I2.5938 J4.4156
G2 X-14.9736 Y335.8205 I4.6539 J5.2945
G2 X-15.2117 Y336.0842 I3.9977 J3.8501
G2 X-15.4703 Y336.3968 I10.519 J8.9661
G2 X-16.1117 Y337.2633 I15.1679 J11.8976
G2 X-16.1919 Y337.377 I2.2001 J1.637
G1 X-16.5578 Y337.8951
G1 X-16.6533 Y338.028
G1 X-16.8602 Y338.3088
G1 X-16.9692 Y338.452
G1 X-17.0838 Y338.5981
G3 X-17.3362 Y338.9028 I-5.1929 J-4.0446
G1 X-17.4716 Y339.0557
G3 X-18.1461 Y339.7006 I-4.7565 J-4.299
G2 X-16.3835 Y341.8724 I33.6483 J-25.5062
G2 X-14.5013 Y343.9414 I42.2718 J-36.5659
G2 X-13.1991 Y345.2761 I51.4068 J-48.8529
G2 X-11.4254 Y347.0177 I104.164 J-104.3068
G2 X-11.1945 Y347.2403 I13.6705 J-13.9471
G2 X-10.9558 Y347.4698 I14.4776 J-14.818
G2 X-10.7092 Y347.7064 I15.6702 J-16.089
G2 X-10.4544 Y347.9504 I17.4598 J-17.9817
G2 X-10.1911 Y348.2021 I20.3229 J-20.9946
G2 X-9.9193 Y348.4617 I25.6191 J-26.5504
G1 X-8.6775 Y349.6491
G1 X-8.0175 Y350.2847
G1 X-7.3169 Y350.9661
G3 X-5.7366 Y352.5447 I-81.0386 J82.7128
G3 X-5.5386 Y352.7478 I-10.4518 J10.382
G3 X-5.3383 Y352.955 I-9.118 J9.0201
G3 X-5.1355 Y353.1662 I-8.1083 J7.985
G3 X-3.3278 Y355.1399 I-42.6475 J40.8755
G3 X-2.4047 Y356.2293 I-31.9187 J27.9819
G3 X-2.3479 Y356.2986 I-1.7037 J1.4541
G3 X-1.4013 Y357.5 I-36.1828 J29.4843
G2 X-1.2291 Y357.4455 I-1.0159 J-3.5082
G0 Z5.0
G0 X-8.6503 Y355.1665
G1 Z0.0
G2 X-8.5693 Y354.8784 I-5.9772 J-1.8356
G2 X-8.4242 Y354.1091 I-5.8842 J-1.5084
G2 X-8.4048 Y353.9122 I-4.108 J-0.5037
G2 X-8.5703 Y352.1868 I-4.8942 J-0.4012
G2 X-8.8953 Y351.3296 I-4.8519 J1.349
G2 X-9.3827 Y350.4947 I-5.6543 J2.7412
G2 X-10.0166 Y349.6984 I-6.7027 J4.6851
G2 X-10.7759 Y348.9481 I-7.471 J6.8011
G1 X-10.9794 Y348.7708
G2 X-11.867 Y348.0787 I-8.3275 J9.765
G3 X-14.1712 Y350.6559 I-126.6054 J-110.8753
G1 X-14.9506 Y351.5047
G1 X-15.3981 Y351.9877
G1 X-15.9113 Y352.5381
G1 X-16.4999 Y353.1653
G1 X-17.175 Y353.8798
G1 X-17.9492 Y354.6937
G1 X-18.8369 Y355.6212
G1 X-19.8542 Y356.6785
G1 X-22.573 Y359.4921
G2 X-22.9236 Y359.8553 I34.6925 J33.8471
G2 X-23.2854 Y360.2304 I31.353 J30.6022
G2 X-23.6586 Y360.6178 I28.7236 J28.0398
G2 X-24.0435 Y361.0181 I26.5498 J25.9141
G2 X-28.1107 Y365.3237 I215.3956 J207.5399
G2 X-28.2372 Y365.4608 I7.2332 J6.7999
G2 X-28.3645 Y365.5992 I7.1312 J6.6946
G2 X-28.4928 Y365.7387 I7.031 J6.5909
G2 X-28.6219 Y365.8794 I6.9325 J6.4889
G2 X-28.1605 Y367.0602 I6.4903 J-1.8556
G2 X-27.5094 Y368.1479 I8.4215 J-4.3021
G1 X-27.4131 Y368.2869
G1 X-27.3087 Y368.4339
G1 X-27.0654 Y368.7665
G3 X-26.4091 Y369.6456 I-75.1519 J56.7814
G1 X-26.2382 Y369.8831
G3 X-25.8656 Y370.4376 I-9.2296 J6.6041
G3 X-25.681 Y370.7424 I-14.9979 J9.2925
G3 X-25.6585 Y370.7814 I-0.35 J0.2275
G1 X-25.5682 Y370.9434
G3 X-25.479 Y371.1127 I-5.7543 J3.141
G3 X-24.5239 Y370.2387 I15.1496 J15.5976
G3 X-23.5323 Y369.4064 I27.5922 J31.8644
G1 X-23.2445 Y369.174
G3 X-22.9138 Y368.9107 I13.5247 J16.6486
G1 X-22.8282 Y368.8431
G1 X-22.7396 Y368.7734
G1 X-22.3338 Y368.4568
G3 X-21.2435 Y367.623 I107.9343 J139.9929
G3 X-21.209 Y367.5969 I0.3022 J0.3636
G3 X-21.1742 Y367.5706 I0.3049 J0.3671
G1 X-20.5378 Y367.0913
G1 X-18.8379 Y365.8174
G1 X-17.8693 Y365.0861
G1 X-17.3547 Y364.6933
G2 X-17.2243 Y364.5932 I-2.948 J-3.9738
G1 X-16.9555 Y364.3859
G1 X-16.6788 Y364.171
G2 X-15.4244 Y363.1752 I-63.5876 J-81.3822
G1 X-15.1043 Y362.9139
G2 X-13.6653 Y361.6892 I-34.8783 J-42.4379
G1 X-13.4861 Y361.5295
G1 X-13.305 Y361.3663
G2 X-11.7044 Y359.8138 I-20.5733 J-22.8123
G2 X-11.3121 Y359.3925 I-26.4238 J-24.9968
G2 X-10.5141 Y358.4575 I-13.0662 J-11.9599
G1 X-10.4661 Y358.397
G2 X-9.6958 Y357.3264 I-11.0033 J-8.7297
G1 X-9.6064 Y357.1862
G2 X-8.9359 Y355.9294 I-8.0823 J-5.1196
G1 X-8.8658 Y355.7637
G1 X-8.7991 Y355.595
G2 X-8.6503 Y355.1665 I-5.8284 J-2.264
G0 Z5.0
G0 X-20.2445 Y355.4063
G1 Z0.0
G3 X-22.4234 Y353.1188 I15.3912 J-16.8421
G3 X-24.2926 Y350.5719 I20.3603 J-16.9025
G1 X-24.5198 Y350.2169
G3 X-25.6502 Y348.2753 I28.7845 J-18.0584
G3 X-25.6837 Y348.2129 I0.8867 J-0.5167
G3 X-25.7173 Y348.15 I0.8903 J-0.5166
G3 X-25.7511 Y348.0865 I0.894 J-0.5166
G3 X-26.3471 Y346.9153 I36.1972 J-19.1552
G3 X-27.7556 Y343.7105 I41.9372 J-20.3433
G1 X-27.9206 Y343.2899
G3 X-28.6328 Y341.353 I57.3212 J-22.177
G1 X-28.8065 Y340.8496
G3 X-29.554 Y338.5351 I71.1764 J-24.2668
G1 X-29.7361 Y337.9345
G3 X-30.522 Y335.1787 I103.3779 J-30.9726
G1 X-30.7146 Y334.4648
G1 X-30.9097 Y333.7273
G1 X-31.1077 Y332.9652
G3 X-31.9799 Y329.4785 I314.5831 J-80.5522
G3 X-32.0068 Y329.3689 I3.5903 J-0.9367
G1 X-32.9815 Y325.3685
G1 X-33.2358 Y324.3373
G1 X-33.5016 Y323.2739
G1 X-33.5692 Y323.0061
G1 X-33.8518 Y321.9019
G2 X-36.1217 Y325.2728 I13.4035 J11.4754
G2 X-37.5292 Y329.0852 I14.882 J7.6605
G2 X-37.9548 Y331.7643 I17.5122 J4.1557
G2 X-37.9378 Y335.3756 I20.9334 J1.7066
G2 X-37.9275 Y335.489 I1.6923 J-0.0963
G2 X-37.8177 Y336.4539 I20.6444 J-1.859
G2 X-37.4299 Y338.6355 I26.5391 J-3.593
G2 X-36.7822 Y341.0778 I30.516 J-6.7862
G2 X-35.8193 Y343.7905 I33.9776 J-10.5323
G2 X-35.7516 Y343.9588 I4.5907 J-1.7505
G2 X-35.1438 Y345.3787 I37.5175 J-15.2181
G1 X-34.9811 Y345.7355
G2 X-33.3586 Y348.9125 I40.9126 J-18.8918
G1 X-33.1357 Y349.3068
G1 X-33.022 Y349.5046
G2 X-27.5087 Y357.3445 I47.2607 J-27.3773
G2 X-25.8121 Y359.2497 I36.547 J-30.8389
G1 X-25.702 Y359.366
G1 X-25.479 Y359.5991
G2 X-24.7501 Y359.2975 I-0.9831 J-3.4077
G2 X-24.1001 Y358.8504 I-2.031 J-3.6485
G2 X-23.7142 Y358.4928 I-3.2963 J-3.9441
G2 X-23.2456 Y357.9727 I-5.9585 J-5.8405
G2 X-23.1877 Y357.9034 I-1.0381 J-0.9263
G1 X-22.9272 Y357.5839
G1 X-22.6315 Y357.2182
G1 X-22.4717 Y357.0253
G1 X-22.388 Y356.9268
G3 X-22.2056 Y356.7203 I4.218 J3.5417
G1 X-22.1089 Y356.616
G3 X-21.639 Y356.1682 I4.3148 J4.0564
G3 X-21.0313 Y355.7403 I2.7583 J3.2723
G3 X-20.2445 Y355.4063 I1.8101 J3.1704
G0 Z5.0
G0 X-30.886 Y358.5456
G1 Z0.0
G2 X-31.2179 Y357.4558 I-62.7759 J18.5194
G1 X-31.3323 Y357.0998
G1 X-31.4517 Y356.7392
G1 X-31.5764 Y356.3741
G1 X-31.6083 Y356.2827
G1 X-31.6405 Y356.1909
G2 X-32.232 Y354.643 I-29.0138 J10.1999
G1 X-32.3963 Y354.2556
G1 X-32.5699 Y353.8649
G2 X-33.396 Y352.2382 I-18.9582 J8.6049
G1 X-33.453 Y352.1388
G1 X-33.5108 Y352.0394
G2 X-34.0148 Y351.2336 I-12.5712 J7.3025
G1 X-34.0814 Y351.1347
G2 X-35.3519 Y349.5346 I-11.1817 J7.574
G2 X-36.9986 Y348.0787 I-8.295 J7.7231
G2 X-37.7242 Y351.7073 I29.2392 J7.7337
G2 X-38.0346 Y355.3946 I34.4311 J4.7547
G2 X-37.5592 Y362.7682 I38.7058 J1.2069
G2 X-36.4428 Y367.5695 I34.8358 J-5.5696
G1 X-36.3487 Y367.8682
G2 X-35.3437 Y370.5504 I27.4619 J-8.7599
G2 X-35.0394 Y371.2246 I17.5818 J-7.53
G2 X-34.8772 Y371.5636 I17.1649 J-8.0044
G1 X-34.707 Y371.9053
G2 X-33.9156 Y373.3306 I19.0061 J-9.6216
G2 X-33.4631 Y374.0409 I17.5132 J-10.6573
G2 X-32.3854 Y375.4828 I13.7835 J-9.1781
G2 X-31.047 Y376.8709 I10.1447 J-8.4417
G2 X-29.3772 Y378.1002 I7.0972 J-7.892
G1 X-29.1497 Y378.2302
G1 X-28.9163 Y378.3548
G2 X-26.7552 Y379.123 I3.8723 J-7.4694
G2 X-24.24 Y379.2384 I1.6282 J-8.0232
G2 X-22.9363 Y379.0048 I-0.9575 J-9.0994
G2 X-21.6147 Y378.5786 I-2.6438 J-10.4609
G2 X-21.2896 Y378.4456 I-6.7727 J-17.0158
G3 X-23.1868 Y377.1346 I5.1106 J-9.4242
G3 X-24.7761 Y375.4636 I7.8437 J-9.051
G1 X-24.9638 Y375.2195
G3 X-25.8742 Y373.8552 I11.8694 J-8.9065
G3 X-26.3315 Y373.0374 I15.5924 J-9.2563
G3 X-27.365 Y370.7707 I20.816 J-10.8594
G3 X-27.8595 Y369.4378 I33.9945 J-13.3715
G1 X-27.9183 Y369.2672
G1 X-27.9773 Y369.0936
G3 X-28.4817 Y367.4991 I45.2922 J-15.2033
G3 X-28.5419 Y367.2955 I37.0966 J-11.0985
G1 X-28.6642 Y366.8748
G3 X-29.1914 Y364.9486 I102.8976 J-29.2022
G3 X-29.2074 Y364.8879 I1.3155 J-0.3786
G1 X-29.338 Y364.3876
G1 X-29.4714 Y363.8712
G1 X-30.0746 Y361.5168
G1 X-30.2328 Y360.9104
G1 X-30.3987 Y360.2855
G2 X-30.886 Y358.5456 I-63.2632 J16.7795
G0 Z5.0
G0 X-25.479 Y344.9338
G1 Z0.0
G3 X-25.1028 Y344.5646 I23.362 J23.4213
G3 X-24.7254 Y344.1966 I21.1596 J21.3267
G3 X-24.4731 Y343.9519 I16.8125 J17.081
G3 X-24.136 Y343.6263 I19.4605 J19.8091
G3 X-23.9431 Y343.4406 I15.1155 J15.5062
G3 X-23.7224 Y343.2285 I16.7498 J17.214
G3 X-23.47 Y342.9865 I19.0164 J19.5844
G3 X-23.1811 Y342.7102 I22.4669 J23.195
G3 X-22.8507 Y342.3947 I28.6514 J29.6699
G3 X-21.9692 Y341.5539 I205.1407 J214.2245
G1 X-20.7954 Y340.4313
G1 X-20.1273 Y339.7871
G1 X-19.3675 Y339.047
G1 X-18.9645 Y338.6501
G2 X-18.0502 Y337.7358 I-74.3014 J-75.212
G2 X-15.678 Y335.2329 I-55.5753 J-55.0497
G2 X-15.5315 Y335.0701 I-4.126 J-3.8605
G2 X-14.9131 Y334.3696 I-34.9631 J-31.4872
G2 X-14.836 Y334.2807 I-2.5178 J-2.2601
G2 X-14.7585 Y334.1908 I-2.4817 J-2.22
G2 X-13.3773 Y332.5173 I-39.2777 J-33.8234
G1 X-13.0332 Y332.0755
G2 X-11.5336 Y329.9991 I-33.9298 J-26.0839
G1 X-11.3527 Y329.7287
G2 X-10.6069 Y328.5574 I-31.3016 J-20.754
G2 X-10.5615 Y328.483 I-1.0635 J-0.6986
G2 X-10.5162 Y328.4081 I-1.0598 J-0.693
G2 X-8.9881 Y325.5945 I-29.8742 J-18.0463
G1 X-8.9008 Y325.4126
G1 X-8.8139 Y325.2287
G1 X-8.7274 Y325.0428
G3 X-10.2161 Y324.2 I2.017 J-5.2988
G3 X-11.3559 Y322.9244 I3.1561 J-3.9671
G3 X-11.867 Y321.9019 I4.8693 J-3.0734
G2 X-15.0428 Y324.175 I20.5513 J32.0681
G2 X-17.9805 Y326.7485 I26.1644 J32.829
G2 X-19.8061 Y328.6055 I31.3645 J32.6613
G2 X-22.083 Y331.2252 I38.8561 J36.0702
G2 X-24.8679 Y334.9181 I50.7268 J41.1524
G2 X-25.5683 Y335.9333 I84.8004 J59.2508
G1 X-25.9236 Y336.4615
G1 X-26.2862 Y337.0095
G1 X-26.6561 Y337.578
G1 X-27.0334 Y338.1675
G1 X-27.4185 Y338.7787
G1 X-27.8114 Y339.4124
G1 X-28.2125 Y340.0692
G1 X-28.6219 Y340.7498
G3 X-28.1319 Y341.1599 I-3.0021 J4.0856
G3 X-27.6948 Y341.626 I-4.6039 J4.7549
G3 X-27.4292 Y341.9591 I-5.7974 J4.8947
G3 X-27.1004 Y342.422 I-8.0019 J6.0317
G3 X-27.0597 Y342.4829 I-0.6459 J0.4763
G3 X-27.0179 Y342.546 I-0.672 J0.4899
G3 X-26.9752 Y342.6113 I-0.7022 J0.5061
G3 X-26.9314 Y342.679 I-0.7373 J0.5253
G3 X-26.4784 Y343.4078 I-35.6999 J22.6918
G1 X-26.3593 Y343.6031
G1 X-26.0843 Y344.0473
G1 X-26.0119 Y344.1611
G1 X-25.9364 Y344.278
G1 X-25.8575 Y344.3979
G2 X-25.479 Y344.9338 I7.7017 J-5.0378
G0 Z5.0
G0 Y332.3717
G1 Z0.0
G2 X-24.7501 Y332.0709 I-0.989 J-3.4296
G2 X-24.1002 Y331.6243 I-2.019 J-3.635
G2 X-23.7143 Y331.267 I-3.2327 J-3.8782
G2 X-23.2457 Y330.7473 I-5.8021 J-5.7026
G2 X-23.1878 Y330.678 I-1.035 J-0.9241
G1 X-22.9272 Y330.3587
G1 X-22.6317 Y329.9932
G1 X-22.4718 Y329.8004
G1 X-22.3881 Y329.702
G3 X-22.2057 Y329.4956 I4.4476 J3.7468
G1 X-22.1091 Y329.3914
G3 X-21.6392 Y328.9439 I4.428 J4.1792
G3 X-21.0313 Y328.5166 I2.7588 J3.2784
G3 X-20.2445 Y328.1836 I1.7894 J3.132
G2 X-20.9598 Y326.2372 I-15.9281 J4.7495
G2 X-21.9008 Y324.3893 I-16.8665 J7.4248
G1 X-21.9682 Y324.2736
G1 X-22.0385 Y324.1546
G2 X-22.8311 Y322.9128 I-19.7612 J11.7378
G2 X-23.9788 Y321.3205 I-30.4582 J20.7445
G1 X-24.2961 Y320.9043
G1 X-24.6374 Y320.4627
G1 X-25.4216 Y319.4575
G3 X-25.5211 Y319.3298 I4.1943 J-3.3698
G3 X-25.6221 Y319.2 I3.7306 J-3.0042
G3 X-26.0503 Y318.6446 I29.3143 J-23.0428
G3 X-26.1039 Y318.5743 I1.8449 J-1.4638
G3 X-26.1579 Y318.5034 I1.795 J-1.4224
G3 X-27.1206 Y317.1917 I36.8611 J-28.0657
G3 X-27.1795 Y317.1078 I1.2242 J-0.9199
G3 X-28.1992 Y315.536 I22.4036 J-15.6512
G3 X-28.69 Y314.6651 I16.439 J-9.8382
G3 X-28.9258 Y314.2061 I12.4949 J-6.7107
G3 X-29.8307 Y312.0233 I15.1419 J-7.5559
G3 X-30.4769 Y309.3913 I16.0346 J-5.3324
G3 X-30.7171 Y306.2912 I19.1543 J-3.0435
G1 X-30.7169 Y306.1935
G1 X-30.4889 Y306.2134
G1 X-30.2607 Y306.2322
G1 X-29.8041 Y306.266
G2 X-29.4995 Y306.2851 I0.9426 J-12.5885
G1 X-29.3253 Y306.2946
G2 X-28.8605 Y306.3143 I1.1788 J-22.3173
G2 X-28.2404 Y306.3256 I0.5779 J-14.729
G2 X-27.886 Y306.323 I0.1127 J-9.1036
G2 X-26.9418 Y306.2788 I-0.1754 J-13.8427
G2 X-25.6911 Y306.1205 I-0.9547 J-12.5634
G2 X-24.0595 Y305.7123 I-2.1385 J-12.0128
G2 X-21.9932 Y304.8387 I-4.3058 J-13.0656
G2 X-20.8781 Y304.2048 I-7.5369 J-14.5556
G1 X-20.7398 Y304.1187
G2 X-19.5087 Y303.2838 I-11.3027 J-17.991
G1 X-19.1999 Y303.056
G2 X-23.0271 Y299.5259 I-26.7589 J25.1713
G1 X-23.3 Y299.3108
G2 X-27.9407 Y296.2609 I-20.8816 J26.7177
G2 X-31.2829 Y294.663 I-16.5974 J30.4204
G1 X-31.726 Y294.4827
G2 X-36.577 Y292.9223 I-14.0229 J35.2732
G2 X-37.2165 Y292.7675 I-6.0913 J23.7627
G1 X-37.3781 Y292.7301
G1 X-37.7067 Y292.656
G1 X-38.0411 Y292.5836
G2 X-38.2574 Y295.4783 I72.5549 J6.8748
G1 X-38.2786 Y295.8925
G2 X-38.3558 Y299.2092 I67.1402 J3.2216
G2 X-38.3091 Y301.4205 I59.7552 J-0.1565
G1 X-38.297 Y301.7057
G2 X-38.0766 Y304.7421 I52.2196 J-2.2646
G1 X-38.0356 Y305.1329
G1 X-37.9901 Y305.5359
G1 X-37.9398 Y305.9515
G1 X-37.8843 Y306.3801
G2 X-37.8232 Y306.822 I19.3652 J-2.4556
G1 X-37.7558 Y307.2775
G2 X-36.7641 Y312.088 I45.91 J-6.9577
G2 X-34.633 Y318.2824 I42.5142 J-11.1627
G2 X-33.0079 Y321.6588 I42.0287 J-18.1494
G2 X-30.8254 Y325.3442 I43.6586 J-23.3645
G2 X-27.9795 Y329.3248 I49.588 J-32.4458
G1 X-27.596 Y329.8138
G2 X-25.9147 Y331.8623 I64.4717 J-51.1996
G1 X-25.6982 Y332.1164
G1 X-25.479 Y332.3717
G0 Z5.0
G0 X-25.1429 Y317.7324
G1 Z0.0
G2 X-24.1523 Y317.6609 I0.1201 J-5.2327
G2 X-22.8822 Y317.2741 I-0.9329 J-5.3422
G2 X-22.0968 Y316.8644 I-2.8864 J-6.4912
G2 X-21.1282 Y316.1944 I-5.4116 J-8.8578
G2 X-20.6067 Y315.7708 I-9.1079 J-11.7446
G1 X-20.475 Y315.6581
G1 X-20.1974 Y315.4147
G1 X-19.9054 Y315.1511
G1 X-19.5976 Y314.8668
G1 X-18.903 Y314.2126
G1 X-18.7242 Y314.0436
G1 X-18.5395 Y313.8696
G3 X-18.1445 Y313.5008 I29.9395 J31.6816
G1 X-17.7196 Y313.1129
G3 X-16.7259 Y312.2589 I19.8176 J22.0547
G1 X-16.4621 Y312.0477
G3 X-15.8879 Y311.6134 I11.2275 J14.2468
G3 X-15.2564 Y311.178 I8.5686 J11.7523
G3 X-13.7333 Y310.3138 I7.3665 J11.2085
G3 X-12.8765 Y309.9394 I5.2965 J10.9536
G3 X-10.8225 Y309.3364 I4.4463 J11.3462
G1 X-10.3888 Y309.2528
G1 X-9.954 Y309.1753
G3 X-9.0816 Y309.0367 I5.9718 J34.7666
G3 X-7.33 Y308.8091 I7.6076 J51.7118
G1 X-7.2167 Y308.7961
G1 X-6.699 Y308.7379
G1 X-6.5654 Y308.7232
G1 X-5.1397 Y308.5692
G2 X-3.2416 Y308.3405 I-7.1317 J-67.1697
G2 X-2.1617 Y308.1746 I-4.2787 J-31.439
G2 X-2.0251 Y308.1507 I-0.6452 J-4.0912
G2 X-1.4435 Y308.0398 I-3.5656 J-20.2858
G2 X-0.1279 Y307.7191 I-3.4323 J-16.9376
G1 X0.037 Y307.6702
G1 X0.204 Y307.6184
G2 X1.6922 Y307.0271 I-3.2168 J-10.2641
G1 X1.7825 Y306.982
G1 X1.8731 Y306.9354
G1 X1.9639 Y306.8874
G2 X3.5101 Y305.8022 I-3.632 J-6.819
G2 X4.8878 Y304.1012 I-5.0163 J-5.4713
G2 X2.9582 Y302.9106 I-8.4054 J11.4635
G2 X0.8739 Y302.0178 I-7.4666 J14.5523
G2 X-0.5721 Y301.5762 I-6.0018 J17.0637
G2 X-2.5435 Y301.1616 I-5.2151 J19.9025
G2 X-2.6062 Y301.1515 I-0.1799 J0.9241
G2 X-5.2967 Y300.8842 I-3.6401 J22.9629
G2 X-8.8933 Y300.9719 I-1.1333 J27.3251
G2 X-13.6046 Y301.793 I2.6402 J29.074
G2 X-16.2113 Y302.6093 I7.2589 J27.7491
G2 X-16.536 Y302.7315 I13.9497 J37.5928
G2 X-19.4162 Y304.0505 I8.7806 J22.9772
G1 X-19.5035 Y304.0981
G1 X-19.591 Y304.1462
G2 X-21.047 Y305.0315 I9.8808 J17.891
G2 X-22.5071 Y306.117 I9.8075 J14.7157
G2 X-22.6825 Y306.2648 I4.7941 J5.8701
G2 X-24.0848 Y307.637 I9.0823 J10.6839
G2 X-25.3306 Y309.3348 I8.343 J7.4276
G2 X-25.8333 Y310.3068 I8.4558 J4.9891
G2 X-25.9414 Y310.5611 I6.787 J3.0372
G2 X-26.5122 Y312.8933 I7.4283 J3.054
G2 X-26.3026 Y315.5321 I8.0714 J0.6865
G2 X-26.1163 Y316.1872 I7.8673 J-1.8825
G2 X-26.1031 Y316.2278 I0.3124 J-0.0797
G2 X-25.5597 Y317.5527 I10.0395 J-3.3436
G1 X-25.479 Y317.7139
G2 X-25.1429 Y317.7324 I0.4562 J-5.2141
G0 Z5.0
G0 X-17.1036 Y313.5298
G1 Z0.0
G1 X-16.9146 Y313.7398
G1 X-16.7276 Y313.9515
G1 X-16.6038 Y314.0935
G1 X-16.4399 Y314.2838
G3 X-15.7947 Y315.0537 I-57.4665 J48.8159
G1 X-15.6128 Y315.2757
G1 X-15.1316 Y315.8707
G3 X-14.4961 Y316.669 I-60.2596 J48.6235
G1 X-13.6543 Y317.7376
G1 X-12.5315 Y319.1621
G1 X-11.8854 Y319.9726
G1 X-11.5386 Y320.403
G2 X-11.4947 Y320.4571 I0.8757 J-0.6645
G1 X-11.3134 Y320.6803
G1 X-10.9246 Y321.1546
G2 X-8.7876 Y323.6321 I52.3752 J-43.016
G1 X-8.502 Y323.943
G2 X-7.8831 Y324.5975 I23.6973 J-21.7905
G2 X-6.41 Y326.037 I24.9774 J-24.0859
G2 X-4.5972 Y327.543 I15.3686 J-16.6556
G2 X-3.5579 Y328.2536 I9.7965 J-13.2116
G2 X-2.9981 Y328.5852 I5.7649 J-9.0944
G2 X-1.7421 Y329.1874 I5.1105 J-9.049
G2 X-0.3065 Y329.6118 I2.9784 J-7.4338
G2 X1.3123 Y329.709 I1.1719 J-5.9877
G2 X3.0422 Y329.3005 I-0.4513 J-5.778
G2 X3.8811 Y328.887 I-2.4401 J-6.0076
G1 X4.0836 Y328.7642
G2 X4.8878 Y328.1836 I-4.1766 J-6.6328
G2 X3.3842 Y325.696 I-24.7686 J13.2724
G2 X1.6439 Y323.3679 I-26.8586 J18.2625
G2 X1.1106 Y322.7312 I-30.8848 J25.3294
G1 X0.8204 Y322.3964
G2 X-0.7852 Y320.664 I-32.933 J28.9112
G2 X-1.7391 Y319.7093 I-36.9667 J35.984
G2 X-2.8536 Y318.6439 I-44.9007 J45.8561
G2 X-2.9967 Y318.5103 I-5.3423 J5.5758
G2 X-3.1424 Y318.3748 I-5.3236 J5.5794
G2 X-3.2907 Y318.2375 I-5.3265 J5.6054
G2 X-4.6575 Y316.9961 I-98.5395 J107.1181
G2 X-4.8323 Y316.8398 I-6.6385 J7.2457
G2 X-5.01 Y316.6812 I-7.0124 J7.6807
G2 X-5.1907 Y316.5203 I-7.4859 J8.2278
G2 X-5.3745 Y316.3571 I-8.1023 J8.9358
G2 X-5.5613 Y316.1914 I-8.9372 J9.8904
G2 X-5.7512 Y316.0233 I-10.1406 J11.2613
G2 X-5.9442 Y315.8526 I-12.0668 J13.4496
G2 X-6.1402 Y315.6794 I-15.8733 J17.7659
G1 X-6.9768 Y314.9405
G1 X-7.8672 Y314.1506
G3 X-8.8116 Y313.3027 I124.7278 J-139.8698
G1 X-9.2958 Y312.8616
G1 X-9.7926 Y312.4032
G1 X-10.3016 Y311.9261
G1 X-10.8225 Y311.4288
G2 X-11.3191 Y311.4103 I-0.4339 J4.9715
G2 X-11.8147 Y311.4487 I0.0672 J4.0847
G2 X-12.7674 Y311.7264 I0.4853 J3.4377
G2 X-13.3479 Y312.0467 I1.8005 J3.9499
G1 X-13.4952 Y312.1443
G2 X-13.6499 Y312.252 I2.2089 J3.3371
G1 X-13.9973 Y312.5051
G3 X-14.3949 Y312.7908 I-7.3457 J-9.8005
G3 X-14.4463 Y312.8259 I-0.3522 J-0.4605
G3 X-14.9302 Y313.1208 I-2.93 J-4.2632
G3 X-15.5252 Y313.3758 I-1.7259 J-3.2064
G3 X-16.2518 Y313.5281 I-1.0546 J-3.2202
G3 X-17.1036 Y313.5298 I-0.4348 J-4.427
G0 Z5.0
G0 X-4.5354 Y315.6215
G1 Z0.0
G2 X-3.5963 Y316.393 I6.6499 J-7.1374
G2 X-2.5555 Y317.0208 I4.2606 J-5.8872
G2 X-1.8028 Y317.3238 I2.6082 J-5.3915
G2 X-0.7405 Y317.5361 I1.4745 J-4.6139
G2 X0.7034 Y317.4302 I0.3791 J-4.7261
G2 X1.4977 Y317.1882 I-1.2113 J-5.4004
G2 X2.3576 Y316.7911 I-2.6415 J-6.8506
G2 X3.2761 Y316.2273 I-4.509 J-8.3742
G2 X4.2521 Y315.4922 I-8.4341 J-12.214
G1 X4.4943 Y315.2912
G2 X4.9982 Y314.8529 I-14.2556 J-16.8951
G2 X6.0956 Y313.8215 I-24.084 J-26.7268
G2 X6.3715 Y313.5497 I-11.6819 J-12.1338
G1 X6.6534 Y313.2682
G2 X7.2457 Y312.6679 I-52.4407 J-52.3322
G1 X7.8688 Y312.0294
G1 X8.1889 Y311.701
G1 X8.8683 Y311.0087
G3 X8.9543 Y310.9219 I1.3725 J1.2732
G1 X9.3089 Y310.5664
G3 X10.9423 Y309.0111 I32.5782 J32.58
G3 X11.3773 Y308.6274 I17.6246 J19.5419
G1 X11.4881 Y308.5322
G1 X11.6001 Y308.4369
G3 X12.0669 Y308.0518 I10.869 J12.6991
G1 X12.1859 Y307.9568
G3 X12.4295 Y307.7665 I22.8477 J29.0031
G3 X13.4956 Y307.004 I10.5003 J13.5537
G3 X14.0672 Y306.6449 I9.177 J13.9742
G3 X15.3387 Y305.9787 I6.5593 J10.9728
G3 X16.7772 Y305.4541 I4.1682 J9.194
G3 X16.87 Y305.4287 I0.5537 J1.844
G3 X18.4939 Y305.1517 I2.2843 J8.4939
G3 X19.3628 Y305.9393 I-2.2052 J3.3059
G3 X19.9538 Y306.9522 I-2.9792 J2.4175
G3 X20.1837 Y307.7006 I-4.3804 J1.7551
G3 X20.3306 Y308.7298 I-6.9972 J1.5237
G3 X20.3469 Y309.0064 I-12.3335 J0.8642
G1 X20.3562 Y309.3014
G3 X20.3528 Y309.9732 I-15.3769 J0.2584
G1 X20.3407 Y310.3305
G1 X20.3225 Y310.7106
G1 X20.2719 Y311.5739
G1 X20.2459 Y312.0332
G2 X20.213 Y313.0776 I20.7094 J1.1743
G2 X20.2242 Y313.6335 I10.557 J0.066
G2 X20.2718 Y314.2236 I8.0555 J-0.3529
G1 X20.2914 Y314.3726
G1 X20.3149 Y314.5236
G1 X20.3429 Y314.6762
G2 X20.5158 Y315.3159 I4.686 J-0.9236
G2 X20.8168 Y315.9604 I3.3545 J-1.1741
G2 X21.2903 Y316.5666 I2.7567 J-1.6653
G2 X21.9526 Y317.0785 I2.424 J-2.4516
G2 X22.7784 Y317.461 I2.3202 J-3.9266
G2 X23.7277 Y317.7139 I2.1681 J-6.2303
G2 X23.8429 Y317.1355 I-40.7761 J-8.4183
G1 X23.9549 Y316.5566
G1 X24.0277 Y316.1702
G1 X24.1224 Y315.6546
G2 X24.1753 Y315.3598 I-9.9732 J-1.9396
G1 X24.3114 Y314.5727
G2 X24.7783 Y311.412 I-71.8776 J-12.2316
G2 X25.2612 Y305.0415 I-62.9226 J-7.9739
G2 X25.2636 Y304.9408 I-1.3533 J-0.0825
G2 X25.2218 Y300.6468 I-68.8858 J-1.4764
G2 X25.0847 Y298.1967 I-85.29 J3.5448
G1 X25.0379 Y297.5652
G1 X25.0125 Y297.2446
G1 X24.9856 Y296.9189
G1 X24.9267 Y296.2469
G2 X24.787 Y294.8147 I-127.0136 J11.6643
G2 X24.7823 Y294.7699 I-0.4892 J0.0282
G2 X24.7776 Y294.7249 I-0.4895 J0.0284
G2 X24.7729 Y294.6799 I-0.4897 J0.0286
G2 X21.9804 Y295.6969 I24.8094 J72.4661
G1 X21.5849 Y295.8512
G2 X18.4551 Y297.17 I25.5701 J65.0559
G1 X18.0428 Y297.3574
G2 X11.6384 Y300.7405 I26.3713 J57.6755
G2 X11.2393 Y300.9843 I10.0318 J16.8718
G2 X10.8295 Y301.2392 I10.8223 J17.8595
G2 X6.596 Y304.1674 I30.1547 J48.1205
G2 X1.4078 Y308.6613 I32.6872 J42.9797
G2 X-4.5354 Y315.6215 I37.3512 J37.9112
G0 Z5.0
G0 X8.0275 Y313.5298
G1 Z0.0
G3 X10.3929 Y315.3482 I-10.0118 J15.4723
G3 X12.4403 Y317.5184 I-12.9714 J14.288
G3 X13.6174 Y319.1227 I-16.1075 J13.0524
G3 X14.962 Y321.4076 I-20.0646 J13.345
G3 X16.4006 Y324.6302 I-27.5691 J14.2393
G3 X16.7257 Y325.5134 I-41.4917 J15.7771
G3 X17.3904 Y327.5562 I-42.4581 J14.9437
G3 X18.0362 Y329.9205 I-48.6577 J14.5625
G3 X18.3399 Y331.1906 I-62.3717 J15.5812
G3 X18.6377 Y332.55 I-75.1993 J17.1864
G3 X18.6556 Y332.6355 I-1.8766 J0.4375
G3 X18.6734 Y332.7213 I-1.903 J0.4411
G1 X18.8177 Y333.4303
G1 X18.9609 Y334.1627
G3 X18.9785 Y334.2547 I-2.6456 J0.5536
G3 X18.9961 Y334.3471 I-2.7193 J0.5654
G3 X19.0136 Y334.4399 I-2.799 J0.5783
G3 X19.0312 Y334.533 I-2.8861 J0.5924
G3 X19.0488 Y334.6265 I-2.9817 J0.608
G3 X19.0663 Y334.7203 I-3.0873 J0.6254
G3 X19.1014 Y334.9095 I-4.6204 J0.9552
G1 X19.2432 Y335.6907
G3 X19.2781 Y335.8877 I-10.5368 J1.9732
G1 X19.4197 Y336.7009
G1 X19.4901 Y337.1141
G1 X19.6325 Y337.9669
G1 X19.7764 Y338.8472
G1 X20.4185 Y342.8599
G1 X20.5881 Y343.894
G2 X22.916 Y341.6989 I-8.0817 J-10.902
G2 X24.6222 Y338.9921 I-9.4292 J-7.835
G2 X25.3462 Y336.9816 I-11.792 J-5.3821
G2 X25.6109 Y335.7889 I-13.1269 J-3.5387
G2 X25.7892 Y334.405 I-14.652 J-2.5909
G2 X25.8451 Y332.8132 I-16.7184 J-1.3842
G2 X25.7394 Y330.9997 I-19.8985 J0.2502
G1 X25.7143 Y330.7704
G2 X25.3786 Y328.6956 I-23.2423 J2.6959
G1 X25.3232 Y328.4347
G2 X24.7028 Y326.0871 I-27.8698 J6.1101
G2 X23.7774 Y323.4877 I-32.396 J10.0679
G2 X22.4933 Y320.6317 I-36.3493 J14.6276
G2 X18.1896 Y313.6757 I-40.237 J20.0851
G2 X16.8326 Y311.9757 I-30.7729 J23.1732
G2 X16.0946 Y311.1322 I-25.4386 J21.5108
G2 X16.0 Y311.0282 I-2.6222 J2.2902
G2 X14.3091 Y309.3364 I-18.1907 J16.4902
G2 X13.1293 Y309.7547 I1.4903 J6.0766
G2 X12.0502 Y310.3892 I3.1306 J6.5584
G2 X11.7614 Y310.6007 I3.8329 J5.5385
G1 X11.6881 Y310.6569
G2 X10.9317 Y311.2858 I9.5984 J12.3132
G1 X10.512 Y311.659
G3 X10.0333 Y312.0853 I-24.2514 J-26.748
G3 X9.972 Y312.139 I-1.2133 J-1.3235
G3 X9.9096 Y312.1933 I-1.1408 J-1.2479
G3 X9.8461 Y312.2482 I-1.074 J-1.1788
G3 X9.5724 Y312.4791 I-6.6859 J-7.6452
G3 X9.5021 Y312.5368 I-0.7961 J-0.899
G3 X8.8397 Y313.0378 I-6.6947 J-8.1639
G3 X8.0275 Y313.5298 I-4.0624 J-5.789
G0 Z5.0
G0 X13.2647 Y321.9019
G1 Z0.0
G3 X10.7729 Y324.2572 I-58.7653 J-59.6754
G3 X10.6037 Y324.4111 I-6.1469 J-6.589
G3 X10.423 Y324.5748 I-6.4592 J-6.9462
G3 X10.2299 Y324.7492 I-6.8336 J-7.3734
G3 X10.0237 Y324.9348 I-7.2914 J-7.8948
G3 X9.8034 Y325.1324 I-7.8661 J-8.5479
G3 X9.5681 Y325.3428 I-8.6133 J-9.3954
G3 X9.3168 Y325.5669 I-9.632 J-10.5488
G3 X9.0484 Y325.8056 I-11.1268 J-12.2387
G3 X8.7619 Y326.0599 I-13.6136 J-15.0468
G1 X7.2331 Y327.4153
G1 X6.3622 Y328.1929
G2 X5.3732 Y329.0886 I123.646 J137.5086
G1 X4.8498 Y329.5707
G1 X4.2955 Y330.0891
G2 X3.0473 Y331.2944 I41.1076 J43.8209
G2 X2.3949 Y331.9508 I28.7461 J29.2226
G2 X2.231 Y332.1192 I7.862 J7.8191
G2 X0.7691 Y333.6948 I36.6592 J35.4771
G2 X0.6795 Y333.7964 I2.4877 J2.284
G2 X-0.8959 Y335.7081 I29.6283 J26.0209
G2 X-0.9432 Y335.7699 I1.2401 J1.0
G2 X-0.9906 Y335.8319 I1.2306 J0.9883
G2 X-1.038 Y335.8943 I1.2213 J0.9769
G1 X-1.2291 Y336.149
G1 X-1.4207 Y336.4096
G2 X-2.209 Y337.5435 I22.6059 J16.5559
G2 X-3.8098 Y340.2687 I23.5077 J15.6418
G2 X-4.5354 Y341.793 I24.0682 J12.3922
G3 X-3.0494 Y342.6371 I-2.0192 J5.2847
G3 X-1.9109 Y343.9117 I-3.1773 J3.9839
G3 X-1.4013 Y344.9338 I-4.9088 J3.0856
G3 X-0.7894 Y344.3122 I21.5093 J20.5568
G3 X-0.1585 Y343.7098 I23.4573 J23.9356
G3 X0.2698 Y343.3165 I18.4331 J19.647
G1 X0.3849 Y343.2125
G1 X0.6491 Y342.9762
G3 X1.3603 Y342.3537 I34.2206 J38.3739
G1 X1.77 Y342.0019
G3 X2.8702 Y341.0728 I94.3576 J110.6218
G1 X3.0127 Y340.9536
G1 X3.6648 Y340.4094
G1 X4.4104 Y339.7878
G1 X4.8077 Y339.4559
G1 X5.7129 Y338.6939
G1 X5.9456 Y338.4963
G1 X6.4405 Y338.0728
G2 X6.5658 Y337.9647 I-2.7714 J-3.3418
G1 X7.0984 Y337.5015
G1 X7.6622 Y337.0025
G1 X7.9512 Y336.7428
G2 X9.2507 Y335.5315 I-40.853 J-45.1338
G2 X10.6773 Y334.0861 I-27.9886 J-29.0505
G2 X12.1903 Y332.3238 I-19.0635 J-17.8975
G2 X12.9208 Y331.3213 I-13.7293 J-10.7721
G2 X13.6156 Y330.1925 I-12.4666 J-8.4507
G2 X14.2238 Y328.9105 I-9.4684 J-5.2773
G2 X14.4661 Y328.2166 I-8.8482 J-3.4793
G2 X14.7679 Y326.6632 I-7.1586 J-2.1964
G2 X14.6776 Y324.946 I-6.2846 J-0.5306
G2 X14.0599 Y323.1652 I-6.587 J1.2871
G2 X13.8276 Y322.7412 I-6.913 J3.5128
G2 X13.2647 Y321.9019 I-7.6033 J4.491
G0 Z5.0
G0 X13.2445 Y334.464
G1 Z0.0
G2 X12.5289 Y334.5131 I-0.0082 J5.1199
G2 X11.8097 Y334.6762 I0.5331 J4.0179
G2 X10.5243 Y335.39 I1.1761 J3.6323
G2 X9.8368 Y336.0927 I3.3933 J4.0072
G2 X9.7973 Y336.1412 I0.5594 J0.4962
G2 X9.4548 Y336.5964 I7.9017 J6.3019
G2 X9.2826 Y336.8461 I17.9841 J12.5928
G1 X9.1041 Y337.1152
G2 X9.0593 Y337.1839 I1.123 J0.781
G1 X8.6543 Y337.8092
G1 X8.5482 Y337.9693
G1 X8.4938 Y338.0502
G1 X8.4381 Y338.1319
G3 X7.8976 Y338.8499 I-7.2172 J-4.8704
G3 X7.5743 Y339.2027 I-4.4234 J-3.7289
G3 X7.1943 Y339.5432 I-3.159 J-3.1436
G3 X6.9829 Y339.7006 I-3.6611 J-4.6961
G3 X8.7332 Y341.1349 I-10.026 J14.0203
G3 X10.2908 Y342.7764 I-13.0684 J13.9605
G1 X10.484 Y343.0085
G3 X11.4583 Y344.2895 I-16.6993 J13.7122
G3 X12.6212 Y346.0914 I-21.8578 J15.3826
G3 X13.9645 Y348.6119 I-29.5276 J17.3551
G3 X14.6456 Y350.0941 I-38.078 J18.3951
G1 X14.8129 Y350.4804
G1 X14.9822 Y350.8804
G3 X15.7179 Y352.7225 I-57.4477 J24.0118
G3 X15.8991 Y353.2012 I-23.2079 J9.0557
G1 X16.0828 Y353.6963
G1 X16.2693 Y354.2083
G3 X16.658 Y355.3032 I-76.3478 J27.7207
G3 X16.6821 Y355.3721 I-1.4755 J0.5538
G3 X16.7062 Y355.4412 I-1.4919 J0.5588
G3 X16.7303 Y355.5106 I-1.5089 J0.5639
G3 X16.7545 Y355.5803 I-1.5264 J0.5692
G3 X16.7788 Y355.6503 I-1.5444 J0.5747
G3 X16.8031 Y355.7206 I-1.5631 J0.5804
G1 X17.0025 Y356.3008
G1 X17.4214 Y357.5398
G1 X17.6353 Y358.1798
G1 X18.0891 Y359.5446
G2 X19.1383 Y362.6538 I250.6024 J-82.831
G1 X19.2061 Y362.8491
G1 X19.4891 Y363.6538
G1 X19.7877 Y364.4819
G1 X19.9423 Y364.9013
G1 X20.1015 Y365.3265
G2 X20.8106 Y367.1277 I67.8711 J-25.6804
G2 X21.6333 Y369.0203 I43.2944 J-17.6943
G2 X23.1289 Y366.2756 I-13.5371 J-9.1561
G2 X23.2979 Y365.8615 I-14.201 J-6.0372
G2 X24.2064 Y362.4086 I-14.3278 J-5.616
G2 X24.3199 Y361.3926 I-14.5615 J-2.1397
G2 X24.3731 Y360.2258 I-18.0606 J-1.4083
G2 X24.1527 Y357.1251 I-19.3686 J-0.1819
G2 X24.1381 Y357.0282 I-1.425 J0.1662
G2 X24.1228 Y356.9306 I-1.4212 J0.1718
G2 X23.7717 Y355.1615 I-23.5035 J3.7455
G2 X23.2211 Y353.179 I-27.4339 J6.5516
G2 X22.8721 Y352.1397 I-32.3536 J10.2869
G2 X21.9568 Y349.8152 I-35.6706 J12.7028
G2 X21.4121 Y348.6016 I-39.0933 J16.8158
G2 X21.3411 Y348.4498 I-3.6927 J1.6365
G2 X19.9664 Y345.7271 I-53.7499 J25.4301
G1 X19.8753 Y345.5579
G1 X19.783 Y345.3877
G1 X19.6896 Y345.2165
G1 X19.595 Y345.0442
G1 X19.4992 Y344.8709
G1 X19.3034 Y344.5197
G1 X19.1028 Y344.1641
G2 X18.2318 Y342.6611 I-93.7189 J53.3074
G1 X17.7735 Y341.8918
G2 X16.7836 Y340.2646 I-146.5962 J88.0668
G1 X16.53 Y339.8529
G1 X16.402 Y339.6457
G1 X15.3117 Y337.8842
G3 X14.1639 Y336.0042 I168.5885 J-104.2158
G1 X13.878 Y335.5239
G3 X13.3002 Y334.5269 I53.5065 J-31.6724
G1 X13.2647 Y334.4641
G2 X13.2445 Y334.464 I-0.0284 J5.1199
G0 Z5.0
G0 X38.393 Y326.0913
G1 Z0.0
G2 X42.4343 Y324.2129 I-64.0217 J-143.0254
G1 X42.7019 Y324.0836
G1 X42.987 Y323.9451
G2 X47.5076 Y321.6483 I-65.9143 J-135.3319
G1 X47.7965 Y321.4948
G1 X48.0944 Y321.3356
G2 X57.4105 Y315.8631 I-63.8012 J-119.2755
G2 X63.353 Y311.79 I-67.0378 J-104.1775
G2 X70.871 Y305.8101 I-67.0538 J-92.0179
G2 X74.9275 Y302.1092 I-70.9411 J-81.831
G2 X84.7545 Y291.2563 I-71.9375 J-75.0128
G2 X89.6464 Y284.4599 I-80.8538 J-63.3545
G2 X94.5414 Y276.2332 I-86.9151 J-57.2857
G2 X95.6814 Y274.0404 I-96.9453 J-51.7918
G2 X100.2504 Y263.7106 I-99.119 J-50.0173
G2 X102.2642 Y258.0313 I-112.0433 J-42.9269
G2 X100.6035 Y257.644 I-3.8219 J12.6331
G2 X98.9041 Y257.5036 I-1.6736 J9.8996
G2 X98.7939 Y257.5048 I-0.0371 J1.6531
G2 X98.2908 Y257.5279 I0.0818 J7.2693
G2 X94.5145 Y258.8622 I0.5155 J7.4698
G2 X93.61 Y259.5852 I5.2443 J7.4881
G2 X93.5562 Y259.6345 I0.5456 J0.6484
G2 X92.6388 Y260.6003 I7.2741 J7.8291
G2 X92.197 Y261.1559 I9.0664 J7.662
G1 X92.0896 Y261.3006
G1 X91.9824 Y261.449
G1 X91.8755 Y261.601
G2 X90.9816 Y263.0334 I14.9635 J10.3329
G2 X90.1048 Y264.734 I24.2284 J13.569
G2 X89.2273 Y266.71 I41.4378 J19.5826
G1 X89.1747 Y266.8355
G1 X88.9599 Y267.353
G1 X88.852 Y267.6159
G1 X88.6311 Y268.1574
G1 X88.1627 Y269.3043
G3 X88.0424 Y269.5945 I-22.472 J-9.1429
G1 X87.7909 Y270.1898
G1 X87.6606 Y270.4905
G1 X87.5259 Y270.7942
G1 X87.3861 Y271.1009
G1 X87.2405 Y271.4101
G3 X86.5612 Y272.6892 I-14.3168 J-6.7836
G3 X69.2999 Y294.1999 I-86.914 J-52.0633
G3 X62.3269 Y300.2303 I-70.4945 J-74.4659
G3 X52.2586 Y307.2741 I-66.2613 J-83.9958
G3 X46.1707 Y310.7759 I-58.2891 J-94.2925
G1 X45.3825 Y311.1933
G1 X44.5784 Y311.6111
G1 X43.7583 Y312.0291
G1 X42.9219 Y312.447
G1 X42.0688 Y312.8647
G3 X38.393 Y314.5697 I-54.7872 J-113.3054
G1 Y326.0913
G0 Z5.0
G0 X37.3438 Y312.4773
G1 Z0.0
G1 X38.0676 Y312.1544
G1 X38.7893 Y311.8269
G1 X38.9952 Y311.7324
G1 X39.2302 Y311.6241
G1 X39.8557 Y311.3327
G2 X42.341 Y310.1312 I-52.7334 J-112.251
G2 X47.2222 Y307.5526 I-51.1495 J-102.7335
G2 X56.5574 Y301.6626 I-50.5553 J-90.4701
G1 X57.137 Y301.2482
G2 X63.1212 Y296.5652 I-55.0995 J-76.5736
G1 X63.4881 Y296.2517
G2 X65.035 Y294.8926 I-52.3339 J-61.1256
G1 X65.423 Y294.5419
G2 X73.1926 Y286.5399 I-59.8961 J-65.9292
G2 X81.8766 Y274.4675 I-67.557 J-57.755
G2 X85.9137 Y266.9809 I-80.4394 J-48.2086
G2 X89.7034 Y258.0313 I-90.3997 J-43.5571
G1 X64.5697
G3 X61.6718 Y262.7343 I-49.8132 J-27.4503
G3 X58.3539 Y267.151 I-53.5905 J-36.8029
G3 X57.3413 Y268.3621 I-47.6777 J-38.8343
G3 X54.5263 Y271.4908 I-62.4771 J-53.3838
G1 X54.1523 Y271.8846
G1 X53.7641 Y272.2889
G1 X53.361 Y272.704
G3 X51.491 Y274.5742 I-89.3624 J-87.4802
G3 X51.2506 Y274.8088 I-14.6815 J-14.8073
G3 X49.028 Y276.9259 I-95.1723 J-97.6893
G3 X48.8866 Y277.0578 I-7.6041 J-8.0069
G3 X48.744 Y277.1907 I-7.5891 J-8.0071
G3 X48.6001 Y277.3244 I-7.5817 J-8.0153
G3 X48.4549 Y277.4589 I-7.5816 J-8.031
G3 X48.3085 Y277.5945 I-7.5889 J-8.0544
G3 X48.1608 Y277.7309 I-7.6033 J-8.0854
G3 X48.0117 Y277.8682 I-7.6245 J-8.1235
G3 X47.8614 Y278.0065 I-7.6532 J-8.1697
G3 X47.7098 Y278.1457 I-7.6892 J-8.2236
G3 X47.5568 Y278.2859 I-7.7327 J-8.2855
G3 X47.4025 Y278.427 I-7.7839 J-8.3557
G3 X47.2469 Y278.5691 I-7.8429 J-8.4343
G3 X47.0899 Y278.7121 I-7.9102 J-8.5219
G3 X46.9316 Y278.8562 I-7.9862 J-8.619
G3 X46.7719 Y279.0012 I-8.0714 J-8.7261
G3 X46.6108 Y279.1473 I-8.1661 J-8.8437
G3 X46.4483 Y279.2944 I-8.2714 J-8.9728
G3 X46.2845 Y279.4425 I-8.3879 J-9.1143
G3 X46.1192 Y279.5916 I-8.5165 J-9.2692
G3 X45.9526 Y279.7419 I-8.6584 J-9.4387
G3 X45.7845 Y279.8931 I-8.8147 J-9.6242
G3 X45.6151 Y280.0455 I-8.9873 J-9.8277
G3 X45.4442 Y280.1989 I-9.1777 J-10.0511
G3 X45.2718 Y280.3534 I-9.3883 J-10.2969
G3 X45.098 Y280.5091 I-9.6217 J-10.5682
G3 X44.9228 Y280.6658 I-9.8812 J-10.8685
G1 X43.4251 Y282.0002
G3 X43.0443 Y282.3385 I-21.9482 J-24.3274
G3 X42.6573 Y282.682 I-26.522 J-29.4895
G1 X41.0067 Y284.1474
G2 X37.2566 Y287.5179 I254.2109 J286.6132
G1 X36.2986 Y288.3982
G3 X36.5908 Y290.5976 I-88.0049 J12.8112
G3 X36.83 Y292.8034 I-85.4254 J10.3805
G3 X36.8368 Y292.8735 I-1.042 J0.1363
G3 X36.9706 Y294.3702 I-156.1316 J14.7054
G1 X37.0028 Y294.7697
G3 X37.3439 Y301.1709 I-131.8415 J10.2356
G3 X37.3469 Y301.2719 I-1.4459 J0.0939
G3 X37.3499 Y301.3737 I-1.4542 J0.0936
G3 X37.3933 Y303.2337 I-123.2052 J3.8033
G3 X37.3943 Y303.2922 I-1.1437 J0.0493
G3 X37.4149 Y308.2726 I-199.4908 J3.3141
G3 X37.4002 Y309.6006 I-171.1912 J-1.2216
G1 X37.3898 Y310.2859
G1 X37.3769 Y310.9934
G1 X37.3617 Y311.7236
G1 X37.3438 Y312.4773
G0 Z5.0
G0 X23.5936 Y282.4213
G1 Z0.0
G2 X25.2088 Y281.6561 I-27.8419 J-60.8585
G2 X35.7481 Y275.2141 I-29.2686 J-59.7263
G2 X47.5942 Y263.7887 I-39.2965 J-52.5974
G2 X52.9504 Y256.0343 I-50.4827 J-40.5974
G2 X57.6004 Y246.3156 I-54.5867 J-32.0889
G2 X60.7836 Y234.4138 I-57.9418 J-21.8736
G2 X61.4303 Y220.3342 I-60.5108 J-9.8339
G2 X59.6632 Y221.7179 I4.7498 J7.8862
G2 X58.2689 Y223.4765 I7.137 J7.0903
G2 X57.5513 Y224.7904 I10.5744 J6.6283
G2 X56.8158 Y226.6412 I15.0354 J7.0465
G2 X56.6543 Y227.1471 I14.7835 J4.9983
G1 X56.5758 Y227.4095
G2 X56.2537 Y228.6171 I24.1396 J7.0867
G2 X55.9447 Y230.0081 I32.109 J7.8614
G1 X55.8728 Y230.3685
G1 X55.8014 Y230.7408
G1 X55.7303 Y231.1253
G1 X55.6592 Y231.5224
G1 X55.6239 Y231.7242
G1 X55.5886 Y231.9292
G1 X55.4426 Y232.8031
G1 X55.1221 Y234.7953
G1 X54.948 Y235.8553
G1 X54.8548 Y236.4014
G3 X54.3769 Y238.8788 I-61.1559 J-10.5114
G3 X54.0693 Y240.1868 I-41.1766 J-8.9932
G3 X53.6844 Y241.5657 I-29.4391 J-7.474
G3 X53.5756 Y241.9126 I-10.2125 J-3.0118
G3 X53.0535 Y243.3722 I-22.4314 J-7.2021
G3 X49.3394 Y251.1135 I-58.1978 J-23.16
G3 X44.5642 Y258.2493 I-50.8656 J-28.8729
G3 X32.1087 Y270.0075 I-44.9437 J-35.1328
G3 X27.9593 Y272.6345 I-32.8748 J-47.3351
G3 X22.9707 Y275.2045 I-30.3976 J-52.8783
G3 X17.0105 Y277.5665 I-25.5855 J-55.8606
G1 X16.6273 Y277.6947
G3 X13.3272 Y278.689 I-19.6799 J-59.3475
G3 X12.9078 Y278.8016 I-7.0292 J-25.3291
G3 X5.1335 Y280.3668 I-16.9364 J-64.0333
G3 X4.8869 Y280.4008 I-1.9091 J-12.9202
G3 X-4.1786 Y281.0232 I-9.1979 J-67.64
G3 X-14.5183 Y280.2748 I-0.1457 J-69.7849
G3 X-26.0228 Y277.5511 I9.9988 J-67.8913
G1 X-26.3751 Y277.4336
G1 X-26.7281 Y277.3138
G3 X-32.6349 Y274.9699 I21.2081 J-62.0611
G1 X-32.9976 Y274.804
G3 X-39.0142 Y271.6345 I26.956 J-58.4645
G3 X-45.0114 Y267.558 I31.5428 J-52.8557
G3 X-50.82 Y262.4475 I35.9471 J-46.7132
G3 X-61.2074 Y248.141 I40.2554 J-40.152
G3 X-64.8125 Y239.3763 I52.0888 J-26.5492
G3 X-66.1184 Y234.6538 I59.5079 J-18.9969
G3 X-67.0777 Y229.6849 I61.6827 J-14.486
G3 X-67.0896 Y229.6066 I1.1807 J-0.2201
G3 X-67.6751 Y224.4125 I67.3343 J-10.22
G3 X-67.8776 Y219.0234 I72.0813 J-5.4066
G3 X-67.8777 Y218.939 I1.1764 J-0.0432
G3 X-67.8303 Y216.1999 I75.0497 J-0.0712
G1 X-67.8035 Y215.513
G3 X-67.3655 Y209.8644 I83.7667 J3.6534
G3 X-66.8163 Y206.0082 I63.0992 J7.0206
G3 X-66.0243 Y202.1946 I59.799 J10.4297
G3 X-63.7033 Y194.7623 I57.4826 J13.8725
G3 X-56.1975 Y181.1555 I53.8507 J20.8315
G3 X-49.2961 Y173.4051 I47.4721 J35.3239
G3 X-44.783 Y169.5511 I41.3723 J43.8787
G3 X-39.2014 Y165.7021 I38.042 J49.1942
G3 X-32.3666 Y162.0622 I33.4327 J54.5413
G3 X-24.1011 Y158.9249 I27.6157 J60.3006
G1 X-23.5675 Y158.7643
G1 X-23.0284 Y158.6068
G3 X-12.9965 Y156.5203 I18.9338 J65.8723
G3 X-1.3235 Y155.9685 I9.1358 J69.5303
G3 X4.8878 Y156.4623 I-2.572 J71.6764
G3 X15.3324 Y158.7867 I-6.7464 J54.9423
G3 X25.1264 Y163.0956 I-17.0139 J51.9572
G3 X31.1143 Y166.9838 I-27.5599 J48.9975
G3 X34.3024 Y169.5317 I-34.0512 J45.8751
G3 X37.7196 Y172.7048 I-39.7838 J46.2708
G3 X41.3139 Y176.637 I-43.7544 J43.6039
G3 X45.0 Y181.4781 I-49.1716 J41.2645
G3 X48.6494 Y187.3901 I-56.5799 J39.0079
G3 X52.0781 Y194.5403 I-63.5481 J34.8697
G3 X53.5846 Y198.4903 I-69.2452 J28.6715
G3 X56.1931 Y207.7687 I-73.4861 J25.6654
G3 X56.2607 Y208.2264 I-3.7816 J0.7929
G3 X56.293 Y208.6879 I-7.8313 J0.779
G1 X56.3046 Y208.996
G1 X56.3069 Y209.0783
G1 X56.3317 Y210.3925
G1 X56.343 Y210.7678
G1 X56.3622 Y211.1965
G2 X56.4636 Y212.3364 I16.163 J-0.8635
G2 X56.4732 Y212.4085 I1.2678 J-0.1322
G2 X56.5833 Y213.064 I11.2922 J-1.5583
G2 X56.7676 Y213.8019 I7.6776 J-1.5259
G2 X56.8967 Y214.1869 I6.7001 J-2.0331
G2 X57.0619 Y214.588 I4.5967 J-1.6582
G2 X57.5617 Y215.4495 I4.3899 J-1.9714
G2 X58.358 Y216.2785 I3.3711 J-2.441
G2 X59.5172 Y216.9358 I2.7639 J-3.5232
G2 X60.2002 Y217.1529 I2.0811 J-5.3658
G1 X60.3777 Y217.1947
G2 X61.2284 Y216.6863 I-2.7974 J-5.6476
G2 X61.9799 Y216.0401 I-3.1191 J-4.3873
G2 X63.0446 Y214.3769 I-3.6754 J-3.5253
G2 X63.3952 Y213.1039 I-5.7299 J-2.2627
G2 X63.4459 Y212.7551 I-6.9583 J-1.1907
G2 X63.5051 Y211.9539 I-9.6377 J-1.1143
G2 X63.4911 Y211.0394 I-10.6929 J-0.294
G2 X63.3917 Y210.0044 I-14.1924 J0.8412
G2 X63.1963 Y208.8404 I-19.8887 J2.7399
G2 X63.1346 Y208.5427 I-8.3935 J1.5842
G1 X63.0669 Y208.2368
G1 X62.9931 Y207.9225
G1 X62.9541 Y207.7633
G1 X62.8711 Y207.4362
G1 X62.782 Y207.1001
G1 X62.7354 Y206.9299
G2 X62.5294 Y206.2095 I-77.6336 J21.8071
G1 X62.5027 Y206.1191
G1 X62.3909 Y205.7468
G1 X62.2735 Y205.3641
G1 X62.2134 Y205.1702
G1 X61.956 Y204.3476
G3 X61.6877 Y203.4729 I49.9069 J-15.7893
G3 X61.4303 Y202.5368 I20.9687 J-6.2695
G1 X61.3168 Y202.0807
G1 X61.1997 Y201.6254
G2 X60.9552 Y200.7177 I-52.2297 J13.5814
G2 X60.4262 Y198.9135 I-56.9075 J15.7065
G2 X60.4085 Y198.8564 I-1.1583 J0.3271
G2 X59.1776 Y195.2407 I-65.5613 J20.3024
G1 X58.9989 Y194.7637
G2 X58.5781 Y193.6782 I-48.7384 J18.2658
G2 X54.6404 Y185.2458 I-74.2754 J29.55
G1 X54.4995 Y184.9859
G1 X54.3555 Y184.7224
G2 X52.9941 Y182.3385 I-76.4732 J42.0924
G1 X52.6297 Y181.7309
G2 X48.4065 Y175.4676 I-65.5209 J39.6237
G2 X45.7059 Y172.0981 I-54.0057 J40.5176
G2 X42.3359 Y168.4902 I-42.2954 J36.1285
G1 X41.8845 Y168.0547
G2 X39.8929 Y166.2653 I-31.5858 J33.1523
G1 X39.8288 Y166.2112
G1 X39.7644 Y166.1572
G1 X39.6998 Y166.1032
G1 X39.4382 Y165.8869
G2 X33.2614 Y161.3578 I-44.577 J54.3174
G2 X26.6199 Y157.5429 I-36.7094 J56.2201
G2 X12.2469 Y152.3133 I-29.6575 J59.1445
G2 X2.1626 Y150.7192 I-15.5172 J65.4672
G2 X-11.4362 Y150.9619 I-5.5656 J69.246
G2 X-19.1027 Y152.2754 I8.2631 J71.2602
G2 X-38.3959 Y159.6533 I16.3444 J71.6547
G2 X-48.2379 Y166.2004 I35.2679 J63.6886
G2 X-53.0098 Y170.3253 I44.4808 J56.2803
G2 X-53.2967 Y170.5981 I14.7175 J15.768
G2 X-55.606 Y172.9114 I47.7265 J49.9505
G2 X-60.1518 Y178.1958 I49.6908 J47.3434
G2 X-60.2853 Y178.3687 I5.5882 J4.4543
G2 X-62.4077 Y181.2841 I53.7522 J41.3611
G2 X-64.4302 Y184.4099 I54.2248 J37.3026
G2 X-68.1354 Y191.436 I55.8863 J33.9617
G2 X-69.7036 Y195.2278 I60.2473 J27.1366
G2 X-69.7488 Y195.348 I2.5117 J1.0117
G2 X-72.2537 Y203.7496 I60.1057 J22.4949
G2 X-73.6459 Y213.0086 I63.7503 J14.32
G2 X-73.8687 Y218.2451 I75.2225 J5.8224
G2 X-73.7176 Y223.4841 I73.2475 J0.5095
G2 X-72.2813 Y233.861 I71.8639 J-4.6591
G2 X-64.9507 Y253.43 I69.2488 J-14.7831
G2 X-56.9888 Y264.8987 I61.1426 J-33.949
G2 X-51.4562 Y270.6606 I52.202 J-44.5882
G2 X-44.3605 Y276.4054 I46.1953 J-49.8038
G2 X-35.3856 Y281.7304 I38.5685 J-54.7774
G2 X-24.2522 Y286.0171 I29.245 J-59.3539
G2 X-10.8225 Y288.3982 I18.3733 J-64.5661
G2 X-0.7236 Y288.464 I5.5294 J-73.6074
G2 X2.6327 Y288.1744 I-4.3081 J-69.5123
G1 X2.8453 Y288.1506
G1 X3.0612 Y288.1258
G2 X16.6248 Y285.1493 I-7.9209 J-68.4859
G2 X23.5936 Y282.4213 I-20.8731 J-63.5865
G0 Z5.0
G0 X20.5297 Y273.1562
G1 Z0.0
G2 X22.8952 Y272.2634 I-9.553 J-28.888
G2 X26.2249 Y270.5794 I-11.2081 J-26.2963
G2 X29.7141 Y268.1237 I-13.6518 J-23.1033
G1 X29.9199 Y267.9503
G2 X30.7499 Y267.211 I-15.6512 J-18.4084
G2 X34.0787 Y263.3645 I-15.8275 J-17.0609
G2 X35.4776 Y261.0276 I-17.9343 J-12.3227
G2 X37.4795 Y255.0984 I-18.5151 J-9.5539
G2 X37.802 Y251.7512 I-21.1012 J-3.7226
G2 X37.5875 Y248.1551 I-23.4922 J-0.4027
G2 X36.7856 Y244.3865 I-26.4991 J3.6684
G2 X36.7689 Y244.3285 I-0.5892 J0.1389
G2 X35.3581 Y240.4647 I-30.2441 J8.8534
G1 X35.2534 Y240.2286
G2 X34.4946 Y240.4076 I3.1039 J14.8551
G2 X34.387 Y240.4365 I0.6529 J2.6442
G2 X33.5365 Y240.7025 I2.8099 J10.4771
G2 X32.9831 Y240.9189 I2.7047 J7.7316
G2 X32.2708 Y241.266 I2.9263 J6.9107
G2 X31.8821 Y241.4987 I4.3654 J7.7337
G2 X30.943 Y242.2611 I2.9244 J4.561
G2 X30.0344 Y243.6026 I3.2755 J3.197
G2 X29.7348 Y244.4856 I4.9247 J2.1637
G2 X29.5652 Y245.5382 I6.5003 J1.5868
G2 X29.5365 Y246.7512 I10.657 J0.8592
G1 X29.5421 Y246.9051
G2 X29.6557 Y248.2949 I18.7887 J-0.8365
G2 X29.8649 Y249.8532 I47.7992 J-5.6233
G2 X29.894 Y250.0504 I6.3903 J-0.8436
G1 X29.9544 Y250.4559
G1 X29.9849 Y250.6615
G1 X30.0157 Y250.87
G3 X30.1409 Y251.7522 I-43.658 J6.6427
G1 X30.1998 Y252.2062
G3 X30.2139 Y252.3206 I-1.7229 J0.2697
G3 X30.3163 Y253.289 I-28.2455 J3.4771
G3 X30.3828 Y254.3154 I-18.5354 J1.7165
G1 X30.3911 Y254.5759
G3 X30.3952 Y255.1116 I-18.3968 J0.4093
G3 X30.3794 Y255.6619 I-14.3436 J-0.1364
G3 X30.2676 Y256.8219 I-12.029 J-0.5742
G3 X30.0122 Y258.0313 I-10.0825 J-1.4976
G3 X29.5259 Y259.5137 I-17.1083 J-4.7916
G3 X29.3321 Y259.9964 I-17.6614 J-6.8107
G3 X28.376 Y261.8431 I-11.8231 J-4.9501
G3 X27.5645 Y262.9688 I-9.2456 J-5.81
G3 X26.2626 Y264.2851 I-7.821 J-6.4333
G3 X24.1992 Y265.6415 I-6.9145 J-8.271
G3 X22.9055 Y266.2096 I-5.9101 J-11.7009
G3 X21.3696 Y266.6995 I-5.5507 J-14.749
G1 X21.1715 Y266.7512
G1 X20.9698 Y266.8016
G3 X19.1132 Y267.1716 I-5.7341 J-23.927
G3 X18.116 Y267.315 I-6.5324 J-41.8882
G3 X17.8623 Y267.3467 I-1.5246 J-11.1763
G3 X16.781 Y267.4638 I-4.7788 J-39.06
G1 X16.223 Y267.5148
G1 X15.6474 Y267.562
G3 X13.0366 Y267.7346 I-10.8282 J-143.9323
G1 X11.6502 Y267.8187
G1 X11.2985 Y267.8411
G2 X11.2102 Y267.8469 I0.0835 J1.96
G2 X11.1216 Y267.8527 I0.0884 J2.0179
G2 X11.0327 Y267.8586 I0.0937 J2.0805
G2 X10.9435 Y267.8646 I0.0996 J2.1487
G2 X10.854 Y267.8707 I0.106 J2.2232
G2 X9.3351 Y267.9868 I6.67 J97.2203
G1 X8.9502 Y268.0212
G2 X7.3192 Y268.1978 I3.915 J43.7835
G1 X7.1143 Y268.2241
G1 X6.908 Y268.2518
G2 X5.1634 Y268.5354 I4.1427 J30.9879
G2 X3.3325 Y268.9532 I5.0605 J26.4001
G2 X1.4298 Y269.5626 I5.0838 J19.146
G2 X-0.513 Y270.4344 I5.8414 J15.6184
G2 X-2.4411 Y271.644 I6.9019 J13.143
G2 X2.114 Y273.4396 I12.893 J-26.0309
G2 X6.9028 Y274.4594 I8.5833 J-28.5523
G2 X16.6571 Y274.1599 I3.9379 J-30.7391
G2 X20.5297 Y273.1562 I-5.6803 J-29.8916
G0 Z5.0
G0 X21.8149 Y261.9949
G1 Z0.0
G2 X22.5853 Y262.0742 I3.6941 J-32.0811
G2 X25.8274 Y262.2194 I3.2241 J-35.7375
G1 X26.1348 Y261.7587
G1 X26.4422 Y261.2979
G1 X26.6453 Y260.9896
G2 X27.4191 Y259.7315 I-20.5903 J-13.5321
G2 X27.8765 Y258.8592 I-13.2345 J-7.4945
G1 X27.9875 Y258.6211
G2 X28.4868 Y257.3111 I-10.109 J-4.6032
G2 X28.694 Y256.5364 I-8.9635 J-2.8125
G2 X28.961 Y254.4134 I-10.8783 J-2.4463
G2 X28.967 Y253.8419 I-11.6268 J-0.4066
G3 X26.353 Y254.3178 I-5.3716 J-22.0887
G1 X25.9756 Y254.3606
G3 X22.9408 Y254.4516 I-2.1176 J-19.9786
G3 X20.9259 Y254.2436 I0.7974 J-17.588
G3 X18.3017 Y253.6028 I2.668 J-16.6213
G3 X15.0352 Y252.0811 I4.9395 J-14.8693
G3 X11.3858 Y248.9508 I8.1439 J-13.1871
G3 X9.7764 Y246.7123 I12.3791 J-10.5979
G3 X8.3989 Y243.8805 I15.5007 J-9.2912
G1 X8.3285 Y243.6948
G3 X7.3704 Y240.2069 I19.5158 J-7.2361
G3 X7.2194 Y239.2857 I19.1642 J-3.6154
G3 X6.9812 Y235.0585 I25.2199 J-3.5415
G3 X6.9829 Y234.9921 I0.6531 J-0.0163
G3 X8.3758 Y233.8379 I5.3513 J5.0407
G3 X10.0244 Y233.0933 I3.4899 J5.5296
G3 X11.2086 Y232.8532 I2.0487 J7.0641
G3 X12.8151 Y232.8105 I1.0455 J9.0898
G1 X13.0221 Y232.824
G3 X13.9625 Y232.9292 I-0.906 J12.3473
G3 X15.0231 Y233.1205 I-2.7446 J18.252
G3 X16.216 Y233.4039 I-4.7437 J22.6231
G3 X16.8458 Y233.5741 I-34.213 J127.8695
G1 X17.1694 Y233.6654
G1 X17.3336 Y233.7125
G1 X18.0304 Y233.9165
G1 X18.3893 Y234.0228
G1 X18.7591 Y234.1324
G1 X19.1405 Y234.2445
G1 X19.5342 Y234.3582
G1 X19.7343 Y234.4149
G1 X19.8352 Y234.4431
G2 X20.6965 Y234.671 I9.1863 J-32.9702
G1 X20.9162 Y234.7245
G2 X21.8573 Y234.9229 I3.6604 J-15.0316
G1 X22.098 Y234.9638
G2 X23.1316 Y235.0783 I1.5671 J-9.431
G2 X24.2424 Y235.048 I0.3833 J-6.343
G2 X24.8095 Y234.9455 I-0.6233 J-5.0661
G2 X25.3797 Y234.7613 I-0.926 J-3.8424
G2 X26.489 Y234.0665 I-1.41 J-3.4842
G2 X26.9639 Y233.5657 I-2.833 J-3.1615
G2 X27.3793 Y232.9717 I-3.9006 J-3.1703
G2 X27.7335 Y232.3003 I-5.3213 J-3.2369
G1 X27.8117 Y232.1249
G1 X27.8865 Y231.9458
G1 X27.9225 Y231.8552
G2 X26.9757 Y231.0119 I-8.5209 J8.614
G2 X25.9551 Y230.2595 I-9.5927 J11.9443
G2 X23.7636 Y228.9886 I-10.8697 J16.2189
G2 X22.2269 Y228.2884 I-11.0899 J22.3022
G2 X20.1163 Y227.5096 I-10.7813 J25.9678
G2 X17.2296 Y226.7109 I-10.4202 J32.0427
G2 X13.3038 Y226.0218 I-8.6765 J37.9082
G2 X8.0103 Y225.7293 I-4.815 J39.0914
G2 X4.9864 Y225.8949 I0.3946 J34.9069
G2 X1.5671 Y226.42 I2.9982 J30.9201
G1 X1.1381 Y226.5153
G1 X0.7038 Y226.6192
G2 X-0.55 Y231.4855 I35.1242 J11.6445
G2 X-1.0778 Y236.4828 I31.4052 J5.8434
G1 X-1.084 Y236.8072
G2 X-1.0662 Y238.2908 I29.0292 J0.3935
G2 X-0.9507 Y239.9827 I28.2894 J-1.08
G2 X-0.1199 Y244.4273 I25.8189 J-2.5267
G2 X2.2247 Y249.9868 I22.9383 J-6.3996
G2 X7.4371 Y256.1302 I19.9333 J-11.6294
G2 X11.2648 Y258.7301 I15.4684 J-18.6557
G2 X16.1315 Y260.7989 I12.8613 J-23.4961
G2 X16.7753 Y260.9932 I13.4193 J-43.2997
G2 X19.5633 Y261.6548 I8.2311 J-28.4836
G2 X21.8149 Y261.9949 I5.9457 J-31.7411
G0 Z5.0
G0 X19.8002 Y250.9065
G1 Z0.0
G2 X21.3484 Y250.4827 I-1.643 J-9.0426
G2 X21.8691 Y250.2754 I-3.9624 J-10.7123
G1 X22.1334 Y250.1577
G2 X23.2992 Y249.5381 I-5.0168 J-10.8453
G2 X24.5457 Y248.6949 I-7.413 J-12.3021
G2 X24.8534 Y248.4583 I-5.3083 J-7.2212
G2 X26.1886 Y247.3031 I-11.8469 J-15.0422
G2 X27.5912 Y245.8717 I-17.5727 J-18.6219
G2 X29.0642 Y244.1436 I-26.9229 J-24.4403
G2 X29.806 Y243.1935 I-29.4236 J-23.7364
G2 X31.4048 Y240.9877 I-49.1422 J-37.302
G1 X31.8024 Y240.4102
G2 X32.6316 Y239.1757 I-71.4293 J-48.8756
G2 X32.7349 Y239.0195 I-4.3996 J-3.0204
G1 X33.1577 Y238.3749
G1 X33.371 Y238.0472
G1 X33.8078 Y237.3713
G1 X33.9175 Y237.2008
G1 X34.8439 Y235.7528
G1 X35.8256 Y234.2173
G1 X36.334 Y233.4291
G1 X36.5935 Y233.0302
G1 X37.1319 Y232.2122
G1 X37.4079 Y231.7991
G3 X37.5477 Y231.5916 I8.3443 J5.4731
G1 X37.8334 Y231.172
G3 X39.0841 Y229.4178 I41.9176 J28.5644
G3 X39.7608 Y228.5387 I24.78 J18.3742
G1 X39.9358 Y228.3209
G3 X40.2975 Y227.8841 I14.7407 J11.8372
G1 X40.4832 Y227.6671
G3 X39.8586 Y227.2199 I1.2714 J-2.4356
G3 X39.3665 Y226.63 I2.3738 J-2.4806
G3 X39.1037 Y226.1905 I4.4471 J-2.9563
G3 X38.9716 Y225.9298 I4.317 J-2.3525
G3 X38.8326 Y225.6264 I7.5846 J-3.6564
G3 X38.6856 Y225.2752 I15.6699 J-6.7682
G3 X38.3213 Y224.334 I52.2441 J-20.7624
G1 X38.223 Y224.0838
G2 X38.1145 Y223.8187 I-6.3868 J2.4612
G2 X37.8415 Y223.2254 I-9.2155 J3.8799
G1 X37.7631 Y223.0762
G2 X37.3438 Y222.4299 I-4.2505 J2.2983
G2 X35.5215 Y224.263 I50.4442 J51.9694
G2 X35.2659 Y224.5296 I10.2756 J10.1085
G2 X35.13 Y224.6722 I7.0982 J6.8983
G2 X32.9967 Y226.991 I69.3706 J65.9619
G2 X32.8614 Y227.1428 I5.3817 J4.932
G1 X32.2465 Y227.8395
G2 X30.63 Y229.7177 I109.7247 J96.0674
G2 X30.5284 Y229.8379 I4.9048 J4.2525
G2 X30.4252 Y229.96 I4.9743 J4.3051
G2 X30.3205 Y230.0842 I5.0473 J4.3607
G2 X30.2143 Y230.2104 I5.1243 J4.4193
G2 X30.1065 Y230.3387 I5.2053 J4.4813
G2 X29.9972 Y230.4692 I5.2909 J4.547
G2 X29.8861 Y230.6019 I5.3814 J4.6166
G2 X29.7735 Y230.7367 I5.4772 J4.6905
G2 X29.6592 Y230.8738 I5.5785 J4.7689
G2 X29.5432 Y231.0131 I5.6864 J4.8526
G2 X29.4254 Y231.1548 I5.8011 J4.9418
G2 X29.3059 Y231.2987 I5.9234 J5.0372
G2 X29.1846 Y231.4451 I6.0542 J5.1395
G2 X29.0616 Y231.5939 I6.1944 J5.2494
G2 X28.9366 Y231.7452 I6.345 J5.3678
G2 X28.8098 Y231.8989 I6.5072 J5.4956
G2 X28.6811 Y232.0552 I6.6829 J5.6344
G2 X28.5505 Y232.2141 I6.8734 J5.7852
G2 X28.4179 Y232.3755 I7.081 J5.9499
G2 X28.2833 Y232.5396 I7.3083 J6.1306
G2 X28.1467 Y232.7064 I7.5584 J6.3298
G2 X28.008 Y232.876 I7.8355 J6.551
G2 X27.8672 Y233.0483 I8.1443 J6.7979
G2 X27.7243 Y233.2234 I8.4912 J7.0758
G1 X26.4212 Y234.8268
G2 X26.256 Y235.0307 I18.7492 J15.3656
G1 X24.7454 Y236.894
G1 X23.9377 Y237.8861
G3 X22.0784 Y240.1428 I-232.3085 J-189.5047
G1 X21.5943 Y240.7215
G3 X19.3481 Y243.3392 I-110.228 J-92.3116
G1 X18.7578 Y244.0055
G1 X18.1431 Y244.6885
G1 X17.8286 Y245.0334
G1 X17.5076 Y245.3823
G1 X17.1797 Y245.7351
G3 X14.091 Y248.8761 I-58.8787 J-54.8102
G3 X13.2647 Y249.6572 I-45.642 J-47.4539
G2 X14.3221 Y250.178 I6.1 J-11.0507
G2 X15.4247 Y250.5944 I4.6572 J-10.6651
G2 X17.7382 Y251.0326 I2.8953 J-8.9611
G2 X19.3107 Y250.9818 I0.5013 J-8.8598
G2 X19.8002 Y250.9065 I-1.1536 J-9.118
G0 Z5.0
G0 X10.1245 Y259.0785
G1 Z0.0
G2 X8.3289 Y258.2242 I-5.5548 J9.3619
G2 X7.6975 Y258.02 I-3.6509 J10.2064
G1 X7.5268 Y257.9733
G2 X4.7143 Y257.728 I-2.1107 J7.953
G2 X2.8601 Y258.0836 I0.8261 J9.3198
G2 X1.8411 Y258.4389 I3.1732 J10.7398
G1 X1.7141 Y258.4905
G2 X0.5811 Y259.0184 I5.3964 J13.0621
G2 X-0.6575 Y259.7202 I8.3329 J16.1514
G2 X-0.6956 Y259.7436 I0.2306 J0.4178
G2 X-0.7338 Y259.7672 I0.2322 J0.4188
G2 X-0.772 Y259.7909 I0.2338 J0.4198
G1 X-1.0859 Y259.9893
G1 X-1.4065 Y260.1984
G1 X-1.7341 Y260.4186
G2 X-3.1906 Y261.4637 I23.1478 J33.7968
G1 X-3.5593 Y261.7421
G1 X-3.9371 Y262.0316
G2 X-4.7348 Y262.6537 I57.9177 J75.0782
G1 X-5.5776 Y263.3208
G1 X-5.9322 Y263.6023
G2 X-5.87 Y263.2909 I-2.0396 J-0.569
G2 X-5.8566 Y262.7105 I-2.7805 J-0.3546
G2 X-5.9534 Y262.0908 I-4.3599 J0.3638
G1 X-5.9919 Y261.9359
G2 X-6.0857 Y261.6194 I-5.6977 J1.516
G2 X-6.3355 Y260.9652 I-7.5943 J2.5253
G2 X-6.653 Y260.3018 I-8.7561 J3.7824
G2 X-6.696 Y260.2199 I-1.712 J0.8479
G2 X-6.7399 Y260.1379 I-2.568 J1.322
G2 X-7.5915 Y258.7446 I-14.2834 J7.7734
G2 X-8.6558 Y257.2858 I-22.2266 J15.0982
G2 X-9.8771 Y255.8009 I-32.5924 J25.561
G2 X-11.2105 Y254.3149 I-39.0847 J33.7296
G1 X-11.5553 Y253.9472
G1 X-11.9066 Y253.5784
G2 X-13.4159 Y252.0508 I-54.6338 J52.4703
G2 X-17.1036 Y248.606 I-71.5973 J72.9491
G2 X-20.0971 Y245.9924 I-132.5751 J148.8249
G1 X-20.5293 Y245.6244
G1 X-21.0251 Y245.206
G1 X-21.0883 Y245.153
G1 X-21.1524 Y245.0992
G2 X-22.5305 Y243.9639 I-70.5763 J84.2613
G2 X-22.6186 Y243.8926 I-2.1122 J2.5224
G2 X-24.5213 Y242.3994 I-53.4559 J66.1555
G2 X-27.129 Y240.5019 I-44.1391 J57.9166
G2 X-30.7169 Y238.1316 I-55.656 J80.346
G3 X-31.3352 Y239.1268 I-6.7514 J-3.5046
G3 X-32.0691 Y240.0402 I-10.4734 J-7.664
G1 X-32.2898 Y240.2919
G1 X-32.8829 Y240.9583
G2 X-32.9588 Y241.0448 I2.1657 J1.9775
G2 X-33.7332 Y241.9967 I10.5457 J9.3708
G2 X-33.7791 Y242.0597 I0.604 J0.4883
G2 X-34.1721 Y242.6545 I6.2139 J4.5327
G2 X-34.9016 Y244.4167 I5.4152 J3.2739
G3 X-34.5687 Y244.656 I-4.5161 J6.6325
G1 X-34.4603 Y244.7393
G3 X-34.0371 Y245.0854 I-5.8613 J7.5993
G3 X-33.2272 Y245.8195 I-12.0147 J14.0695
G1 X-33.1219 Y245.9203
G1 X-32.8833 Y246.1527
G3 X-31.0423 Y248.0758 I-37.5631 J37.8015
G3 X-29.8548 Y249.3942 I-113.8002 J103.6983
G1 X-29.1841 Y250.1542
G3 X-28.4218 Y251.0263 I-85.2557 J75.285
G1 X-26.3988 Y253.3587
G1 X-25.2409 Y254.6894
G1 X-24.6207 Y255.3967
G1 X-23.9561 Y256.1485
G1 X-23.2429 Y256.9464
G1 X-22.8726 Y257.3563
G1 X-22.779 Y257.4594
G1 X-22.6846 Y257.5632
G1 X-22.2936 Y257.9904
G1 X-22.0942 Y258.2067
G1 X-21.891 Y258.4259
G1 X-21.4695 Y258.8764
G1 X-21.4164 Y258.9328
G1 X-21.2001 Y259.1613
G1 X-20.7509 Y259.6304
G1 X-20.5211 Y259.8673
G1 X-20.2867 Y260.1069
G2 X-19.7987 Y260.5976 I61.0242 J-60.1941
G2 X-18.7374 Y261.6239 I30.4889 J-30.468
G1 X-18.6697 Y261.6872
G2 X-17.4909 Y262.7417 I24.2788 J-25.9526
G2 X-17.3388 Y262.8705 I2.8637 J-3.2297
G2 X-16.7 Y263.3898 I15.346 J-18.2243
G2 X-16.0198 Y263.9002 I11.481 J-14.5919
G1 X-15.9327 Y263.962
G1 X-15.8448 Y264.0234
G2 X-15.101 Y264.5051 I7.7913 J-11.2179
G2 X-14.2914 Y264.9366 I4.4271 J-7.3296
G2 X-13.3967 Y265.2663 I2.3128 J-4.8989
G2 X-12.9169 Y265.3589 I0.9239 J-3.4965
G1 X-12.5386 Y265.4015
G2 X-12.4124 Y265.4146 I0.365 J-2.9013
G1 X-12.244 Y265.4312
G2 X-12.0193 Y265.4516 I1.0821 J-10.6644
G1 X-11.7194 Y265.4756
G1 X-11.548 Y265.4877
G2 X-10.1737 Y265.5298 I1.2753 J-19.1677
G1 X-10.13 Y265.5293
G2 X-9.1996 Y265.4832 I-0.0966 J-11.3586
G2 X-9.0799 Y265.4716 I-0.2041 J-2.7333
G2 X-8.8251 Y265.4418 I-0.6092 J-6.3104
G2 X-8.2467 Y265.3434 I-0.8693 J-6.864
G2 X-8.1219 Y265.3158 I-1.1096 J-5.3035
G3 X-9.0514 Y266.0118 I-49.2477 J-64.7986
G3 X-9.187 Y266.1107 I-5.5627 J-7.48
G1 X-9.463 Y266.3101
G3 X-10.6535 Y267.1326 I-25.8469 J-36.1369
G1 X-10.9606 Y267.3339
G1 X-11.2746 Y267.5348
G3 X-12.6376 Y268.3437 I-14.8683 J-23.5006
G1 X-12.8126 Y268.4397
G1 X-12.9899 Y268.535
G3 X-14.532 Y269.2794 I-9.6069 J-17.9322
G3 X-16.2418 Y269.9178 I-7.2611 J-16.839
G3 X-18.134 Y270.3842 I-4.5929 J-14.5619
G3 X-19.1318 Y270.5268 I-2.4182 J-13.354
G3 X-21.2896 Y270.5921 I-1.5019 J-13.9482
G3 X-23.2536 Y270.3141 I0.4325 J-10.1332
G3 X-25.1222 Y269.6491 I2.4402 J-9.8144
G3 X-26.2892 Y269.0256 I5.571 J-11.8312
G3 X-26.9304 Y268.6257 I9.2154 J-15.488
G3 X-27.2667 Y268.4038 I15.5524 J-23.9466
G1 X-27.4392 Y268.2877
G1 X-27.6166 Y268.167
G1 X-27.9933 Y267.9076
G3 X-28.0888 Y267.8415 I2.1146 J-3.1583
G2 X-28.963 Y267.242 I-68.2289 J98.5524
G2 X-29.9821 Y266.5911 I-12.0649 J17.7679
G2 X-30.5421 Y266.2718 I-9.8922 J16.697
G2 X-31.8774 Y265.6503 I-5.7061 J10.5144
G2 X-33.4956 Y265.1744 I-3.5511 J9.085
G2 X-35.4193 Y264.9631 I-2.1221 J10.4555
G1 X-35.6654 Y264.96
G2 X-37.9119 Y265.1382 I0.0314 J14.6419
G2 X-39.0944 Y265.3589 I3.0575 J19.6615
G2 X-36.306 Y268.785 I15.392 J-9.6789
G2 X-32.7688 Y271.431 I12.5952 J-13.1505
G2 X-30.1115 Y272.7081 I10.1407 J-17.6961
G1 X-29.7562 Y272.8448
G2 X-28.105 Y273.3906 I7.8598 J-21.0083
G2 X-26.176 Y273.8624 I6.9053 J-24.0553
G1 X-25.9286 Y273.9112
G2 X-23.6514 Y274.249 I5.1336 J-26.7683
G2 X-21.0306 Y274.4115 I3.1413 J-29.4423
G2 X-20.6971 Y274.4163 I0.3139 J-10.1512
G2 X-19.2763 Y274.3993 I0.3276 J-31.9285
G2 X-17.7649 Y274.3168 I-1.1758 J-35.431
G2 X-14.3434 Y273.8991 I-2.9342 J-38.2587
G1 X-13.9121 Y273.8245
G2 X-12.0853 Y273.4556 I-7.1023 J-39.8681
G2 X-11.9712 Y273.4297 I-0.7211 J-3.4427
G2 X-7.8755 Y272.2781 I-9.5382 J-41.7845
G2 X-5.7475 Y271.5043 I-15.0184 J-44.6129
G2 X-1.0803 Y269.3381 I-15.4012 J-39.2929
G2 X1.2813 Y267.951 I-18.3231 J-33.9004
G2 X3.6738 Y266.2852 I-18.1252 J-28.5834
G1 X3.7463 Y266.2297
G2 X4.9196 Y265.2844 I-20.5439 J-26.6977
G2 X5.4968 Y264.782 I-20.268 J-23.8674
G2 X6.0688 Y264.2558 I-14.8854 J-16.7546
G1 X6.1393 Y264.1887
G2 X6.7034 Y263.6341 I-21.7441 J-22.6789
G2 X7.2582 Y263.0527 I-19.2872 J-18.9579
G2 X7.8013 Y262.4427 I-17.5276 J-16.1524
G1 X8.0664 Y262.1279
G1 X8.1972 Y261.968
G2 X9.2142 Y260.5951 I-14.3924 J-11.7257
G2 X10.1245 Y259.0785 I-14.1676 J-9.5347
G0 Z5.0
G0 X-10.0399 Y246.9316
G1 Z0.0
G1 X-9.9586 Y246.7937
G2 X-9.6142 Y246.1513 I-10.1313 J-5.8442
G2 X-9.5318 Y245.9823 I-5.4955 J-2.7869
G2 X-9.4492 Y245.8069 I-5.0529 J-2.4844
G2 X-9.3667 Y245.6248 I-4.9591 J-2.3583
G2 X-8.6305 Y243.6546 I-17.0641 J-7.4989
G1 X-8.5505 Y243.3955
G2 X-7.862 Y240.6333 I-29.8514 J-8.9073
G2 X-7.8531 Y240.5895 I-0.4653 J-0.1178
G2 X-7.8442 Y240.5456 I-0.4683 J-0.1179
G2 X-7.8353 Y240.5014 I-0.4713 J-0.118
G2 X-7.8264 Y240.4571 I-0.4744 J-0.1182
G2 X-7.8175 Y240.4126 I-0.4774 J-0.1183
G2 X-7.8087 Y240.3679 I-0.4806 J-0.1185
G2 X-7.7998 Y240.3231 I-0.4837 J-0.1186
G2 X-7.791 Y240.278 I-0.4869 J-0.1187
G2 X-7.7822 Y240.2328 I-0.4902 J-0.1189
G2 X-7.747 Y240.0493 I-4.2324 J-0.9067
G2 X-7.7122 Y239.8629 I-5.5197 J-1.1294
G2 X-7.6428 Y239.4782 I-17.3343 J-3.3237
G2 X-7.5061 Y238.6583 I-32.9349 J-5.9127
G1 X-7.4736 Y238.4498
G1 X-7.4415 Y238.238
G2 X-7.3142 Y237.3362 I-64.6219 J-9.5804
G2 X-7.0753 Y235.2819 I-61.4241 J-8.1823
G1 X-7.0239 Y234.7515
G2 X-6.9748 Y234.2043 I-27.1307 J-2.7109
G2 X-6.9281 Y233.64 I-27.4377 J-2.5511
G2 X-6.7628 Y231.0723 I-94.8224 J-7.3938
G1 X-6.7316 Y230.4098
G2 X-6.641 Y227.3963 I-113.3224 J-4.9125
G2 X-6.6305 Y226.6192 I-90.9434 J-1.625
G2 X-9.0042 Y225.5581 I-8.5924 J16.0354
G2 X-11.5023 Y224.8371 I-6.72 J18.5941
G1 X-11.8418 Y224.7658
G2 X-13.6688 Y224.4796 I-4.2798 J21.3465
G2 X-16.1284 Y224.3296 I-2.6685 J23.5206
G2 X-19.4058 Y224.4975 I-0.2316 J27.5597
G2 X-23.7014 Y225.2797 I3.5841 J31.8668
G2 X-29.1954 Y227.143 I9.0879 J35.8277
G2 X-35.9399 Y230.8497 I15.3339 J35.8895
G2 X-39.3983 Y233.5615 I19.6058 J28.5655
G2 X-41.0818 Y235.1929 I19.8312 J22.1495
G2 X-42.716 Y237.0866 I17.7606 J16.9776
G2 X-44.218 Y239.2976 I15.9288 J12.4371
G2 X-44.865 Y240.5203 I13.5083 J7.9308
G2 X-45.416 Y241.843 I12.9492 J6.1695
G2 X-45.8311 Y243.2711 I11.8249 J4.2121
G1 X-45.8703 Y243.4538
G2 X-46.0689 Y244.9978 I10.2068 J2.0975
G2 X-45.5736 Y248.3878 I8.6451 J0.468
G2 X-44.7787 Y250.0294 I8.3406 J-3.0254
G2 X-43.6077 Y251.5738 I8.7735 J-5.4361
G2 X-42.1004 Y252.9738 I9.4928 J-8.7094
G2 X-41.25 Y253.6042 I9.3352 J-11.7034
G2 X-39.3428 Y254.759 I10.8054 J-15.6937
G1 X-39.0944 Y254.8891
G3 X-38.6925 Y252.7846 I89.0916 J15.9222
G3 X-38.2295 Y250.6926 I62.9247 J12.83
G3 X-37.8781 Y249.308 I49.8943 J11.9234
G3 X-37.8545 Y249.2204 I1.0009 J0.2228
G3 X-37.7519 Y248.8472 I24.0877 J6.4194
G1 X-37.6392 Y248.4501
G3 X-36.9735 Y246.3515 I41.6626 J12.0601
G3 X-36.7761 Y245.7984 I41.0172 J14.3282
G3 X-36.7245 Y245.6584 I2.5005 J0.842
G3 X-36.6715 Y245.5165 I2.6433 J0.9061
G3 X-35.3807 Y242.5529 I28.3466 J10.584
G1 X-35.1899 Y242.1818
G3 X-34.2376 Y240.5274 I21.4516 J11.246
G3 X-32.9754 Y238.7449 I17.3453 J10.9446
G3 X-31.2853 Y236.9003 I13.7013 J10.8568
G3 X-29.0249 Y235.1311 I10.7075 J11.3523
G3 X-26.0677 Y233.6663 I8.0989 J12.6329
G3 X-24.3761 Y233.1514 I5.4341 J14.815
G3 X-22.5175 Y232.8003 I4.126 J16.7456
G3 X-20.503 Y232.6338 I2.6961 J20.3528
G3 X-18.3459 Y232.6649 I0.7437 J23.2419
G3 X-16.0591 Y232.8997 I-1.6218 J27.0526
G3 X-15.3264 Y234.0051 I-3.3776 J3.0343
G3 X-14.9256 Y235.2693 I-4.7856 J2.2127
G3 X-14.8177 Y236.1471 I-7.3615 J1.3508
G3 X-14.818 Y237.3222 I-10.1619 J0.585
G3 X-14.9857 Y238.871 I-16.2961 J-0.9814
G3 X-15.0167 Y239.0696 I-6.0665 J-0.8454
G1 X-15.0878 Y239.4916
G1 X-15.1698 Y239.94
G1 X-15.2624 Y240.4164
G3 X-15.2866 Y240.5372 I-2.2731 J-0.3923
G1 X-15.5131 Y241.636
G1 X-15.6334 Y242.221
G1 X-15.6938 Y242.523
G1 X-15.7544 Y242.8348
G2 X-15.9898 Y244.2614 I24.6522 J4.8015
G2 X-16.0708 Y245.0274 I16.7514 J2.1577
G1 X-16.0744 Y245.0757
G2 X-16.1008 Y245.8996 I8.9063 J0.6978
G2 X-16.0331 Y246.7777 I6.6107 J-0.0679
G2 X-15.8012 Y247.6944 I4.3679 J-0.6173
G2 X-15.306 Y248.5932 I3.1888 J-1.1711
G2 X-14.4779 Y249.3614 I2.7636 J-2.1487
G2 X-13.9621 Y249.6572 I2.3639 J-3.5237
G2 X-12.6447 Y249.3957 I-0.0568 J-3.7342
G2 X-11.4953 Y248.7009 I-1.5805 J-3.9126
G2 X-11.3594 Y248.5832 I-1.421 J-1.7784
G2 X-10.7041 Y247.8888 I-3.8576 J-4.2966
G2 X-10.3769 Y247.453 I-6.3028 J-5.0729
G2 X-10.0399 Y246.9316 I-8.0683 J-5.585
G0 Z5.0
G0 X-20.5591 Y260.9303
G1 Z0.0
G2 X-23.5448 Y259.0182 I-14.2487 J18.9619
G2 X-23.6571 Y258.9582 I-1.6818 J3.013
G2 X-27.4054 Y257.3799 I-10.7181 J20.2136
G2 X-30.027 Y256.6817 I-8.2078 J25.5496
G1 X-30.3696 Y256.6096
G2 X-31.9435 Y256.3225 I-7.4582 J36.4373
G2 X-33.7514 Y256.0604 I-9.0796 J56.2535
G1 X-33.8656 Y256.0455
G1 X-33.9806 Y256.0305
G1 X-34.962 Y255.9072
G1 X-36.0083 Y255.7776
G3 X-38.3902 Y255.4391 I7.0417 J-58.1024
G1 X-38.6913 Y255.3872
G1 X-38.9966 Y255.3314
G1 X-39.306 Y255.2714
G3 X-39.9422 Y255.1351 I3.5337 J-18.0533
G3 X-41.2833 Y254.7774 I4.209 J-18.4736
G3 X-41.9632 Y254.55 I5.1021 J-16.3826
G1 X-42.1327 Y254.4875
G3 X-43.5449 Y253.8605 I4.5088 J-12.0586
G3 X-46.4186 Y251.7496 I5.3626 J-10.3117
G3 X-47.9713 Y249.8609 I8.9053 J-8.9041
G3 X-49.1617 Y247.7251 I12.3999 J-8.3106
G3 X-49.7753 Y246.2147 I16.5386 J-7.5982
G1 X-49.8454 Y246.0163
G1 X-49.9159 Y245.8109
G1 X-49.9866 Y245.5981
G1 X-50.0575 Y245.3779
G3 X-50.3566 Y244.3642 I29.7271 J-9.3203
G3 X-50.5011 Y243.8195 I26.7823 J-7.396
G1 X-50.572 Y243.5375
G3 X-50.8695 Y242.2434 I48.2707 J-11.7765
G1 X-50.9402 Y241.9082
G1 X-51.011 Y241.5618
G1 X-51.082 Y241.204
G3 X-51.0996 Y241.1137 I1.2086 J-0.2826
G1 X-51.2455 Y240.3436
G3 X-51.2634 Y240.2465 I1.3741 J-0.3038
G3 X-51.2814 Y240.1485 I1.3959 J-0.3069
G3 X-51.2994 Y240.0498 I1.4186 J-0.3102
G1 X-51.4504 Y239.2082
G1 X-51.6082 Y238.3105
G1 X-51.6895 Y237.8473
G1 X-51.8652 Y236.8606
G2 X-52.0603 Y235.8104 I-71.9837 J12.8284
G2 X-52.2831 Y234.6941 I-72.2554 J13.8442
G2 X-52.545 Y233.5094 I-48.8943 J10.1879
G1 X-52.6165 Y233.2096
G2 X-52.9485 Y231.9385 I-30.4024 J7.2606
G1 X-53.0406 Y231.6178
G1 X-53.1378 Y231.2932
G1 X-53.2405 Y230.9646
G2 X-53.7271 Y229.5787 I-22.0726 J6.9726
G1 X-53.8644 Y229.2318
G1 X-54.0099 Y228.8817
G2 X-54.1643 Y228.5288 I-11.2663 J4.7185
G2 X-54.9023 Y227.0584 I-16.1385 J7.1797
G2 X-55.8412 Y225.5707 I-14.7422 J8.2638
G2 X-57.7961 Y229.0126 I22.9729 J15.3238
G2 X-59.2038 Y232.7121 I22.0548 J10.51
G2 X-59.7916 Y235.2869 I22.123 J6.4047
G1 X-59.8188 Y235.4525
G2 X-60.0098 Y236.9744 I23.8494 J3.7665
G2 X-60.0025 Y241.0622 I21.9675 J2.0048
G2 X-58.8432 Y246.385 I22.8089 J-2.1803
G2 X-57.6372 Y249.2598 I22.7346 J-7.8468
G2 X-55.834 Y252.3292 I22.5892 J-11.2062
G2 X-53.292 Y255.4975 I22.3219 J-15.3056
G2 X-44.6324 Y261.7945 I20.7294 J-19.4042
G2 X-38.8417 Y263.7755 I11.888 J-25.2964
G2 X-31.9034 Y264.394 I5.8202 J-26.0622
G2 X-24.1181 Y262.8783 I-1.1503 J-26.6607
G2 X-20.2445 Y261.1709 I-9.5602 J-26.9365
G2 X-20.5591 Y260.9303 I-14.5633 J18.7214
G0 Z5.0
G0 X-45.3734 Y238.1316
G1 Z0.0
G3 X-44.7043 Y237.088 I6.3329 J3.3244
G3 X-43.8874 Y236.1555 I7.8954 J6.0925
G3 X-43.2936 Y235.5806 I11.7028 J11.4938
G3 X-43.2153 Y235.5083 I1.869 J1.9442
G3 X-43.1341 Y235.4339 I1.9162 J2.0086
G3 X-43.0501 Y235.3574 I1.9948 J2.1068
G3 X-42.9632 Y235.2787 I2.1134 J2.2484
G3 X-42.8732 Y235.1977 I2.2872 J2.4506
G3 X-42.7802 Y235.1143 I2.5464 J2.7472
G3 X-42.684 Y235.0284 I2.9575 J3.2125
G3 X-42.5847 Y234.9398 I3.7066 J4.0546
G2 X-42.4822 Y234.8484 I-5.5703 J-6.3485
G1 X-42.0158 Y234.4288
G1 X-41.7699 Y234.202
G1 X-41.5114 Y233.9561
G2 X-41.2415 Y233.6881 I-8.0525 J-8.3785
G2 X-40.6561 Y233.0452 I-7.1655 J-7.1131
G2 X-40.0643 Y232.2456 I-6.2344 J-5.2329
G2 X-39.0944 Y229.7588 I-5.569 J-3.6046
G3 X-41.7057 Y228.5529 I6.9488 J-18.4774
G3 X-42.5313 Y228.0641 I8.7189 J-15.6685
G1 X-42.747 Y227.9263
G3 X-45.8892 Y225.3136 I9.373 J-14.4681
G3 X-47.6061 Y223.1933 I12.8382 J-12.1514
G3 X-48.4395 Y221.8749 I16.579 J-11.4025
G3 X-48.8402 Y221.1458 I17.3359 J-10.003
G3 X-49.0353 Y220.7634 I18.4838 J-9.6697
G3 X-49.0832 Y220.6664 I1.2028 J-0.6545
G3 X-49.873 Y218.8549 I20.6226 J-10.0692
G3 X-50.5864 Y216.7153 I23.2897 J-8.9543
G3 X-51.1798 Y214.2128 I28.3435 J-8.0422
G3 X-51.6063 Y211.3137 I33.3698 J-6.3903
G1 X-51.6434 Y210.9435
G3 X-51.8246 Y207.5626 I42.1312 J-3.9531
G1 X-51.8289 Y207.1328
G1 X-51.8292 Y206.6964
G3 X-51.8256 Y206.2533 I21.797 J-0.0406
G1 X-51.8178 Y205.8036
G3 X-51.5732 Y201.7243 I56.298 J1.3283
G3 X-50.9636 Y197.1276 I66.8292 J6.5237
G3 X-50.9394 Y196.9841 I6.5007 J1.0226
G3 X-50.8898 Y196.6952 I11.6137 J1.8465
G3 X-49.796 Y191.4938 I75.4732 J13.155
G1 X-49.756 Y191.3319
G3 X-48.0919 Y185.522 I82.9171 J20.6073
G1 X-47.8514 Y184.7939
G1 X-47.6007 Y184.0572
G1 X-47.4718 Y183.6869
G2 X-53.2269 Y187.7843 I6.3502 J15.0097
G2 X-53.887 Y188.5579 I13.6433 J12.311
G2 X-55.4253 Y190.7873 I14.7557 J11.8266
G2 X-56.9907 Y194.034 I19.0602 J11.1909
G2 X-57.6578 Y195.9814 I24.1722 J9.3689
G2 X-57.9522 Y197.0382 I23.7967 J7.1974
G1 X-58.0205 Y197.3083
G2 X-58.5304 Y199.7971 I29.6387 J7.3687
G2 X-58.6304 Y200.4448 I47.5899 J7.6832
G2 X-58.9371 Y203.4146 I37.6177 J5.3846
G2 X-58.9429 Y203.5081 I1.2868 J0.1275
G2 X-58.9486 Y203.602 I1.2949 J0.1252
G2 X-59.0104 Y207.0255 I43.5706 J2.4993
G2 X-59.008 Y207.133 I1.6943 J0.0156
G2 X-58.9956 Y207.5691 I35.0707 J-0.7806
G2 X-58.6979 Y211.5266 I48.872 J-1.6858
G2 X-56.4576 Y221.7084 I51.612 J-6.0189
G2 X-55.5166 Y224.3206 I48.1187 J-15.8587
G2 X-54.3469 Y227.0327 I40.2592 J-15.7549
G2 X-52.8953 Y229.8206 I36.4727 J-17.2192
G2 X-51.0849 Y232.6365 I27.7023 J-15.8202
G2 X-50.8354 Y232.9768 I19.6041 J-14.1152
G2 X-49.749 Y234.3388 I20.0147 J-14.8494
G1 X-49.6061 Y234.5042
G2 X-49.3132 Y234.8337 I12.3265 J-10.6634
G2 X-48.0321 Y236.1302 I15.6362 J-14.1688
G2 X-46.5787 Y237.3342 I11.406 J-12.289
G1 X-46.4831 Y237.404
G1 X-46.3868 Y237.4732
G2 X-45.5813 Y238.0066 I7.6082 J-10.6122
G1 X-45.4778 Y238.0695
G1 X-45.3734 Y238.1316
G0 Z5.0
G0 Y223.4784
G1 Z0.0
G2 X-44.1943 Y222.323 I-106.7102 J-110.0733
G1 X-43.8044 Y221.9346
G1 X-43.2869 Y221.4146
G1 X-42.9922 Y221.1163
G1 X-42.2103 Y220.3171
G2 X-39.1316 Y217.0734 I-142.4889 J-138.3277
G2 X-33.156 Y210.4194 I-211.6974 J-196.1261
G1 X-32.9694 Y210.2054
G1 X-32.1754 Y209.2904
G1 X-31.7668 Y208.8172
G3 X-30.5663 Y207.4653 I51.9097 J44.8843
G1 X-30.3926 Y207.274
G1 X-29.928 Y206.7656
G1 X-29.3063 Y206.0897
G1 X-28.477 Y205.1887
G1 X-28.0048 Y204.6723
G1 X-27.7539 Y204.396
G1 X-27.1839 Y203.7615
G1 X-26.8824 Y203.421
G2 X-25.3167 Y201.5672 I-41.7156 J-36.819
G2 X-24.9159 Y201.0591 I-17.1259 J-13.9224
G2 X-24.037 Y199.8689 I-24.8448 J-19.2682
G1 X-23.9836 Y199.7925
G1 X-23.9301 Y199.7152
G1 X-23.8765 Y199.6371
G2 X-23.7685 Y199.4778 I-4.166 J-2.9416
G2 X-23.6601 Y199.3152 I-10.2107 J-6.9238
G2 X-22.7388 Y197.7821 I-16.5697 J-11.0009
G2 X-21.8934 Y195.916 I-12.4583 J-6.7684
G2 X-21.5686 Y194.8691 I-9.9506 J-3.6614
G2 X-21.3464 Y193.7165 I-9.1212 J-2.3555
G2 X-21.2896 Y193.1115 I-10.2844 J-1.2709
G3 X-21.7968 Y192.8552 I8.7625 J-17.9705
G1 X-21.8684 Y192.8168
G3 X-22.4207 Y192.4752 I2.3343 J-4.3921
G3 X-22.7533 Y192.1972 I1.5673 J-2.2124
G3 X-23.1139 Y191.7434 I1.5371 J-1.5916
G3 X-23.384 Y191.0145 I1.927 J-1.1286
G2 X-26.9841 Y192.5103 I7.857 J23.9902
G1 X-27.0961 Y192.5677
G2 X-30.521 Y194.6803 I12.149 J23.5273
G2 X-32.6199 Y196.3525 I17.7568 J24.4418
G2 X-35.1966 Y198.831 I24.6294 J28.1836
G2 X-36.5704 Y200.3421 I33.3976 J31.7446
G2 X-36.655 Y200.4391 I2.6782 J2.4187
G2 X-36.74 Y200.5371 I2.6723 J2.4033
G2 X-38.2562 Y202.3565 I51.8502 J44.7505
G1 X-38.6379 Y202.8337
G2 X-40.3465 Y205.0386 I100.3243 J79.5034
G2 X-40.4528 Y205.1786 I4.7831 J3.7432
G2 X-40.5598 Y205.3197 I5.0195 J3.9176
G1 X-42.5053 Y207.9004
G1 X-43.009 Y208.5648
G1 X-43.2658 Y208.9014
G1 X-43.5274 Y209.2426
G1 X-43.7942 Y209.5884
G3 X-44.946 Y211.0509 I-86.3978 J-66.8589
G1 X-45.2431 Y211.4186
G1 X-45.5471 Y211.7901
G1 X-45.8585 Y212.1653
G3 X-47.2191 Y213.7372 I-42.504 J-35.416
G3 X-47.9452 Y214.5269 I-37.0364 J-33.3252
G3 X-49.5581 Y216.1495 I-29.6803 J-27.8903
G2 X-47.6622 Y219.9261 I37.248 J-16.3348
G2 X-45.3734 Y223.4784 I32.7259 J-18.5722
G0 Z5.0
G0 X-35.9548 Y217.1947
G1 Z0.0
G2 X-30.4904 Y218.7571 I19.9309 J-59.368
G1 X-30.3119 Y218.7993
G1 X-30.1275 Y218.8424
G2 X-24.1694 Y219.9253 I13.9629 J-59.8905
G2 X-20.1484 Y220.3005 I6.8917 J-52.1221
G2 X-17.8411 Y220.3702 I2.5412 J-45.9253
G2 X-15.2032 Y220.3017 I0.2607 J-40.7958
G2 X-13.7994 Y220.1931 I-1.9374 J-34.1846
G1 X-13.6228 Y220.1756
G2 X-10.4136 Y219.6897 I-3.157 J-31.6896
G2 X-8.7274 Y219.289 I-5.8107 J-28.2022
G2 X-8.4456 Y216.3031 I-77.8629 J-8.8559
G2 X-8.2759 Y213.3086 I-73.9287 J-5.6917
G2 X-8.3173 Y207.3114 I-66.0958 J-2.5421
G2 X-8.6733 Y203.3277 I-54.9069 J2.8985
G2 X-9.0147 Y201.0672 I-45.3277 J5.6904
G2 X-9.5443 Y198.5079 I-40.7063 J7.0892
G1 X-9.6231 Y198.1854
G2 X-10.4745 Y195.2711 I-34.4695 J8.489
G1 X-10.5053 Y195.1808
G1 X-10.5364 Y195.0903
G2 X-10.6656 Y194.7237 I-15.9326 J5.4062
G2 X-12.061 Y191.4505 I-27.5785 J9.8233
G2 X-12.9757 Y189.7842 I-22.3837 J11.2026
G1 X-13.0373 Y189.682
G1 X-13.0996 Y189.5797
G1 X-13.1627 Y189.4773
G2 X-14.3234 Y187.78 I-19.2759 J11.9357
G2 X-14.9845 Y186.9477 I-18.0037 J13.6213
G2 X-16.5413 Y185.2895 I-15.0635 J12.583
G2 X-18.4173 Y183.7336 I-12.4421 J13.0927
G2 X-23.4443 Y181.1927 I-10.5667 J14.6623
G2 X-26.3946 Y180.4806 I-6.1887 J19.1721
G2 X-27.9541 Y180.2806 I-3.7453 J23.0202
G2 X-31.3209 Y180.1964 I-2.3154 J25.2479
G2 X-34.9016 Y180.5494 I1.2581 J31.1052
G2 X-35.9771 Y183.5076 I27.3097 J11.6033
G2 X-36.2607 Y184.5184 I22.293 J6.7986
G1 X-36.2943 Y184.6496
G2 X-36.9986 Y188.9222 I24.9489 J6.3074
G3 X-34.5195 Y188.0744 I6.9457 J16.2617
G3 X-31.9372 Y187.6314 I3.8398 J14.6348
G3 X-30.189 Y187.5979 I1.1345 J13.572
G3 X-29.1926 Y187.6801 I-0.5247 J12.4272
G3 X-26.5936 Y188.269 I-1.544 J12.8447
G3 X-23.4101 Y189.846 I-4.3266 J12.7362
G3 X-21.8049 Y191.0953 I-8.0408 J11.9876
G3 X-20.1964 Y192.7701 I-10.2729 J11.4752
G3 X-19.4429 Y193.7527 I-13.0729 J10.8062
G3 X-18.0053 Y196.1789 I-14.3629 J10.1496
G3 X-16.861 Y199.177 I-16.016 J7.8303
G3 X-16.7546 Y199.5707 I-9.7018 J2.8328
G3 X-16.2103 Y203.2335 I-17.0511 J4.4054
G3 X-16.2478 Y205.2063 I-16.2845 J0.6773
G3 X-16.3609 Y206.2178 I-15.9994 J-1.2766
G3 X-16.3997 Y206.4713 I-7.0397 J-0.9474
G3 X-16.9016 Y208.5967 I-14.7154 J-2.3529
G3 X-19.1999 Y213.0086 I-13.4733 J-4.2142
G3 X-21.1169 Y213.0514 I-1.3076 J-15.6065
G3 X-23.028 Y212.8937 I0.7753 J-21.0539
G3 X-24.2925 Y212.7059 I3.4001 J-27.2498
G1 X-24.6284 Y212.6476
G1 X-24.7137 Y212.6323
G3 X-24.8895 Y212.6002 I0.7419 J-4.5592
G1 X-25.2642 Y212.5294
G1 X-25.6631 Y212.4511
G1 X-26.5733 Y212.2646
G1 X-26.808 Y212.2156
G1 X-27.8809 Y211.9938
G1 X-28.4542 Y211.8816
G2 X-28.6 Y211.8542 I-0.7311 J3.5015
G1 X-28.9014 Y211.7999
G2 X-29.5464 Y211.6957 I-3.6534 J20.5717
G2 X-30.238 Y211.6093 I-1.9036 J12.4234
G2 X-30.9801 Y211.5583 I-1.0449 J9.7851
G2 X-31.1691 Y211.5543 I-0.1821 J4.116
G1 X-31.3612 Y211.5547
G2 X-31.7579 Y211.5716 I0.0335 J5.4599
G2 X-32.5991 Y211.6991 I0.3289 J5.0093
G2 X-33.4599 Y212.0184 I0.8646 J3.6512
G2 X-34.2688 Y212.6099 I1.5906 J3.0236
G2 X-34.9349 Y213.4872 I2.9072 J2.8988
G2 X-35.4226 Y214.5874 I5.3608 J3.0346
G2 X-35.7524 Y215.8441 I9.3167 J3.1171
G2 X-35.867 Y216.5066 I14.001 J2.7615
G2 X-35.9548 Y217.1947 I14.6242 J2.2178
G0 Z5.0
G0 X-44.3289 Y206.7249
G1 Z0.0
G2 X-42.8242 Y205.227 I-8.1219 J-9.6636
G2 X-41.5795 Y203.5071 I-10.8309 J-9.149
G2 X-40.8885 Y202.2713 I-14.8444 J-9.1116
G2 X-40.1196 Y200.5493 I-17.6431 J-8.9101
G1 X-40.0316 Y200.3223
G1 X-39.9433 Y200.0872
G2 X-39.5695 Y199.0023 I-27.3599 J-10.0345
G1 X-39.4804 Y198.7199
G2 X-39.2996 Y198.115 I-24.4633 J-7.6416
G2 X-39.2109 Y197.8015 I-41.5196 J-11.9165
G2 X-39.1224 Y197.4771 I-28.253 J-7.8782
G2 X-39.0343 Y197.1416 I-39.4247 J-10.5361
G2 X-38.8562 Y196.4236 I-30.8101 J-8.0249
G1 X-38.7691 Y196.052
G1 X-38.6824 Y195.6678
G2 X-38.3215 Y193.9068 I-59.7563 J-13.1649
G2 X-38.1478 Y192.9649 I-114.7469 J-21.6379
G2 X-38.1373 Y192.9057 I-1.2287 J-0.2497
G2 X-38.1161 Y192.7863 I-1.7685 J-0.3753
G2 X-38.0949 Y192.6661 I-1.815 J-0.3817
G2 X-38.0737 Y192.5449 I-1.865 J-0.3888
G1 X-37.9876 Y192.0445
G1 X-37.9007 Y191.5279
G1 X-37.7206 Y190.4261
G2 X-37.6755 Y190.1462 I-10.1302 J-1.7738
G1 X-37.4845 Y188.9533
G1 X-37.2786 Y187.6827
G1 X-37.1695 Y187.0277
G3 X-37.1129 Y186.6953 I13.861 J2.1885
G3 X-36.5387 Y183.6737 I74.5293 J12.5978
G1 X-36.4554 Y183.2922
G3 X-36.0633 Y181.6742 I42.0647 J9.3365
G3 X-35.5625 Y179.9713 I29.7709 J7.8312
G1 X-35.5276 Y179.8655
G1 X-35.4922 Y179.7594
G1 X-35.4561 Y179.653
G1 X-35.4195 Y179.5464
G3 X-34.7133 Y177.7562 I20.9196 J7.2172
G3 X-33.7602 Y175.9325 I15.3861 J6.8803
G3 X-33.1729 Y175.0441 I12.3859 J7.5494
G3 X-31.6713 Y173.3173 I9.8032 J7.0084
G3 X-29.698 Y171.8255 I7.7424 J8.1904
G3 X-27.2525 Y170.7186 I6.2983 J10.66
G3 X-25.9047 Y170.3441 I4.6322 J14.0597
G3 X-25.862 Y170.3344 I0.0966 J0.3266
G3 X-24.4292 Y170.0763 I3.884 J17.4526
G3 X-21.906 Y169.8929 I2.5816 J18.0696
G3 X-19.386 Y170.1139 I0.0226 J14.2166
G3 X-17.7439 Y170.5059 I-2.817 J15.438
G1 X-17.6411 Y170.5365
G3 X-16.7094 Y170.8403 I-6.6987 J22.1206
G1 X-16.4709 Y170.9247
G3 X-15.3892 Y171.3295 I-20.3939 J56.1363
G1 X-14.8152 Y171.5521
G2 X-13.5033 Y172.0549 I31.9515 J-81.4119
G1 X-13.1632 Y172.1802
G2 X-11.5968 Y172.7123 I12.1507 J-33.2021
G2 X-9.7773 Y173.2171 I8.5919 J-27.4332
G1 X-9.5867 Y173.0575
G1 X-9.3973 Y172.8964
G2 X-9.0212 Y172.5709 I-39.4307 J-45.9347
G1 X-8.2715 Y171.9173
G3 X-8.1709 Y171.8309 I2.326 J2.6038
G3 X-8.0633 Y171.739 I2.0824 J2.3302
G3 X-7.9481 Y171.6415 I1.8892 J2.1155
G3 X-7.8884 Y171.5914 I1.2304 J1.4046
G3 X-7.8267 Y171.5398 I1.1784 J1.3487
G3 X-7.7628 Y171.4868 I1.1295 J1.2967
G1 X-7.4683 Y171.2476
G3 X-6.6574 Y170.6423 I8.5809 J10.6491
G3 X-6.1735 Y170.3253 I6.6091 J9.5599
G3 X-5.5998 Y169.996 I6.257 J10.2385
G3 X-4.9168 Y169.6703 I3.961 J7.4272
G3 X-2.9763 Y169.1034 I3.383 J7.9746
G3 X-2.4411 Y169.0278 I1.3658 J7.734
G2 X-5.5427 Y166.9902 I-19.0544 J25.6261
G2 X-6.6285 Y166.3963 I-15.7435 J27.4927
G2 X-11.1995 Y164.5079 I-12.9009 J24.7512
G2 X-20.9939 Y163.4086 I-7.7413 J24.7896
G2 X-27.454 Y164.7369 I2.1622 J26.8889
G2 X-30.9441 Y166.1733 I9.1261 J27.1314
G2 X-34.6639 Y168.3482 I12.9652 J26.4431
G2 X-42.7024 Y176.4146 I17.5349 J25.5129
G2 X-45.7763 Y182.1616 I25.078 J17.1088
G2 X-47.6432 Y189.3543 I26.7061 J10.7706
G2 X-47.4129 Y197.8326 I28.0148 J3.4811
G2 X-46.2726 Y202.2214 I29.3141 J-5.2741
G2 X-44.364 Y206.6578 I30.5825 J-10.5282
G2 X-44.3289 Y206.7249 I0.7434 J-0.3456
G0 Z5.0
G0 X-18.1461 Y182.6418
G1 Z0.0
G2 X-17.4965 Y183.0435 I2.2388 J-2.894
G2 X-16.7951 Y183.3453 I3.8555 J-7.9926
G2 X-16.7491 Y183.3631 I0.2135 J-0.4844
G1 X-16.5387 Y183.4431
G2 X-16.4262 Y183.4854 I1.0454 J-2.6074
G3 X-15.83 Y183.7174 I-5.5169 J15.0617
G1 X-15.7539 Y183.7493
G1 X-15.5927 Y183.8199
G3 X-15.2319 Y183.9986 I-2.2358 J4.9676
G3 X-14.8421 Y184.2441 I-1.902 J3.4525
G3 X-14.4496 Y184.5989 I-1.4165 J1.9617
G3 X-14.1177 Y185.1131 I-1.5548 J1.3676
G3 X-13.9331 Y185.8005 I-2.1301 J0.9408
G3 X-13.9355 Y186.6216 I-3.6433 J0.3998
G1 X-13.9413 Y186.6732
G1 X-13.9476 Y186.725
G1 X-13.9545 Y186.7772
G1 X-13.9621 Y186.8298
G3 X-12.0902 Y184.1372 I17.8556 J10.4159
G3 X-12.0229 Y184.0554 I1.1866 J0.9071
G3 X-11.7105 Y183.6856 I11.8636 J9.7069
G3 X-8.9509 Y180.9765 I18.2384 J15.8182
G3 X-6.8995 Y179.4137 I17.6094 J20.9873
G3 X-3.9699 Y177.6199 I18.0552 J26.1976
G3 X0.1839 Y175.709 I17.2992 J32.1355
G3 X6.0007 Y173.9417 I15.0066 J38.9356
G1 X6.3777 Y173.8577
G3 X9.8489 Y173.2416 I9.8538 J45.4267
G3 X19.1915 Y172.9106 I6.2914 J45.5661
G3 X24.4859 Y173.5991 I-2.8217 J42.3989
G3 X27.2587 Y174.2465 I-7.7858 J39.6067
G3 X27.9545 Y174.4436 I-13.1297 J47.6804
G3 X29.3779 Y174.8938 I-10.3577 J35.2297
G3 X32.3429 Y176.0558 I-10.9309 J32.2532
G1 X32.5251 Y176.1382
G3 X35.5481 Y177.7239 I-12.62 J27.7337
G1 X35.7315 Y177.8349
G3 X36.4682 Y178.3001 I-20.1459 J32.7158
G3 X39.4382 Y180.5494 I-14.5371 J22.2806
G2 X38.7398 Y178.7465 I-18.8801 J6.2771
G2 X37.867 Y177.0211 I-17.1853 J7.6091
G2 X35.6093 Y173.8873 I-15.9926 J9.1418
G2 X33.7622 Y172.0894 I-13.8407 J12.3713
G2 X30.9633 Y170.0997 I-13.1005 J15.4652
G2 X29.2327 Y169.1734 I-11.6061 J19.6042
G2 X27.1711 Y168.2949 I-10.477 J21.7271
G2 X24.7374 Y167.511 I-9.5084 J25.3528
G2 X24.6599 Y167.49 I-0.3292 J1.0594
G2 X21.8018 Y166.8619 I-8.1033 J30.0585
G2 X21.7112 Y166.8464 I-0.253 J1.2061
G2 X21.6203 Y166.8311 I-0.2507 J1.2114
G2 X21.5289 Y166.816 I-0.2483 J1.2166
G2 X21.4372 Y166.8011 I-0.246 J1.222
G2 X18.0742 Y166.4211 I-5.7811 J36.0954
G2 X14.2245 Y166.3464 I-2.7229 J41.0863
G2 X9.8606 Y166.6742 I1.2367 J45.681
G2 X-1.277 Y169.392 I6.0392 J48.9282
G2 X-1.958 Y169.652 I11.0344 J29.928
G2 X-4.8048 Y170.8773 I16.7799 J42.9025
G2 X-7.7265 Y172.4018 I17.4576 J37.0218
G2 X-8.4472 Y172.8269 I15.0913 J26.4062
G2 X-11.3963 Y174.8216 I17.8814 J29.6141
G1 X-11.7519 Y175.0951
G2 X-14.5999 Y177.6486 I16.5939 J21.3732
G2 X-15.9085 Y179.1315 I16.679 J16.0372
G2 X-17.1084 Y180.7898 I15.0194 J12.1305
G2 X-18.1461 Y182.6418 I14.1751 J9.1592
G0 Z5.0
G0 X-2.4411 Y178.4523
G1 Z0.0
G3 X-0.5271 Y180.0936 I-43.4047 J52.5513
G1 X-0.2587 Y180.3338
G3 X1.8495 Y182.2982 I-54.6825 J60.7977
G1 X2.4403 Y182.8717
G1 X3.11 Y183.5324
G3 X3.8692 Y184.2939 I-57.2964 J57.8771
G3 X4.2716 Y184.7025 I-25.4958 J25.5168
G3 X4.4787 Y184.914 I-16.6007 J16.467
G3 X4.6921 Y185.1326 I-16.031 J15.8579
G3 X4.912 Y185.3588 I-15.7153 J15.5017
G3 X5.1386 Y185.5926 I-15.5997 J15.3438
G3 X5.3721 Y185.8343 I-15.6576 J15.3564
G3 X7.8447 Y188.4291 I-306.4731 J294.5164
G3 X8.5015 Y189.1234 I-86.9711 J82.9267
G1 X10.0048 Y190.7083
G1 X10.8101 Y191.5501
G1 X11.6736 Y192.4437
G1 X12.1216 Y192.9026
G1 X12.5859 Y193.3744
G2 X13.5842 Y194.3735 I69.3363 J-68.2853
G2 X13.8396 Y194.6253 I17.1997 J-17.1834
G2 X14.0998 Y194.8804 I14.4106 J-14.4463
G2 X14.3651 Y195.1385 I12.4789 J-12.5584
G2 X14.6356 Y195.3998 I11.0351 J-11.1532
G2 X14.7723 Y195.5311 I7.1868 J-7.3462
G2 X17.3224 Y197.8777 I55.8902 J-58.1774
G2 X17.4041 Y197.9495 I2.5385 J-2.8088
G2 X17.4863 Y198.0214 I2.5001 J-2.7735
G2 X18.1691 Y198.61 I27.2176 J-30.8793
G2 X18.2554 Y198.6833 I2.1875 J-2.4897
G2 X18.3421 Y198.7566 I2.1569 J-2.4622
G2 X18.4293 Y198.8301 I2.1269 J-2.4353
G2 X19.1546 Y199.4309 I46.3586 J-55.2306
G2 X22.5974 Y202.0204 I34.1408 J-41.8082
G2 X26.8044 Y204.5927 I25.2475 J-36.5653
G2 X26.8726 Y204.6292 I0.5783 J-0.999
G3 X26.8548 Y204.0524 I4.6845 J-0.4333
G3 X26.916 Y203.4787 I3.9844 J0.1353
G3 X27.3103 Y202.397 I3.517 J0.6693
G3 X27.7269 Y201.7513 I5.4949 J3.0879
G1 X27.8472 Y201.5856
G3 X27.9764 Y201.4098 I11.4846 J8.304
G2 X28.2646 Y201.0047 I-11.7394 J-8.6561
G2 X28.559 Y200.5206 I-4.6275 J-3.1454
G2 X28.8132 Y199.9254 I-3.2708 J-1.749
G2 X28.9651 Y199.1989 I-3.3797 J-1.0857
G2 X28.967 Y198.3474 I-4.4991 J-0.4357
G1 X28.6488 Y197.9721
G1 X28.3292 Y197.598
G1 X27.6857 Y196.8535
G1 X27.2536 Y196.3598
G1 X26.6739 Y195.7047
G1 X26.3408 Y195.3319
G2 X25.4463 Y194.3437 I-67.8925 J60.554
G2 X24.2402 Y193.0383 I-84.6994 J77.0475
G1 X23.5445 Y192.2984
G1 X22.744 Y191.4579
G2 X20.5839 Y189.2413 I-124.6163 J119.2867
G1 X20.0021 Y188.6559
G2 X16.865 Y185.5684 I-186.5362 J186.3974
G2 X16.4565 Y185.1738 I-24.9771 J25.4453
G2 X16.2487 Y184.9736 I-17.3423 J17.7936
G2 X16.0375 Y184.7705 I-17.2114 J17.6873
G2 X15.8227 Y184.5643 I-17.1144 J17.6154
G2 X15.6043 Y184.3551 I-17.0493 J17.5761
G2 X15.3822 Y184.1427 I-17.0144 J17.5678
G2 X15.1565 Y183.9272 I-17.0082 J17.5891
G2 X14.9269 Y183.7084 I-17.0302 J17.6394
G2 X14.6936 Y183.4864 I-17.0794 J17.718
G2 X14.4563 Y183.261 I-17.1568 J17.8259
G2 X14.2151 Y183.0323 I-17.2624 J17.9633
G2 X13.9699 Y182.8001 I-17.3964 J18.1304
G2 X13.7206 Y182.5645 I-17.5605 J18.3292
G2 X13.4671 Y182.3253 I-17.7559 J18.561
G2 X13.2095 Y182.0825 I-17.9847 J18.828
G2 X12.9475 Y181.8361 I-18.2492 J19.1331
G2 X12.6813 Y181.5859 I-18.5524 J19.4791
G2 X12.4106 Y181.332 I-18.8983 J19.8704
G2 X12.1355 Y181.0742 I-19.2914 J20.3122
G2 X11.8558 Y180.8125 I-19.7375 J20.8105
G2 X11.5716 Y180.5468 I-20.2437 J21.373
G2 X11.2827 Y180.277 I-20.8187 J22.0092
G2 X10.989 Y180.0032 I-21.4741 J22.7315
G2 X10.6906 Y179.7251 I-22.2237 J23.5547
G2 X10.3872 Y179.4428 I-23.0865 J24.4992
G2 X10.079 Y179.1561 I-24.0868 J25.5914
G2 X9.7657 Y178.865 I-25.2572 J26.8664
G2 X9.4474 Y178.5694 I-26.6443 J28.3741
G2 X9.1239 Y178.2692 I-28.3137 J30.1855
G2 X8.7952 Y177.9644 I-30.3646 J32.4072
G2 X8.4612 Y177.6547 I-32.9536 J35.2082
G2 X8.1219 Y177.3402 I-36.3479 J38.8763
G2 X7.7772 Y177.0208 I-41.0483 J43.9514
G2 X7.427 Y176.6963 I-48.1503 J51.6149
G3 X5.9331 Y175.3115 I402.1981 J-435.3901
G2 X3.6955 Y175.8206 I3.1867 J19.1751
G2 X1.5276 Y176.5728 I6.3449 J21.7894
G2 X0.1238 Y177.1812 I11.1117 J27.5614
G1 X-0.2457 Y177.3542
G2 X-2.1916 Y178.324 I29.834 J62.2994
G1 X-2.4411 Y178.4523
G0 Z5.0
G0 X5.37 Y188.2993
G1 Z0.0
G2 X3.5289 Y190.0937 I7.8506 J9.8968
G2 X2.8594 Y190.957 I10.513 J8.8434
G2 X2.5066 Y191.4721 I15.7386 J11.1595
G2 X1.6668 Y192.9078 I13.4106 J8.8073
G1 X1.5686 Y193.0987
G2 X0.6516 Y195.1926 I18.9896 J9.5647
G2 X-0.2586 Y198.0929 I26.555 J9.9257
G1 X-0.3065 Y198.28
G2 X-0.6983 Y199.9979 I35.9162 J9.095
G2 X-1.0586 Y201.9749 I50.4927 J10.2237
G2 X-1.2192 Y203.0334 I48.113 J7.8438
G2 X-1.5201 Y205.4555 I71.9083 J10.1611
G1 X-1.5527 Y205.7637
G1 X-1.6167 Y206.3998
G2 X-1.8598 Y209.3031 I107.9042 J10.4962
G2 X-1.8663 Y209.3943 I1.4181 J0.148
G2 X-1.8729 Y209.4859 I1.4324 J0.1483
G2 X-1.8794 Y209.5778 I1.4471 J0.1487
G2 X-1.8859 Y209.67 I1.4622 J0.1491
G1 X-1.9117 Y210.0447
G1 X-1.9624 Y210.8178
G1 X-1.9871 Y211.2104
G1 X-2.0115 Y211.6092
G1 X-2.0598 Y212.4318
G1 X-2.1077 Y213.2806
G1 X-2.2054 Y215.0886
G3 X-2.309 Y217.0141 I-337.6857 J-17.2127
G1 X-2.3647 Y218.0071
G1 X-2.3792 Y218.2572
G1 X-2.4411 Y219.289
G2 X0.14 Y220.3659 I9.6014 J-19.3799
G2 X2.8354 Y221.1119 I7.508 J-21.8861
G2 X3.0121 Y221.1489 I1.0163 J-4.4167
G2 X4.9116 Y221.4617 I4.9186 J-23.9459
G2 X7.47 Y221.6559 I3.338 J-27.0225
G2 X10.8865 Y221.5495 I0.806 J-29.029
G2 X15.38 Y220.8315 I-2.9651 J-32.9774
G2 X21.1464 Y218.9964 I-8.4421 J-36.5038
G2 X28.2356 Y215.2128 I-14.8399 J-36.3388
G2 X31.8711 Y212.4092 I-19.7767 J-29.403
G1 X31.9789 Y212.3136
G2 X33.7516 Y210.6099 I-21.1849 J-23.8155
G2 X35.4794 Y208.6362 I-20.4903 J-19.682
G2 X37.0908 Y206.3442 I-18.4864 J-14.7082
G2 X37.8056 Y205.084 I-16.857 J-10.3954
G2 X38.1327 Y204.4238 I-13.3673 J-7.0341
G2 X38.7214 Y203.0169 I-14.6311 J-6.9485
G2 X39.1878 Y201.5067 I-14.4291 J-5.2837
G2 X39.3616 Y200.7204 I-11.64 J-2.9851
G2 X39.5682 Y199.0594 I-12.6652 J-2.4189
G2 X39.5391 Y197.3142 I-11.3714 J-0.6831
G2 X39.5285 Y197.2052 I-2.2492 J0.1638
G2 X38.4902 Y193.5055 I-11.2184 J1.1529
G2 X37.4728 Y191.7497 I-11.3469 J5.402
G2 X36.1309 Y190.0883 I-11.8127 J8.1686
G2 X34.4971 Y188.551 I-12.7526 J11.9164
G2 X34.0556 Y188.1942 I-8.737 J10.3603
G2 X32.1138 Y186.8298 I-14.1664 J18.0969
G1 X32.1446 Y187.2518
G1 X32.1703 Y187.6741
G1 X32.1767 Y187.7948
G1 X32.1918 Y188.1168
G1 X32.2071 Y188.5463
G3 X32.2134 Y188.7918 I-6.4919 J0.2894
G3 X32.1981 Y190.7564 I-31.3993 J0.7382
G3 X31.7969 Y194.6633 I-29.9991 J-1.1061
G3 X31.2353 Y197.222 I-26.5366 J-4.4841
G3 X30.0953 Y200.5241 I-24.6199 J-6.6518
G3 X27.8508 Y204.6075 I-21.0236 J-8.8975
G3 X26.1965 Y206.7013 I-17.315 J-11.9801
G3 X23.9905 Y208.8134 I-15.1914 J-13.6579
G1 X23.8411 Y208.9349
G3 X16.5028 Y212.6187 I-12.153 J-15.0584
G3 X11.8122 Y213.2487 I-5.0137 J-19.5522
G3 X9.2835 Y213.1461 I-0.3905 J-21.5912
G3 X6.6164 Y212.7256 I2.303 J-23.2744
G3 X3.8434 Y211.9568 I5.2797 J-24.4276
G3 X3.5657 Y207.4613 I14.2984 J-3.1395
G3 X3.7716 Y205.9691 I15.6734 J1.4021
G3 X4.24 Y204.0174 I19.4442 J3.635
G3 X4.589 Y202.9251 I22.4641 J6.5744
G3 X4.7944 Y202.3493 I17.2006 J5.8134
G1 X4.905 Y202.0539
G3 X5.442 Y200.7172 I33.286 J12.5955
G1 X5.5872 Y200.3752
G1 X5.6241 Y200.2891
G1 X5.6615 Y200.2024
G3 X5.9836 Y199.4652 I95.0441 J41.0925
G1 X6.0662 Y199.2783
G1 X6.4193 Y198.4822
G2 X7.2002 Y196.6558 I-55.1914 J-24.6795
G2 X7.3871 Y196.1788 I-15.2195 J-6.2383
G2 X7.7483 Y195.1479 I-17.1548 J-6.5899
G1 X7.8294 Y194.8826
G2 X8.1066 Y193.7311 I-10.7216 J-3.1906
G2 X8.1932 Y193.1248 I-8.9715 J-1.5913
G2 X8.198 Y191.81 I-6.2613 J-0.6802
G2 X7.8564 Y190.4259 I-5.1928 J0.5475
G2 X7.078 Y189.0745 I-5.3184 J2.1635
G2 X6.826 Y188.7645 I-8.2252 J6.4288
G2 X6.5514 Y188.4625 I-7.2288 J6.2974
G2 X5.9331 Y187.8776 I-6.3948 J6.1414
G2 X5.37 Y188.2993 I7.2875 J10.3185
G0 Z5.0
G0 X13.2647 Y180.5494
G1 Z0.0
G2 X15.6656 Y181.4408 I9.535 J-22.002
G1 X16.0154 Y181.5486
G2 X18.852 Y182.2684 I10.1253 J-33.9517
G2 X20.7671 Y182.6403 I12.0945 J-57.1585
G1 X21.2795 Y182.7296
G1 X21.5442 Y182.7744
G1 X21.8176 Y182.8199
G1 X22.4011 Y182.9147
G1 X22.7024 Y182.9627
G2 X23.3453 Y183.0634 I9.7451 J-60.0973
G1 X24.8148 Y183.291
G1 X25.5981 Y183.4147
G3 X27.3847 Y183.7176 I-11.6895 J74.3715
G3 X28.334 Y183.898 I-10.4254 J57.4556
G3 X30.4875 Y184.3882 I-7.4951 J37.9024
G3 X32.8987 Y185.1413 I-6.2503 J24.249
G1 X33.0477 Y185.1974
G3 X34.3008 Y185.7262 I-7.2035 J18.8177
G1 X34.6125 Y185.8754
G3 X35.9083 Y186.5854 I-7.2125 J14.699
G3 X36.5499 Y187.0 I-9.3234 J15.135
G1 X36.7082 Y187.1096
G3 X39.3345 Y189.4937 I-8.1601 J11.6277
G3 X40.4832 Y191.0145 I-12.1231 J10.3512
G3 X41.5476 Y192.9533 I-11.0518 J7.329
G3 X42.3158 Y195.0274 I-15.8105 J7.0353
G3 X42.3259 Y195.0608 I-0.3462 J0.1224
G3 X42.336 Y195.0945 I-0.3476 J0.1223
G3 X42.4195 Y195.3824 I-15.8643 J4.7583
G3 X42.7988 Y196.9342 I-21.9277 J6.1824
G3 X43.1603 Y199.0311 I-30.7054 J6.3728
G3 X43.4547 Y201.8481 I-43.5673 J5.9769
G3 X43.5539 Y203.4623 I-57.2725 J4.3308
G1 X43.5732 Y203.8792
G3 X43.6346 Y205.7835 I-92.1607 J3.9247
G3 X43.6523 Y206.799 I-116.327 J2.5357
G3 X43.6532 Y206.8628 I-0.5755 J0.0393
G3 X43.6539 Y206.9268 I-0.5774 J0.0391
G3 X43.6547 Y206.9911 I-0.5792 J0.039
G3 X43.6554 Y207.0556 I-0.5811 J0.0388
G3 X43.6561 Y207.1204 I-0.583 J0.0387
G1 X43.6574 Y207.2508
G1 X43.6615 Y207.7893
G3 X43.6636 Y208.3451 I-62.5365 J0.5178
G1 X43.6639 Y208.4851
G1 X43.6613 Y209.6791
G1 X43.6511 Y210.9519
G1 X43.6338 Y212.3086
G1 X43.6228 Y213.0086
G3 X44.348 Y213.3675 I-1.1434 J3.2222
G3 X44.9705 Y213.8844 I-2.0186 J3.0647
G3 X45.3236 Y214.2925 I-3.0742 J3.0166
G3 X45.7304 Y214.884 I-5.9565 J4.5322
G3 X45.939 Y215.2366 I-14.4444 J8.7843
G3 X45.9647 Y215.2818 I-0.4842 J0.3038
G1 X46.0721 Y215.4758
G1 X46.1841 Y215.6837
G1 X46.4352 Y216.1601
G2 X46.5693 Y216.4136 I15.2517 J-7.905
G1 X46.7148 Y216.6822
G1 X46.875 Y216.9654
G2 X47.2739 Y217.5909 I7.9943 J-4.6574
G2 X47.8169 Y218.2418 I3.964 J-2.7549
G2 X49.484 Y215.4967 I-18.8656 J-13.3359
G2 X50.7419 Y212.5415 I-19.1401 J-9.8929
G2 X51.8833 Y206.2369 I-20.5001 J-6.9667
G2 X51.6277 Y201.9653 I-23.6988 J-0.7255
G2 X51.1493 Y199.5664 I-25.3795 J3.8138
G2 X50.3376 Y196.8943 I-26.7664 J6.6713
G2 X49.1001 Y193.9578 I-28.7 J10.3666
G2 X47.3298 Y190.785 I-28.9224 J14.0567
G2 X41.1043 Y183.4957 I-28.8266 J18.3164
G2 X36.7146 Y180.2345 I-21.1941 J23.9432
G2 X34.1594 Y178.8315 I-15.0722 J24.422
G2 X32.7876 Y178.2139 I-11.908 J24.62
G2 X29.7533 Y177.1731 I-9.5327 J22.8479
G2 X26.3839 Y176.5431 I-5.6277 J20.7739
G2 X24.6124 Y176.4424 I-1.9986 J19.5179
G2 X22.7764 Y176.5164 I-0.2022 J17.795
G2 X18.9066 Y177.3319 I1.5195 J16.8002
G2 X15.0561 Y179.2122 I5.4477 J16.0382
G2 X13.2647 Y180.5494 I9.922 J15.1613
G0 Z5.0
G0 X38.393 Y207.7687
G1 Z0.0
G3 X37.7631 Y208.5807 I-13.1343 J-9.5384
G1 X37.6695 Y208.6938
G3 X36.8969 Y209.5783 I-24.459 J-20.584
G1 X36.6706 Y209.8261
G1 X36.4103 Y210.1077
G1 X35.7132 Y210.8556
G2 X34.7985 Y211.8662 I28.0043 J26.2658
G2 X34.7417 Y211.9316 I1.5126 J1.3711
G2 X34.6843 Y211.9982 I1.4585 J1.3163
G1 X34.4419 Y212.2846
G2 X34.1891 Y212.5947 I8.8914 J7.5074
G2 X34.1259 Y212.6744 I1.0747 J0.9178
G2 X33.5712 Y213.4202 I12.6755 J10.0069
G1 X33.4357 Y213.6183
G2 X33.159 Y214.0491 I9.6561 J6.5066
G3 X38.0138 Y220.8103 I-41.999 J35.2808
G3 X39.3892 Y223.2228 I-43.7713 J26.5516
G3 X39.4303 Y223.3001 I-1.1813 J0.6774
G3 X39.5982 Y223.6199 I-19.2336 J10.307
G1 X39.769 Y223.9514
G1 X39.9423 Y224.295
G3 X41.5893 Y228.0554 I-35.0599 J17.5962
G3 X42.3359 Y230.281 I-29.9942 J11.3001
G3 X42.9726 Y232.8895 I-26.5981 J7.8746
G3 X43.3503 Y235.9402 I-22.312 J4.3112
G3 X43.3674 Y237.5834 I-18.4287 J1.0134
G1 X43.3594 Y237.7904
G1 X43.3489 Y237.999
G1 X43.3358 Y238.2091
G3 X43.1186 Y239.997 I-17.1161 J-1.1723
G3 X42.9293 Y240.9091 I-14.2238 J-2.4772
G3 X42.6762 Y241.8389 I-13.2695 J-3.1123
G3 X40.7535 Y245.8483 I-14.2317 J-4.3591
G3 X40.0703 Y246.78 I-12.4147 J-8.3877
G3 X38.393 Y248.606 I-13.5443 J-10.7573
G3 X38.8594 Y249.2509 I-2.112 J2.0188
G3 X39.1637 Y249.9862 I-3.6878 J1.9564
G3 X39.297 Y250.4996 I-6.1201 J1.8639
G3 X39.4119 Y251.1956 I-8.1186 J1.6977
G3 X39.453 Y251.5961 I-12.9016 J1.5241
G3 X39.4829 Y252.0545 I-22.0082 J1.6666
G3 X39.499 Y253.2735 I-19.2146 J0.8646
G3 X39.4382 Y254.8891 I-42.5101 J-0.7926
G2 X41.268 Y253.8791 I-7.9121 J-16.4963
G2 X42.967 Y252.6614 I-9.0808 J-14.4642
G2 X45.868 Y249.6615 I-11.0345 J-13.5736
G2 X47.3844 Y247.3251 I-14.8211 J-11.2797
G2 X48.8782 Y243.9313 I-18.8923 J-10.3406
G2 X49.4773 Y241.8993 I-23.1125 J-7.9186
G1 X49.5409 Y241.6379
G2 X50.0008 Y239.2265 I-27.0993 J-6.4172
G2 X50.0441 Y238.9177 I-8.5862 J-1.3611
G2 X50.2923 Y236.0862 I-31.7336 J-4.2087
G2 X50.3154 Y235.3533 I-33.0464 J-1.4089
G2 X50.3119 Y233.7916 I-32.6964 J-0.707
G2 X50.0511 Y230.2465 I-36.7198 J0.9193
G2 X47.8398 Y221.1615 I-39.7361 J4.8603
G2 X46.8964 Y218.8548 I-36.4041 J13.5423
G2 X45.7249 Y216.476 I-32.3512 J14.454
G2 X45.0509 Y215.2864 I-26.5026 J14.2292
G1 X44.9629 Y215.1391
G2 X43.3398 Y212.7094 I-25.3656 J15.188
