( Made using CamBam - http://www.cambam.co.uk )
( car2 1/22/2014 9:26:46 AM )
( T0 : 0.0 )
G21 G90 G64 G40
G0 Z5.0
( T0 : 0.0 )
T0 M6
( 141-180 )
G17
M3 S1000
G0 X-85.0005 Y144.8917
G1 F1.0 Z0.0
G1 X-88.482 Y140.6158
G1 X-86.3156 Y141.4861
G1 X-85.0005 Y144.8917
G0 Z5.0
G0 X-84.1715 Y148.1658
G1 Z0.0
G3 X-81.8639 Y147.705 I5.6743 J22.4097
G3 X-77.779 Y147.4193 I3.9331 J26.8819
G3 X-76.6868 Y147.4425 I-0.0437 J27.7286
G3 X-74.2012 Y147.6338 I-1.3418 J33.6824
G1 X-73.8868 Y147.6709
G3 X-71.0356 Y148.1309 I-4.5615 J37.3429
G1 X-70.6763 Y148.2039
G1 X-70.312 Y148.2812
G3 X-67.0233 Y149.1233 I-10.2303 J46.7993
G3 X-63.3556 Y150.346 I-15.3437 J52.1381
G3 X-62.424 Y150.7008 I-20.3049 J54.7215
G1 X-61.9532 Y150.8866
G1 X-61.4766 Y151.079
G3 X-57.2091 Y152.9911 I-26.9502 J65.8665
G3 X-56.6386 Y153.3606 I-2.4492 J4.4072
G1 X-56.4581 Y153.4979
G3 X-55.7627 Y154.0787 I-10.6126 J13.4135
G1 X-55.3052 Y154.4726
G2 X-54.6746 Y154.9726 I6.4966 J-7.547
G2 X-54.2901 Y155.2256 I2.8681 J-3.9392
G1 X-54.1867 Y155.2843
G2 X-53.6858 Y155.4997 I1.3415 J-2.43
G1 X-53.1367 Y155.66
G1 X-53.1 Y155.6707
G3 X-52.5176 Y155.8529 I-3.2065 J11.2684
G3 X-52.1397 Y156.0041 I-1.3869 J4.0162
G3 X-51.6776 Y156.2914 I-0.7965 J1.7958
G3 X-51.2913 Y156.9212 I-0.752 J0.8946
G1 X-57.422 Y158.3693
G2 X-57.0931 Y157.8307 I-3.0767 J-2.249
G2 X-56.8756 Y157.2384 I-2.6569 J-1.3117
G2 X-56.9122 Y155.983 I-2.2934 J-0.5614
G2 X-57.2715 Y155.2203 I-2.8627 J0.8827
G1 X-57.3319 Y155.1295
G2 X-57.637 Y154.7381 I-3.5959 J2.488
G2 X-58.0302 Y154.3345 I-4.2573 J3.7546
G1 X-58.1378 Y154.2369
G2 X-58.6493 Y153.8246 I-4.4402 J4.9849
G1 X-58.7865 Y153.7256
G2 X-59.4267 Y153.3104 I-6.1356 J8.7607
G2 X-60.1794 Y152.8972 I-6.1579 J10.3249
G1 X-60.3773 Y152.799
G2 X-61.2833 Y152.3939 I-6.9974 J14.4349
G2 X-63.6925 Y151.5851 I-7.6031 J18.6552
G1 X-64.0088 Y151.5023
G2 X-64.0886 Y151.4822 I-0.3451 J1.2004
G2 X-66.8914 Y150.8412 I-18.5214 J74.5402
G1 X-67.2938 Y150.7588
G2 X-70.5303 Y150.1914 I-12.3617 J61.0011
G2 X-72.7035 Y149.9148 I-8.3506 J56.937
G2 X-75.6165 Y149.6956 I-4.8868 J45.4751
G1 X-75.7085 Y149.6918
G2 X-76.0882 Y149.6783 I-0.8071 J17.2989
G1 X-76.4803 Y149.668
G2 X-78.2738 Y149.6724 I-0.8019 J39.3205
G2 X-80.3206 Y149.7918 I0.8084 J31.4604
G1 X-80.3847 Y149.7977
G2 X-82.717 Y150.1177 I2.5329 J27.1165
G2 X-82.8628 Y150.1451 I0.634 J3.7772
G2 X-85.4931 Y150.824 I3.7804 J20.0839
G1 X-85.8196 Y150.9367
G2 X-87.1855 Y151.4969 I5.4182 J15.1574
G2 X-88.5729 Y152.2532 I5.4433 J11.6357
G2 X-89.9263 Y153.2762 I5.2901 J8.4059
G2 X-90.6394 Y153.9813 I7.3398 J8.1357
G2 X-91.266 Y154.7643 I4.8644 J4.535
G2 X-91.5954 Y155.3473 I3.2049 J2.1951
G2 X-91.664 Y155.5125 I1.6833 J0.7966
G2 X-91.7785 Y155.9062 I2.1112 J0.8274
G2 X-91.6603 Y157.0084 I1.738 J0.371
G2 X-91.3054 Y157.5543 I2.0437 J-0.9402
G2 X-90.7578 Y158.0604 I2.6296 J-2.2958
G2 X-90.4335 Y158.2881 I2.7367 J-3.5531
G1 X-90.2608 Y158.3964
G2 X-89.4539 Y158.8244 I4.4881 J-7.4878
G2 X-88.5158 Y159.2203 I6.1978 J-13.3772
G2 X-87.4583 Y159.5899 I6.8918 J-18.0183
G2 X-86.2914 Y159.9381 I10.6859 J-33.6796
G1 X-85.9919 Y160.0201
G1 X-85.6859 Y160.1012
G1 X-85.5311 Y160.1414
G1 X-85.3747 Y160.1813
G1 X-85.0552 Y160.2612
G1 X-84.7286 Y160.3405
G1 X-84.5634 Y160.3799
G2 X-80.5407 Y161.0715 I7.771 J-33.1563
G2 X-76.4669 Y161.3232 I4.5685 J-40.8316
G2 X-73.7458 Y161.2795 I0.6258 J-45.6709
G1 X-73.3951 Y161.2624
G2 X-71.7936 Y161.1524 I-2.8371 J-53.0077
G2 X-67.55 Y160.6112 I-4.2084 J-49.9085
G2 X-61.9943 Y159.3347 I-8.0949 J-47.9582
G3 X-63.9543 Y160.4661 I-9.0098 J-13.3437
G3 X-66.0439 Y161.3352 I-8.4614 J-17.3969
G1 X-66.3294 Y161.4331
G3 X-67.8724 Y161.8901 I-7.7598 J-23.3695
G3 X-68.2888 Y161.9945 I-4.3758 J-16.5637
G1 X-68.7345 Y162.0982
G3 X-71.1349 Y162.5293 I-6.4734 J-29.148
G3 X-74.3683 Y162.8282 I-4.976 J-36.1912
G1 X-74.7869 Y162.8469
G3 X-76.7004 Y162.8816 I-1.8462 J-49.0415
G1 X-77.1943 Y162.8778
G1 X-77.7038 Y162.8686
G3 X-78.2295 Y162.8537 I6.4833 J-238.2701
G1 X-78.4965 Y162.8441
G3 X-79.6342 Y162.7881 I1.7079 J-46.3005
G3 X-82.2256 Y162.5747 I3.2815 J-55.7005
G3 X-89.0474 Y161.4949 I6.9623 J-66.0724
G1 X-89.4762 Y161.4026
G1 X-89.911 Y161.3059
G3 X-90.352 Y161.2047 I3.9505 J-18.2111
G3 X-90.7133 Y161.1123 I0.3463 J-2.1082
G3 X-91.0582 Y160.9707 I1.4713 J-4.0739
G3 X-91.2806 Y160.8598 I2.0523 J-4.3926
G3 X-92.1298 Y160.3497 I5.2169 J-9.6474
G1 X-92.2401 Y160.2771
G1 X-92.4908 Y160.1093
G1 X-93.154 Y159.656
G1 X-93.5332 Y159.3978
G2 X-93.6314 Y159.3317 I-1.498 J2.1189
G1 X-93.8415 Y159.1918
G2 X-94.9857 Y158.4853 I-10.2192 J15.271
G2 X-95.6672 Y158.1298 I-5.8713 J10.4258
G1 X-95.8473 Y158.0464
G1 X-95.9395 Y158.0055
G2 X-96.8068 Y157.6902 I-2.8172 J6.3991
G2 X-97.851 Y157.5064 I-1.3366 J4.5362
G1 X-98.058 Y157.5062
G1 X-98.265 Y157.5053
G1 X-98.679 Y157.5015
G1 X-99.5069 Y157.4879
G1 X-100.0587 Y157.4751
G1 X-100.374 Y157.4667
G1 X-100.7344 Y157.4562
G1 X-101.6952 Y157.4242
G1 X-102.2441 Y157.4034
G3 X-106.6331 Y157.1879 I9.8643 J-245.6801
G3 X-106.6676 Y157.1859 I0.0038 J-0.3637
G3 X-115.4665 Y156.5437 I17.5368 J-300.8448
G3 X-121.3202 Y155.972 I25.6981 J-293.4177
G1 X-121.6915 Y155.9316
G3 X-129.5953 Y154.934 I24.9056 J-229.1369
G3 X-134.0923 Y154.2247 I23.2562 J-162.0387
G1 X-134.2331 Y154.2004
G1 X-134.3745 Y154.1759
G1 X-134.5164 Y154.1511
G3 X-136.9327 Y153.7062 I28.1038 J-159.4327
G3 X-137.545 Y153.5859 I6.3801 J-34.0796
G1 X-137.8533 Y153.524
G3 X-140.477 Y152.9591 I21.9081 J-108.1115
G1 X-140.5589 Y152.9402
G1 X-140.641 Y152.9212
G1 X-140.7232 Y152.9021
G1 X-141.3904 Y152.744
G3 X-144.221 Y152.0012 I16.3813 J-68.1865
G1 X-144.3092 Y151.9759
G1 X-144.6639 Y151.8724
G1 X-145.0207 Y151.7658
G3 X-146.4858 Y151.2967 I15.7597 J-51.7441
G1 X-146.8523 Y151.1704
G1 X-147.0359 Y151.1056
G3 X-147.7782 Y150.8323 I15.728 J-43.8585
G3 X-152.4938 Y148.9299 I47.7346 J-125.1201
G3 X-157.1302 Y146.8418 I47.3065 J-111.2329
G3 X-166.1181 Y142.0877 I50.4728 J-106.2943
G3 X-182.6433 Y130.2666 I56.7514 J-96.7958
G3 X-186.952 Y126.3655 I76.5786 J-88.9093
G3 X-187.4854 Y125.8552 I38.5862 J-40.8727
G3 X-187.753 Y125.5968 I14.9255 J-15.7299
G3 X-188.022 Y125.3356 I12.2833 J-12.9167
G3 X-192.8002 Y120.4217 I89.5488 J-91.856
G1 X-193.3883 Y119.7801
G3 X-198.5771 Y113.7501 I108.1226 J-98.2881
G3 X-201.2129 Y110.4262 I123.9059 J-100.9606
G3 X-201.294 Y110.321 I2.1291 J-1.7265
G3 X-204.0146 Y106.6958 I136.5017 J-105.2713
G3 X-204.6911 Y105.7645 I113.9036 J-83.449
G3 X-207.515 Y101.7489 I155.8045 J-112.5724
G1 X-207.8641 Y101.2384
G1 X-208.5688 Y100.1983
G1 X-209.2787 Y99.1378
G2 X-210.7338 Y97.3098 I-12.6334 J8.5631
G2 X-212.4272 Y95.7002 I-13.9438 J12.9744
G2 X-213.6514 Y94.7372 I-14.8831 J17.6607
G1 X-213.988 Y94.4938
G2 X-215.8386 Y93.2799 I-17.6277 J24.8567
G2 X-218.4129 Y91.8458 I-21.1341 J34.9098
G1 X-218.5795 Y91.7605
G2 X-222.185 Y90.0692 I-30.2414 J59.7796
G2 X-222.4169 Y89.9684 I-6.4215 J14.4545
G1 X-222.6527 Y89.8667
G1 X-223.1402 Y89.6586
G1 X-224.7075 Y88.9895
G1 X-226.2739 Y88.3184
G1 X-226.7215 Y88.1267
G1 X-227.2332 Y87.9079
G2 X-231.3285 Y86.1631 I-495.5782 J1157.5941
G1 X-234.0618 Y85.007
G1 X-235.6248 Y84.349
G2 X-248.1607 Y79.162 I-471.4648 J1121.6833
G1 X-248.9716 Y78.8324
G2 X-252.6818 Y77.3341 I-308.3909 J758.3321
G1 X-254.6629 Y76.541
G2 X-265.2605 Y72.3905 I-325.9567 J816.6574
G1 X-266.6321 Y71.8659
G2 X-266.8043 Y71.8002 I-2.3884 J6.0069
G2 X-266.9773 Y71.7343 I-2.5482 J6.4301
G2 X-273.3128 Y69.3588 I-232.1444 J609.5009
G1 X-273.7128 Y69.2115
G1 X-275.3655 Y68.6063
G1 X-275.573 Y68.5307
G1 X-275.7815 Y68.4549
G2 X-283.4255 Y65.7493 I-159.9845 J439.8375
G1 X-284.3998 Y65.4161
G1 X-285.3905 Y65.0803
G1 X-285.8902 Y64.9122
G1 X-286.9061 Y64.573
G1 X-287.1613 Y64.4884
G1 X-287.4175 Y64.4037
G1 X-288.4594 Y64.0616
G1 X-288.5901 Y64.019
G2 X-290.7497 Y63.3247 I-104.2966 J320.7129
G1 X-291.8488 Y62.979
G2 X-292.967 Y62.6331 I-54.9452 J175.6186
G1 X-294.1049 Y62.2874
G1 X-294.3908 Y62.2016
G2 X-296.7566 Y61.5097 I-54.4938 J181.9327
G2 X-299.209 Y60.8307 I-39.449 J137.7062
G1 X-299.8287 Y60.6662
G1 X-300.4542 Y60.5034
G1 X-301.0854 Y60.3425
G1 X-301.7225 Y60.1839
G1 X-302.3656 Y60.0278
G2 X-303.6755 Y59.7238 I-26.0284 J109.1689
G1 X-303.8399 Y59.6871
G1 X-304.5034 Y59.5422
G2 X-305.1733 Y59.402 I-7.5447 J34.3747
G1 X-305.8499 Y59.2671
G1 X-306.5334 Y59.1382
G3 X-306.7713 Y58.8629 I9.318 J-8.2911
G1 X-306.85 Y58.7704
G3 X-307.1609 Y58.398 I44.9632 J-37.8585
G1 X-307.2488 Y58.2907
G1 X-307.3486 Y58.1676
G3 X-308.1243 Y57.165 I21.4329 J-17.3838
G1 X-308.2246 Y57.0289
G3 X-309.7222 Y54.778 I24.5042 J-17.9278
G1 X-309.9059 Y54.4678
G3 X-312.2832 Y49.2203 I23.9069 J-13.993
G3 X-313.2444 Y45.4975 I26.8082 J-8.9069
G3 X-313.7549 Y40.4003 I30.2197 J-5.6005
G1 X-307.6052 Y43.2092
G1 X-306.9848 Y43.4268
G1 X-306.364 Y43.6432
G2 X-306.3239 Y43.6571 I0.1295 J-0.308
G1 X-305.8964 Y43.8054
G1 X-304.1851 Y44.3941
G1 X-303.0431 Y44.7837
G1 X-301.5195 Y45.3002
G1 X-299.4869 Y45.9852
G1 X-298.3248 Y46.3752
G1 X-295.225 Y47.4117
G1 X-291.0907 Y48.7897
G1 X-290.8281 Y48.8771
G1 X-289.708 Y49.2502
G1 X-283.7352 Y51.2429
G3 X-283.6415 Y51.2742 I-0.4024 J1.359
G1 X-280.2166 Y52.422
G1 X-279.333 Y52.719
G1 X-277.4484 Y53.3539
G1 X-276.476 Y53.6824
G1 X-274.4022 Y54.385
G1 X-272.1913 Y55.1376
G1 X-269.8343 Y55.9445
G1 X-267.322 Y56.8105
G1 X-266.6843 Y57.0315
G3 X-260.8611 Y59.0723 I-251.0965 J725.7797
G1 X-259.3609 Y59.6061
G1 X-258.983 Y59.7411
G1 X-258.6023 Y59.8774
G1 X-257.0311 Y60.4427
G1 X-256.834 Y60.5139
G1 X-255.2077 Y61.1048
G3 X-247.7999 Y63.8796 I-145.6837 J400.2045
G1 X-247.6843 Y63.9242
G1 X-246.746 Y64.2885
G1 X-245.794 Y64.6617
G1 X-244.8284 Y65.0443
G1 X-243.8489 Y65.437
G1 X-242.8557 Y65.8404
G1 X-241.8488 Y66.2553
G1 X-241.7859 Y66.2815
G1 X-240.7646 Y66.7097
G1 X-239.7299 Y67.1516
G1 X-239.4707 Y67.2637
G3 X-238.4199 Y67.7246 I-56.3474 J129.8776
G3 X-236.2648 Y68.7093 I-44.9074 J101.1363
G3 X-234.0696 Y69.7895 I-27.3418 J58.3333
G1 X-233.5235 Y70.0759
G3 X-233.3872 Y70.1487 I-1.9091 J3.7342
G1 X-233.1145 Y70.2964
G3 X-232.0189 Y70.9207 I-18.69 J34.0774
G1 X-231.9516 Y70.9607
G1 X-231.8839 Y71.0003
G1 X-231.748 Y71.0783
G1 X-231.4736 Y71.2299
G1 X-231.2891 Y71.3281
G1 X-231.1831 Y71.3833
G1 X-230.8991 Y71.5273
G1 X-230.5174 Y71.7132
G2 X-230.0039 Y71.9515 I17.0627 J-36.0822
G2 X-227.9167 Y72.8269 I18.8409 J-42.0003
G1 X-227.3135 Y73.0601
G1 X-226.9909 Y73.1821
G2 X-225.2624 Y73.8095 I31.55 J-84.224
G2 X-224.2697 Y74.1536 I33.1513 J-94.0541
G2 X-224.207 Y74.1749 I0.3608 J-0.9546
G1 X-223.6721 Y74.356
G1 X-223.1007 Y74.5468
G1 X-222.4905 Y74.7478
G2 X-219.226 Y75.7854 I65.9525 J-201.832
G2 X-217.3556 Y76.3611 I175.3436 J-566.387
G1 X-215.2169 Y77.0148
G1 X-214.6654 Y77.1847
G1 X-214.0967 Y77.3619
G1 X-213.9535 Y77.407
G1 X-213.6629 Y77.4992
G1 X-213.0641 Y77.6937
G1 X-212.7612 Y77.7959
G1 X-212.6089 Y77.8488
G1 X-212.3012 Y77.9607
G1 X-212.2244 Y77.9902
G1 X-209.1904 Y79.082
G1 X-206.1576 Y80.1767
G1 X-204.1362 Y80.9082
G1 X-201.4418 Y81.8855
G1 X-197.8505 Y83.1919
G1 X-193.0641 Y84.9396
G1 X-190.33 Y85.9411
G1 X-187.2063 Y87.0881
G3 X-178.8809 Y90.1587 I-2114.4655 J5745.8553
G1 X-174.1262 Y91.9206
G1 X-168.6944 Y93.9401
G1 X-162.4892 Y96.2552
G1 X-159.1809 Y97.4927
G1 X-155.6528 Y98.8147
G1 X-151.8903 Y100.227
G1 X-147.8778 Y101.7357
G1 X-143.5987 Y103.3472
G1 X-139.0352 Y105.0686
G1 X-134.1683 Y106.907
G1 X-128.9778 Y108.8702
G1 X-117.1161 Y113.3637
G1 X-110.7906 Y115.7623
G1 X-96.3325 Y121.2451
G1 X-88.6205 Y124.1667
G2 X-80.3929 Y127.2789 I2066.3565 J-5450.3107
G2 X-79.3562 Y127.6706 I117.1766 J-308.5599
G2 X-78.3113 Y128.0653 I106.4517 J-280.244
G2 X-77.2582 Y128.4629 I98.2533 J-258.6056
G2 X-76.1966 Y128.8636 I91.7236 J-241.3774
G2 X-75.1267 Y129.2674 I86.3636 J-227.2411
G2 X-74.0483 Y129.6742 I81.8614 J-215.3719
G2 X-72.9614 Y130.0841 I78.0098 J-205.2229
G2 X-71.8659 Y130.497 I74.6653 J-196.4145
G2 X-70.7616 Y130.9131 I71.7252 J-188.6751
G2 X-69.6487 Y131.3323 I69.1139 J-181.8055
G2 X-49.2856 Y138.9661 I2633.6511 J-6994.2426
G2 X-48.6464 Y139.2045 I32.3267 J-85.7208
G2 X-48.0045 Y139.4437 I32.0715 J-85.0646
G2 X-47.3602 Y139.6838 I31.8218 J-84.4229
G2 X-46.7133 Y139.9248 I31.5773 J-83.7953
G2 X-46.0638 Y140.1666 I31.3379 J-83.1814
G2 X-45.4117 Y140.4092 I31.1033 J-82.5803
G1 X-40.0258 Y142.4098
G2 X-38.1574 Y143.0959 I92.4743 J-248.9092
G1 X-37.5337 Y143.3221
G1 X-36.7014 Y143.6218
G1 X-36.2254 Y143.7922
G2 X-32.4099 Y145.1321 I118.3041 J-330.77
G2 X-29.8591 Y146.0047 I170.7915 J-495.1407
G1 X-29.5295 Y146.1162
G1 X-28.8262 Y146.3531
G1 X-28.0757 Y146.6046
G2 X-16.0154 Y150.4714 I166.7512 J-499.346
G1 X-14.4008 Y150.9662
G2 X11.6078 Y158.2739 I178.6798 J-585.9973
G2 X29.1218 Y162.4765 I133.541 J-517.9291
G1 X30.2387 Y162.7226
G1 X30.8017 Y162.8456
G1 X31.9461 Y163.0932
G1 X32.2335 Y163.1549
G1 X32.5221 Y163.2167
G2 X43.1019 Y165.3359 I83.8167 J-390.984
G1 X44.4495 Y165.5838
G1 X45.8195 Y165.8302
G1 X47.2122 Y166.0747
G1 X48.6283 Y166.317
G1 X49.3423 Y166.4366
G1 X50.7938 Y166.6744
G1 X52.2697 Y166.9086
G1 X52.6403 Y166.9661
G2 X53.3876 Y167.0806 I8.9887 J-56.1686
G1 X54.141 Y167.1939
G1 X54.9007 Y167.3059
G1 X55.2823 Y167.3613
G1 X55.6654 Y167.4163
G1 X56.0501 Y167.471
G1 X56.4363 Y167.5253
G2 X59.6297 Y167.9492 I36.4671 J-262.4522
G1 X60.4352 Y168.0488
G1 X61.2475 Y168.1462
G2 X68.1966 Y168.834 I20.8621 J-175.3211
G2 X69.9657 Y168.9617 I11.0746 J-141.1211
G1 X70.0765 Y168.9689
G1 X70.1874 Y168.9761
G2 X73.8531 Y169.1597 I7.7894 J-118.8444
G1 X73.9679 Y169.1637
G1 X74.8935 Y169.191
G2 X75.1253 Y169.1966 I0.348 J-9.624
G2 X75.3576 Y169.2017 I0.5245 J-18.6723
G1 X75.8242 Y169.2103
G2 X76.7649 Y169.2208 I1.4438 J-86.5305
G2 X77.7132 Y169.2219 I0.5576 J-76.3028
G1 X77.9507 Y169.2205
G2 X84.4671 Y169.0186 I-0.8814 J-133.6732
G2 X86.6358 Y168.8785 I-5.981 J-109.4604
G1 X87.2138 Y168.8347
G2 X90.2918 Y168.5534 I-9.0465 J-115.9582
G2 X94.3821 Y168.0484 I-11.2542 J-107.9808
G2 X95.4694 Y167.8876 I-9.3056 J-66.6891
G1 X96.0298 Y167.8002
G2 X101.9747 Y166.6744 I-15.8211 J-99.8003
G1 X102.7364 Y166.5026
G1 X103.5212 Y166.3187
G2 X111.7807 Y163.9332 I-20.8389 J-87.6409
G2 X122.3603 Y159.5162 I-27.8585 J-81.6059
G1 X122.6835 Y159.3543
G2 X128.469 Y156.1617 I-39.8007 J-78.9631
G2 X134.777 Y152.008 I-48.1188 J-79.9426
G2 X141.5778 Y146.6951 I-62.4475 J-86.9455
G1 X141.9921 Y146.3429
G2 X143.6853 Y144.8691 I-81.4591 J-95.2946
G2 X145.4049 Y143.3164 I-76.6589 J-86.6283
G2 X147.1509 Y141.6829 I-80.6473 J-87.9497
G2 X148.9236 Y139.9666 I-102.4956 J-107.6371
G1 X149.3657 Y139.5295
G1 X149.8096 Y139.0873
G1 X150.2551 Y138.6399
G1 X150.7023 Y138.1872
G2 X154.4474 Y134.2618 I-124.3783 J-122.4139
G2 X154.5051 Y134.1995 I-1.2983 J-1.2604
G2 X158.3783 Y129.9008 I-167.0502 J-154.4103
G1 X158.8587 Y129.3525
G1 X159.3411 Y128.7986
G1 X159.8258 Y128.2391
G1 X160.3126 Y127.674
G1 X161.2969 Y126.5223
G1 X161.7907 Y125.9401
G2 X163.8137 Y123.5262 I-273.5936 J-231.3418
G2 X168.0584 Y118.3324 I-352.577 J-292.4834
G1 X169.1251 Y117.005
G1 X170.2046 Y115.6544
G1 X171.2976 Y114.2805
G1 X171.5715 Y113.9353
G1 X171.8462 Y113.5887
G1 X172.1219 Y113.2406
G1 X172.3984 Y112.8911
G1 X172.6759 Y112.5402
G1 X172.9543 Y112.1878
G1 X173.2336 Y111.8339
G1 X173.5138 Y111.4787
G1 X173.795 Y111.122
G1 X174.0772 Y110.7638
G1 X175.2222 Y109.3086
G1 X176.3836 Y107.8302
G3 X172.842 Y113.6164 I-318.1693 J-190.7614
G1 X172.3278 Y114.438
G1 X172.0527 Y114.8756
G1 X171.7587 Y115.3421
G1 X171.0845 Y116.4068
G1 X170.3102 Y117.6212
G3 X163.9831 Y127.2504 I-405.2734 J-259.3999
G3 X159.6499 Y133.5927 I-513.1273 J-345.9292
G1 X158.4806 Y135.2745
G1 X157.2273 Y137.0641
G1 X156.908 Y137.5179
G1 X156.2476 Y138.454
G1 X155.9115 Y138.9291
G1 X155.5697 Y139.4114
G1 X155.222 Y139.901
G1 X154.5029 Y140.9109
G1 X153.7586 Y141.9519
G1 X153.5707 Y142.214
G1 X153.3812 Y142.4781
G3 X141.6131 Y154.7978 I-49.8454 J-35.8333
G3 X136.9972 Y158.1337 I-39.8922 J-50.3372
G3 X130.4422 Y161.96 I-39.3938 J-59.9587
G3 X129.5687 Y162.4038 I-26.4924 J-51.0666
G3 X129.1229 Y162.625 I-10.9409 J-21.4929
G3 X128.8977 Y162.7354 I-6.6877 J-13.3576
G3 X128.6704 Y162.8459 I-6.1528 J-12.3639
G3 X128.441 Y162.9566 I-5.7325 J-11.5916
G3 X124.1894 Y164.8536 I-37.0194 J-77.2539
G3 X124.0544 Y164.9094 I-2.2783 J-5.3249
G3 X123.9188 Y164.9651 I-2.2593 J-5.3029
G3 X123.7825 Y165.0209 I-2.2409 J-5.2821
G3 X118.7454 Y166.9103 I-36.6218 J-89.9714
G3 X118.5858 Y166.9651 I-1.8586 J-5.1555
G3 X118.4254 Y167.0199 I-1.8531 J-5.166
G3 X110.5559 Y169.3192 I-30.9444 J-91.291
G3 X102.5305 Y170.9951 I-27.1709 J-110.0571
G3 X97.1256 Y171.8096 I-22.7511 J-132.6315
G3 X89.8783 Y172.5636 I-18.7207 J-144.7364
G3 X80.1785 Y173.0507 I-13.4377 J-170.7819
G1 X79.5619 Y173.0635
G1 X78.9354 Y173.0745
G1 X78.2991 Y173.0835
G1 X77.6527 Y173.0905
G1 X76.9959 Y173.0953
G1 X76.3287 Y173.098
G1 X75.651 Y173.0984
G1 X74.9625 Y173.0964
G3 X72.0256 Y173.0619 I0.9795 J-208.0476
G3 X71.6556 Y173.0546 I0.3968 J-29.4759
G3 X71.2827 Y173.0465 I0.3389 J-24.4397
G3 X70.9069 Y173.0378 I0.3089 J-21.3599
G3 X70.5282 Y173.0283 I0.2929 J-19.2734
G3 X63.6094 Y172.7411 I6.2302 J-233.5209
G3 X63.5011 Y172.7349 I0.0395 J-1.649
G1 X62.6216 Y172.6831
G3 X61.7284 Y172.6271 I3.9957 J-70.932
G3 X61.6165 Y172.6199 I0.0532 J-1.689
G3 X61.5043 Y172.6125 I0.054 J-1.6914
G1 X60.5936 Y172.5513
G3 X52.2828 Y171.8405 I17.5754 J-254.4474
G1 X51.2293 Y171.7317
G1 X50.1595 Y171.6171
G3 X40.405 Y170.3878 I32.1091 J-294.1128
G3 X40.3288 Y170.3769 I0.1761 J-1.5084
G3 X40.2526 Y170.3661 I0.1766 J-1.5095
G3 X37.7377 Y169.9966 I47.7273 J-333.5989
G1 X36.4615 Y169.8014
G3 X24.8374 Y167.7971 I53.7468 J-346.4158
G3 X11.6471 Y165.0644 I75.5761 J-397.9887
G1 X9.9789 Y164.6865
G3 X-5.1894 Y160.9423 I102.5187 J-447.92
G1 X-7.1063 Y160.4313
G3 X-24.5202 Y155.4276 I140.1398 J-520.519
G1 X-25.0637 Y155.2614
G1 X-25.6093 Y155.0939
G1 X-26.1568 Y154.9253
G3 X-46.0424 Y148.4112 I183.669 J-594.2989
G3 X-54.0327 Y145.5942 I388.0728 J-1113.4931
G1 X-55.1728 Y145.1878
G1 X-58.2116 Y144.1002
G1 X-58.6036 Y143.9595
G3 X-71.1303 Y139.4119 I717.7346 J-1996.5783
G1 X-74.7038 Y138.0973
G3 X-76.6086 Y137.3934 I156.1618 J-425.552
G1 X-78.6397 Y136.6405
G1 X-80.8053 Y135.835
G1 X-83.1142 Y134.9731
G1 X-85.5758 Y134.0505
G3 X-86.2008 Y133.8157 I34.5725 J-92.9603
G1 X-88.8665 Y132.8113
G1 X-89.5433 Y132.5556
G1 X-92.4298 Y131.4617
G3 X-92.5202 Y131.4273 I0.4753 J-1.3871
G3 X-92.6107 Y131.3929 I0.4768 J-1.3909
G3 X-108.0327 Y125.4503 I620.6215 J-1633.5813
G1 X-110.0183 Y124.6726
G1 X-111.0265 Y124.2765
G1 X-113.1071 Y123.4566
G1 X-115.2536 Y122.6071
G3 X-115.388 Y122.5538 I1.0877 J-2.9378
G3 X-115.5226 Y122.5004 I1.0944 J-2.9543
G3 X-115.6576 Y122.4468 I1.1013 J-2.9712
G3 X-115.7927 Y122.3931 I1.1083 J-2.9883
G3 X-115.9282 Y122.3393 I1.1153 J-3.0056
G3 X-120.5468 Y120.4955 I411.7099 J-1038.0118
G1 X-121.7187 Y120.0247
G1 X-124.1368 Y119.0492
G1 X-125.3644 Y118.5519
G3 X-136.5626 Y113.9441 I427.3221 J-1054.4298
G1 X-137.9812 Y113.3505
G1 X-138.3371 Y113.2012
G1 X-138.6943 Y113.0512
G1 X-140.1453 Y112.4403
G1 X-140.5094 Y112.2866
G1 X-141.9879 Y111.6606
G3 X-148.2848 Y108.9619 I382.0182 J-900.0522
G1 X-149.8807 Y108.2689
G1 X-151.5004 Y107.5614
G1 X-153.1443 Y106.8391
G1 X-154.8126 Y106.1014
G1 X-156.5055 Y105.3479
G1 X-157.3579 Y104.9665
G1 X-159.0881 Y104.1881
G1 X-160.8437 Y103.3922
G1 X-162.6246 Y102.5784
G1 X-163.5211 Y102.1661
G1 X-165.3404 Y101.3238
G1 X-166.2561 Y100.8969
G3 X-174.0356 Y97.1798 I198.1209 J-424.6423
G3 X-182.2471 Y93.0361 I157.2978 J-321.9217
G1 X-183.2734 Y92.4978
G1 X-183.7877 Y92.226
G1 X-184.3035 Y91.9521
G1 X-185.3414 Y91.3964
G1 X-186.3849 Y90.8315
G1 X-187.4337 Y90.257
G1 X-188.4878 Y89.6722
G1 X-189.5469 Y89.0768
G3 X-190.0772 Y88.7755 I19.577 J-35.0707
G3 X-192.2219 Y87.533 I72.9191 J-128.3421
G1 X-192.7573 Y87.2163
G1 X-192.8243 Y87.1766
G1 X-192.8912 Y87.1367
G1 X-192.9581 Y87.0968
G2 X-193.3391 Y87.6748 I1.3651 J1.3143
G2 X-193.448 Y88.3583 I1.4074 J0.5748
G2 X-193.3611 Y88.8136 I1.9966 J-0.1455
G2 X-193.1177 Y89.3759 I3.0273 J-0.9765
G2 X-192.6784 Y90.0477 I5.0347 J-2.8127
G2 X-192.0145 Y90.8521 I10.3751 J-7.8863
G1 X-191.8304 Y91.0584
G1 X-191.735 Y91.1641
G1 X-191.303 Y91.6398
G1 X-191.0758 Y91.8937
G3 X-190.5805 Y92.4833 I-9.3494 J8.3564
G3 X-190.4604 Y92.641 I-2.7983 J2.2547
G1 X-190.3418 Y92.8073
G3 X-190.1141 Y93.1775 I-3.4671 J2.387
G3 X-190.0163 Y93.3795 I-2.2058 J1.1924
G3 X-198.0435 Y89.4743 I52.6699 J-118.4628
G3 X-200.6563 Y88.0495 I65.9916 J-124.129
G3 X-210.7497 Y81.7453 I61.5008 J-109.6988
G2 X-211.1703 Y82.1478 I0.8229 J1.281
G2 X-211.3886 Y82.6875 I1.1557 J0.7814
G2 X-211.412 Y82.8531 I2.9267 J0.4988
G2 X-211.4224 Y83.0435 I1.5897 J0.1823
G2 X-211.4173 Y83.2608 I2.8995 J0.0406
G2 X-211.347 Y83.8285 I5.1897 J-0.3549
G2 X-211.2856 Y84.1474 I6.318 J-1.0507
G2 X-210.6434 Y85.9266 I32.0791 J-10.5743
G2 X-210.4091 Y86.512 I23.9639 J-9.2483
G2 X-209.3889 Y88.8182 I45.4973 J-18.7493
G1 X-209.2439 Y89.1217
G1 X-209.0872 Y89.4444
G2 X-208.2187 Y91.1486 I54.2072 J-26.5531
G2 X-208.1905 Y91.2019 I0.5915 J-0.2792
G2 X-206.9458 Y93.4504 I61.7565 J-32.7166
G2 X-206.202 Y94.7166 I56.6196 J-32.4105
G2 X-204.1249 Y98.0346 I87.439 J-52.4267
G2 X-201.1911 Y102.3482 I116.9644 J-76.3974
G2 X-201.1438 Y102.415 I0.9812 J-0.6436
G2 X-200.7524 Y102.966 I80.391 J-56.6987
G1 X-200.3461 Y103.533
G2 X-195.8932 Y109.4863 I174.7391 J-126.0584
G1 X-195.305 Y110.244
G2 X-194.042 Y111.8538 I192.3141 J-149.5932
G2 X-191.1192 Y115.5022 I295.2863 J-233.5663
G1 X-190.7448 Y115.9629
G1 X-189.9702 Y116.9125
G1 X-189.1681 Y117.8904
G1 X-188.9656 Y118.1365
G2 X-185.2428 Y122.6163 I494.7556 J-407.3683
G1 X-184.7677 Y123.1832
G1 X-183.7859 Y124.3524
G1 X-181.6883 Y126.8432
G1 X-179.4502 Y129.4984
G2 X-173.5014 Y135.2814 I40.5722 J-35.7842
G2 X-166.726 Y140.0695 I33.8778 J-40.7512
G2 X-164.6626 Y141.2407 I28.9872 J-48.6635
G1 X-164.3971 Y141.3832
G1 X-164.1266 Y141.5265
G2 X-158.1976 Y144.2503 I28.8364 J-54.9553
G2 X-156.5732 Y144.875 I23.501 J-58.686
G2 X-156.1583 Y145.0273 I42.4724 J-115.0532
G2 X-155.7359 Y145.1795 I8.0955 J-21.8091
G2 X-151.8374 Y146.4576 I26.7678 J-75.0649
G1 X-151.6531 Y146.5129
G1 X-151.4685 Y146.5675
G1 X-151.0988 Y146.6747
G1 X-150.8518 Y146.7448
G1 X-150.5221 Y146.8368
G1 X-150.0819 Y146.9569
G2 X-149.9643 Y146.9885 I0.6227 J-2.0823
G1 X-149.3369 Y147.154
G1 X-149.2558 Y147.1751
G1 X-149.172 Y147.1967
G2 X-146.4856 Y147.8555 I28.9261 J-112.1539
G1 X-145.7157 Y148.0339
G2 X-144.8349 Y148.2336 I377.2698 J-1662.0571
G1 X-143.8271 Y148.4569
G1 X-142.6741 Y148.7063
G1 X-141.3551 Y148.9847
G1 X-139.846 Y149.2951
G1 X-139.6542 Y149.334
G2 X-138.8359 Y149.4986 I18.9406 J-92.0514
G1 X-137.9626 Y149.6719
G1 X-137.5117 Y149.7606
G2 X-136.5494 Y149.9478 I26.4227 J-133.2012
G1 X-135.5225 Y150.145
G1 X-134.4265 Y150.3525
G2 X-116.8383 Y153.3465 I99.9808 J-534.176
G1 X-116.2784 Y153.4321
G1 X-115.7095 Y153.5183
G1 X-115.1315 Y153.6053
G1 X-113.9378 Y153.7825
G1 X-112.7052 Y153.962
G1 X-111.4321 Y154.1434
G1 X-110.1174 Y154.3259
G1 X-109.4493 Y154.4166
G1 X-108.0694 Y154.5991
G1 X-107.3681 Y154.6889
G1 X-107.1921 Y154.7112
G1 X-106.4765 Y154.8
G1 X-106.1158 Y154.8439
G1 X-105.7522 Y154.8873
G1 X-105.0131 Y154.9732
G1 X-104.6404 Y155.0151
G2 X-104.547 Y155.0254 I0.2296 J-1.6473
G1 X-104.1705 Y155.0664
G1 X-103.4053 Y155.1457
G1 X-103.0194 Y155.1834
G2 X-102.2347 Y155.2539 I4.8797 J-49.9029
G2 X-102.1364 Y155.262 I0.2469 J-2.3828
G2 X-100.5091 Y155.3599 I2.6985 J-31.3062
G1 X-100.407 Y155.3622
G1 X-100.3047 Y155.3638
G2 X-99.892 Y155.359 I0.1189 J-7.4838
G1 X-98.9807 Y155.3232
G1 X-98.8505 Y155.3176
G2 X-97.8102 Y155.252 I-1.1075 J-25.8175
G2 X-97.1204 Y155.1662 I-0.9382 J-10.3686
G2 X-96.2169 Y154.9565 I-1.0282 J-6.4802
G1 X-96.1028 Y154.9197
G2 X-94.9393 Y154.3869 I-2.0199 J-5.9485
G2 X-94.3239 Y153.9892 I-3.9696 J-6.8169
G2 X-93.659 Y153.4809 I-7.2403 J-10.1585
G2 X-93.577 Y153.4132 I-0.9283 J-1.209
G2 X-93.2326 Y153.1188 I-22.9401 J-27.1783
G2 X-93.0579 Y152.9635 I-3.3964 J-3.996
G1 X-92.8796 Y152.8011
G3 X-89.1353 Y150.1096 I13.1962 J14.4079
G3 X-84.8711 Y148.3547 I9.9062 J18.0117
G3 X-84.1715 Y148.1658 I6.374 J22.2208
G0 Z5.0
G0 X-89.8693 Y146.336
G1 Z0.0
G3 X-90.4863 Y145.8271 I4.1174 J-5.6205
G3 X-91.0597 Y145.2697 I10.1696 J-11.0364
G1 X-91.1338 Y145.193
G1 X-91.2123 Y145.1106
G3 X-91.3897 Y144.9205 I4.5601 J-4.4333
G3 X-92.7311 Y143.3345 I20.5051 J-18.7035
G3 X-95.1323 Y139.9533 I34.3178 J-26.9137
G3 X-95.2032 Y139.8422 I2.0324 J-1.3771
G3 X-95.8336 Y138.8167 I26.1889 J-16.8051
G1 X-95.9903 Y138.5484
G3 X-96.6593 Y137.2956 I15.8634 J-9.2755
G3 X-96.6785 Y137.2553 I0.3415 J-0.1873
G3 X-96.8295 Y136.9195 I5.3568 J-2.612
G3 X-96.9654 Y136.5641 I3.5848 J-1.5742
G1 X-96.8456 Y136.6426
G1 X-96.8061 Y136.6696
G1 X-96.7538 Y136.706
G3 X-96.5489 Y136.8575 I-2.4288 J3.5012
G1 X-96.4914 Y136.9023
G1 X-96.4263 Y136.9541
G3 X-95.9252 Y137.3917 I-6.0149 J7.3943
G3 X-95.9097 Y137.4062 I-0.094 J0.1157
G1 X-95.7702 Y137.5396
G1 X-95.6133 Y137.6948
G3 X-94.4398 Y139.01 I-13.1862 J12.9472
G3 X-93.7174 Y139.9361 I-19.6503 J16.0728
G3 X-91.1516 Y143.8522 I-32.449 J24.0582
G1 X-91.0018 Y144.1146
G3 X-90.3464 Y145.3301 I-28.3125 J16.0501
G3 X-90.0234 Y145.9919 I-13.9901 J7.238
G1 X-89.9458 Y146.162
G3 X-89.8693 Y146.336 I-3.1117 J1.4708
G0 Z5.0
G0 X-91.6405 Y146.8871
G1 Z0.0
G1 X-94.0502
G1 X-101.6404 Y135.1122
G1 X-99.4663 Y135.3669
G1 X-91.6405 Y146.8871
G0 Z5.0
G0 X-95.2703
G1 Z0.0
G1 X-97.6762
G1 X-105.2701 Y134.7892
G1 X-103.0923 Y135.0324
G1 X-95.2703 Y146.8871
G0 Z5.0
G0 Y148.4302
G1 Z0.0
G1 X-95.2235 Y148.4757
G2 X-95.2077 Y148.4909 I0.091 J-0.0791
G1 X-95.1443 Y148.5507
G1 X-95.1018 Y148.5903
G1 X-95.0449 Y148.643
G1 X-94.9689 Y148.7131
G3 X-94.6719 Y149.0007 I-4.8542 J5.3094
G3 X-94.491 Y149.2087 I-1.5883 J1.564
G3 X-94.3005 Y149.5243 I-1.1615 J0.9164
G3 X-94.2409 Y150.0195 I-0.7885 J0.3461
G3 X-94.3352 Y150.2964 I-1.0776 J-0.2126
G1 X-96.7412 Y148.4302
G1 X-95.2703
G0 Z5.0
G0 X-98.2242 Y150.1196
G1 Z0.0
G3 X-97.9368 Y150.6671 I-7.4587 J4.2657
G1 X-97.74 Y151.0651
G1 X-97.6876 Y151.1668
G1 X-99.1622
G1 X-99.2993 Y151.0007
G1 X-99.4339 Y150.8327
G3 X-99.5217 Y150.7191 I2.1231 J-1.7321
G3 X-99.571 Y150.6535 I1.1014 J-0.8787
G3 X-99.9282 Y150.1031 I3.675 J-2.776
G3 X-100.2531 Y148.8331 I2.2417 J-1.25
G3 X-99.5736 Y148.8491 I0.3044 J1.507
G3 X-98.9722 Y149.1659 I-0.4217 J1.5294
G3 X-98.6522 Y149.4873 I-1.4278 J1.7417
G3 X-98.3079 Y149.9765 I-2.9336 J2.4306
G3 X-98.2242 Y150.1196 I-7.3751 J4.4088
G0 Z5.0
G0 X-99.0596 Y147.0467
G1 Z0.0
G1 X-101.4693
G1 X-109.3788 Y134.4699
G1 X-107.2009 Y134.7093
G1 X-99.0596 Y147.0467
G0 Z5.0
G0 X-103.3393
G1 Z0.0
G1 X-105.7414
G1 X-113.6357 Y133.9415
G1 X-111.4579 Y134.1886
G1 X-103.3393 Y147.0467
G0 Z5.0
G0 X-103.713 Y148.8696
G1 Z0.0
G3 X-103.0606 Y149.1384 I-0.3779 J1.8433
G3 X-102.6851 Y149.4498 I-1.2727 J1.917
G3 X-102.2792 Y149.9539 I-2.6745 J2.5686
G3 X-102.0788 Y150.2628 I-5.5216 J3.8029
G1 X-101.9768 Y150.4299
G1 X-101.8701 Y150.6086
G2 X-101.6275 Y151.0135 I22.0523 J-12.9447
G2 X-101.3366 Y151.4622 I9.6553 J-5.9398
G2 X-101.3173 Y151.4898 I0.2954 J-0.1857
G1 X-103.0923 Y151.4024
G3 X-103.2168 Y151.2539 I3.7158 J-3.2435
G1 X-103.258 Y151.2041
G3 X-103.4199 Y151.0027 I5.1988 J-4.3442
G3 X-103.7215 Y150.583 I4.4349 J-3.5057
G3 X-104.1854 Y149.6599 I4.1659 J-2.6713
G1 X-104.2343 Y149.5309
G3 X-104.4644 Y148.8331 I9.5085 J-3.5225
G3 X-103.7363 Y148.865 I0.2511 J2.5948
G3 X-103.713 Y148.8696 I-0.3547 J1.8479
G0 Z5.0
G0 X-105.8959 Y150.0546
G1 Z0.0
G3 X-105.6985 Y150.448 I-5.9747 J3.2436
G2 X-105.4703 Y150.9292 I57.1958 J-26.8231
G1 X-105.4075 Y151.051
G2 X-105.3385 Y151.1744 I2.2086 J-1.1534
G1 X-106.6726
G3 X-106.9019 Y150.9397 I6.9019 J-6.9725
G1 X-106.9772 Y150.8602
G1 X-107.0763 Y150.7532
G3 X-107.2058 Y150.6081 I4.704 J-4.3297
G3 X-107.6856 Y149.996 I5.1278 J-4.5134
G1 X-107.8129 Y149.8137
G1 X-107.9561 Y149.6039
G1 X-108.0321 Y149.4917
G2 X-108.1132 Y149.3721 I-2.1759 J1.3879
G2 X-108.1551 Y149.3104 I-0.6954 J0.4273
G1 X-108.3475 Y149.0291
G2 X-108.5698 Y148.7094 I-14.963 J10.1639
G2 X-108.5982 Y148.6689 I-0.3595 J0.2223
G2 X-108.6272 Y148.6278 I-0.3665 J0.2272
G2 X-108.6566 Y148.586 I-0.3738 J0.2325
G3 X-108.5305 Y148.5853 I0.0882 J4.6421
G1 X-108.4045 Y148.5876
G3 X-108.1529 Y148.6018 I-0.1213 J4.3815
G3 X-107.6544 Y148.6761 I-0.3275 J3.906
G1 X-107.5889 Y148.6914
G3 X-106.6194 Y149.1509 I-0.5523 J2.4177
G3 X-106.1277 Y149.6781 I-1.5481 J1.9367
G3 X-105.91 Y150.0286 I-3.0665 J2.1474
G3 X-105.8959 Y150.0546 I-5.9606 J3.2695
G0 Z5.0
G0 X-108.6795 Y151.1744
G1 Z0.0
G1 X-111.093
G3 X-111.3516 Y150.9627 I1.7748 J-2.4326
G1 X-111.4332 Y150.8868
G3 X-111.7411 Y150.5646 I3.1918 J-3.3581
G3 X-111.9318 Y150.337 I3.0687 J-2.7649
G1 X-112.0361 Y150.2031
G3 X-112.7393 Y149.0462 I4.9666 J-3.8111
G3 X-112.8832 Y148.6863 I3.4539 J-1.5899
G3 X-112.8986 Y148.6394 I0.7005 J-0.2567
G1 X-112.9279 Y148.542
G3 X-112.9995 Y148.0803 I1.6543 J-0.493
G3 X-112.9629 Y147.8296 I0.8177 J-0.0086
G3 X-112.4469 Y147.8563 I-0.0039 J5.0774
G3 X-111.9377 Y147.945 I-0.3769 J3.6683
G3 X-110.9879 Y148.3479 I-0.7453 J3.0787
G3 X-110.4458 Y148.7746 I-1.8566 J2.9156
G3 X-109.8417 Y149.4643 I-3.975 J4.0913
G3 X-109.771 Y149.5593 I-1.2091 J0.9746
G1 X-109.6242 Y149.764
G3 X-109.3028 Y150.2388 I-12.7349 J8.9679
G3 X-109.2828 Y150.269 I-0.2027 J0.1555
G3 X-109.2628 Y150.2994 I-0.204 J0.1564
G3 X-109.2425 Y150.3301 I-0.2053 J0.1572
G1 X-108.8755 Y150.8861
G1 X-108.7795 Y151.0284
G1 X-108.6795 Y151.1744
G0 Z5.0
G0 Y146.8871
G1 Z0.0
G1 X-109.698
G1 X-118.1092 Y133.3106
G1 X-115.9314 Y133.5539
G1 X-107.2846 Y146.8871
G1 X-108.6795
G0 Z5.0
G0 X-116.3266 Y145.8951
G1 Z0.0
G1 X-118.5767 Y145.6822
G1 X-126.1517 Y132.0677
G1 X-124.4641 Y132.14
G1 X-116.3266 Y145.8951
G0 Z5.0
G0 X-118.1825 Y147.6372
G1 Z0.0
G3 X-117.9237 Y147.9454 I-2.6572 J2.4942
G3 X-117.4623 Y148.6922 I-4.2112 J3.1176
G3 X-117.437 Y148.742 I-0.4918 J0.2819
G3 X-117.4116 Y148.7927 I-0.5277 J0.2951
G3 X-117.1987 Y149.2616 I-6.2927 J3.1397
G1 X-117.0963 Y149.5157
G1 X-117.0459 Y149.6477
G1 X-116.9433 Y149.9299
G3 X-116.8397 Y150.2317 I-8.6223 J3.1275
G3 X-117.676 Y150.1556 I-0.1844 J-2.6058
G3 X-118.4372 Y149.8012 I0.638 J-2.3651
G3 X-118.8644 Y149.4374 I1.7112 J-2.4421
G3 X-119.3266 Y148.8537 I2.8607 J-2.7404
G3 X-119.7839 Y147.9833 I4.7344 J-3.0425
G3 X-120.1882 Y146.7579 I7.7831 J-3.2474
G3 X-119.2107 Y146.9294 I0.0213 J2.7494
G3 X-118.3679 Y147.4534 I-0.9587 J2.4821
G3 X-118.1825 Y147.6372 I-2.4719 J2.678
G0 Z5.0
G0 X-119.5839 Y145.4276
G1 Z0.0
G1 X-121.796 Y145.1539
G1 X-129.4051 Y131.5927
G1 X-127.4477 Y131.9006
G1 X-119.5839 Y145.4276
G0 Z5.0
G0 X-121.9621 Y147.5236
G1 Z0.0
G3 X-121.96 Y147.5259 I-2.589 J2.2818
G3 X-121.3905 Y148.334 I-3.7977 J3.2815
G3 X-121.1261 Y148.8316 I-8.4116 J4.7882
G3 X-120.9972 Y149.1024 I-7.4663 J3.7202
G3 X-120.9655 Y149.1716 I-0.7588 J0.3894
G1 X-120.8344 Y149.4678
G1 X-122.5257 Y149.3082
G3 X-123.3012 Y148.5026 I4.1082 J-4.7307
G3 X-123.925 Y147.5745 I5.9622 J-4.6815
G1 X-124.0826 Y147.2964
G3 X-124.4903 Y146.5493 I90.3944 J-49.8226
G1 X-124.6009 Y146.3512
G3 X-123.5063 Y146.5375 I-0.2731 J4.9137
G3 X-122.5082 Y147.024 I-0.9166 J3.1476
G3 X-121.9621 Y147.5236 I-2.0429 J2.7814
G0 Z5.0
G0 X-123.5025 Y144.7662
G1 Z0.0
G1 X-125.9123 Y144.2379
G1 X-133.6544 Y130.9579
G1 X-131.2904 Y131.3722
G1 X-123.5025 Y144.7662
G0 Z5.0
G0 X-126.1156 Y146.9917
G1 Z0.0
G3 X-125.9881 Y147.1492 I-3.1284 J2.6643
G3 X-125.6322 Y147.6622 I-4.8325 J3.732
G1 X-125.5447 Y147.8039
G3 X-125.3527 Y148.1317 I-18.1813 J10.867
G1 X-125.1421 Y148.5103
G1 X-125.1157 Y148.5586
G1 X-125.0039 Y148.7647
G1 X-127.9456 Y148.2174
G3 X-128.0011 Y148.125 I3.2532 J-2.0183
G1 X-128.0195 Y148.0941
G1 X-128.0917 Y147.9697
G3 X-128.2292 Y147.7173 I15.7794 J-8.7587
G3 X-128.4578 Y147.1897 I3.125 J-1.6677
G3 X-128.5368 Y146.8137 I1.5039 J-0.5125
G3 X-128.5234 Y146.5926 I0.9091 J-0.0557
G3 X-128.4169 Y146.3564 I0.554 J0.1077
G3 X-128.1763 Y146.1632 I0.5417 J0.4282
G3 X-127.8354 Y146.0494 I0.5942 J1.2122
G3 X-127.6472 Y146.019 I0.4678 J2.2947
G3 X-127.4477 Y146.0015 I0.2907 J2.1691
G3 X-126.8324 Y146.3414 I-1.6579 J3.7283
G3 X-126.2949 Y146.7945 I-1.9576 J2.8676
G3 X-126.1156 Y146.9917 I-2.949 J2.8615
G0 Z5.0
G0 X-127.9456 Y143.9491
G1 Z0.0
G1 X-130.3515 Y143.4131
G1 X-137.7669 Y130.5209
G1 X-135.7563 Y130.8439
G1 X-127.9456 Y143.9491
G0 Z5.0
G0 X-130.9927 Y146.0414
G1 Z0.0
G1 X-130.8294 Y146.2791
G1 X-130.7304 Y146.4254
G1 X-130.467 Y146.8158
G2 X-130.1097 Y147.3321 I15.6484 J-10.4478
G2 X-129.8995 Y147.6229 I62.2811 J-44.8015
G1 X-129.7852 Y147.7764
G3 X-129.9734 Y147.7904 I-0.3493 J-3.4444
G1 X-130.1619 Y147.7989
G3 X-130.5393 Y147.7971 I-0.1645 J-5.0108
G3 X-131.2866 Y147.6946 I0.1514 J-3.8811
G3 X-132.5707 Y146.9122 I0.552 J-2.351
G3 X-132.8342 Y146.5642 I2.5885 J-2.2334
G3 X-133.0884 Y146.1366 I4.6078 J-3.0285
G3 X-133.3424 Y145.6322 I14.7254 J-7.733
G3 X-133.3579 Y145.6001 I0.2196 J-0.1252
G3 X-133.3734 Y145.5677 I0.2219 J-0.1261
G3 X-133.389 Y145.5351 I0.2242 J-0.1271
G3 X-133.4046 Y145.5022 I0.2265 J-0.1282
G3 X-133.4204 Y145.4691 I0.2288 J-0.1293
G2 X-133.5545 Y145.1882 I-25.8982 J12.1881
G1 X-133.7001 Y144.8917
G1 X-131.5564 Y145.2793
G3 X-131.2742 Y145.6472 I-10.0563 J8.0063
G3 X-131.0045 Y146.0243 I-27.3688 J19.8629
G1 X-130.9927 Y146.0414
G0 Z5.0
G0 X-132.2253 Y143.0065
G1 Z0.0
G1 X-134.6313 Y142.4781
G1 X-134.7585 Y142.295
G1 X-134.8846 Y142.111
G1 X-135.1336 Y141.7409
G1 X-135.2972 Y141.4926
G3 X-135.9341 Y140.4879 I36.3676 J-23.7581
G3 X-136.1112 Y140.1979 I10.9916 J-6.9102
G1 X-136.3111 Y139.8648
G1 X-136.5365 Y139.4824
G1 X-136.7902 Y139.0432
G3 X-136.9239 Y138.8079 I9.1955 J-5.3823
G3 X-138.9328 Y134.975 I64.19 J-36.0845
G3 X-140.1671 Y132.3676 I105.7851 J-51.6752
G1 X-140.322 Y132.0291
G1 X-140.65 Y131.306
G1 X-140.9967 Y130.5333
G1 X-141.3642 Y129.7081
G1 X-141.4574 Y129.4984
G3 X-140.5827 Y129.8798 I-0.8221 J3.0791
G3 X-139.8234 Y130.4576 I-2.7695 J4.4274
G3 X-139.6246 Y130.6444 I-6.7742 J7.406
G3 X-139.1272 Y131.1729 I-6.7853 J6.8856
G3 X-139.0659 Y131.2437 I-0.8345 J0.7832
G3 X-138.4485 Y132.0247 I-10.1305 J8.6444
G1 X-138.2928 Y132.2397
G3 X-137.5137 Y133.4137 I-17.5074 J12.4644
G3 X-137.4179 Y133.5683 I-4.0615 J2.6231
G3 X-136.4484 Y135.2366 I-35.4154 J21.698
G1 X-136.2009 Y135.6873
G3 X-136.17 Y135.7442 I-0.5694 J0.3465
G3 X-135.6129 Y136.7865 I-108.7959 J58.8224
G1 X-134.9883 Y137.9808
G1 X-134.2782 Y139.3444
G2 X-133.896 Y140.069 I83.1646 J-43.3954
G2 X-132.9983 Y141.7087 I59.4107 J-31.4622
G1 X-132.7576 Y142.1266
G2 X-132.2253 Y143.0065 I29.4935 J-17.2389
G0 Z5.0
G0 X-134.9858 Y145.1104
G1 Z0.0
G3 X-134.9077 Y145.2169 I-2.7765 J2.1161
G3 X-134.543 Y145.8448 I-3.3188 J2.3474
G3 X-134.2321 Y146.7579 I-3.9785 J1.8641
G3 X-134.7455 Y146.7878 I-0.4536 J-3.3628
G3 X-135.2567 Y146.7321 I0.0733 J-3.0501
G3 X-136.195 Y146.3194 I0.4685 J-2.3377
G3 X-136.6935 Y145.8472 I1.6374 J-2.2282
G3 X-137.1791 Y145.0771 I2.8827 J-2.356
G3 X-137.5769 Y143.9491 I5.3549 J-2.5221
G1 X-136.638
G3 X-135.665 Y144.4357 I-0.8884 J2.9924
G3 X-134.9858 Y145.1104 I-2.0973 J2.7908
G0 Z5.0
G0 X-136.1554 Y142.5314
G1 Z0.0
G1 X-138.5612 Y142.0031
G1 X-145.9766 Y128.7079
G1 X-143.9621 Y129.4377
G1 X-136.1554 Y142.5314
G0 Z5.0
G0 X-139.014 Y144.0731
G1 Z0.0
G3 X-138.9003 Y144.3049 I-2.9311 J1.5808
G3 X-138.6747 Y144.9452 I-3.9646 J1.7568
G3 X-138.5081 Y145.8229 I-5.5873 J1.5152
G3 X-139.1553 Y145.7448 I-0.1716 J-1.2992
G3 X-139.7165 Y145.4133 I0.7709 J-1.9458
G3 X-140.0359 Y145.1202 I1.9287 J-2.4228
G3 X-140.4097 Y144.6854 I3.7076 J-3.5658
G1 X-140.5018 Y144.5637
G1 X-140.597 Y144.432
G3 X-140.6954 Y144.2897 I2.1467 J-1.5896
G3 X-140.7971 Y144.1362 I2.4997 J-1.7673
G1 X-140.8484 Y144.0563
G1 X-140.8743 Y144.0156
G1 X-140.9821 Y143.8412
G1 X-141.094 Y143.6537
G1 X-141.2101 Y143.4525
G1 X-141.3309 Y143.237
G1 X-141.4574 Y143.0065
G1 X-140.3894
G3 X-139.8351 Y143.1823 I-0.1652 J1.4822
G3 X-139.3807 Y143.5451 I-0.8486 J1.529
G3 X-139.1442 Y143.8524 I-1.7353 J1.5803
G3 X-139.014 Y144.0731 I-2.8009 J1.8015
G0 Z5.0
G0 X-145.0264 Y140.6652
G1 Z0.0
G3 X-145.2289 Y140.4981 I3.6031 J-4.574
G1 X-145.4274 Y140.3263
G1 X-145.5576 Y140.2094
G1 X-145.7288 Y140.0508
G1 X-145.953 Y139.8351
G3 X-146.2453 Y139.5408 I7.0806 J-7.3239
G3 X-147.3487 Y138.303 I15.7606 J-15.1605
G3 X-149.2933 Y135.6214 I21.0745 J-17.3282
G1 X-149.5275 Y135.2466
G3 X-150.6593 Y133.1807 I19.9707 J-12.2845
G3 X-150.7234 Y133.0455 I3.9608 J-1.9604
G3 X-150.984 Y132.4626 I12.5354 J-5.9522
G3 X-151.4798 Y131.0887 I11.0805 J-4.7753
G3 X-151.6613 Y130.3295 I7.1496 J-2.1105
G3 X-151.6782 Y130.2325 I1.5685 J-0.3246
G3 X-151.7465 Y129.3914 I4.6122 J-0.7978
G3 X-151.7055 Y128.9543 I3.1133 J0.0716
G3 X-151.5766 Y128.5128 I1.9444 J0.3282
G3 X-151.3129 Y128.0998 I1.3778 J0.5889
G1 X-145.0264 Y140.6652
G0 Z5.0
G0 X-151.4915 Y137.6587
G1 Z0.0
G3 X-151.8118 Y137.6008 I-0.0611 J-0.5767
G3 X-152.0812 Y137.4179 I0.5301 J-1.0708
G3 X-152.235 Y137.2661 I1.384 J-1.5558
G3 X-152.4169 Y137.0454 I2.4763 J-2.2268
G3 X-152.6296 Y136.7332 I3.739 J-2.7757
G3 X-152.8757 Y136.2995 I6.8123 J-4.1509
G3 X-153.156 Y135.7037 I8.619 J-4.4196
G3 X-153.4649 Y134.8903 I9.9343 J-4.2386
G3 X-153.7704 Y133.7805 I9.332 J-3.1654
G3 X-153.8744 Y133.1322 I5.9377 J-1.285
G3 X-153.8936 Y132.7823 I2.9885 J-0.3395
G3 X-153.8014 Y132.852 I-0.5815 J0.866
G3 X-153.7129 Y132.9266 I-0.866 J1.1162
G3 X-153.656 Y132.9784 I-0.4264 J0.5258
G3 X-153.4407 Y133.1988 I-2.1469 J2.3134
G3 X-153.0553 Y133.6783 I-3.8772 J3.5104
G3 X-152.8226 Y134.016 I-5.3695 J3.9481
G3 X-152.0358 Y135.4477 I-9.1891 J5.9822
G3 X-151.6399 Y136.4618 I-7.9311 J3.6806
G3 X-151.4909 Y137.0666 I-4.2236 J1.3616
G1 X-151.4792 Y137.145
G3 X-151.463 Y137.484 I-1.6628 J0.2492
G3 X-151.4915 Y137.6587 I-0.8175 J-0.0437
G0 Z5.0
G0 X-156.8392 Y134.3141
G1 Z0.0
G1 X-157.4435 Y132.0602
G1 X-156.3034 Y132.8431
G1 X-156.8392 Y134.3141
G0 Z5.0
G0 X-169.2983 Y126.7353
G1 Z0.0
G1 X-172.2819 Y120.9277
G3 X-171.585 Y121.2449 I-1.111 J3.3651
G3 X-170.9669 Y121.6968 I-2.1778 J3.6272
G3 X-169.998 Y122.8723 I-3.3875 J3.7792
G3 X-169.5499 Y123.7839 I-5.0093 J3.0281
G3 X-169.211 Y125.0897 I-5.1974 J2.046
G3 X-169.1703 Y125.8606 I-4.7685 J0.638
G3 X-169.2983 Y126.7353 I-3.641 J-0.0857
G0 Z5.0
G0 X-172.0627 Y126.2416
G1 Z0.0
G3 X-172.0879 Y126.3669 I-2.9535 J-0.5274
G3 X-172.1184 Y126.4882 I-1.0861 J-0.2091
G1 X-175.5695 Y119.8635
G3 X-174.9616 Y120.1452 I-0.9492 J2.845
G3 X-174.4182 Y120.5372 I-2.1415 J3.5415
G3 X-173.514 Y121.5179 I-3.8362 J4.4443
G1 X-173.4096 Y121.6623
G3 X-172.2192 Y124.2086 I-6.7104 J4.6886
G3 X-172.1322 Y124.5748 I-5.4912 J1.4986
G1 X-172.0955 Y124.7656
G3 X-172.0639 Y124.9637 I-3.3643 J0.6366
G3 X-172.0206 Y125.8798 I-4.4568 J0.67
G3 X-172.0627 Y126.2416 I-2.9956 J-0.1656
G0 Z5.0
G0 X-174.6308 Y125.0895
G1 Z0.0
G3 X-175.4496 Y124.7751 I0.7092 J-3.0699
G3 X-176.1716 Y124.277 I2.0676 J-3.7695
G3 X-177.3142 Y122.9622 I3.8022 J-4.4584
G3 X-177.842 Y121.9281 I4.7662 J-3.0844
G3 X-178.0346 Y121.2923 I4.323 J-1.6564
G3 X-178.1094 Y120.5343 I2.9982 J-0.6788
G3 X-178.0549 Y120.128 I2.2428 J0.0941
G3 X-177.8916 Y119.7147 I1.5621 J0.3782
G3 X-177.5726 Y119.3427 I1.1769 J0.6866
G1 X-174.6308 Y125.0895
G0 Z5.0
G0 X-159.6481 Y115.0479
G1 Z0.0
G1 X-150.0168 Y117.8643
G2 X-150.7167 Y118.8441 I2.5609 J2.5693
G2 X-151.0593 Y119.9984 I3.3883 J1.6336
G2 X-151.0848 Y120.8022 I4.323 J0.5395
G1 X-159.6481 Y115.0479
G0 Z5.0
G0 X-148.1469 Y120.2663
G1 Z0.0
G1 X-148.0532 Y120.2881
G1 X-147.9594 Y120.3096
G1 X-147.7716 Y120.3514
G1 X-147.3953 Y120.4319
G1 X-147.2876 Y120.4545
G1 X-146.4268 Y120.6355
G3 X-145.8549 Y120.7648 I-5.585 J26.0245
G1 X-145.7029 Y120.8016
G1 X-145.541 Y120.8423
G3 X-144.6865 Y121.0903 I-3.1616 J12.4896
G3 X-144.5777 Y121.1271 I-0.8711 J2.7551
G3 X-144.0866 Y121.3132 I-3.0736 J8.8496
G3 X-143.5431 Y121.5693 I-2.274 J5.5303
G3 X-142.959 Y121.9334 I-2.1022 J4.0237
G3 X-142.3705 Y122.4615 I-2.2983 J3.1532
G3 X-141.8566 Y123.2158 I-2.5535 J2.292
G3 X-143.4087 Y123.338 I-1.1538 J-4.7347
G3 X-144.9192 Y122.96 I0.434 J-4.9407
G3 X-145.8373 Y122.4728 I2.2573 J-5.3626
G3 X-146.9241 Y121.6219 I4.3132 J-6.6281
G3 X-148.1469 Y120.2663 I7.5393 J-8.0301
G0 Z5.0
G0 X-142.3886
G1 Z0.0
G3 X-140.9478 Y120.4124 I-0.8313 J15.3779
G3 X-139.5229 Y120.6717 I-2.8655 J19.7962
G3 X-136.7289 Y121.4273 I-6.4244 J29.2991
G3 X-134.9074 Y122.0633 I-11.3504 J35.4324
G3 X-132.5326 Y123.048 I-14.2929 J37.8272
G3 X-131.2075 Y123.6824 I-12.7707 J28.3743
G1 X-130.8706 Y123.856
G3 X-130.1605 Y124.2434 I-11.0645 J21.1218
G3 X-129.4231 Y124.692 I-6.4357 J11.4098
G1 X-129.2414 Y124.8148
G3 X-128.8807 Y125.0895 I-2.8956 J4.177
G1 X-129.1886 Y125.1474
G1 X-129.4976 Y125.1997
G3 X-129.5389 Y125.2063 I-0.0869 J-0.4142
G1 X-129.7592 Y125.2396
G1 X-130.0536 Y125.2798
G3 X-130.2222 Y125.3007 I-0.6009 J-4.1605
G3 X-130.6723 Y125.349 I-1.5585 J-12.4058
G3 X-131.274 Y125.3971 I-1.4728 J-14.6293
G3 X-133.687 Y125.411 I-1.3264 J-20.8687
G3 X-135.2891 Y125.2621 I0.9474 J-18.891
G3 X-137.3947 Y124.8513 I2.3361 J-17.5782
G3 X-137.9459 Y124.6964 I4.0245 J-15.3724
G3 X-138.5268 Y124.5077 I3.5539 J-11.9299
G1 X-138.8234 Y124.4003
G3 X-139.4468 Y124.147 I4.2668 J-11.3939
G2 X-139.3452 Y123.5057 I-1.6896 J-0.5964
G2 X-139.4836 Y122.8713 I-1.8116 J0.0629
G2 X-139.6849 Y122.4874 I-2.3413 J0.983
G2 X-140.0364 Y122.0332 I-2.9641 J1.9309
G2 X-140.2644 Y121.7988 I-2.8845 J2.578
G2 X-140.9211 Y121.2441 I-5.0539 J5.3171
G2 X-141.3164 Y120.9583 I-8.0211 J10.6801
G2 X-142.3886 Y120.2663 I-12.9422 J18.8761
G0 Z5.0
G0 X-123.1263 Y128.5558
G1 Z0.0
G1 X-120.671 Y127.5449
G1 X-113.8979 Y129.4984
G1 X-123.1263 Y128.5558
G0 Z5.0
G0 X-73.4993 Y156.3853
G1 Z0.0
G3 X-73.0444 Y156.2956 I0.5757 J1.7216
G3 X-72.5824 Y156.335 I0.1069 J1.4748
G3 X-71.8383 Y156.8728 I-0.2807 J1.1722
G3 X-71.6256 Y157.4571 I-1.3817 J0.8339
G3 X-71.9752 Y157.4883 I-0.5589 J-4.2778
G3 X-72.326 Y157.476 I-0.1097 J-1.8694
G3 X-72.5547 Y157.4242 I0.1302 J-1.1056
G3 X-72.8329 Y157.2785 I0.2971 J-0.9061
G3 X-73.1261 Y156.9778 I0.9175 J-1.1875
G3 X-73.4263 Y156.5129 I3.5703 J-2.6356
G1 X-73.4993 Y156.3853
G0 Z5.0
G0 X-71.3214 Y156.0052
G1 Z0.0
G3 X-70.2072 Y155.9415 I1.0906 J9.3051
G3 X-69.8356 Y155.9642 I0.0012 J3.028
G3 X-69.6263 Y156.0052 I-0.115 J1.1434
G1 X-69.6187 Y157.4571
G1 X-71.3214 Y156.0052
G0 Z5.0
G0 X-70.6753 Y154.3898
G1 Z0.0
G1 X-70.9148 Y153.3446
G1 X-68.8206 Y153.1812
G1 X-68.6571 Y154.234
G1 X-70.6753 Y154.3898
G0 Z5.0
G0 X-68.6799 Y155.9899
G1 Z0.0
G1 X-63.8681 Y155.4502
G3 X-63.8738 Y155.6673 I-0.4856 J0.0959
G3 X-63.9527 Y155.8694 I-0.7686 J-0.1834
G3 X-64.2133 Y156.2084 I-1.2827 J-0.7165
G3 X-64.4251 Y156.3968 I-1.7431 J-1.7457
G3 X-64.7325 Y156.611 I-2.26 J-2.916
G3 X-66.0896 Y157.1134 I-1.9751 J-3.2512
G3 X-67.0507 Y157.1167 I-0.4906 J-2.9567
G3 X-68.2078 Y156.5655 I0.357 J-2.2397
G3 X-68.6799 Y155.9899 I1.7561 J-1.9217
G0 Z5.0
G0 X-210.2176 Y100.6049
G1 Z0.0
G2 X-214.7202 Y98.4394 I-132.6354 J270.0303
G2 X-219.2569 Y96.3461 I-143.3531 J304.704
G1 X-220.5587 Y95.7603
G2 X-231.0491 Y91.248 I-168.9636 J378.3653
G1 X-232.4566 Y90.6671
G1 X-233.9598 Y90.0521
G1 X-235.5654 Y89.4012
G1 X-237.2801 Y88.7123
G1 X-239.1115 Y87.9831
G1 X-241.0673 Y87.2115
G1 X-243.1559 Y86.3946
G1 X-245.3863 Y85.5297
G1 X-247.7677 Y84.6136
G1 X-250.3102 Y83.6425
G1 X-253.0244 Y82.6124
G1 X-255.9212 Y81.5185
G1 X-262.5459 Y79.0276
G1 X-266.0789 Y77.6988
G1 X-267.9018 Y77.0114
G1 X-269.7828 Y76.3001
G1 X-271.7236 Y75.5635
G3 X-275.8598 Y73.9817 I492.0399 J-1292.8704
G3 X-285.2836 Y70.2887 I267.5404 J-696.5748
G3 X-287.7063 Y69.3125 I158.6606 J-397.2423
G3 X-288.3161 Y69.0647 I37.7443 J-93.7594
G3 X-288.9303 Y68.8142 I32.2249 J-79.9004
G3 X-289.549 Y68.561 I28.4712 J-70.4457
G3 X-290.1723 Y68.3049 I25.7012 J-63.4472
G3 X-290.8002 Y68.046 I23.5457 J-57.9842
G3 X-296.1423 Y65.7991 I182.5884 J-441.5934
G3 X-296.4765 Y65.6558 I10.2495 J-24.3549
G3 X-296.8119 Y65.5115 I10.0541 J-23.8428
G3 X-302.5146 Y63.0014 I140.121 J-326.0677
G3 X-302.871 Y62.8407 I7.6483 J-17.4329
G3 X-303.2286 Y62.6789 I7.5502 J-17.1657
G3 X-303.5874 Y62.516 I7.4549 J-16.9057
G3 X-303.7671 Y62.4343 I5.2611 J-11.8059
G3 X-303.9471 Y62.3523 I5.229 J-11.7179
G3 X-304.1274 Y62.2701 I5.1973 J-11.6309
G1 X-304.937 Y61.012
G1 X-304.5523 Y61.1254
G1 X-304.1677 Y61.2394
G1 X-303.399 Y61.4686
G1 X-301.8633 Y61.9326
G1 X-300.8406 Y62.2458
G1 X-299.4785 Y62.6679
G3 X-294.0447 Y64.403 I-130.3724 J417.6741
G1 X-293.3219 Y64.6394
G1 X-291.671 Y65.1841
G1 X-289.7865 Y65.8134
G3 X-289.3005 Y65.9769 I-19.636 J59.1599
G3 X-288.799 Y66.1461 I-11.8403 J35.9063
G3 X-283.4598 Y67.9799 I-223.0494 J658.138
G1 X-282.0389 Y68.4771
G1 X-280.5245 Y69.0111
G1 X-279.7434 Y69.2881
G1 X-278.9374 Y69.5751
G1 X-277.2193 Y70.1906
G1 X-275.3884 Y70.8521
G3 X-275.2735 Y70.8937 I-0.8405 J2.4953
G3 X-246.1029 Y82.1475 I-270.724 J745.1698
G1 X-245.8759 Y82.2403
G1 X-244.9538 Y82.6183
G3 X-236.5482 Y86.1334 I-261.8768 J638.0304
G3 X-236.0203 Y86.3586 I-20.0779 J47.7852
G3 X-226.4078 Y90.5704 I-218.8386 J512.5256
G1 X-225.1936 Y91.1195
G1 X-223.9617 Y91.6811
G1 X-223.3417 Y91.9657
G1 X-222.8039 Y92.215
G1 X-222.2679 Y92.4679
G1 X-221.9116 Y92.6387
G1 X-221.4379 Y92.8694
G1 X-220.809 Y93.1824
G3 X-218.3307 Y94.5064 I-25.8264 J51.3224
G3 X-218.0056 Y94.6927 I-7.721 J13.8518
G3 X-216.2976 Y95.7301 I-22.7555 J39.3903
G3 X-215.3439 Y96.3584 I-23.6204 J36.8919
G3 X-215.2241 Y96.4401 I-1.5635 J2.4205
G3 X-215.1026 Y96.5236 I-1.5429 J2.3734
G3 X-214.9796 Y96.6089 I-1.5229 J2.3275
G3 X-214.855 Y96.6961 I-1.5043 J2.2837
G3 X-213.7326 Y97.5164 I-18.2029 J26.085
G1 X-213.4481 Y97.7351
G1 X-213.1569 Y97.964
G3 X-210.2176 Y100.6049 I-19.8401 J25.0384
G0 Z5.0
M5
M30
