( Made using CamBam - http://www.cambam.co.uk )
( car2 1/22/2014 9:23:55 AM )
( T0 : 0.0 )
G21 G90 G64 G40
G0 Z5.0
( T0 : 0.0 )
T0 M6
( 1-10 )
G17
M3 S1000
G0 X455.1454 Y-18.0901
G1 F1.0 Z0.0
G2 X455.1524 Y-18.558 I-4.7062 J-0.3044
G2 X454.8561 Y-20.0056 I-4.6036 J0.1881
G2 X454.4245 Y-20.8692 I-4.375 J1.6469
G2 X453.8587 Y-21.6039 I-4.6319 J2.9814
G1 X453.8206 Y-21.6452
G2 X453.1625 Y-22.2543 I-4.7356 J4.4561
G2 X452.4524 Y-22.7633 I-4.9929 J6.2152
G2 X452.087 Y-22.9849 I-5.2054 J8.1727
G2 X451.995 Y-23.0372 I-0.7755 J1.257
G2 X451.2436 Y-23.4208 I-5.711 J10.2597
G2 X449.7035 Y-24.025 I-6.0758 J13.2226
G2 X449.3232 Y-24.1459 I-5.3784 J16.2504
G2 X448.5617 Y-24.3617 I-6.5018 J21.49
G1 X448.3733 Y-24.4102
G2 X446.8591 Y-24.74 I-5.6748 J22.4144
G2 X446.6747 Y-24.7737 I-0.8341 J4.0455
G1 X446.5828 Y-24.79
G1 X446.2155 Y-24.8521
G1 X445.8505 Y-24.9093
G1 X445.7598 Y-24.9228
G2 X444.3081 Y-25.105 I-5.6304 J38.9905
G1 X444.2199 Y-25.1141
G1 X444.0441 Y-25.1317
G2 X442.6406 Y-25.2448 I-4.3838 J45.6428
G2 X441.2789 Y-25.3123 I-3.6619 J60.1248
G2 X440.619 Y-25.3316 I-2.2369 J65.2688
G2 X440.4565 Y-25.3351 I-0.1705 J4.1611
G2 X437.8676 Y-25.3289 I-1.1475 J61.4309
G1 X437.2612 Y-25.3119
G2 X436.068 Y-25.2628 I1.9321 J61.4465
G2 X431.4559 Y-24.8967 I4.1009 J80.9099
G1 X431.3301 Y-24.8831
G1 X431.2048 Y-24.8694
G1 X431.0799 Y-24.8556
G2 X427.1145 Y-24.3274 I10.5219 J94.1406
G2 X420.2357 Y-23.0302 I16.6341 J107.0939
G1 X419.5954 Y-22.8857
G1 X419.2855 Y-22.8144
G1 X418.9807 Y-22.7433
G2 X409.4973 Y-20.0605 I24.3863 J104.3051
G2 X407.1689 Y-19.2511 I29.5336 J88.7128
G1 X406.7347 Y-19.0929
G1 X405.9226 Y-18.7904
G2 X404.5082 Y-18.2427 I28.5623 J75.8653
G2 X402.4048 Y-17.376 I35.5467 J89.252
G2 X401.3622 Y-16.9214 I22.8228 J53.7654
G2 X401.2972 Y-16.8925 I0.4174 J1.0256
G2 X401.0539 Y-16.7836 I12.5088 J28.2775
G1 X400.6896 Y-16.6187
G1 X400.3261 Y-16.4519
G2 X400.7817 Y-16.2764 I1.0216 J-1.9733
G1 X400.8375 Y-16.2614
G1 X400.949 Y-16.234
G2 X401.8442 Y-16.0918 I1.698 J-7.7971
G1 X402.0483 Y-16.07
G1 X402.4476 Y-16.0323
G1 X402.4953 Y-16.0281
G1 X402.5427 Y-16.0239
G1 X402.9196 Y-15.9908
G1 X403.279 Y-15.9577
G3 X403.6212 Y-15.9224 I-0.8207 J9.6286
G3 X404.2702 Y-15.8361 I-1.8975 J16.7588
G1 X404.4152 Y-15.8118
G1 X404.4856 Y-15.799
G3 X405.0362 Y-15.6741 I-1.0776 J6.026
G3 X405.5113 Y-15.5122 I-1.0393 J3.8272
G3 X405.6129 Y-15.4675 I-0.7178 J1.7705
G3 X405.9864 Y-15.2539 I-0.924 J2.0488
G3 X406.2671 Y-15.0035 I-1.0214 J1.4273
G3 X406.5667 Y-14.4278 I-0.9941 J0.8832
G3 X406.6092 Y-13.9478 I-1.673 J0.3899
G3 X406.5653 Y-13.5901 I-2.1843 J-0.0864
G3 X406.4203 Y-13.07 I-3.3295 J-0.6479
G1 X406.3734 Y-12.9435
G3 X406.3548 Y-12.8963 I-0.5423 J-0.1856
G3 X406.2135 Y-12.5713 I-8.0865 J-3.3224
G1 X401.3979 Y-7.7557
G3 X402.8206 Y-5.0534 I-34.4874 J19.8825
G3 X403.7305 Y-2.948 I-27.7651 J13.2491
G3 X404.2994 Y-1.323 I-24.1146 J9.3536
G3 X404.6474 Y-0.0788 I-20.7291 J6.4693
G3 X405.0142 Y1.8239 I-17.798 J4.4172
G3 X405.1493 Y3.757 I-14.4968 J1.9843
G1 X405.2881 Y3.4367
G1 X405.4261 Y3.1279
G1 X405.5632 Y2.8303
G3 X406.7522 Y0.5863 I22.0919 J10.2691
G3 X407.8179 Y-0.9974 I16.0711 J9.6636
G3 X408.7321 Y-2.1014 I11.6067 J8.681
G3 X409.4881 Y-2.8667 I10.1301 J9.252
G1 X409.6368 Y-3.0031
G3 X410.2137 Y-3.4928 I8.1818 J9.0559
G3 X412.1199 Y-4.7189 I6.9569 J8.7211
G3 X412.3721 Y-4.8428 I7.6329 J15.2108
G3 X413.3935 Y-5.2777 I5.2357 J10.8799
G3 X414.3918 Y-5.5714 I2.544 J6.803
G3 X415.347 Y-5.6767 I0.9553 J4.2824
G3 X415.7813 Y-5.6419 I-0.0058 J2.7996
G3 X416.5572 Y-5.3732 I-0.3192 J2.1768
G3 X417.1109 Y-4.8927 I-0.9984 J1.7099
G3 X417.4541 Y-4.3202 I-2.0175 J1.5985
G3 X417.5133 Y-4.1774 I-3.4987 J1.5337
G3 X417.6861 Y-3.5954 I-3.5817 J1.3802
G1 X417.7146 Y-3.4566
G3 X417.8227 Y-2.3482 I-6.7073 J1.2139
G3 X417.7958 Y-1.3766 I-10.8337 J0.1858
G3 X417.5798 Y0.3087 I-16.7573 J-1.2909
G1 X417.5515 Y0.4655
G3 X417.4933 Y0.7685 I-14.4818 J-2.6231
G3 X417.3736 Y1.3345 I-17.2756 J-3.356
G1 X417.3173 Y1.5812
G1 X417.2058 Y2.0424
G3 X416.7633 Y3.643 I-34.4165 J-8.6539
G1 X416.6418 Y4.04
G1 X416.6185 Y4.1143
G1 X416.4403 Y4.6703
G1 X416.3485 Y4.9475
G1 X416.2551 Y5.2241
G1 X412.3631 Y17.2649
G1 X414.5473 Y14.0852
G1 X415.5063 Y12.6953
G1 X415.9579 Y12.045
G3 X417.7271 Y9.5384 I187.3607 J130.363
G1 X417.825 Y9.402
G1 X417.9222 Y9.2668
G3 X418.699 Y8.1971 I121.7149 J87.5666
G3 X419.436 Y7.2005 I84.1399 J61.4504
G1 X419.7846 Y6.7357
G3 X422.5699 Y3.1969 I79.0729 J59.3707
G3 X422.7046 Y3.0342 I4.1352 J3.2868
G3 X423.78 Y1.7654 I75.3479 J62.7723
G1 X424.2592 Y1.2177
G1 X424.7134 Y0.7085
G1 X425.1439 Y0.2354
G1 X425.5517 Y-0.2044
G1 X425.9377 Y-0.6131
G1 X426.3031 Y-0.9931
G3 X427.7043 Y-2.3874 I36.0491 J34.8253
G1 X427.9728 Y-2.6431
G3 X430.0472 Y-4.4934 I32.5052 J34.3556
G3 X432.2375 Y-6.2049 I25.033 J29.7776
G3 X433.1274 Y-6.7878 I5.8139 J7.9056
G3 X434.0062 Y-7.2156 I3.1759 J5.4073
G3 X434.4319 Y-7.3521 I1.363 J3.5187
G1 X434.5339 Y-7.3761
G3 X434.9415 Y-7.4314 I0.5224 J2.3241
G3 X435.3203 Y-7.4078 I0.0838 J1.7095
G3 X435.934 Y-7.1026 I-0.1972 J1.1661
G3 X436.2479 Y-6.6262 I-0.9559 J0.9716
G3 X436.3743 Y-6.152 I-1.8646 J0.7509
G3 X436.4078 Y-5.7262 I-3.0821 J0.4565
G3 X436.3501 Y-4.9829 I-4.5616 J0.0203
G3 X436.0807 Y-3.8992 I-6.63 J-1.073
G3 X435.6621 Y-2.864 I-8.6645 J-2.9015
G3 X433.9348 Y0.4936 I-59.0147 J-28.2369
G3 X432.2883 Y3.3568 I-78.1259 J-43.0219
G1 X432.1022 Y3.6665
G1 X431.9181 Y3.9707
G1 X431.7359 Y4.2696
G3 X430.2746 Y6.6066 I-119.2333 J-72.9313
G1 X429.9497 Y7.1146
G1 X429.6336 Y7.6058
G1 X429.018 Y8.5555
G1 X428.7283 Y8.9999
G1 X427.6016 Y10.7195
G1 X427.108 Y11.4715
G1 X426.1844 Y12.8825
G2 X426.0836 Y13.0371 I7.4578 J4.9723
G2 X425.9845 Y13.1892 I7.0963 J4.7299
G2 X425.887 Y13.3391 I6.7813 J4.5181
G2 X425.7912 Y13.4867 I6.5036 J4.3307
G2 X425.6968 Y13.632 I6.2565 J4.1635
G2 X425.6041 Y13.7751 I6.0348 J4.0129
G2 X425.5129 Y13.916 I5.8345 J3.8765
G1 X424.7981 Y15.0278
G2 X422.37 Y18.9653 I112.1674 J71.8872
G2 X420.1282 Y23.0118 I67.9381 J40.2828
G1 X419.6777 Y23.8656
G1 X419.2316 Y24.7046
G1 X418.7901 Y25.5292
G3 X411.5269 Y38.3448 I-296.6471 J-159.656
G1 X411.1731 Y38.9377
G1 X410.8237 Y39.5207
G1 X410.4786 Y40.094
G1 X410.138 Y40.6577
G3 X404.6447 Y49.457 I-337.3116 J-204.4643
G3 X395.9994 Y62.3933 I-377.1453 J-242.6876
G1 X394.8884 Y63.9897
G1 X394.4004 Y64.6868
G1 X393.9418 Y65.3396
G1 X393.5109 Y65.9509
G1 X393.1062 Y66.5235
G1 X392.7261 Y67.0597
G1 X392.0116 Y68.0639
G1 X391.3845 Y68.9412
G1 X390.8343 Y69.7079
G1 X390.3518 Y70.3779
G1 X389.9288 Y70.9636
G1 X389.1868 Y71.9872
G1 X388.6288 Y72.7538
G1 X388.2095 Y73.3282
G1 X387.5792 Y74.1889
G1 X386.9474 Y75.0483
G1 X386.7976 Y75.2255
G3 X386.1869 Y75.8935 I-10.374 J-8.8716
G1 X386.043 Y76.0385
G3 X385.4583 Y76.5797 I-8.0879 J-8.1511
G3 X384.8968 Y77.025 I-5.8321 J-6.7783
G3 X384.3608 Y77.3767 I-4.0363 J-5.5664
G3 X384.1107 Y77.5141 I-1.9045 J-3.171
G3 X383.6179 Y77.7291 I-1.739 J-3.3137
G3 X383.16 Y77.8534 I-0.9528 J-2.605
G3 X382.7455 Y77.8909 I-0.4063 J-2.1785
G3 X382.0384 Y77.7399 I0.0017 J-1.7387
G3 X381.5881 Y77.4442 I0.7601 J-1.6486
G3 X381.087 Y76.8162 I1.7325 J-1.8962
G3 X380.752 Y76.0859 I3.9441 J-2.2514
G2 X380.509 Y76.5143 I39.2731 J22.5646
G1 X380.2751 Y76.9301
G1 X379.8255 Y77.7378
G1 X378.99 Y79.2565
G1 X378.2594 Y80.5858
G1 X378.0987 Y80.8762
G1 X377.7859 Y81.438
G3 X377.7123 Y81.5695 I-3.2498 J-1.7336
G3 X377.6397 Y81.6989 I-3.8604 J-2.0824
G1 X377.3522 Y82.2073
G3 X376.2457 Y84.098 I-69.8156 J-39.5898
G1 X376.1391 Y84.2736
G3 X374.4087 Y86.9453 I-46.6986 J-28.3501
G1 X374.352 Y87.0271
G1 X374.1306 Y87.3428
G3 X372.5082 Y89.4989 I-36.6025 J-25.8535
G2 X379.0769 Y84.7018 I-41.3748 J-63.5503
G2 X381.9658 Y82.2298 I-48.6419 J-59.7704
G2 X383.3211 Y80.9857 I-61.8288 J-68.7172
G2 X383.4036 Y80.9082 I-2.0312 J-2.2438
G2 X388.4591 Y75.7378 I-60.9684 J-64.6703
G2 X392.8235 Y70.5622 I-76.3594 J-68.8192
G1 X393.3129 Y69.9382
G1 X393.7941 Y69.3159
G1 X394.2674 Y68.6953
G1 X394.733 Y68.0764
G2 X396.543 Y65.5928 I-98.9501 J-74.0127
G1 X396.7582 Y65.2892
G1 X396.9718 Y64.9862
G2 X400.2725 Y60.0872 I-124.7401 J-87.6044
G1 X400.4603 Y59.7964
G1 X400.6469 Y59.5064
G1 X400.8322 Y59.2171
G2 X403.7168 Y54.5647 I-171.1142 J-109.317
G1 X404.3765 Y53.4638
G1 X405.0206 Y52.3769
G1 X405.65 Y51.3041
G1 X406.2652 Y50.2454
G1 X406.8671 Y49.201
G2 X407.4564 Y48.1709 I-124.6165 J-71.9657
G1 X407.7453 Y47.6632
G1 X408.0313 Y47.159
G1 X408.3145 Y46.6584
G1 X408.5949 Y46.1614
G1 X408.8725 Y45.6679
G1 X409.9698 Y43.7068
G1 X410.2347 Y43.2312
G1 X410.4973 Y42.7591
G1 X410.7575 Y42.2905
G1 X411.7882 Y40.4297
G1 X413.7815 Y36.8216
G1 X414.7175 Y35.1304
G1 X415.6269 Y33.4931
G1 X416.5116 Y31.9086
G3 X419.993 Y25.798 I381.6223 J213.3791
G1 X420.7704 Y24.4694
G1 X421.5303 Y23.1859
G1 X421.9009 Y22.5658
G1 X422.2674 Y21.9562
G1 X422.6299 Y21.3573
G1 X422.9884 Y20.7687
G1 X423.3431 Y20.1903
G1 X423.694 Y19.622
G1 X424.0411 Y19.0635
G3 X426.8393 Y14.7066 I158.0211 J98.412
G1 X427.4682 Y13.7641
G1 X428.0838 Y12.8551
G1 X428.686 Y11.9786
G3 X429.8705 Y10.2924 I128.0035 J88.6533
G1 X430.4339 Y9.5078
G1 X430.9849 Y8.7514
G3 X433.1701 Y5.8575 I99.6633 J72.9854
G3 X435.1511 Y3.3782 I102.1808 J79.6131
G1 X435.3718 Y3.1103
G1 X435.5899 Y2.8472
G3 X437.3352 Y0.7991 I88.5342 J73.6779
G3 X440.5125 Y-2.6762 I79.1033 J69.1284
G3 X443.0012 Y-5.1823 I68.8915 J65.9243
G3 X446.9068 Y-8.7617 I62.9073 J64.7214
G3 X451.0172 Y-12.1037 I58.0972 J67.2553
G1 X451.2463 Y-12.2814
G2 X451.4661 Y-12.4571 I-5.5861 J-7.2146
G2 X451.8847 Y-12.8073 I-12.7792 J-15.7006
G1 X452.0776 Y-12.9764
G1 X452.2621 Y-13.1432
G2 X453.5871 Y-14.5453 I-8.643 J-9.4954
G1 X453.6441 Y-14.6169
G2 X454.4426 Y-15.8137 I-6.6464 J-5.2991
G2 X454.8826 Y-16.8052 I-5.4378 J-3.0065
G1 X454.9147 Y-16.9022
G2 X454.9716 Y-17.0915 I-3.4783 J-1.1497
G2 X455.1454 Y-18.0901 I-4.5325 J-1.303
G0 Z5.0
G0 X398.4143 Y-2.2103
G1 Z0.0
G1 X395.1153 Y-5.346
G1 X399.3912 Y2.2784
G1 X398.4143 Y-2.2103
G0 Z5.0
G0 X396.1525 Y-0.8618
G1 Z0.0
G1 X396.0785 Y-0.986
G2 X395.4451 Y-2.013 I-53.3249 J32.1803
G2 X395.4098 Y-2.0688 I-0.8711 J0.5112
G2 X394.2564 Y-3.8176 I-43.7247 J27.5851
G1 X394.0321 Y-4.1403
G2 X392.2598 Y-6.4939 I-33.2713 J23.2095
G1 X392.0257 Y-6.7784
G2 X391.9999 Y-6.8094 I-0.348 J0.2637
G2 X391.1673 Y-7.7676 I-24.3003 J20.2738
G2 X391.1406 Y-7.797 I-0.304 J0.2494
G2 X391.1147 Y-7.8254 I-0.2979 J0.2453
G2 X390.9128 Y-8.0444 I-7.3737 J6.5983
G2 X390.292 Y-8.6868 I-18.0611 J16.8297
G2 X390.6383 Y-7.5021 I10.4588 J-2.4142
G2 X390.8426 Y-6.9623 I16.7554 J-6.0323
G1 X390.9495 Y-6.7042
G2 X391.1731 Y-6.2019 I18.9851 J-8.1534
G1 X391.2871 Y-5.9614
G1 X391.4027 Y-5.7262
G2 X391.8848 Y-4.8143 I19.6093 J-9.7851
G2 X391.9438 Y-4.7088 I1.7098 J-0.8866
G2 X392.9312 Y-3.064 I31.7736 J-17.9553
G1 X393.1569 Y-2.7102
G1 X393.212 Y-2.6248
G2 X393.6536 Y-1.9493 I37.6579 J-24.1345
G1 X393.7058 Y-1.8704
G1 X394.1223 Y-1.2457
G1 X394.9093 Y-0.0781
G3 X396.2727 Y1.9758 I-103.1174 J69.9273
G1 X396.5222 Y2.3653
G3 X397.4261 Y3.8463 I-37.3105 J23.7896
G3 X397.7483 Y4.4119 I-21.6906 J12.729
G3 X398.7698 Y6.4479 I-21.3234 J11.973
G3 X398.7985 Y6.5132 I-0.6742 J0.3348
G3 X399.5508 Y8.5878 I-15.0046 J6.615
G1 X401.0825 Y9.0779
G1 X400.9605 Y8.7752
G2 X396.408 Y-0.4334 I-66.1544 J26.9762
G1 X396.1525 Y-0.8618
G0 Z5.0
G0 X390.6987 Y-3.8751
G1 Z0.0
G1 X390.4827 Y-4.2811
G1 X390.3815 Y-4.4719
G1 X390.2832 Y-4.6568
G2 X389.8957 Y-5.3703 I-45.7751 J24.3995
G2 X389.5403 Y-5.9885 I-19.5245 J10.8125
G2 X388.8587 Y-7.0382 I-12.192 J7.17
G2 X388.5749 Y-7.4158 I-6.3151 J4.4523
G1 X388.5102 Y-7.4967
G2 X387.974 Y-8.094 I-5.7271 J4.6021
G2 X387.947 Y-8.1205 I-0.2093 J0.1854
G2 X387.5005 Y-8.5132 I-3.6793 J3.7342
G2 X386.741 Y-8.9814 I-2.317 J2.9088
G2 X385.8832 Y-9.2266 I-1.2103 J2.6107
G3 X386.4679 Y-8.5229 I-4.0618 J3.9703
G1 X386.5824 Y-8.358
G3 X386.6897 Y-8.1957 I-2.9042 J2.0367
G3 X387.0805 Y-7.5497 I-13.4429 J8.5728
G1 X387.1626 Y-7.4054
G1 X387.4755 Y-6.8424
G1 X387.752 Y-6.3478
G2 X388.274 Y-5.499 I10.5226 J-5.8864
G1 X388.3276 Y-5.4213
G1 X388.3805 Y-5.3467
G2 X388.5953 Y-5.0649 I4.3862 J-3.1201
G2 X389.0185 Y-4.6097 I3.3827 J-2.7209
G2 X389.7918 Y-4.0895 I1.972 J-2.0966
G2 X390.6987 Y-3.8751 I1.0273 J-2.3194
G0 Z5.0
G0 X391.0126 Y-30.0688
G1 Z0.0
G2 X391.4785 Y-30.1146 I0.0256 J-2.1327
G2 X392.1772 Y-30.3551 I-0.5991 J-2.8752
G1 X390.6987 Y-31.8261
G2 X390.2448 Y-31.5126 I1.2116 J2.2395
G2 X390.0722 Y-31.3314 I0.8835 J1.0144
G2 X389.9484 Y-31.1359 I0.8044 J0.6466
G2 X389.888 Y-30.7245 I0.587 J0.2963
G2 X390.0435 Y-30.424 I0.6266 J-0.1337
G2 X390.2693 Y-30.2461 I0.668 J-0.6157
G2 X390.74 Y-30.0896 I0.6674 J-1.2207
G2 X391.0126 Y-30.0688 I0.2981 J-2.112
G0 Z5.0
G0 X388.8249 Y-32.362
G1 Z0.0
G1 X387.8899 Y-34.2358
G1 X386.9474 Y-33.3046
G1 X388.8249 Y-32.362
G0 Z5.0
G0 Y-38.1164
G1 Z0.0
G1 X392.1772
G1 X388.2852 Y-39.994
G1 Y-38.1164
G1 X388.8249
G0 Z5.0
G0 X380.5348 Y-31.8124
G1 Z0.0
G2 X380.3927 Y-31.9817 I-1.8268 J1.3891
G2 X379.8956 Y-32.434 I-3.0453 J2.8482
G2 X379.6604 Y-32.6094 I-9.7214 J12.7895
G2 X378.7315 Y-33.1971 I-6.7852 J9.6971
G1 X378.5524 Y-33.2992
G2 X378.2145 Y-33.4864 I-7.0782 J12.3755
G2 X377.0213 Y-34.1226 I-89.8292 J167.0349
G1 X376.8722 Y-34.2023
G1 X376.7419 Y-34.2725
G1 X376.6281 Y-34.3343
G1 X376.2322 Y-34.5543
G1 X376.036 Y-34.6674
G1 X375.8414 Y-34.7831
G2 X375.165 Y-34.8013 I-0.4222 J3.1139
G2 X374.6629 Y-34.7127 I0.2471 J2.8665
G2 X373.9714 Y-34.3885 I0.5884 J2.1545
G2 X373.4394 Y-33.8406 I1.186 J1.6839
G2 X373.6075 Y-33.6487 I1.0622 J-0.7615
G2 X373.9837 Y-33.3318 I3.1194 J-3.3204
G2 X374.3567 Y-33.0615 I5.4417 J-7.1169
G2 X374.716 Y-32.8218 I9.0324 J-13.1523
G1 X374.7373 Y-32.8081
G2 X377.5801 Y-31.2892 I11.2834 J-17.6989
G2 X377.6727 Y-31.2489 I0.7936 J-1.6957
G2 X377.7627 Y-31.2103 I0.5638 J-1.1895
G2 X378.1131 Y-31.0653 I10.0611 J-23.8331
G2 X379.366 Y-30.6278 I4.9786 J-12.2445
G1 X379.4458 Y-30.6049
G2 X380.0502 Y-30.4551 I2.7984 J-9.9942
G1 X380.2028 Y-30.4247
G1 X380.3178 Y-30.4041
G2 X380.4909 Y-30.3771 I0.4634 J-2.3975
G1 X380.6647 Y-30.3551
G2 X380.8397 Y-30.8179 I-1.1338 J-0.6931
G2 X380.8194 Y-31.2559 I-1.0632 J-0.1701
G2 X380.6646 Y-31.6211 I-1.3601 J0.3607
G1 X380.6158 Y-31.6989
G2 X380.5348 Y-31.8124 I-1.9078 J1.2756
G0 Z5.0
G0 X375.3511 Y-41.3318
G1 Z0.0
G1 X375.3131 Y-43.4755
G2 X374.1355 Y-43.3604 I-0.4538 J1.4388
G2 X373.6756 Y-42.9634 I0.6631 J1.233
G2 X373.4394 Y-42.4037 I1.0333 J0.7658
G1 X375.3511 Y-41.3318
G0 Z5.0
G0 X400.1252 Y-61.7923
G1 Z0.0
G3 X400.5126 Y-61.3185 I-48.0459 J39.6804
G3 X401.6298 Y-59.9085 I-50.8033 J41.4039
G3 X402.646 Y-58.5624 I-75.1183 J57.7579
G1 X402.8797 Y-58.2437
G3 X403.7842 Y-56.9771 I-72.4304 J52.6828
G1 X404.1995 Y-56.3773
G3 X404.9882 Y-55.2044 I-59.3944 J40.7937
G3 X405.1701 Y-54.9275 I-13.7846 J9.2521
G3 X410.3246 Y-45.862 I-71.4789 J46.6399
G3 X414.37 Y-36.2502 I-80.1121 J39.3748
G1 X415.0064 Y-36.3947
G1 X415.6343 Y-36.5302
G3 X416.8744 Y-36.7788 I17.6405 J84.7657
G3 X421.7135 Y-37.5504 I15.6687 J82.7075
G3 X425.9776 Y-38.0172 I13.4869 J103.4938
G3 X433.4765 Y-38.4278 I9.8583 J111.3632
G3 X439.1168 Y-38.3913 I2.1818 J98.8502
G3 X443.3446 Y-38.1373 I-2.8273 J82.3637
G1 X443.5426 Y-38.1198
G1 X443.7374 Y-38.1021
G3 X445.27 Y-37.943 I-6.3072 J68.2163
G1 X445.4375 Y-37.9234
G3 X448.0662 Y-37.5512 I-6.7674 J57.2681
G3 X448.5571 Y-37.4667 I-3.2106 J20.1105
G3 X449.4751 Y-37.2938 I-6.7838 J38.5597
G1 X449.6755 Y-37.2534
G3 X451.2204 Y-36.9044 I-7.0857 J34.9624
G1 X451.5084 Y-36.8313
G1 X451.7778 Y-36.7604
G3 X452.7816 Y-36.4721 I-6.4237 J24.2599
G1 X453.1552 Y-36.3541
G3 X454.4459 Y-35.8919 I-6.5675 J20.3746
G3 X455.6999 Y-35.338 I-6.0822 J15.4654
G1 X455.8559 Y-35.26
G1 X456.0106 Y-35.1821
G3 X456.6224 Y-34.8667 I-11.6339 J23.321
G1 X456.7705 Y-34.7886
G1 X456.9173 Y-34.7104
G3 X459.201 Y-33.3809 I-16.0746 J30.2369
G1 X459.4477 Y-33.2214
G3 X461.3197 Y-31.8582 I-11.7581 J18.113
G1 X461.5164 Y-31.6943
G3 X462.2655 Y-31.0186 I-10.7335 J12.6516
G1 X462.3505 Y-30.9358
G1 X462.434 Y-30.8529
G3 X463.0689 Y-30.168 I-9.5316 J9.4713
G3 X463.61 Y-29.4788 I-7.6029 J6.5263
G3 X463.8415 Y-29.1396 I-5.8943 J4.272
G3 X464.5712 Y-27.7293 I-6.4284 J4.2201
G3 X465.0308 Y-25.017 I-6.2844 J2.4599
G1 X465.0283 Y-24.9528
G3 X464.9153 Y-23.9404 I-7.3525 J-0.308
G1 X464.8735 Y-23.7219
G3 X464.3759 Y-22.0736 I-9.7197 J-2.0351
G3 X463.8419 Y-20.899 I-12.1846 J-4.8307
G3 X462.8606 Y-19.2322 I-15.7703 J-8.1621
G3 X461.728 Y-17.6644 I-19.9816 J-13.2421
G3 X459.3281 Y-14.7045 I-92.6024 J-72.6301
G3 X456.9959 Y-11.9985 I-98.6446 J-82.6604
G1 X456.4394 Y-11.3727
G1 X455.8884 Y-10.7596
G1 X455.343 Y-10.1586
G1 X454.8035 Y-9.5695
G1 X454.2699 Y-8.9917
G1 X453.7424 Y-8.4249
G1 X453.2213 Y-7.8689
G1 X452.7064 Y-7.3231
G1 X451.6882 Y-6.2529
G1 X450.6966 Y-5.2207
G1 X450.2148 Y-4.722
G1 X449.7397 Y-4.2319
G1 X449.2713 Y-3.7501
G1 X447.4225 Y-1.8571
G1 X445.6862 Y-0.0845
G2 X445.5845 Y0.0195 I3.0831 J3.1197
G2 X445.4831 Y0.123 I3.0756 J3.1113
G2 X445.3822 Y0.2262 I3.0682 J3.103
G2 X443.7761 Y1.8722 I389.6822 J381.8238
G2 X443.6821 Y1.9689 I2.9544 J2.9658
G2 X443.5885 Y2.0652 I2.9488 J2.9585
G2 X443.4954 Y2.1612 I2.9434 J2.9513
G2 X443.4026 Y2.2568 I2.9381 J2.9442
G2 X443.3102 Y2.3521 I2.9329 J2.9371
G2 X443.2181 Y2.447 I2.9279 J2.9302
G2 X440.3048 Y5.4907 I217.2898 J210.8975
G1 X439.6737 Y6.163
G2 X437.2583 Y8.7961 I134.7437 J126.0238
G1 X436.7373 Y9.3792
G1 X436.2357 Y9.9467
G2 X436.1146 Y10.0846 I4.3319 J3.9256
G2 X432.3813 Y14.5553 I86.3065 J75.8647
G1 X432.0438 Y14.9848
G2 X430.7596 Y16.6677 I65.1083 J51.0141
G2 X428.6137 Y19.6874 I66.1073 J49.2501
G2 X425.6805 Y24.4065 I57.3945 J38.9455
G2 X423.1537 Y29.3552 I53.9873 J30.6853
G1 X422.9005 Y29.9096
G1 X422.6472 Y30.4587
G3 X422.584 Y30.5948 I-2.6738 J-1.1584
G1 X422.0756 Y31.6792
G1 X421.5683 Y32.7435
G1 X421.0629 Y33.7883
G3 X416.898 Y41.9246 I-211.4302 J-103.0963
G1 X416.7797 Y42.145
G3 X412.8935 Y49.1047 I-215.6158 J-115.8315
G1 X412.4544 Y49.8586
G3 X410.6982 Y52.8107 I-190.6899 J-111.4407
G3 X409.0111 Y55.5547 I-200.3587 J-121.2897
G1 X408.8108 Y55.8747
G1 X408.6114 Y56.192
G3 X407.8149 Y57.4474 I-161.6048 J-101.6579
G1 X407.4258 Y58.0535
G1 X407.3298 Y58.2025
G1 X407.234 Y58.3508
G1 X407.1384 Y58.4985
G1 X407.0431 Y58.6455
G1 X406.948 Y58.7919
G1 X406.8531 Y58.9376
G3 X403.7645 Y63.5375 I-170.5043 J-111.1486
G3 X400.9498 Y67.487 I-150.4355 J-104.2321
G1 X400.3192 Y68.3406
G3 X399.703 Y69.1637 I-313.5453 J-234.1031
G1 X399.4026 Y69.5609
G3 X396.9926 Y72.6551 I-124.9875 J-94.8646
G3 X394.8151 Y75.3086 I-99.1345 J-79.1318
G3 X390.8357 Y79.8092 I-90.2269 J-75.7694
G1 X390.4507 Y80.2206
G3 X388.9387 Y81.7954 I-78.2131 J-73.5807
G1 X388.6035 Y82.1356
G1 X388.2772 Y82.4637
G3 X386.9982 Y83.7202 I-56.3217 J-56.0524
G3 X385.8592 Y84.7993 I-54.9453 J-56.8535
G1 X385.6075 Y85.0327
G3 X384.6235 Y85.9275 I-45.1212 J-48.6347
G1 X384.1885 Y86.314
G1 X383.7783 Y86.6734
G3 X383.73 Y86.7154 I-0.8371 J-0.914
G3 X380.5954 Y89.2939 I-47.0014 J-53.9423
G3 X378.9731 Y90.5138 I-36.7254 J-47.1527
G3 X377.3123 Y91.6806 I-36.4309 J-50.09
G1 X376.8961 Y91.9642
G1 X376.4845 Y92.2475
G2 X373.2615 Y94.5585 I69.0662 J99.7236
G2 X370.3064 Y96.8136 I86.6035 J116.5486
G1 X369.9639 Y97.0828
G1 X369.6249 Y97.3508
G2 X368.2862 Y98.4232 I91.074 J115.0535
G1 X367.9636 Y98.685
G2 X362.9157 Y102.9274 I140.5917 J172.4129
G1 X362.3705 Y103.3998
G2 X360.2345 Y105.2716 I183.6032 J211.6711
G1 X359.736 Y105.7127
G1 X359.2458 Y106.1476
G1 X358.2825 Y107.0059
G1 X357.3512 Y107.8393
G1 X355.5502 Y109.4583
G1 X352.1779 Y112.4994
G1 X350.7005 Y113.828
G3 X350.5272 Y113.9835 I-4.9637 J-5.3587
G3 X350.3551 Y114.1378 I-4.8724 J-5.2616
G1 X349.6718 Y114.7493
G1 X349.009 Y115.3408
G1 X347.7217 Y116.4834
G1 X346.5106 Y117.5497
G1 X345.3704 Y118.5443
G3 X344.2969 Y119.4714 I-125.2496 J-143.9459
G3 X343.2859 Y120.3352 I-87.2066 J-101.0369
G3 X339.4475 Y123.5187 I-125.3938 J-147.2846
G3 X336.5095 Y125.8337 I-95.6602 J-118.3838
G3 X334.2665 Y127.5187 I-90.348 J-117.9261
G3 X334.1604 Y127.5965 I-2.1006 J-2.7527
G3 X334.056 Y127.673 I-2.0826 J-2.7361
G3 X333.953 Y127.7482 I-2.0649 J-2.7197
G3 X332.3215 Y128.9171 I-67.8494 J-92.9819
G3 X327.2978 Y132.235 I-56.5502 J-80.1603
G3 X321.4585 Y135.7172 I-120.0948 J-194.7497
G1 X320.8137 Y136.0877
G3 X310.5017 Y141.6387 I-111.1408 J-194.1101
G3 X294.5169 Y148.9179 I-98.5307 J-195.1792
G3 X278.0053 Y154.9067 I-84.9064 J-208.335
G1 X277.211 Y155.1599
G1 X276.4194 Y155.4112
G1 X274.8417 Y155.9088
G3 X249.6492 Y163.3247 I-220.6035 J-702.921
G3 X227.4008 Y169.0825 I-198.8914 J-722.6551
G1 X226.1791 Y169.3778
G1 X225.5727 Y169.5235
G1 X224.9687 Y169.6682
G3 X215.3256 Y171.9061 I-181.8939 J-761.8816
G3 X214.7596 Y172.0333 I-12.489 J-54.2631
G3 X196.6691 Y175.8523 I-160.1774 J-714.0059
G1 X194.6845 Y176.242
G3 X192.7299 Y176.6203 I-66.1603 J-336.6677
G1 X191.7674 Y176.8044
G3 X161.0859 Y181.9432 I-128.2686 J-671.6787
G1 X159.642 Y182.1492
G1 X158.2203 Y182.3489
G1 X157.5203 Y182.4461
G1 X156.8257 Y182.5417
G3 X134.7222 Y185.174 I-84.7539 J-617.5638
G1 X132.6453 Y185.3794
G1 X131.639 Y185.4762
G3 X115.7699 Y186.7687 I-54.1102 J-566.3044
G1 X114.2804 Y186.8668
G1 X112.8372 Y186.958
G1 X111.4388 Y187.0426
G3 X100.5951 Y187.574 I-30.6216 J-513.9462
G1 X99.578 Y187.6123
G3 X83.8054 Y187.9409 I-18.1252 J-491.2616
G3 X68.0306 Y187.7456 I-2.193 J-459.8944
G3 X67.5643 Y187.7312 I1.5335 J-57.4492
G1 X66.6353 Y187.6998
G1 X65.7137 Y187.6654
G1 X64.7993 Y187.6282
G3 X64.6859 Y187.6234 I0.1713 J-5.3828
G1 X64.2328 Y187.6038
G1 X63.3301 Y187.5628
G1 X62.8824 Y187.5415
G3 X48.6267 Y186.5851 I19.1267 J-391.809
G1 X47.0684 Y186.4499
G1 X46.3016 Y186.3812
G1 X44.7802 Y186.2406
G3 X32.8189 Y184.9344 I37.2093 J-396.1771
G3 X27.5954 Y184.2473 I45.5197 J-366.2187
G1 X27.4424 Y184.226
G1 X27.2898 Y184.2048
G1 X27.1374 Y184.1835
G3 X17.4281 Y182.6864 I46.9218 J-336.5403
G1 X16.3682 Y182.5054
G3 X8.0437 Y180.9523 I49.9812 J-290.9771
G1 X7.1355 Y180.7678
G1 X6.242 Y180.5833
G3 X-0.7717 Y179.0232 I53.9271 J-258.9813
G3 X-1.1541 Y178.9321 I6.4281 J-27.8351
G3 X-7.2041 Y177.3996 I50.5531 J-212.2746
G3 X-9.8378 Y176.6746 I59.3503 J-220.7575
G1 X-10.4538 Y176.4996
G3 X-15.2837 Y175.0499 I48.9103 J-171.7262
G1 X-16.3352 Y174.7149
G3 X-24.4028 Y171.8787 I47.8503 J-149.001
G1 X-24.777 Y171.7344
G3 X-27.7089 Y170.5589 I45.2758 J-117.1729
G3 X-32.7641 Y168.3217 I44.6712 J-107.7688
G3 X-34.6303 Y167.4177 I38.3678 J-81.5875
G3 X-37.849 Y165.7415 I42.0728 J-84.7145
G3 X-42.5383 Y162.9775 I38.1135 J-70.0226
G3 X-43.1105 Y162.609 I26.7323 J-42.1289
G3 X-45.0841 Y161.2754 I35.3486 J-54.4448
G3 X-45.1451 Y161.2326 I0.6088 J-0.9312
G3 X-45.2041 Y161.1911 I0.6004 J-0.915
G3 X-47.0078 Y159.8706 I36.7067 J-52.0339
G2 X-48.7788 Y159.9558 I0.2597 J23.8467
G2 X-51.8473 Y160.3941 I2.5232 J28.6248
G1 X-52.1322 Y160.4512
G2 X-54.3229 Y160.9693 I8.0133 J38.7785
G1 X-54.5268 Y161.0239
G1 X-54.724 Y161.0777
G1 X-54.9149 Y161.1305
G2 X-56.3872 Y161.564 I15.1543 J54.1958
G2 X-58.5765 Y162.275 I27.7068 J89.0309
G2 X-59.1212 Y162.4608 I14.7867 J44.2488
G1 X-59.9369 Y162.7433
G1 X-60.3443 Y162.8859
G1 X-60.7515 Y163.029
G1 X-61.0871 Y163.1468
G1 X-61.4178 Y163.2617
G3 X-62.7236 Y163.7044 I-34.0677 J-98.3456
G1 X-63.3382 Y163.906
G1 X-63.9351 Y164.0973
G3 X-64.0076 Y164.1203 I-0.2627 J-0.7047
G3 X-66.3262 Y164.8136 I-21.5286 J-67.7702
G1 X-66.8371 Y164.955
G1 X-67.3332 Y165.088
G1 X-67.815 Y165.2128
G3 X-69.6925 Y165.6553 I-12.5937 J-49.23
G3 X-73.0201 Y166.2361 I-8.6539 J-39.7628
G3 X-73.3349 Y166.2753 I-1.3243 J-9.3458
G1 X-73.6401 Y166.3104
G3 X-76.0155 Y166.4785 I-3.2332 J-28.8269
G3 X-77.8025 Y166.4661 I-0.7185 J-25.2455
G3 X-80.4676 Y166.1831 I0.8644 J-20.8309
G3 X-83.0697 Y165.5413 I3.1856 J-18.5132
G2 X-87.3324 Y164.3075 I-20.836 J64.0036
G2 X-87.534 Y164.2563 I-2.226 J8.3437
G2 X-90.7261 Y163.5206 I-20.129 J80.044
G1 X-91.3277 Y163.3966
G2 X-95.8621 Y162.5868 I-20.3637 J100.9289
G2 X-98.1406 Y162.2502 I-18.2126 J115.3982
G1 X-98.7111 Y162.1719
G1 X-99.5673 Y162.0585
G1 X-100.4241 Y161.9496
G1 X-100.7655 Y161.9079
G1 X-102.1207 Y161.7479
G1 X-103.4338 Y161.595
G1 X-104.0698 Y161.5209
G3 X-114.0834 Y160.3236 I151.945 J-1313.1795
G1 X-115.9599 Y160.0894
G1 X-117.7186 Y159.8664
G1 X-118.1308 Y159.8136
G1 X-118.5366 Y159.7614
G1 X-120.1338 Y159.554
G1 X-121.6307 Y159.3566
G1 X-121.8061 Y159.3332
G1 X-121.9802 Y159.31
G1 X-123.3613 Y159.1242
G1 X-124.6557 Y158.9473
G3 X-124.9591 Y158.9054 I1.6403 J-13.0056
G3 X-125.1084 Y158.8848 I0.7302 J-5.826
G1 X-126.2931 Y158.7194
G1 X-127.4036 Y158.562
G3 X-131.5642 Y157.9481 I76.386 J-532.1021
G1 X-131.7591 Y157.9182
G1 X-133.2933 Y157.6796
G1 X-133.4611 Y157.6531
G1 X-134.7814 Y157.4409
G1 X-135.9359 Y157.2501
G3 X-135.999 Y157.2395 I0.0715 J-0.6199
G3 X-136.0617 Y157.2289 I0.0711 J-0.6148
G3 X-136.1239 Y157.2185 I0.0706 J-0.6097
G3 X-136.1856 Y157.2081 I0.0702 J-0.6048
G3 X-136.2468 Y157.1977 I0.0698 J-0.5999
G3 X-136.3075 Y157.1875 I0.0694 J-0.5951
G3 X-138.2322 Y156.853 I24.3527 J-145.8251
G3 X-138.2773 Y156.8449 I0.0568 J-0.4479
G3 X-138.3221 Y156.8369 I0.0566 J-0.4447
G3 X-138.3665 Y156.8289 I0.0563 J-0.4416
G3 X-139.0705 Y156.7011 I15.6705 J-88.3053
G3 X-139.109 Y156.694 I0.0518 J-0.3901
G3 X-141.5489 Y156.2237 I21.1393 J-116.2302
G1 X-142.1574 Y156.0984
G1 X-142.6132 Y156.002
G1 X-142.6986 Y155.9836
G3 X-143.3386 Y155.8432 I7.2943 J-34.7826
G1 X-143.9774 Y155.6973
G3 X-148.9705 Y154.3109 I14.5916 J-62.237
G3 X-153.536 Y152.6696 I21.9679 J-68.2757
G1 X-154.0633 Y152.4579
G3 X-156.1403 Y151.5806 I30.1879 J-74.3692
G1 X-156.6394 Y151.3596
G3 X-157.6255 Y150.9113 I36.6975 J-82.0421
G3 X-159.5499 Y149.993 I35.0658 J-75.9532
G3 X-163.2144 Y148.0873 I41.2054 J-83.7118
G3 X-166.5738 Y146.1632 I46.8812 J-85.7449
G3 X-172.6795 Y142.241 I58.9389 J-98.4666
G3 X-172.7613 Y142.1848 I1.6945 J-2.5525
G3 X-175.3491 Y140.3556 I74.2825 J-107.8328
G1 X-175.949 Y139.9177
G1 X-176.5371 Y139.4832
G3 X-181.0849 Y135.9519 I81.7282 J-109.9489
G3 X-184.9442 Y132.712 I89.2503 J-110.2294
G1 X-185.3595 Y132.3496
G3 X-191.7228 Y126.4441 I98.1671 J-112.1578
G1 X-192.3021 Y125.8716
G3 X-193.4154 Y124.7534 I144.3188 J-144.8147
G3 X-197.4812 Y120.454 I100.4667 J-99.0782
G1 X-197.8531 Y120.042
G1 X-198.2118 Y119.6413
G3 X-198.5577 Y119.2517 I59.2822 J-52.9888
G3 X-198.5995 Y119.2044 I0.4598 J-0.4486
G1 X-199.2622 Y118.4483
G3 X-201.6905 Y115.5641 I87.6808 J-76.2839
G1 X-202.1349 Y115.014
G1 X-202.5481 Y114.4954
G1 X-202.9322 Y114.0066
G3 X-202.9546 Y113.9779 I0.2784 J-0.2403
G3 X-202.977 Y113.9493 I0.2775 J-0.2393
G3 X-202.9992 Y113.9207 I0.2765 J-0.2383
G3 X-204.3901 Y112.084 I58.7814 J-45.9588
G1 X-204.6449 Y111.735
G1 X-204.882 Y111.4064
G1 X-205.1023 Y111.0972
G3 X-206.6882 Y108.7312 I40.5963 J-28.9254
G1 X-206.7825 Y108.58
G1 X-206.9574 Y108.2956
G3 X-207.2567 Y107.7937 I41.9824 J-25.3773
G3 X-208.0853 Y106.249 I18.805 J-11.0824
G1 X-208.1238 Y106.2276
G2 X-208.7473 Y105.9023 I-7.1949 J13.0321
G1 X-208.9036 Y105.8249
G1 X-209.2166 Y105.6725
G1 X-209.5295 Y105.5232
G1 X-210.1552 Y105.2307
G1 X-210.4665 Y105.0876
G2 X-211.0879 Y104.8052 I-17.8034 J38.3555
G1 X-211.7058 Y104.528
G1 X-212.0127 Y104.3914
G1 X-212.6249 Y104.1207
G1 X-212.7768 Y104.0538
G1 X-213.9914 Y103.5231
G1 X-215.189 Y103.0052
G1 X-215.7791 Y102.7517
G1 X-216.3648 Y102.5008
G1 X-216.9463 Y102.2526
G1 X-218.1009 Y101.7619
G1 X-220.3762 Y100.8013
G1 X-220.652 Y100.6854
G1 X-222.8502 Y99.7647
G1 X-223.3829 Y99.5423
G1 X-223.449 Y99.5148
G1 X-225.5619 Y98.6356
G1 X-226.5858 Y98.2109
G1 X-227.594 Y97.7935
G1 X-229.5795 Y96.9734
G1 X-233.4288 Y95.39
G1 X-235.2341 Y94.6499
G1 X-238.7331 Y93.2194
G1 X-239.1433 Y93.052
G1 X-242.3996 Y91.7252
G1 X-242.5904 Y91.6476
G1 X-245.6324 Y90.4113
G1 X-248.485 Y89.2543
G1 X-253.8356 Y87.0896
G1 X-254.4209 Y86.8532
G1 X-259.0315 Y84.9935
G1 X-261.0491 Y84.181
G1 X-264.8328 Y82.6593
G1 X-268.1442 Y81.3297
G1 X-271.0422 Y80.1675
G1 X-276.1149 Y78.1368
G1 X-279.9204 Y76.6162
G1 X-282.7751 Y75.4773
G1 X-287.0584 Y73.772
G1 X-289.2009 Y72.9214
G1 X-289.4688 Y72.8153
G1 X-290.4065 Y72.4443
G1 X-290.5238 Y72.398
G1 X-291.3454 Y72.0761
G1 X-292.0805 Y71.7973
G1 X-292.8042 Y71.5203
G3 X-292.8488 Y71.5031 I0.1612 J-0.4854
G3 X-292.8934 Y71.486 I0.1611 J-0.4848
G3 X-292.9379 Y71.4688 I0.161 J-0.4842
G3 X-292.9823 Y71.4517 I0.1609 J-0.4836
G3 X-293.0268 Y71.4346 I0.1608 J-0.4831
G3 X-293.0711 Y71.4174 I0.1607 J-0.4825
G3 X-295.8973 Y70.302 I65.2059 J-169.3555
G1 X-296.5598 Y70.0324
G1 X-297.2115 Y69.7635
G3 X-299.765 Y68.6687 I47.6617 J-114.6982
G1 X-300.3617 Y68.4017
G1 X-300.9478 Y68.1344
G1 X-301.5232 Y67.8669
G1 X-302.088 Y67.5989
G1 X-302.6422 Y67.3301
G3 X-304.8 Y66.2196 I25.9002 J-52.975
G1 X-305.2998 Y65.9449
G1 X-305.7888 Y65.6685
G1 X-306.2669 Y65.3905
G3 X-308.1101 Y64.2296 I18.6235 J-31.6152
G3 X-309.763 Y63.029 I15.8775 J-23.5961
G3 X-311.2179 Y61.7864 I14.5064 J-18.4584
G3 X-311.5419 Y61.4775 I11.1962 J-12.0677
G3 X-311.8537 Y61.1666 I10.0424 J-10.3825
G3 X-312.1533 Y60.8538 I11.7138 J-11.5206
G3 X-312.7207 Y60.2181 I15.5201 J-14.4244
G3 X-314.5956 Y57.5127 I12.3812 J-10.5828
G3 X-315.7652 Y54.8989 I15.341 J-8.4329
G3 X-316.4551 Y52.4988 I20.1652 J-7.0959
G1 X-316.5143 Y52.2325
G3 X-316.8877 Y50.1176 I29.4053 J-6.2825
G3 X-317.101 Y48.2518 I35.6387 J-5.0177
G1 X-317.1101 Y48.1495
G3 X-317.1744 Y47.3371 I33.8133 J-3.0836
G3 X-317.2224 Y46.5746 I103.7215 J-6.9218
G3 X-317.3175 Y43.7116 I70.6606 J-3.7787
G1 X-317.3231 Y43.1746
G3 X-317.2803 Y39.1468 I121.6429 J-0.7231
G1 X-317.2522 Y38.1402
G1 X-317.2278 Y37.3853
G1 X-317.1868 Y36.2531
G1 X-317.1841 Y36.1824
G1 X-317.1815 Y36.116
G1 X-317.1414 Y35.1211
G1 X-317.1238 Y34.6957
G2 X-317.1196 Y34.5926 I-1.6459 J-0.1173
G1 X-317.0902 Y33.774
G2 X-317.0873 Y33.6779 I-1.3921 J-0.0911
G2 X-317.0845 Y33.5825 I-1.3712 J-0.0883
G2 X-317.0611 Y32.0688 I-59.5392 J-1.6752
G1 X-317.0629 Y31.7369
G2 X-317.1018 Y30.4512 I-26.276 J0.1521
G2 X-317.3366 Y28.2101 I-20.2123 J0.9844
G2 X-317.7023 Y26.5569 I-14.6552 J2.3754
G2 X-318.6354 Y24.1964 I-11.8426 J3.3165
G2 X-320.049 Y22.0882 I-10.5279 J5.531
G3 X-320.8412 Y23.4771 I-31.1588 J-16.8527
G1 X-321.0424 Y23.809
G3 X-321.8765 Y25.1046 I-32.2235 J-19.8294
G3 X-323.6609 Y27.5032 I-26.8065 J-18.0789
G1 X-323.8853 Y27.7736
G3 X-324.807 Y28.8198 I-22.044 J-18.4907
G3 X-326.7373 Y30.7108 I-19.6132 J-18.0898
G3 X-328.7191 Y32.2897 I-15.9918 J-18.0404
G3 X-330.721 Y33.5651 I-12.6451 J-17.6392
G3 X-334.7979 Y35.3157 I-9.9801 J-17.6192
G3 X-342.4577 Y36.0238 I-5.5611 J-18.3744
G3 X-345.2896 Y35.5179 I2.3355 J-21.2529
G3 X-347.6902 Y34.7751 I5.662 J-22.5507
G3 X-348.2033 Y34.5789 I8.1601 J-22.1062
G3 X-350.1473 Y33.7145 I9.1912 J-23.289
G1 X-350.5626 Y33.5048
G1 X-350.9615 Y33.295
G3 X-353.9353 Y31.4671 I14.386 J-26.7377
G1 X-354.2032 Y31.2792
G3 X-356.2169 Y29.7383 I19.9457 J-28.1529
G1 X-356.4001 Y29.5867
G1 X-356.5766 Y29.4388
G3 X-359.2012 Y27.021 I27.4595 J-32.4416
G3 X-361.6258 Y24.4028 I33.9865 J-33.9055
G1 X-361.869 Y24.1199
G3 X-361.9277 Y24.0512 I1.0234 J-0.9355
G1 X-362.3929 Y23.505
G1 X-362.6106 Y23.2483
G1 X-363.4558 Y22.254
G2 X-363.5023 Y22.1997 I-0.5878 J0.4563
G2 X-363.5486 Y22.1458 I-0.5795 J0.4502
G2 X-363.5945 Y22.0923 I-0.5715 J0.4443
G2 X-364.329 Y21.2499 I-64.4494 J55.4527
G1 X-364.656 Y20.8852
G1 X-364.8109 Y20.7154
G2 X-364.9619 Y20.5517 I-7.3719 J6.6501
G2 X-365.5577 Y19.9272 I-27.9655 J26.0827
G1 X-365.6908 Y19.7928
G1 X-365.8207 Y19.6636
G2 X-366.8668 Y18.7031 I-13.2454 J13.3751
G2 X-367.7087 Y18.0472 I-8.2386 J9.7074
G2 X-369.0867 Y17.2316 I-5.2584 J7.3125
G2 X-370.6071 Y16.729 I-2.7641 J5.8111
G1 X-371.4833 Y17.2189
G3 X-372.3471 Y17.6999 I-102.734 J-183.4869
G1 X-372.5599 Y17.8181
G3 X-375.9612 Y19.6845 I-184.1005 J-331.4735
G3 X-379.1767 Y21.3979 I-120.5276 J-222.3134
G1 X-379.5558 Y21.5957
G1 X-379.9325 Y21.7913
G3 X-382.9383 Y23.3123 I-84.843 J-163.9408
G1 X-383.2931 Y23.4866
G1 X-383.6456 Y23.6586
G1 X-383.9959 Y23.8284
G1 X-384.1699 Y23.9122
G1 X-384.8643 Y24.2437
G1 X-385.5499 Y24.566
G1 X-386.227 Y24.879
G1 X-386.394 Y24.9554
G1 X-386.5605 Y25.0312
G1 X-386.7265 Y25.1064
G1 X-386.8919 Y25.1811
G3 X-387.5524 Y25.4757 I-18.7335 J-41.1038
G1 X-388.2046 Y25.7612
G3 X-390.7941 Y26.8361 I-36.0533 J-83.2003
G1 X-391.1 Y26.9565
G3 X-393.5463 Y27.8646 I-26.8612 J-68.6064
G3 X-395.8702 Y28.6306 I-21.5175 J-61.3689
G3 X-395.9388 Y28.6517 I-0.3499 J-1.0161
G3 X-400.3666 Y29.816 I-16.2556 J-52.8214
G3 X-401.3472 Y30.0191 I-8.8266 J-40.1394
G3 X-409.05 Y30.8926 I-9.137 J-46.175
G3 X-414.858 Y30.7219 I-1.4395 J-49.9381
G3 X-419.1801 Y30.1768 I4.9766 J-56.8601
G3 X-419.9853 Y30.0395 I7.021 J-43.6207
G3 X-422.9882 Y29.4372 I11.5361 J-65.3042
G3 X-424.1073 Y29.1784 I22.3576 J-99.2021
G3 X-424.3515 Y29.1195 I3.3146 J-14.2928
G3 X-428.1132 Y28.1135 I20.1296 J-82.7976
G3 X-429.0465 Y27.8366 I34.6283 J-118.4764
G1 X-429.1339 Y27.8102
G1 X-429.8101 Y27.6027
G3 X-431.8302 Y26.9532 I28.2084 J-91.1944
G3 X-439.992 Y23.7479 I25.3798 J-76.6202
G3 X-440.1013 Y23.6979 I0.6817 J-1.6324
G3 X-440.2102 Y23.6477 I0.6836 J-1.6297
G3 X-443.6483 Y21.9611 I33.2936 J-72.2137
G3 X-449.858 Y18.35 I35.2289 J-67.7264
G3 X-454.9984 Y14.7174 I40.2247 J-62.3718
G3 X-456.0819 Y13.8646 I40.6075 J-52.7117
G3 X-460.1232 Y10.3693 I45.8005 J-57.0386
G3 X-463.4369 Y7.0647 I47.1317 J-50.5752
G3 X-468.6542 Y0.7488 I47.299 J-44.384
G3 X-468.7105 Y0.6707 I1.0138 J-0.7911
G3 X-472.0323 Y-4.4806 I47.6286 J-34.3601
G1 X-472.3152 Y-4.9816
G1 X-472.5842 Y-5.4698
G3 X-474.4902 Y-9.3452 I45.7941 J-24.9296
G3 X-475.6931 Y-12.3545 I41.8857 J-18.4876
G3 X-476.0887 Y-13.5039 I36.1929 J-13.0986
G3 X-477.2077 Y-17.6075 I38.3908 J-12.6736
G3 X-477.8578 Y-21.8111 I34.494 J-7.4861
G1 X-477.8784 Y-22.0557
G3 X-477.926 Y-23.0264 I15.1547 J-1.2298
G3 X-477.9094 Y-23.9588 I13.8104 J-0.22
G3 X-477.8183 Y-24.8451 I10.0772 J0.5881
G1 X-477.7834 Y-25.0528
G3 X-477.583 Y-25.8571 I5.8355 J1.0265
G3 X-477.2828 Y-26.5679 I4.2972 J1.3964
G3 X-476.8796 Y-27.1536 I2.7902 J1.4889
G3 X-475.8045 Y-27.8653 I1.8165 J1.5762
G3 X-475.2714 Y-27.977 I0.8025 J2.5018
G3 X-475.1454 Y-27.9878 I0.3309 J3.1172
G3 X-474.1568 Y-27.9117 I0.2071 J3.7669
G3 X-473.9465 Y-27.8644 I-0.6039 J3.1765
G3 X-473.7449 Y-27.8103 I-1.443 J5.7817
G3 X-473.3608 Y-27.6853 I-1.5324 J5.3605
G1 X-473.1836 Y-27.6185
G3 X-471.8716 Y-26.9682 I-3.3887 J8.4856
G3 X-470.9514 Y-26.37 I-7.2484 J12.1572
G3 X-469.6542 Y-25.3574 I-11.2608 J15.7614
G1 X-469.3435 Y-25.0877
G1 X-469.2281 Y-24.9851
G3 X-468.4394 Y-24.2473 I-15.06 J16.8906
G3 X-467.1628 Y-22.8944 I-15.8252 J16.2116
G3 X-466.1309 Y-21.6371 I-21.3018 J18.535
G1 X-466.0223 Y-21.4963
G3 X-465.1928 Y-20.368 I-30.8839 J23.5745
G3 X-463.8357 Y-18.3281 I-40.2973 J28.2798
G1 X-463.5924 Y-17.9385
G3 X-463.3671 Y-17.5716 I-33.715 J20.958
G3 X-463.3146 Y-17.4853 I-1.2743 J0.8343
G3 X-463.2631 Y-17.4003 I-1.2275 J0.8023
G3 X-463.2125 Y-17.3166 I-1.1847 J0.773
G3 X-462.8183 Y-16.655 I-46.635 J28.2376
G1 X-462.6479 Y-16.3643
G1 X-462.3316 Y-15.8175
G3 X-461.7862 Y-14.8557 I-78.523 J45.1655
G1 X-461.5838 Y-14.4938
G1 X-461.232 Y-13.8594
G1 X-460.9695 Y-13.3827
G1 X-460.5768 Y-12.6672
G1 X-460.1841 Y-11.9518
G2 X-460.0513 Y-11.7424 I1.2037 J-0.6164
G2 X-459.8787 Y-11.5729 I0.6534 J-0.4929
G2 X-459.7869 Y-11.5227 I0.2368 J-0.324
G2 X-459.6018 Y-11.5162 I0.1005 J-0.2215
G2 X-459.4948 Y-11.6132 I-0.0879 J-0.2047
G2 X-459.4509 Y-11.7267 I-0.3495 J-0.2002
G2 X-459.4363 Y-11.9371 I-0.8262 J-0.1633
G2 X-459.4908 Y-12.2473 I-1.5281 J0.1088
G2 X-459.595 Y-12.5447 I-2.6336 J0.7553
G3 X-460.1831 Y-14.7374 I26.2227 J-8.2085
G3 X-460.5924 Y-16.8233 I37.7845 J-8.4985
G3 X-460.7453 Y-17.8072 I47.0396 J-7.8143
G1 X-460.8115 Y-18.2849
G3 X-460.9275 Y-19.2271 I61.7495 J-8.0824
G1 X-460.9529 Y-19.4556
G1 X-461.0003 Y-19.9092
G1 X-461.0433 Y-20.3562
G3 X-461.2638 Y-23.8844 I65.0632 J-5.8379
G1 X-461.2671 Y-23.981
G1 X-461.2704 Y-24.0773
G1 X-461.2818 Y-24.4607
G3 X-461.3075 Y-25.9707 I59.5562 J-1.7695
G3 X-461.305 Y-27.3865 I81.8034 J-0.5624
G3 X-461.0901 Y-32.6905 I91.5867 J1.0546
G3 X-460.2336 Y-40.6054 I102.8612 J7.1267
G3 X-458.774 Y-48.4317 I99.7126 J14.5481
G3 X-458.0327 Y-51.1624 I34.5569 J7.9147
G3 X-457.8264 Y-51.7935 I25.5782 J8.0137
G3 X-456.8888 Y-54.2333 I29.1901 J9.8165
G1 X-456.7656 Y-54.5138
G3 X-454.4249 Y-58.7715 I25.9061 J11.4703
G3 X-451.7875 Y-62.1012 I21.8255 J14.5783
G3 X-446.0023 Y-66.7215 I18.7309 J17.5214
G1 X-445.8522 Y-66.8088
G3 X-440.8325 Y-69.0613 I13.7395 J23.899
G3 X-436.8423 Y-70.1042 I9.7507 J29.1524
G3 X-433.7815 Y-70.5468 I6.52 J34.2781
G1 X-433.6371 Y-70.5608
G3 X-431.3584 Y-70.7055 I3.4141 J35.764
G3 X-429.6462 Y-70.7238 I1.3202 J43.375
G3 X-424.5251 Y-70.3546 I-0.5532 J43.3738
G1 X-422.1154 Y-68.8837
G3 X-424.2418 Y-68.6486 I-5.1788 J-37.1066
G1 X-424.3586 Y-68.6388
G3 X-425.2862 Y-68.5674 I-4.094 J-47.1439
G1 X-425.7216 Y-68.5371
G1 X-426.5656 Y-68.4815
G1 X-427.3577 Y-68.4302
G1 X-427.5435 Y-68.4179
G1 X-428.2749 Y-68.3675
G1 X-428.9608 Y-68.3156
G2 X-429.0413 Y-68.3091 I0.1259 J2.0651
G2 X-429.1211 Y-68.3026 I0.1189 J1.9462
G2 X-429.2003 Y-68.296 I0.1131 J1.8453
G2 X-429.2788 Y-68.2894 I0.1084 J1.7585
G1 X-429.9018 Y-68.2332
G1 X-430.4855 Y-68.1734
G2 X-432.6649 Y-67.8634 I3.1318 J29.8345
G1 X-433.0713 Y-67.7857
G1 X-433.451 Y-67.7059
G1 X-433.8056 Y-67.6246
G1 X-433.9713 Y-67.5842
G2 X-435.2407 Y-67.2155 I3.8326 J15.5645
G1 X-435.4751 Y-67.1343
G2 X-437.1762 Y-66.3848 I4.0533 J11.5043
G2 X-438.7248 Y-65.3566 I4.6108 J8.6252
G3 X-437.5546 Y-64.72 I-8.0081 J16.115
G3 X-436.7186 Y-64.1724 I-6.348 J10.6026
G3 X-435.5722 Y-63.2083 I-6.1292 J8.4518
G1 X-435.438 Y-63.0777
G1 X-435.2066 Y-62.8455
G1 X-435.0355 Y-62.6692
G3 X-434.908 Y-62.536 I-4.6489 J4.5749
G1 X-434.5288 Y-62.1336
G3 X-428.4945 Y-63.6603 I7.8826 J18.4665
G3 X-425.7945 Y-63.7442 I2.0287 J21.7978
G3 X-423.2793 Y-63.5283 I-0.681 J22.6849
G3 X-422.9871 Y-63.4855 I-8.4445 J58.6661
G3 X-420.6907 Y-63.0234 I-3.7699 J24.6751
G1 X-420.425 Y-62.9557
G1 X-420.1622 Y-62.8858
G3 X-416.1002 Y-61.4359 I-7.4732 J27.3528
G3 X-412.7533 Y-59.704 I-12.7811 J28.7987
G1 X-412.5764 Y-59.5982
G1 X-412.4016 Y-59.4922
G1 X-412.2287 Y-59.386
G3 X-409.5737 Y-57.5673 I-18.8276 J30.3338
G3 X-407.3921 Y-55.7878 I-22.7835 J30.1586
G3 X-403.9099 Y-52.3071 I-25.9916 J29.485
G3 X-399.5371 Y-46.3634 I-31.3969 J27.679
G3 X-396.2548 Y-39.7545 I-37.1466 J22.5684
G2 X-396.1397 Y-39.5265 I1.165 J-0.4447
G2 X-396.0668 Y-39.437 I0.4502 J-0.2929
G2 X-395.9806 Y-39.3851 I0.1393 J-0.1339
G2 X-395.9049 Y-39.4026 I0.0205 J-0.0839
G2 X-395.867 Y-39.4522 I-0.0848 J-0.1041
G2 X-395.8359 Y-39.5552 I-0.3483 J-0.1614
G2 X-395.8405 Y-39.8761 I-1.1281 J-0.1441
G2 X-396.0404 Y-41.2179 I-43.9845 J5.8663
G1 X-396.09 Y-41.5106
G2 X-396.5607 Y-43.7624 I-32.1482 J5.544
G2 X-396.7812 Y-44.5968 I-30.7184 J7.6712
G2 X-397.7677 Y-47.4505 I-23.6845 J6.5906
G2 X-399.1054 Y-50.1573 I-21.4065 J8.8953
G2 X-399.5986 Y-51.0383 I-12.1264 J6.2096
G2 X-400.1101 Y-51.8335 I-14.1288 J8.526
G2 X-400.6237 Y-52.5554 I-17.8313 J12.1436
G1 X-400.8739 Y-52.8868
G2 X-401.888 Y-54.1354 I-24.525 J18.8839
G1 X-402.0026 Y-54.269
G1 X-402.1159 Y-54.4
G1 X-402.3405 Y-54.6566
G1 X-402.5599 Y-54.9036
G1 X-402.9896 Y-55.3781
G1 X-403.397 Y-55.8191
G1 X-403.7821 Y-56.2296
G1 X-404.5099 Y-56.9944
G1 X-405.1496 Y-57.6614
G1 X-405.7087 Y-58.2463
G1 X-406.195 Y-58.7613
G1 X-406.6164 Y-59.2162
G1 X-406.7992 Y-59.417
G3 X-407.4705 Y-60.1826 I29.3757 J-26.4364
G1 X-407.5933 Y-60.3291
G1 X-407.8198 Y-60.6068
G3 X-408.202 Y-61.1043 I13.1725 J-10.515
G1 X-408.3394 Y-61.2954
G3 X-408.5697 Y-61.6371 I9.4597 J-6.6232
G3 X-408.8824 Y-62.1703 I5.5546 J-3.6163
G3 X-409.1357 Y-62.7342 I4.0636 J-2.1641
G3 X-405.2137 Y-60.8185 I-7.3246 J19.9688
G3 X-402.158 Y-58.5576 I-12.7065 J20.3678
G3 X-401.8469 Y-58.2831 I-18.1008 J20.8336
G3 X-399.5489 Y-55.964 I-18.8814 J21.0073
G3 X-397.7541 Y-53.7462 I-24.9533 J22.0293
G1 X-397.5694 Y-53.4949
G3 X-396.1891 Y-51.4639 I-31.4625 J22.8669
G3 X-394.0669 Y-47.7301 I-38.2383 J24.2038
G3 X-393.9758 Y-47.5505 I-8.6974 J4.5238
G3 X-393.2831 Y-46.1246 I-41.1603 J20.8784
G3 X-393.2099 Y-45.9674 I-3.2221 J1.5965
G3 X-393.1383 Y-45.8125 I-3.0686 J1.5118
G3 X-391.1116 Y-40.8345 I-56.6553 J25.9672
G3 X-390.669 Y-39.5656 I-63.9918 J23.0356
G1 X-390.509 Y-39.0877
G3 X-389.478 Y-35.7142 I-71.627 J23.7363
G1 X-388.4024 Y-36.6493
G1 X-388.5134 Y-37.1668
G1 X-388.6257 Y-37.6756
G1 X-388.7393 Y-38.1758
G2 X-389.2172 Y-40.1389 I-78.3341 J18.0291
G1 X-389.3366 Y-40.5975
G2 X-390.3842 Y-44.1798 I-65.2336 J17.1312
G2 X-390.908 Y-45.7287 I-54.9309 J17.7151
G1 X-391.0371 Y-46.0898
G1 X-391.1665 Y-46.4444
G1 X-391.2962 Y-46.7925
G2 X-392.4031 Y-49.5013 I-46.8645 J17.5698
G2 X-393.5052 Y-51.8142 I-41.341 J18.2796
G2 X-395.7642 Y-55.6873 I-35.7564 J18.26
G1 X-395.881 Y-55.8623
G2 X-397.852 Y-58.524 I-29.6979 J19.9306
G2 X-405.1715 Y-65.197 I-26.2361 J21.4272
G1 X-405.5784 Y-65.4744
G3 X-407.1202 Y-66.5929 I20.6627 J-30.1057
G3 X-407.142 Y-66.6097 I0.1083 J-0.1631
G3 X-408.4943 Y-67.7416 I12.1402 J-15.8774
G1 X-408.6525 Y-67.8903
G3 X-408.9567 Y-68.1918 I7.8565 J-8.2321
G3 X-409.0995 Y-68.3422 I2.7408 J-2.7472
G3 X-409.6218 Y-68.9684 I4.7338 J-4.4791
G3 X-409.8331 Y-69.2833 I4.0347 J-2.9347
G3 X-410.0049 Y-69.6023 I2.9562 J-1.7986
G3 X-410.1278 Y-69.9226 I2.2569 J-1.0492
G3 X-410.1911 Y-70.2386 I1.5239 J-0.4698
G3 X-410.1103 Y-70.8318 I1.2313 J-0.1343
G3 X-409.8168 Y-71.272 I1.287 J0.54
G3 X-409.4412 Y-71.5775 I1.4851 J1.4424
G3 X-409.0482 Y-71.7968 I1.8708 J2.8905
G3 X-408.263 Y-72.097 I2.4696 J5.2832
G3 X-407.5529 Y-72.2834 I2.6658 J8.7082
G1 X-407.396 Y-72.3175
G1 X-407.2437 Y-72.3485
G3 X-406.054 Y-72.5375 I3.1721 J16.134
G3 X-404.255 Y-72.7015 I3.4921 J28.3482
G1 X-404.0296 Y-72.7149
G1 X-403.8323 Y-72.7255
G1 X-403.4869 Y-72.7419
G1 X-402.9686 Y-72.7615
G1 X-402.4501 Y-72.7758
G1 X-339.8397 Y-71.2973
G3 X-339.7796 Y-71.3128 I0.2617 J0.8892
G3 X-339.7197 Y-71.3283 I0.2615 J0.8891
G1 X-338.7627 Y-71.5741
G1 X-337.835 Y-71.81
G1 X-336.9356 Y-72.0363
G1 X-336.4997 Y-72.145
G1 X-336.0705 Y-72.2514
G1 X-335.225 Y-72.4591
G1 X-334.8152 Y-72.5587
G1 X-334.4117 Y-72.6562
G3 X-333.6169 Y-72.8461 I21.8682 J89.7534
G1 X-332.8462 Y-73.0275
G3 X-332.7528 Y-73.0494 I0.351 J1.2926
G3 X-326.7796 Y-74.344 I41.6983 J177.9657
G3 X-322.2687 Y-75.1626 I27.3527 J137.8777
G3 X-315.4531 Y-76.0762 I18.7341 J113.8829
G3 X-308.5934 Y-76.5575 I10.8557 J105.589
G1 X-308.2986 Y-76.5687
G1 X-307.1207 Y-76.6092
G1 X-305.9471 Y-76.6444
G1 X-304.7782 Y-76.6753
G1 X-304.1959 Y-76.6894
G1 X-303.0336 Y-76.7153
G1 X-301.8758 Y-76.7385
G1 X-299.5692 Y-76.7784
G1 X-297.2805 Y-76.8113
G1 X-296.1451 Y-76.8255
G1 X-295.0141 Y-76.8385
G1 X-292.7609 Y-76.8612
G1 X-291.6431 Y-76.8711
G3 X-290.5296 Y-76.8801 I2.5272 J243.7035
G1 X-289.975 Y-76.8843
G1 X-287.7612 Y-76.8992
G1 X-287.4866 Y-76.9009
G1 X-285.2922 Y-76.9129
G1 X-283.1149 Y-76.9226
G1 X-282.0347 Y-76.9266
G3 X-273.4273 Y-76.9443 I10.6399 J3094.3108
G1 X-269.2581 Y-76.9449
G1 X-265.154 Y-76.9416
G1 X-263.134 Y-76.9386
G1 X-259.1255 Y-76.9303
G1 X-255.1798 Y-76.9193
G1 X-254.937 Y-76.9185
G1 X-251.0567 Y-76.9052
G1 X-243.4175 Y-76.8727
G1 X-236.017 Y-76.8344
G1 X-232.4323 Y-76.8137
G1 X-225.3751 Y-76.7694
G1 X-218.5385 Y-76.7222
G1 X-215.227 Y-76.698
G1 X-208.7076 Y-76.648
G1 X-202.3919 Y-76.5967
G1 X-199.3326 Y-76.571
G1 X-196.3213 Y-76.5451
G1 X-184.4641 Y-76.4381
G1 X-178.906 Y-76.3855
G1 X-173.5217 Y-76.333
G1 X-172.2177 Y-76.3201
G1 X-161.8671 Y-76.215
G1 X-157.0152 Y-76.1642
G1 X-147.6149 Y-76.0632
G1 X-145.4116 Y-76.039
G1 X-136.7366 Y-75.9422
G1 X-120.4707 Y-75.754
G1 X-113.3545 Y-75.6691
G1 X-100.0115 Y-75.5059
G1 X-88.3366 Y-75.3592
G1 X-85.7827 Y-75.3266
G1 X-84.5456 Y-75.3108
G1 X-82.1101 Y-75.2795
G1 X-77.3915 Y-75.2184
G1 X-72.9677 Y-75.1606
G1 X-56.3789 Y-74.9398
G1 X-53.2685 Y-74.8976
G1 X-41.6045 Y-74.7375
G1 X-24.1087 Y-74.491
G1 X-15.3609 Y-74.3645
G1 X-6.613 Y-74.2353
G2 X-6.2613 Y-74.46 I-24.1532 J-38.1839
G1 X-5.9332 Y-74.6733
G1 X-5.3215 Y-75.0787
G1 X-4.7892 Y-75.4378
G1 X-2.9336 Y-76.7057
G1 X-2.7011 Y-76.8635
G3 X-2.2932 Y-77.1379 I13.9857 J20.3455
G1 X-2.1398 Y-77.2402
G1 X-1.6005 Y-77.5945
G3 X-1.4649 Y-77.682 I6.2804 J9.5815
G1 X-1.363 Y-77.7472
G1 X-1.2865 Y-77.796
G1 X-1.0563 Y-77.9411
G3 X-0.0369 Y-78.4909 I4.5683 J7.2505
G3 X0.9856 Y-78.8574 I2.6619 J5.8165
G1 X1.106 Y-78.8873
G3 X2.0767 Y-79.0128 I1.0403 J4.2306
G3 X2.9452 Y-78.9082 I0.0671 J3.1002
G3 X3.6413 Y-78.5879 I-0.5645 J2.1431
G3 X4.1053 Y-78.1182 I-1.0127 J1.4647
G3 X4.3384 Y-77.6014 I-1.4097 J0.9468
G3 X4.4005 Y-77.1158 I-1.8472 J0.4828
G3 X4.3594 Y-76.6926 I-2.319 J-0.0113
G3 X4.1228 Y-75.9916 I-2.7648 J-0.5431
G3 X3.5079 Y-75.073 I-3.7617 J-1.8526
G3 X2.7103 Y-74.3075 I-4.7609 J-4.1623
G2 X-2.4067 Y-69.7725 I50.7697 J62.4399
G2 X-2.5411 Y-69.6427 I4.1895 J4.474
G2 X-6.677 Y-65.357 I61.9922 J63.9638
G2 X-6.786 Y-65.2361 I5.4762 J5.0435
G2 X-6.8944 Y-65.1154 I5.5053 J5.0514
G2 X-7.0021 Y-64.9949 I5.5336 J5.0588
G2 X-7.1092 Y-64.8748 I5.5611 J5.0653
G2 X-10.4137 Y-60.9527 I70.1465 J62.4548
G2 X-10.5884 Y-60.7333 I8.2854 J6.7751
G2 X-13.2797 Y-57.1872 I84.5881 J66.9909
G2 X-13.4225 Y-56.99 I7.2553 J5.4047
G2 X-17.7288 Y-50.5737 I93.7151 J67.5497
G2 X-17.8246 Y-50.4199 I4.799 J3.0965
G2 X-17.9194 Y-50.2672 I4.7498 J3.0552
G2 X-18.0132 Y-50.1155 I4.7015 J3.0147
G2 X-18.1061 Y-49.9649 I4.6539 J2.975
G2 X-18.1981 Y-49.8154 I4.6071 J2.9361
G2 X-21.0086 Y-45.0035 I108.7335 J66.735
G2 X-24.8499 Y-37.5807 I125.193 J69.4923
G2 X-24.9065 Y-37.463 I2.5909 J1.3198
G2 X-25.1286 Y-36.9992 I27.08 J13.2526
G2 X-25.3355 Y-36.5637 I257.8944 J122.7465
G2 X-26.0991 Y-34.9251 I171.2925 J80.8277
G1 X-26.3808 Y-34.3083
G1 X-26.6251 Y-33.7677
G2 X-28.2813 Y-29.9599 I148.3372 J66.7854
G2 X-28.096 Y-29.7946 I7.2316 J-7.9225
G2 X-27.7306 Y-29.4697 I18.6486 J-20.6061
G1 X-27.021 Y-28.8421
G1 X-25.6864 Y-27.67
G1 X-23.3467 Y-25.6234
G3 X-22.4713 Y-24.8535 I-118.3888 J135.5025
G1 X-21.7076 Y-24.1772
G1 X-21.0419 Y-23.5827
G1 X-20.4618 Y-23.0598
G1 X-19.9563 Y-22.5999
G3 X-18.2071 Y-20.9688 I-68.8871 J75.6251
G3 X-18.153 Y-20.9172 I-0.9737 J1.0745
G3 X-18.1006 Y-20.8671 I-0.9636 J1.0606
G3 X-18.0499 Y-20.8186 I-0.9535 J1.0469
G3 X-18.0009 Y-20.7715 I-0.9435 J1.0333
G3 X-17.9533 Y-20.7259 I-0.9335 J1.0199
G3 X-17.9073 Y-20.6817 I-0.9234 J1.0066
G3 X-17.8183 Y-20.596 I-1.2813 J1.4191
G3 X-16.4989 Y-19.2949 I-58.6799 J60.8261
G3 X-16.3924 Y-19.1755 I-0.7107 J0.7412
G3 X-16.351 Y-19.1115 I-0.2307 J0.1946
G3 X-16.3374 Y-19.0476 I-0.0863 J0.0518
G3 X-16.3713 Y-19.0157 I-0.0438 J-0.0126
G3 X-16.4476 Y-19.0105 I-0.0505 J-0.1797
G3 X-16.5602 Y-19.0305 I0.0676 J-0.7076
G1 X-16.6154 Y-19.0456
G3 X-16.6699 Y-19.063 I0.0779 J-0.3373
G1 X-28.2813 Y-27.9531
G2 X-28.9155 Y-27.0641 I4.0301 J3.5452
G2 X-29.0145 Y-26.8797 I2.2385 J1.3207
G2 X-29.2989 Y-26.1474 I3.1465 J1.6437
G2 X-29.3853 Y-25.5588 I2.4337 J0.6579
G2 X-29.2063 Y-24.6877 I1.9121 J0.0609
G2 X-28.9702 Y-24.3082 I1.9098 J-0.9245
G2 X-28.6614 Y-23.985 I1.7944 J-1.4059
G2 X-25.2106 Y-21.4022 I49.1954 J-62.1319
G2 X-22.5423 Y-19.5772 I55.5225 J-78.3141
G2 X-18.4403 Y-16.9922 I61.4935 J-93.0332
G1 X-17.9202 Y-16.681
G2 X-17.8632 Y-16.6471 I0.4045 J-0.6153
G2 X-17.807 Y-16.6137 I0.3987 J-0.6073
G2 X-17.7517 Y-16.5809 I0.3931 J-0.5996
G2 X-17.6973 Y-16.5487 I0.3875 J-0.5919
G2 X-17.4829 Y-16.422 I3.9658 J-6.4676
G2 X-14.2374 Y-14.5743 I59.2834 J-100.3543
G3 X-14.1747 Y-14.7892 I8.5954 J2.3936
G3 X-13.1085 Y-18.195 I93.8407 J27.5063
G1 X-12.9757 Y-18.5917
G3 X-10.6586 Y-24.8141 I103.1758 J34.8776
G3 X-5.7082 Y-35.3285 I102.2079 J41.6991
G3 X-3.5621 Y-39.1285 I92.0894 J49.5025
G3 X-1.5518 Y-42.3767 I81.249 J48.0391
G3 X2.2756 Y-47.8584 I75.8413 J48.876
G1 X2.6555 Y-48.3575
G3 X5.7272 Y-52.1238 I61.9434 J47.3831
G3 X8.1858 Y-54.8163 I54.8911 J47.654
G3 X12.1374 Y-58.5965 I45.8055 J43.9267
G3 X14.2376 Y-60.3487 I35.3309 J40.2132
G1 X14.5061 Y-60.5604
G3 X14.9793 Y-60.9268 I20.8748 J26.4718
G3 X15.0685 Y-60.9949 I1.066 J1.3036
G3 X16.4235 Y-61.9929 I27.4757 J35.8871
G3 X38.5462 Y-71.0161 I30.1972 J42.4045
G3 X50.5557 Y-71.534 I8.2901 J52.7365
G3 X62.3827 Y-69.3855 I-3.8504 J54.82
G3 X62.8001 Y-69.2192 I-2.4855 J6.8506
G3 X63.5868 Y-68.8285 I-2.9352 J6.8961
G3 X64.2702 Y-68.3606 I-2.6338 J4.58
G3 X64.8146 Y-67.8168 I-2.3094 J2.8564
G3 X65.1834 Y-67.2144 I-2.186 J1.7524
G3 X65.3481 Y-65.9502 I-2.0544 J0.9106
G3 X65.2078 Y-65.4297 I-2.4785 J-0.3892
G3 X64.7041 Y-64.5676 I-3.001 J-1.1749
G3 X64.094 Y-63.9507 I-3.2379 J-2.5925
G3 X62.8022 Y-63.1661 I-3.4228 J-4.1795
G3 X58.3691 Y-63.0572 I-2.3513 J-5.4327
G2 X56.0425 Y-63.8326 I-10.805 J28.5427
G2 X53.8135 Y-64.3854 I-8.3946 J29.0768
G2 X49.5554 Y-64.9817 I-6.7068 J32.3909
G2 X45.798 Y-65.0589 I-2.6084 J35.486
G2 X42.5206 Y-64.813 I1.2508 J38.6266
G1 X42.1638 Y-64.7693
G2 X36.6132 Y-63.6777 I5.3445 J41.8313
G2 X28.6563 Y-60.7526 I12.0341 J45.0207
G2 X28.1781 Y-60.5228 I19.9557 J42.1327
G2 X24.6784 Y-58.6313 I20.7196 J42.5199
G2 X21.3532 Y-56.4477 I22.8987 J38.4939
G2 X12.9011 Y-48.9192 I47.2004 J61.5
G2 X6.4891 Y-41.3895 I55.101 J53.4162
G2 X1.7045 Y-34.191 I63.598 J47.4612
G2 X-0.1396 Y-30.8919 I69.995 J41.2898
G2 X-0.2429 Y-30.6961 I6.875 J3.7536
G2 X-0.3454 Y-30.5007 I7.012 J3.8016
G2 X-3.3427 Y-24.1448 I76.6072 J40.0115
G2 X-5.5466 Y-18.4071 I86.3319 J36.453
G2 X-6.3915 Y-15.8546 I94.4656 J32.6824
G1 X-6.5792 Y-15.2531
G2 X-7.9239 Y-10.4774 I95.235 J29.3939
G2 X-9.7289 Y-1.9873 I106.1516 J27.0048
G2 X-10.2346 Y1.2283 I117.6962 J20.1567
G1 X-10.3333 Y1.9335
G1 X-10.4248 Y2.6172
G2 X-10.7425 Y5.2712 I109.115 J14.4071
G1 X-10.8043 Y5.8527
G1 X-10.8615 Y6.4162
G2 X-11.2187 Y10.7914 I125.3369 J12.4363
G1 X-11.269 Y11.6129
G1 X-11.3115 Y12.3834
G2 X-11.4887 Y18.1676 I138.9638 J7.151
G2 X-11.4916 Y18.5293 I15.6205 J0.3082
G2 X-11.4935 Y18.8684 I14.473 J0.2512
G2 X-11.4946 Y19.1864 I13.4864 J0.2033
G2 X-11.4949 Y19.4845 I12.6239 J0.1628
G2 X-11.4249 Y23.9544 I139.659 J0.0468
G1 X-7.548 Y25.9611
G1 X-7.5738 Y25.578
G1 X-7.5956 Y25.1977
G3 X-7.6725 Y22.1751 I61.8577 J-3.0851
G1 X-7.6717 Y21.4663
G3 X-7.4971 Y15.8879 I116.117 J0.8424
G3 X-6.664 Y6.149 I159.0077 J8.6967
G1 X-6.6373 Y5.9208
G1 X-6.5281 Y5.0158
G3 X-5.4947 Y-1.974 I141.7194 J17.3802
G1 X-5.4373 Y-2.3011
G3 X-4.4059 Y-7.4287 I102.9016 J18.0305
G3 X-3.4384 Y-11.2399 I74.5608 J16.9005
G3 X-3.0189 Y-12.6571 I47.638 J13.3305
G3 X-2.1885 Y-15.1087 I44.2818 J13.6323
G3 X-1.4623 Y-16.9126 I29.9409 J11.0053
G3 X-0.8403 Y-18.2338 I22.4049 J9.741
G1 X-0.7146 Y-18.4775
G3 X-0.4702 Y-18.9297 I21.3283 J11.2337
G3 X-0.0118 Y-19.704 I15.335 J8.5552
G3 X0.079 Y-19.8463 I4.1455 J2.5449
G1 X0.2538 Y-20.1102
G3 X0.9178 Y-20.9965 I9.1086 J6.1319
G3 X1.6803 Y-21.7996 I6.1866 J5.1107
G1 X1.5955 Y-21.5407
G1 X1.5115 Y-21.2827
G2 X-0.8841 Y-12.9752 I129.6718 J41.8928
G1 X-0.9999 Y-12.5168
G2 X-2.6362 Y-5.1922 I141.775 J35.5173
G2 X-3.2357 Y-1.9638 I146.3374 J28.8429
G1 X-3.3014 Y-1.5846
G1 X-3.3657 Y-1.2082
G1 X-3.4285 Y-0.8347
G2 X-4.9584 Y11.0918 I157.4569 J26.2589
G2 X-5.5971 Y29.1121 I163.6454 J14.8215
G1 X-5.571 Y30.2394
G2 X-5.4023 Y34.4645 I168.8688 J-4.6251
G1 X-5.3581 Y35.2562
G1 X-5.3131 Y35.9981
G2 X-4.8615 Y41.5543 I147.3177 J-9.1774
G1 X-4.7907 Y42.2476
G2 X-4.2033 Y47.0898 I140.8438 J-14.6292
G1 X-7.548 Y41.343
G1 X-7.6713 Y41.3884
G2 X-7.7289 Y41.41 I0.4149 J1.1927
G2 X-8.6051 Y41.7868 I3.3458 J8.9879
G2 X-9.418 Y42.2856 I2.1194 J4.3659
G2 X-2.9191 Y63.3801 I79.3011 J-12.8833
G2 X-0.3936 Y68.3088 I69.7757 J-32.6417
G2 X4.0585 Y75.3198 I64.4759 J-36.024
G1 X4.363 Y75.7405
G1 X4.6513 Y76.1329
G2 X9.2971 Y81.7643 I54.8209 J-40.4939
G2 X11.6377 Y84.1058 I32.1038 J-29.7506
G2 X12.2098 Y84.6294 I25.7412 J-27.5538
G2 X14.5336 Y86.6096 I36.4 J-40.3639
G2 X19.1372 Y90.0089 I43.1048 J-53.5575
G2 X27.7705 Y95.0812 I44.5609 J-65.9624
G2 X34.6312 Y98.1589 I35.6725 J-70.3327
G2 X39.9628 Y100.0126 I25.7933 J-65.5929
G1 X40.4702 Y100.1643
G2 X41.4567 Y100.4465 I19.4248 J-66.0289
G2 X43.3182 Y100.9332 I18.2504 J-66.0055
G1 X43.7274 Y101.032
G1 X44.1245 Y101.125
G1 X44.5098 Y101.2125
G1 X44.8837 Y101.2949
G1 X45.2463 Y101.3724
G2 X48.0721 Y101.8918 I11.6685 J-55.5295
G2 X52.354 Y102.3771 I7.6897 J-48.7128
G2 X56.6626 Y102.4559 I2.9269 J-42.2518
G3 X56.7687 Y102.5409 I-0.6592 J0.9311
G3 X56.955 Y102.715 I-2.3145 J2.6637
G1 X56.9746 Y102.7349
G1 X57.0502 Y102.8144
G3 X57.3198 Y103.125 I-4.4182 J4.1072
G1 X57.5132 Y103.3652
G1 X57.8013 Y103.7275
G2 X58.1068 Y104.075 I3.7376 J-2.9776
G1 X58.0289 Y104.1363
G1 X57.9513 Y104.1955
G3 X57.3224 Y104.6373 I-10.4554 J-14.2168
G1 X57.2522 Y104.6845
G1 X56.9757 Y104.8701
G1 X56.7164 Y105.0456
G1 X56.4745 Y105.213
G1 X56.2496 Y105.3737
G2 X55.4409 Y106.0244 I5.3061 J7.4214
G2 X54.8969 Y106.5894 I3.485 J3.9001
G2 X54.5536 Y107.07 I2.8003 J2.3629
G2 X54.2057 Y107.8841 I2.6545 J1.6157
G2 X54.1197 Y108.7651 I2.7201 J0.7103
G2 X57.6857 Y111.0056 I5.1578 J-4.2512
G2 X59.8141 Y111.1742 I1.5748 J-6.3621
G2 X61.881 Y110.6389 I-0.5299 J-6.3045
G2 X61.6788 Y110.4454 I-3.8656 J3.838
G1 X61.5882 Y110.3615
G3 X61.2536 Y110.0397 I6.1707 J-6.7512
G3 X61.1341 Y109.9097 I1.3664 J-1.3761
G3 X60.9467 Y109.6622 I1.435 J-1.2815
G3 X60.7729 Y109.2294 I0.9463 J-0.6312
G3 X60.8168 Y108.7651 I0.9447 J-0.145
G3 X61.1389 Y108.7142 I0.8353 J4.2399
G1 X61.2174 Y108.7047
G3 X61.8424 Y108.6608 I0.9368 J8.8613
G3 X63.0179 Y108.6752 I0.3911 J16.0486
G1 X63.5333 Y108.7024
G1 X64.0172 Y108.7327
G1 X64.4715 Y108.7619
G1 X64.6849 Y108.7751
G1 X64.7884 Y108.7812
G1 X65.196 Y108.8034
G1 X65.3874 Y108.8122
G1 X65.7587 Y108.8257
G2 X66.1075 Y108.8328 I0.3756 J-9.8635
G1 X66.4349 Y108.8335
G2 X67.6617 Y108.765 I-0.0099 J-11.1988
G2 X68.5737 Y108.6089 I-0.8957 J-7.9751
G2 X69.2402 Y108.4103 I-1.4159 J-5.9691
G2 X70.1763 Y107.9509 I-1.6442 J-4.5338
G2 X70.9801 Y107.2867 I-2.2493 J-3.5399
G2 X70.77 Y107.0421 I-2.2999 J1.7631
G2 X69.868 Y106.2409 I-4.907 J4.6159
G2 X68.3014 Y105.3406 I-4.5948 J6.1821
G2 X66.5712 Y104.8199 I-3.1502 J7.3329
G1 X66.4638 Y104.8006
G2 X66.0398 Y104.73 I-3.1012 J17.3185
G1 X65.6405 Y104.6695
G1 X64.8887 Y104.5619
G1 X64.5581 Y104.5135
G1 X64.2479 Y104.4655
G3 X63.0905 Y104.2379 I2.1955 J-14.2227
G3 X62.2379 Y103.9734 I1.6423 J-6.7979
G3 X61.6294 Y103.6865 I1.7189 J-4.4352
G3 X60.8362 Y103.0634 I1.5787 J-2.8258
G3 X60.2885 Y102.2164 I2.2681 J-2.0675
G2 X61.3295 Y102.1357 I-9.8018 J-133.2338
G2 X61.3936 Y102.1303 I-0.0275 J-0.7087
G2 X61.4576 Y102.1249 I-0.028 J-0.7081
G2 X65.5369 Y101.6653 I-6.0875 J-72.3637
G2 X65.7755 Y101.6311 I-0.9416 J-7.4234
G2 X67.6715 Y101.3281 I-10.8209 J-73.7986
G2 X67.9007 Y101.2876 I-1.7568 J-10.5984
G2 X68.1288 Y101.2464 I-1.9607 J-11.5007
G2 X68.3558 Y101.2044 I-2.2434 J-12.7907
G2 X68.8076 Y101.1184 I-3.4624 J-19.4163
G2 X69.2553 Y101.0297 I-5.7426 J-30.1431
G2 X72.7808 Y100.1991 I-11.0904 J-54.9698
G2 X76.0267 Y99.1989 I-12.3303 J-45.785
G1 X76.2145 Y99.1332
G2 X79.1648 Y97.9726 I-14.3025 J-40.6854
G2 X80.5144 Y97.353 I-17.8173 J-40.5923
G2 X83.0563 Y96.0095 I-16.2307 J-33.7846
G2 X87.498 Y92.9739 I-17.7154 J-30.6884
G2 X90.952 Y89.7948 I-21.9573 J-27.3223
G2 X90.9961 Y89.7483 I-0.8737 J-0.8727
G2 X91.6888 Y88.9953 I-26.3257 J-24.9114
G2 X94.1686 Y85.9063 I-28.1475 J-25.1366
G2 X94.2318 Y85.8185 I-2.6324 J-1.9613
G2 X94.2945 Y85.7308 I-2.7109 J-2.0064
G2 X96.1743 Y82.8565 I-36.0075 J-25.6006
G1 X96.3662 Y82.5337
G2 X97.7895 Y79.9431 I-42.7379 J-25.168
G2 X98.9176 Y77.6169 I-49.2738 J-25.3312
G1 X99.035 Y77.3596
G1 X99.1494 Y77.1058
G2 X100.822 Y73.055 I-70.2696 J-31.3845
G1 X100.9677 Y72.6709
G1 X101.1072 Y72.2981
G1 X101.2409 Y71.9365
G1 X101.3692 Y71.5857
G1 X101.4922 Y71.2454
G2 X102.4104 Y68.5959 I-106.6557 J-38.447
G1 X102.4937 Y68.3465
G2 X103.7381 Y64.4667 I-205.5331 J-68.063
G1 X103.8891 Y63.9802
G1 X104.0207 Y63.5544
G1 X104.4779 Y62.0631
G1 X104.9325 Y60.5712
G1 X105.0879 Y60.055
G2 X106.2001 Y55.9242 I-80.7238 J-23.9501
G2 X106.4302 Y54.9487 I-90.6771 J-21.9028
G2 X107.2272 Y51.0845 I-89.1178 J-20.3963
G2 X107.8218 Y47.435 I-93.1872 J-17.0546
G2 X108.0515 Y45.7174 I-123.4285 J-17.3843
G2 X108.1519 Y44.8841 I-49.4581 J-6.3789
G2 X108.4794 Y41.596 I-107.9672 J-12.4151
G1 X108.5109 Y41.2101
G1 X108.5407 Y40.8271
G2 X108.7283 Y37.7838 I-105.1229 J-8.0073
G1 X108.7447 Y37.4269
G2 X108.8341 Y34.5924 I-106.6543 J-4.7859
G1 X108.8449 Y33.9279
G1 X108.8517 Y33.2738
G2 X108.7798 Y28.1229 I-118.8158 J-0.9165
G2 X108.5416 Y23.6219 I-133.9411 J4.8305
G2 X107.7587 Y15.7745 I-136.5681 J9.6626
G2 X107.7111 Y15.4079 I-16.3991 J1.9416
G2 X106.8398 Y9.6511 I-144.9527 J18.9947
G2 X106.0409 Y5.358 I-147.223 J25.1744
G2 X104.6204 Y-1.0361 I-156.2656 J31.3606
G2 X104.5962 Y-1.1355 I-2.7336 J0.614
G2 X104.5723 Y-1.2334 I-2.7032 J0.6091
G2 X102.9447 Y-7.368 I-158.4453 J38.7533
G2 X97.7816 Y-22.0048 I-124.4274 J35.6628
G1 X97.4947 Y-22.6788
G2 X95.0904 Y-27.9225 I-106.537 J45.6747
G1 X94.8106 Y-28.4897
G1 X94.6716 Y-28.7684
G2 X92.3526 Y-33.1334 I-88.0698 J43.9905
G2 X90.1319 Y-36.8545 I-78.2198 J44.1568
G2 X88.0254 Y-40.0146 I-64.268 J40.56
G2 X86.0435 Y-42.6877 I-52.3575 J36.7459
G1 X85.8183 Y-42.9742
G1 X85.5949 Y-43.2548
G2 X83.7764 Y-45.4167 I-47.0235 J37.7098
G2 X82.0934 Y-47.2299 I-39.1265 J34.6276
G2 X78.9268 Y-50.1842 I-31.7276 J30.8341
G2 X78.849 Y-50.2496 I-0.9784 J1.085
G2 X78.7716 Y-50.3143 I-0.9719 J1.0836
G2 X76.2297 Y-52.2596 I-23.9932 J28.7183
G2 X74.2125 Y-53.563 I-19.5245 J28.0041
G2 X72.638 Y-54.439 I-16.6784 J28.1232
G2 X72.5629 Y-54.4778 I-0.8421 J1.5393
G2 X71.3663 Y-55.0591 I-15.0677 J29.4946
G2 X67.6278 Y-56.4477 I-11.1552 J24.3068
G2 X66.8477 Y-55.2733 I17.8256 J12.6866
G2 X66.4939 Y-54.6635 I12.3617 J7.5814
G1 X66.4516 Y-54.5861
G1 X66.3072 Y-54.3134
G1 X66.1683 Y-54.038
G3 X68.4269 Y-52.6866 I-19.9687 J35.938
G1 X68.6858 Y-52.5192
G3 X70.7029 Y-51.1338 I-29.5187 J45.1358
G1 X70.935 Y-50.9654
G3 X74.5101 Y-48.149 I-37.6552 J51.4767
G3 X77.4827 Y-45.4969 I-50.4825 J59.5769
G3 X79.9719 Y-43.0543 I-56.0881 J59.6483
G3 X84.073 Y-38.5314 I-58.2556 J56.9434
G3 X86.9142 Y-34.9331 I-54.7687 J46.1663
G3 X87.9188 Y-33.5356 I-50.9739 J37.6991
G3 X89.5795 Y-31.022 I-47.8589 J33.4272
G3 X90.7277 Y-29.0745 I-38.0665 J23.754
G1 X90.9319 Y-28.7028
G3 X92.3235 Y-25.8436 I-29.5677 J16.1587
G3 X92.9018 Y-24.3614 I-22.3097 J9.5581
G1 X92.9346 Y-24.2674
G1 X93.0539 Y-23.914
G1 X93.0969 Y-23.7809
G1 X93.17 Y-23.5473
G1 X93.1966 Y-23.4594
G3 X93.2422 Y-23.3054 I-5.5338 J1.7209
G3 X93.3705 Y-22.8409 I-10.9495 J3.2762
G3 X93.6348 Y-21.5585 I-10.9458 J2.9239
G3 X93.6373 Y-21.54 I-0.0909 J0.0219
G3 X93.6398 Y-21.5215 I-0.0905 J0.0216
G3 X93.6728 Y-21.2276 I-7.896 J1.0353
G3 X93.6924 Y-20.6614 I-4.7639 J0.4484
G3 X93.6271 Y-20.1363 I-2.55 J-0.0509
G3 X93.5948 Y-20.0234 I-1.2005 J-0.2822
G3 X93.5051 Y-19.8164 I-1.1279 J-0.3654
G3 X93.3819 Y-19.6508 I-0.6385 J-0.3467
G3 X93.0537 Y-19.4826 I-0.4148 J-0.405
G3 X92.7466 Y-19.4981 I-0.1133 J-0.8039
G3 X92.4952 Y-19.5837 I0.2967 J-1.2847
G3 X92.0951 Y-19.816 I0.9786 J-2.1458
G3 X91.5665 Y-20.2636 I2.517 J-3.5083
G3 X91.0977 Y-20.7734 I4.9521 J-5.0242
G2 X83.639 Y-28.3805 I-52.9479 J44.4549
G2 X70.5249 Y-37.4892 I-47.2489 J54.0313
G1 X70.0836 Y-37.7253
G1 X69.8691 Y-37.8385
G2 X66.441 Y-39.5195 I-30.7398 J58.3528
G1 X65.7876 Y-39.8125
G1 X65.172 Y-40.0806
G1 X65.0273 Y-40.1424
G2 X60.3912 Y-41.8923 I-22.722 J53.185
G2 X59.801 Y-42.0814 I-8.0414 J24.0727
G2 X59.6716 Y-42.1218 I-1.6391 J5.0214
G2 X57.6518 Y-42.7007 I-14.1764 J45.6554
G1 X57.1427 Y-42.8304
G1 X56.7598 Y-42.9235
G2 X55.6059 Y-43.179 I-8.0518 J33.6223
G1 X57.0654 Y-45.3417
G2 X56.54 Y-45.5003 I-5.7086 J17.9563
G2 X56.4123 Y-45.5368 I-1.3818 J4.5913
G2 X56.2853 Y-45.5724 I-0.9497 J3.148
G2 X55.2714 Y-45.8309 I-7.58 J27.6089
G2 X53.3482 Y-46.2147 I-7.2501 J31.3161
G2 X49.9425 Y-46.6251 I-6.2862 J37.8381
G2 X44.8 Y-46.7338 I-3.5624 J46.8002
G1 X44.4786 Y-46.7222
G2 X42.0716 Y-46.5652 I1.69 J44.432
G2 X39.6768 Y-46.2766 I3.9982 J43.2668
G2 X38.1926 Y-45.9619 I1.7965 J12.1292
G1 X38.0098 Y-45.9113
G1 X37.6911 Y-45.8188
G1 X36.7388 Y-45.5279
G1 X36.6759 Y-45.5079
G3 X36.1677 Y-45.3814 I-1.2772 J-4.0503
G3 X35.6749 Y-45.3255 I-0.6447 J-3.4831
G3 X35.2095 Y-45.345 I-0.1221 J-2.6573
G3 X34.3898 Y-45.6194 I0.2501 J-2.1087
G3 X33.8462 Y-46.1197 I0.9097 J-1.534
G3 X33.5723 Y-46.6909 I1.577 J-1.1073
G3 X33.4895 Y-47.2327 I2.1746 J-0.6094
G3 X33.6439 Y-48.1696 I2.601 J-0.0525
G3 X33.9559 Y-48.8075 I3.0433 J1.093
G3 X34.6469 Y-49.6139 I3.2325 J2.0708
G3 X35.5149 Y-50.2258 I3.287 J3.7412
G1 X35.5842 Y-50.2638
G1 X35.6533 Y-50.3007
G3 X36.2135 Y-50.5707 I3.7736 J7.1158
G1 X36.2803 Y-50.5998
G3 X37.3632 Y-51.0027 I4.773 J11.1695
G3 X38.3338 Y-51.2859 I5.5052 J17.0648
G3 X39.1931 Y-51.4994 I8.0845 J30.7063
G1 X39.5709 Y-51.5863
G1 X40.992 Y-51.8992
G1 X41.2591 Y-51.9588
G1 X41.7593 Y-52.0748
G1 X42.1959 Y-52.183
G1 X42.3864 Y-52.2331
G1 X42.5646 Y-52.2819
G1 X42.7312 Y-52.3295
G1 X42.887 Y-52.376
G1 X43.0325 Y-52.4214
G2 X43.5722 Y-52.6109 I-3.6973 J-11.3942
G2 X44.349 Y-52.9768 I-1.9714 J-5.1932
G2 X44.7079 Y-53.2145 I-1.7807 J-3.0781
G2 X45.0283 Y-53.502 I-1.5375 J-2.036
G2 X44.0915 Y-54.3302 I-4.9948 J4.706
G2 X42.1427 Y-55.2921 I-3.6488 J4.937
G2 X42.0939 Y-55.306 I-0.1592 J0.4661
G2 X40.5041 Y-55.5533 I-1.8651 J6.7568
G2 X39.3 Y-55.5245 I-0.3834 J9.143
G2 X38.4043 Y-55.4121 I1.1191 J12.5467
G2 X38.3207 Y-55.3983 I0.1676 J1.2779
G1 X37.998 Y-55.3405
G1 X37.7166 Y-55.2845
G1 X37.4711 Y-55.2317
G2 X37.2569 Y-55.183 I1.7374 J8.1333
G2 X37.0699 Y-55.1386 I1.1243 J5.1502
G2 X36.9066 Y-55.0985 I1.1621 J5.0864
G2 X36.7639 Y-55.0625 I3.9218 J15.8686
G1 X36.5146 Y-54.9979
G2 X35.7695 Y-54.7942 I9.1487 J34.931
G3 X35.0463 Y-54.6695 I-0.9096 J-3.1159
G3 X34.3842 Y-54.7317 I-0.1328 J-2.1428
G3 X33.8574 Y-54.9835 I0.3635 J-1.4379
G3 X33.5394 Y-55.3664 I0.6588 J-0.8706
G3 X33.4332 Y-55.7747 I0.9225 J-0.458
G3 X33.4707 Y-56.1344 I1.1697 J-0.0597
G3 X33.7475 Y-56.6928 I1.5486 J0.4198
G3 X34.0632 Y-57.0346 I1.8846 J1.4241
G3 X34.6308 Y-57.4382 I2.1672 J2.4469
G3 X34.9401 Y-57.5987 I2.7382 J4.8981
G3 X35.0989 Y-57.6701 I0.9999 J2.0135
G1 X35.1794 Y-57.7038
G1 X35.2602 Y-57.7361
G3 X36.6452 Y-58.2372 I9.5534 J24.2362
G3 X39.3022 Y-58.9828 I9.3211 J28.1127
G3 X41.6724 Y-59.4366 I7.2194 J31.2851
G3 X43.7681 Y-59.691 I5.0526 J32.8707
G3 X44.6889 Y-59.7624 I2.9206 J31.683
G1 X45.121 Y-59.7878
G1 X45.5399 Y-59.8076
G1 X45.9459 Y-59.8222
G1 X46.3392 Y-59.8323
G1 X46.7203 Y-59.8381
G3 X49.6728 Y-59.7592 I0.4192 J39.5934
G3 X54.0729 Y-59.2545 I-2.749 J43.3915
G3 X58.4033 Y-58.3251 I-7.7532 J46.6802
G3 X59.782 Y-57.6705 I-5.3434 J13.0326
G3 X60.2834 Y-57.3752 I-5.7518 J10.3418
G3 X61.1087 Y-56.7695 I-3.6031 J5.7743
G3 X61.6527 Y-56.2172 I-2.9775 J3.4767
G3 X61.8294 Y-55.9839 I-2.2711 J1.9035
G3 X62.0859 Y-55.5406 I-2.6428 J1.8251
G3 X62.2839 Y-54.038 I-2.2219 J1.0571
G3 X61.8768 Y-53.892 I-0.823 J-1.6547
G3 X61.505 Y-53.8372 I-0.4982 J-2.0908
G3 X60.8504 Y-53.8599 I-0.2051 J-3.5356
G1 X60.7288 Y-53.8758
G3 X59.827 Y-54.0562 I1.5263 J-9.9758
G3 X59.3798 Y-54.1632 I18.5561 J-78.4835
G2 X58.9316 Y-54.2659 I-3.1504 J12.7171
G2 X58.7136 Y-54.3107 I-1.1621 J5.1133
G2 X58.279 Y-54.3747 I-1.0329 J5.504
G2 X57.4221 Y-54.3759 I-0.4339 J3.7587
G2 X57.0397 Y-54.2981 I0.2368 J2.1425
G2 X56.7058 Y-54.1612 I0.4571 J1.5902
G2 X56.4416 Y-53.9657 I0.5997 J1.0864
G2 X56.186 Y-53.4413 I0.6063 J0.6201
G2 X56.2487 Y-52.9654 I1.0736 J0.1006
G2 X56.4347 Y-52.5977 I1.5129 J-0.5342
G2 X56.9084 Y-52.0616 I2.276 J-1.5341
G2 X57.3306 Y-51.7319 I2.7203 J-3.0478
G2 X58.0225 Y-51.3251 I3.306 J-4.8307
G1 X58.2029 Y-51.2371
G2 X58.7568 Y-51.001 I3.2639 J-6.8884
G3 X58.786 Y-50.9897 I-0.089 J0.2744
G1 X59.018 Y-50.8984
G3 X59.9253 Y-50.523 I-26.5838 J65.5292
G3 X60.3485 Y-50.3421 I-8.0529 J19.4294
G3 X63.6034 Y-48.884 I-52.3153 J121.143
G1 X63.9067 Y-48.7431
G3 X64.4936 Y-48.4684 I-21.4596 J46.6066
G1 X65.0426 Y-48.2087
G3 X69.1242 Y-46.1856 I-58.5721 J123.2956
G1 X69.629 Y-45.9219
G3 X71.3826 Y-44.9742 I-38.9085 J74.0947
G3 X72.2498 Y-44.4831 I-25.4579 J45.9636
G1 X72.4654 Y-44.3581
G1 X72.7877 Y-44.1688
G1 X73.1085 Y-43.9772
G2 X72.5789 Y-45.4845 I-7.4655 J1.7765
G2 X71.8819 Y-46.6867 I-7.8602 J3.7536
G2 X71.8386 Y-46.7489 I-0.8041 J0.5145
G2 X71.0893 Y-47.6891 I-8.358 J5.8926
G2 X70.3572 Y-48.4423 I-10.3318 J9.3098
G2 X68.9595 Y-49.6337 I-12.6688 J13.4464
G1 X68.686 Y-49.8432
G2 X68.4273 Y-50.0367 I-5.7242 J7.3829
G1 X68.3053 Y-50.1266
G1 X68.068 Y-50.2994
G1 X67.9564 Y-50.3799
G1 X67.522 Y-50.6895
G1 X67.1407 Y-50.9591
G3 X67.0572 Y-51.0181 I1.5921 J-2.34
G1 X66.7343 Y-51.2476
G3 X66.453 Y-51.4505 I45.1884 J-62.9416
G3 X66.3917 Y-51.4953 I0.6069 J-0.8948
G3 X66.3324 Y-51.5389 I0.5857 J-0.8591
G3 X66.2751 Y-51.5813 I0.569 J-0.8295
G3 X66.0543 Y-51.7473 I3.8401 J-5.335
G1 X65.8634 Y-51.8956
G3 X65.2235 Y-52.4497 I5.0644 J-6.4948
G1 X65.1857 Y-52.487
G3 X64.9177 Y-52.7807 I3.1334 J-3.1289
G3 X64.6898 Y-53.1066 I2.0387 J-1.6677
G3 X64.2578 Y-54.6499 I3.8471 J-1.909
G3 X64.6578 Y-57.0041 I4.724 J-0.4084
G3 X66.1683 Y-58.8535 I4.1615 J1.8573
G1 X66.2123 Y-58.8393
G1 X66.2561 Y-58.8255
G1 X66.2996 Y-58.812
G2 X67.0018 Y-58.6424 I1.6033 J-5.1
G2 X67.1586 Y-58.6182 I0.4273 J-2.2458
G2 X67.7723 Y-58.5822 I0.5358 J-3.8902
G2 X68.8166 Y-58.8107 I-0.0451 J-2.7073
G2 X69.4851 Y-59.2416 I-1.1338 J-2.4929
G2 X69.9011 Y-59.6665 I-2.4964 J-2.8603
G2 X70.4229 Y-60.388 I-5.211 J-4.3181
G2 X70.6571 Y-60.7667 I-20.1045 J-12.6962
G1 X70.7714 Y-60.9578
G1 X70.8282 Y-61.0534
G3 X70.885 Y-61.1491 I1.5632 J0.8641
G3 X71.2394 Y-61.6564 I3.4239 J2.0142
G3 X72.1101 Y-62.4011 I2.5146 J2.0589
G3 X73.0256 Y-62.7635 I1.6893 J2.9295
G3 X73.8717 Y-62.8717 I0.9456 J4.0333
G3 X74.6143 Y-62.84 I0.143 J5.3657
G3 X75.8849 Y-62.5785 I-0.8572 J7.3834
G3 X76.8024 Y-62.2571 I-2.5987 J8.8876
G3 X76.8868 Y-62.2225 I-0.5347 J1.4255
G3 X79.3495 Y-60.8489 I-4.825 J11.5453
G3 X80.6143 Y-59.9046 I-32.2837 J44.561
G3 X82.9058 Y-58.0331 I-32.7505 J42.4369
G1 X83.394 Y-57.6083
G1 X83.8627 Y-57.1922
G3 X84.7595 Y-56.3732 I-59.7747 J66.358
G3 X87.9975 Y-53.1717 I-51.1195 J54.9393
G3 X88.0711 Y-53.0944 I-1.1638 J1.1833
G3 X90.3592 Y-50.5952 I-63.5656 J60.4921
G3 X92.0131 Y-48.6657 I-63.8822 J56.4314
G3 X92.6198 Y-47.9308 I-55.9686 J46.8186
G1 X93.1446 Y-47.2827
G1 X93.5991 Y-46.7118
G1 X93.9932 Y-46.2094
G1 X94.1645 Y-45.9888
G3 X96.6506 Y-42.6166 I-68.6684 J53.2257
G1 X104.6856 Y-51.6282
G3 X104.7348 Y-51.4268 I-0.6745 J0.2718
G1 X104.7386 Y-51.3772
G3 X104.7308 Y-51.1797 I-0.9771 J0.0605
G3 X104.6476 Y-50.8032 I-2.2697 J-0.304
G3 X104.3644 Y-50.1179 I-4.4075 J-1.4201
G3 X104.0305 Y-49.5106 I-9.1043 J-4.6108
G1 X104.0097 Y-49.4758
G1 X103.9888 Y-49.4411
G1 X103.8188 Y-49.1676
G3 X103.1134 Y-48.1388 I-16.7293 J-10.7146
G1 X102.9518 Y-47.919
G3 X101.6424 Y-46.2598 I-32.4075 J-24.2277
G3 X101.3883 Y-45.9556 I-138.8697 J-115.7625
G3 X99.424 Y-43.7253 I-53.066 J-44.7588
G3 X97.3804 Y-41.5675 I-72.2934 J-66.4179
G1 X99.3454 Y-39.0513
G1 X99.4137 Y-39.1332
G1 X99.9576 Y-39.7819
G1 X100.0854 Y-39.9336
G1 X100.5907 Y-40.5295
G1 X100.8288 Y-40.8079
G3 X102.7052 Y-42.9378 I70.4592 J60.1841
G3 X103.4275 Y-43.7203 I51.3869 J46.7051
G1 X103.7475 Y-44.0592
G3 X104.9714 Y-45.3064 I35.8356 J33.9426
G3 X105.0299 Y-45.3639 I0.6507 J0.6033
G3 X106.9285 Y-47.1116 I26.3088 J26.6762
G3 X107.929 Y-47.9271 I15.8628 J18.439
G3 X108.1855 Y-48.1228 I9.4412 J12.1073
G1 X108.2825 Y-48.1953
G3 X108.9728 Y-48.6863 I11.2639 J15.1052
G1 X99.8737 Y-38.1164
G1 X100.377 Y-37.3468
G1 X100.5655 Y-37.0578
G3 X100.7288 Y-36.8039 I-13.7356 J9.0155
G3 X101.2775 Y-35.9006 I-15.5085 J10.038
G3 X101.3099 Y-35.843 I-0.6755 J0.4185
G3 X101.3401 Y-35.7888 I-0.5842 J0.3605
G1 X101.3681 Y-35.7378
G1 X101.3941 Y-35.6899
G3 X101.4891 Y-35.5091 I-4.963 J2.723
G3 X101.4978 Y-35.492 I-0.0889 J0.056
G3 X101.6265 Y-35.2246 I-6.3804 J3.2345
G3 X101.6855 Y-35.0884 I-3.1325 J1.4403
G1 X101.7399 Y-34.9503
G1 X101.891 Y-35.1068
G1 X102.0394 Y-35.2613
G2 X102.6198 Y-35.8733 I-134.3399 J-128.0062
G1 X102.7552 Y-36.0175
G1 X103.2861 Y-36.5871
G1 X105.2666 Y-38.7336
G1 X105.6402 Y-39.135
G3 X107.062 Y-40.6217 I63.5052 J59.3104
G1 X107.1978 Y-40.7589
G1 X107.3299 Y-40.8914
G3 X108.3743 Y-41.8973 I28.2161 J28.2514
G1 X108.4745 Y-41.9893
G3 X109.2676 Y-42.6844 I19.214 J21.1216
G3 X110.5283 Y-43.6406 I9.9787 J11.8475
G3 X111.2016 Y-44.0576 I5.2887 J7.7879
G3 X111.2883 Y-44.1057 I0.5935 J0.9663
G3 X111.5958 Y-44.2656 I2.8845 J5.175
G3 X111.7524 Y-44.34 I1.1948 J2.3099
G3 X111.8314 Y-44.3758 I0.7409 J1.5323
G3 X111.9108 Y-44.4104 I0.6908 J1.4744
G1 X102.7053 Y-33.3387
G1 X104.0812 Y-30.9177
G1 X104.738 Y-31.6583
G1 X105.3509 Y-32.3554
G1 X105.9255 Y-33.0095
G1 X106.466 Y-33.6215
G1 X106.5931 Y-33.7647
G1 X107.0958 Y-34.3265
G1 X107.5709 Y-34.8498
G1 X108.0208 Y-35.3367
G1 X108.4472 Y-35.7892
G1 X108.8515 Y-36.2091
G3 X110.4167 Y-37.7354 I28.4495 J27.6087
G3 X110.4924 Y-37.8047 I1.0318 J1.0497
G3 X111.7137 Y-38.8617 I19.0493 J20.7778
G3 X113.6693 Y-40.292 I13.8669 J16.9081
G3 X115.7914 Y-41.461 I9.0628 J13.9409
G1 X114.4074 Y-39.9607
G1 X111.9846 Y-37.336
G1 X110.171 Y-35.3641
G1 X109.8315 Y-34.9939
G1 X109.6724 Y-34.8203
G1 X108.4414 Y-33.4733
G1 X107.9807 Y-32.9671
G1 X107.1765 Y-32.0798
G1 X106.5755 Y-31.4124
G1 X106.1264 Y-30.9103
G2 X105.4571 Y-30.1532 I46.2131 J41.5236
G1 X105.2911 Y-29.9627
G1 X105.0437 Y-29.6757
G1 X104.7996 Y-29.386
G2 X104.8667 Y-29.2436 I2.1352 J-0.9204
G1 X104.883 Y-29.2104
G1 X104.9486 Y-29.0808
G2 X105.0766 Y-28.8403 I11.3276 J-5.8769
G1 X105.134 Y-28.7358
G3 X105.5658 Y-27.9531 I-39.3813 J22.2343
G3 X105.6677 Y-27.7539 I-14.3206 J7.4496
G3 X105.9283 Y-27.1359 I-4.1132 J2.0987
G2 X105.9852 Y-27.1851 I-0.7172 J-0.8866
G2 X106.0419 Y-27.2342 I-0.7193 J-0.8879
G2 X106.0983 Y-27.2831 I-0.7213 J-0.8892
G2 X106.1545 Y-27.3319 I-0.7234 J-0.8906
G1 X107.0468 Y-28.1115
G1 X107.8793 Y-28.8471
G2 X107.928 Y-28.8903 I-0.8062 J-0.9572
G2 X107.9766 Y-28.9334 I-0.8091 J-0.9599
G1 X108.7481 Y-29.6209
G1 X111.6342 Y-32.2071
G1 X112.7204 Y-33.1729
G1 X113.1973 Y-33.5934
G1 X113.4213 Y-33.7901
G3 X115.1695 Y-35.3002 I86.0409 J97.84
G3 X116.4984 Y-36.4121 I73.6346 J86.6575
G1 X116.6239 Y-36.5153
G3 X117.6024 Y-37.3074 I41.5758 J50.3557
G1 X117.7871 Y-37.4545
G3 X119.185 Y-38.5407 I45.3869 J56.9692
G3 X119.3615 Y-38.6743 I4.69 J6.0091
G3 X120.6071 Y-39.5949 I48.5802 J64.4254
G2 X115.3715 Y-48.9467 I-88.753 J43.5467
G1 X115.1013 Y-49.3707
G2 X110.557 Y-55.8537 I-80.2138 J51.3914
G2 X106.7943 Y-60.4493 I-70.4407 J53.8365
G2 X105.3052 Y-62.1064 I-68.4901 J60.0483
G2 X103.9675 Y-63.5244 I-59.346 J54.6479
G1 X103.6705 Y-63.8305
G2 X98.8704 Y-68.3725 I-57.8231 J56.3017
G1 X98.5581 Y-68.6431
G1 X97.9688 Y-69.1459
G2 X93.705 Y-72.4945 I-47.8684 J56.5619
G3 X93.5546 Y-72.6045 I6.1982 J-8.634
G3 X93.4081 Y-72.7123 I2.6186 J-3.7137
G1 X93.124 Y-72.9232
G3 X92.0621 Y-73.7411 I26.1908 J-35.1002
G3 X91.547 Y-74.1627 I23.9172 J-29.7485
G1 X91.2718 Y-74.3981
G3 X91.0029 Y-74.6377 I7.1105 J-8.252
G3 X90.9869 Y-74.6523 I0.0693 J-0.0919
G3 X90.971 Y-74.6669 I0.069 J-0.0913
G3 X90.4798 Y-75.1449 I8.4403 J-9.1664
G3 X90.053 Y-75.6389 I3.8055 J-3.7189
G3 X89.8806 Y-75.8905 I2.7029 J-2.037
G3 X89.7504 Y-76.1428 I1.4435 J-0.9047
G3 X89.6789 Y-76.3933 I1.0067 J-0.4228
G3 X89.6871 Y-76.6275 I0.6275 J-0.0952
G3 X89.7757 Y-76.819 I0.5187 J0.1238
G3 X89.9126 Y-76.9585 I0.5355 J0.3884
G3 X90.2386 Y-77.1349 I0.7567 J1.0088
G3 X90.3196 Y-77.1641 I0.277 J0.6416
G3 X90.6463 Y-77.2517 I0.7947 J2.3125
G3 X91.2726 Y-77.3417 I1.0313 J4.9529
G3 X91.5483 Y-77.3622 I0.5133 J5.0212
G1 X91.6777 Y-77.3691
G3 X92.6816 Y-77.3788 I0.6438 J14.5984
G3 X94.1854 Y-77.3052 I-0.7762 J31.2386
G1 X94.2793 Y-77.2983
G3 X94.9826 Y-77.2405 I-4.5745 J59.9654
G1 X95.1583 Y-77.2245
G1 X95.6852 Y-77.1734
G1 X97.4093 Y-77.0036
G2 X98.1637 Y-76.9304 I7.3047 J-71.3712
G1 X98.871 Y-76.8626
G1 X99.2026 Y-76.8311
G1 X100.4877 Y-76.7111
G1 X101.05 Y-76.6598
G1 X101.5773 Y-76.6125
G2 X101.8246 Y-76.5907 I1.5308 J-15.8879
G1 X102.7826 Y-76.5078
G2 X106.1385 Y-76.2521 I15.0404 J-175.2709
G1 X106.9784 Y-76.2009
G1 X107.6087 Y-76.1675
G1 X107.8451 Y-76.1564
G1 X108.259 Y-76.1391
G1 X108.5694 Y-76.1281
G1 X109.0351 Y-76.1156
G1 X109.5011 Y-76.1091
G1 X110.6935 Y-76.0731
G1 X111.8768 Y-76.0401
G1 X113.0509 Y-76.01
G1 X113.6334 Y-75.996
G2 X122.9182 Y-75.8567 I13.2774 J-575.6464
G1 X124.0063 Y-75.8504
G1 X126.1656 Y-75.8438
G1 X128.2912 Y-75.8449
G2 X136.66 Y-75.9183 I-1.5205 J-650.6689
G2 X136.7826 Y-75.9201 I0.0207 J-2.6894
G2 X144.6194 Y-76.0807 I-10.3744 J-697.5555
G1 X146.4559 Y-76.1295
G1 X148.2637 Y-76.1814
G1 X149.1535 Y-76.2082
G1 X150.919 Y-76.2639
G2 X157.8696 Y-76.5117 I-45.3345 J-1369.1781
G2 X157.9714 Y-76.5157 I-0.0679 J-3.079
G2 X158.0732 Y-76.5196 I-0.0683 J-3.0822
G1 X161.3245 Y-76.6492
G1 X164.4741 Y-76.7811
G1 X167.5251 Y-76.9136
G1 X170.4806 Y-77.0453
G1 X181.933 Y-77.5669
G1 X183.1858 Y-77.6233
G1 X185.6522 Y-77.7329
G1 X188.0417 Y-77.8368
G1 X190.3567 Y-77.9348
G3 X199.3286 Y-78.2798 I55.2994 J1321.3952
G1 X201.2917 Y-78.3459
G1 X201.7672 Y-78.3613
G1 X203.6543 Y-78.4201
G1 X204.1114 Y-78.4337
G1 X204.5649 Y-78.447
G1 X205.0149 Y-78.4599
G1 X205.4613 Y-78.4725
G3 X207.2332 Y-78.5201 I9.1989 J309.4778
G1 X208.9497 Y-78.5624
G1 X210.6128 Y-78.5996
G1 X212.2239 Y-78.6319
G1 X212.6142 Y-78.6392
G1 X213.0014 Y-78.6462
G1 X213.3855 Y-78.6529
G1 X213.7667 Y-78.6593
G1 X214.1449 Y-78.6655
G1 X214.5201 Y-78.6714
G1 X214.8925 Y-78.677
G1 X215.2619 Y-78.6824
G1 X215.6284 Y-78.6875
G1 X215.9921 Y-78.6924
G1 X216.3529 Y-78.6971
G1 X216.7109 Y-78.7015
G3 X228.078 Y-78.7257 I6.8504 J546.2936
G3 X228.6108 Y-78.721 I-0.0607 J36.8698
G3 X245.3888 Y-78.2687 I-4.114 J463.9935
G1 X245.6508 Y-78.2567
G1 X246.6824 Y-78.2079
G1 X246.9242 Y-78.1961
G3 X250.7307 Y-77.9924 I-25.755 J516.987
G1 X251.0875 Y-77.9716
G3 X253.8518 Y-77.7997 I-19.6624 J338.5905
G1 X254.111 Y-77.7827
G1 X254.362 Y-77.766
G3 X258.2509 Y-77.4881 I-25.6871 J386.8274
G1 X258.4939 Y-77.4695
G1 X258.7217 Y-77.452
G3 X259.5758 Y-77.385 I-5.6469 J77.4906
G1 X259.896 Y-77.3594
G1 X261.0166 Y-77.2679
G1 X262.137 Y-77.1734
G3 X264.3706 Y-77.452 I22.0909 J168.0088
G3 X264.506 Y-77.4677 I0.5191 J3.8711
G3 X264.6411 Y-77.4833 I0.5165 J3.8821
G3 X264.776 Y-77.4988 I0.514 J3.8929
G3 X264.9107 Y-77.514 I0.5115 J3.904
G3 X265.0451 Y-77.5292 I0.509 J3.915
G3 X273.6497 Y-78.2527 I17.6082 J157.8826
G3 X277.4221 Y-78.43 I11.1897 J197.8402
G3 X277.6432 Y-78.438 I0.3763 J7.3508
G3 X277.8635 Y-78.4457 I0.3687 J7.3888
G3 X284.8872 Y-78.5658 I7.0507 J206.9398
G3 X285.0793 Y-78.5659 I0.1001 J8.6592
G3 X285.2706 Y-78.5658 I0.0927 J8.6909
G3 X285.4612 Y-78.5656 I0.0852 J8.7225
G3 X285.651 Y-78.5652 I0.0777 J8.7534
G3 X291.7007 Y-78.4789 I-0.7055 J261.618
G3 X292.0315 Y-78.4704 I-0.1827 J13.4431
G3 X292.3597 Y-78.4615 I-0.1995 J13.4678
G3 X297.5676 Y-78.2764 I-10.5655 J370.6598
G3 X297.8523 Y-78.2641 I-0.4309 J13.2518
G3 X306.8875 Y-77.7822 I-22.8991 J514.2467
G1 X308.5808 Y-77.6768
G1 X310.168 Y-77.5753
G1 X311.6559 Y-77.4781
G1 X313.0508 Y-77.3857
G1 X318.281 Y-77.0345
G2 X318.5262 Y-77.0181 I0.7707 J-9.6619
G2 X318.7676 Y-77.0019 I0.7608 J-9.5541
G2 X319.0052 Y-76.986 I0.751 J-9.4484
G2 X319.2391 Y-76.9704 I0.7413 J-9.3447
G2 X319.4693 Y-76.9551 I0.7318 J-9.2428
G2 X319.696 Y-76.94 I0.7224 J-9.1426
G2 X319.9191 Y-76.9252 I0.7131 J-9.0443
G2 X320.1387 Y-76.9106 I0.7039 J-8.9479
G2 X320.3549 Y-76.8963 I0.6948 J-8.853
G2 X320.5677 Y-76.8822 I0.6858 J-8.7598
G2 X320.7772 Y-76.8684 I0.677 J-8.6682
G2 X320.9834 Y-76.8548 I0.6683 J-8.5782
G2 X321.1864 Y-76.8415 I0.6597 J-8.4898
G2 X321.3862 Y-76.8284 I0.6512 J-8.4027
G2 X321.5829 Y-76.8155 I0.6428 J-8.3171
G2 X321.7765 Y-76.8029 I0.6345 J-8.233
G2 X321.9671 Y-76.7905 I0.6264 J-8.1501
G2 X322.1547 Y-76.7783 I0.6184 J-8.0686
G2 X322.3394 Y-76.7663 I0.6105 J-7.9888
G2 X322.5212 Y-76.7545 I0.6026 J-7.9098
G2 X322.7002 Y-76.743 I0.5949 J-7.832
G2 X322.8764 Y-76.7317 I0.5873 J-7.7554
G2 X323.0498 Y-76.7205 I0.5798 J-7.68
G2 X323.2205 Y-76.7096 I0.5724 J-7.6059
G2 X323.3886 Y-76.6989 I0.5652 J-7.5327
G2 X323.554 Y-76.6884 I0.558 J-7.4606
G2 X324.8566 Y-76.6065 I19.3911 J-298.0884
G1 X327.1366 Y-76.4684
G2 X333.9795 Y-76.1091 I27.4825 J-458.0767
G1 X444.7422 Y-75.7137
G3 X446.1254 Y-75.6574 I0.0475 J15.8318
G3 X447.3355 Y-75.5025 I-1.1624 J13.8932
G3 X448.3829 Y-75.2673 I-1.7531 J10.256
G3 X448.4964 Y-75.2351 I-0.4603 J1.8367
G3 X448.9392 Y-75.0948 I-2.5381 J8.782
G3 X449.3481 Y-74.9428 I-2.2712 J6.7343
G3 X450.0913 Y-74.6006 I-2.7968 J7.0536
G3 X451.2841 Y-73.8075 I-3.0769 J5.9203
G3 X452.6552 Y-72.1586 I-3.7131 J4.482
G3 X453.0861 Y-71.1705 I-4.7772 J2.6713
G3 X453.2269 Y-70.6493 I-4.4239 J1.4748
G3 X453.2533 Y-70.5168 I-2.6212 J0.5921
G1 X453.2622 Y-70.4669
G3 X453.3054 Y-70.1151 I-3.1633 J0.5669
G1 X392.6675 Y-69.4653
G3 X396.3183 Y-66.0258 I-40.9665 J47.1397
G3 X399.2822 Y-62.7914 I-46.6922 J45.7642
G3 X400.1252 Y-61.7923 I-47.2029 J40.6795
G0 Z5.0
M5
M30
( Made using CamBam - http://www.cambam.co.uk )
( car2 1/22/2014 9:24:18 AM )
( T0 : 0.0 )
G21 G90 G64 G40
G0 Z5.0
( T0 : 0.0 )
T0 M6
( 11-40 )
G17
M3 S1000
G0 X364.823 Y0.6593
G1 F1.0 Z0.0
G3 X367.0722 Y-0.4903 I6.7558 J10.442
G3 X369.5006 Y-1.1857 I5.0651 J13.0999
G3 X369.5795 Y-1.2008 I0.3666 J1.701
G3 X369.6597 Y-1.2158 I0.349 J1.6513
G3 X371.3833 Y-1.4418 I3.1053 J16.9952
G3 X371.4379 Y-1.4463 I0.1051 J0.9524
G3 X373.7691 Y-1.5092 I1.7995 J23.457
G3 X373.8426 Y-1.5076 I0.0137 J1.0784
G3 X373.9167 Y-1.5058 I0.011 J1.086
G3 X375.2677 Y-1.4424 I-0.8158 J31.8053
G3 X376.8054 Y-1.3107 I-3.3126 J47.7251
G1 X377.2013 Y-1.2687
G1 X377.6095 Y-1.2226
G1 X378.0305 Y-1.1725
G3 X379.9474 Y-0.9197 I-12.4075 J101.4896
G3 X380.9675 Y-0.777 I-28.9188 J210.4278
G1 X381.4937 Y-0.7034
G1 X382.6155 Y-0.5506
G2 X385.1801 Y-0.2568 I8.3705 J-61.7231
G3 X386.6932 Y-0.0665 I-1.9337 J21.4859
G3 X388.183 Y0.2596 I-2.2126 J13.6769
G3 X389.1478 Y0.5824 I-2.6649 J9.5689
G3 X389.6799 Y0.8179 I-2.8973 J7.2636
G3 X390.2598 Y1.1455 I-2.7907 J5.6175
G1 X390.295 Y1.1685
G1 X390.3302 Y1.1921
G3 X390.9314 Y1.6834 I-2.2282 J3.3398
G3 X391.4627 Y2.4056 I-2.0046 J2.0311
G3 X391.733 Y3.4202 I-2.2328 J1.1383
G3 X391.7075 Y3.9909 I-2.9543 J0.1541
G3 X391.5718 Y4.5922 I-3.6265 J-0.503
G3 X391.3334 Y5.2089 I-4.4199 J-1.3542
G3 X390.9725 Y5.7795 I-2.4484 J-1.1487
G3 X390.4943 Y6.2561 I-2.647 J-2.1779
G3 X390.1358 Y6.5284 I-2.8343 J-3.3596
G1 X390.0368 Y6.5961
G3 X389.4943 Y6.9321 I-5.4773 J-8.239
G3 X389.1777 Y7.1118 I-10.4435 J-18.0259
G3 X389.0956 Y7.1575 I-0.7031 J-1.1661
G2 X388.2277 Y7.6491 I12.8641 J23.7232
G2 X388.0018 Y7.789 I2.3396 J4.0314
G2 X387.506 Y8.1388 I3.0491 J4.8478
G2 X387.0007 Y8.6154 I2.1644 J2.8007
G2 X386.5722 Y9.2927 I1.9235 J1.6913
G2 X386.3702 Y10.2059 I2.4019 J1.0101
G2 X386.385 Y10.7111 I3.8063 J0.1413
G2 X386.419 Y10.9708 I4.0327 J-0.3952
G2 X382.7933 Y8.6989 I-13.3977 J17.3521
G2 X378.7859 Y7.1999 I-9.3254 J18.8238
G2 X375.982 Y6.6608 I-5.547 J21.2886
G2 X373.2342 Y6.4302 I-4.1572 J33.0522
G2 X372.3151 Y6.4068 I-1.0955 J24.9459
G2 X372.1964 Y6.406 I-0.0783 J2.8059
G2 X371.654 Y6.4092 I-0.1298 J23.4956
G2 X370.2095 Y6.4805 I0.3866 J22.5
G2 X369.3877 Y6.5703 I1.1456 J14.2913
G2 X368.9515 Y6.6361 I1.2757 J9.9397
G2 X367.9645 Y6.8441 I1.7854 J10.9165
G2 X366.87 Y7.214 I1.8662 J7.326
G2 X366.3179 Y7.4931 I2.18 J4.9971
G2 X365.7775 Y7.8793 I1.8946 J3.2227
G2 X365.304 Y8.421 I1.7102 J1.9726
G2 X365.0073 Y9.1571 I1.7681 J1.1405
G2 X365.0026 Y10.0473 I2.4738 J0.4582
G2 X365.1112 Y10.5062 I3.6292 J-0.6163
G2 X365.2828 Y10.9708 I4.2104 J-1.2917
G2 X366.0168 Y12.2747 I6.3262 J-2.7027
G2 X367.0048 Y13.3984 I6.1268 J-4.3909
G1 X367.0756 Y13.4642
G2 X367.8728 Y14.1165 I6.3699 J-6.9715
G2 X369.0304 Y14.8514 I6.4179 J-8.8311
G3 X367.6317 Y14.7058 I4.2488 J-47.6124
G3 X366.2377 Y14.5201 I6.3351 J-52.8783
G3 X363.4733 Y14.0033 I5.3942 J-36.5094
G3 X362.6921 Y13.8141 I6.0313 J-26.6072
G1 X362.2776 Y13.7047
G1 X361.8373 Y13.5812
G3 X359.5296 Y12.7916 I6.6044 J-23.0697
G3 X358.9293 Y12.5405 I11.9334 J-29.3718
G3 X358.2977 Y12.252 I8.8747 J-20.2693
G3 X356.8949 Y11.5083 I8.1703 J-17.1056
G1 X356.7215 Y11.4051
G1 X356.5466 Y11.2982
G1 X356.3703 Y11.1876
G3 X354.8252 Y10.0719 I8.716 J-13.6981
G3 X353.242 Y8.5687 I9.1255 J-11.1972
G3 X354.6637 Y6.4419 I4.2639 J1.3117
G3 X355.3679 Y5.9433 I3.5546 J4.2732
G3 X356.3927 Y5.4293 I4.0358 J6.7692
G1 X356.598 Y5.3364
G1 X356.8013 Y5.2394
G2 X357.2043 Y5.0378 I-6.0705 J-12.6406
G2 X357.2578 Y5.0104 I-1.3749 J-2.7467
G1 X357.5421 Y4.8625
G1 X357.7041 Y4.777
G1 X358.1343 Y4.5462
G2 X359.8407 Y3.597 I-43.6667 J-80.5077
G1 X360.3254 Y3.3207
G2 X360.8781 Y3.003 I-19.986 J-35.4094
G1 X361.1725 Y2.8328
G1 X361.8441 Y2.4418
G1 X362.61 Y1.9919
G1 X362.8073 Y1.8752
G1 X363.7076 Y1.3391
G1 X364.1862 Y1.0507
G1 X364.6946 Y0.7396
G1 X364.823 Y0.6593
G0 Z5.0
G0 X371.9684 Y-17.919
G1 Z0.0
G1 X371.444 Y-20.3325
G1 X371.8484 Y-20.2212
G1 X371.9834 Y-20.1849
G3 X372.5209 Y-20.0307 I-2.8542 J10.9642
G3 X372.592 Y-20.0081 I-0.2188 J0.8127
G3 X372.6676 Y-19.9833 I-0.3926 J1.3241
G3 X373.0651 Y-19.835 I-1.5479 J4.7538
G3 X373.286 Y-19.7347 I-1.5352 J3.6769
G3 X373.8346 Y-19.3899 I-1.2444 J2.5885
G1 X371.9684 Y-17.919
G0 Z5.0
G0 X362.8693 Y-20.3325
G1 Z0.0
G1 X343.6146 Y-21.7996
G1 X341.6077 Y-23.6658
G1 X341.7694 Y-23.6417
G1 X341.9312 Y-23.618
G1 X342.2549 Y-23.5717
G1 X342.9028 Y-23.4829
G2 X344.2006 Y-23.3202 I9.3457 J-69.2725
G2 X346.8019 Y-23.0448 I12.0614 J-101.504
G1 X347.5462 Y-22.9766
G2 X347.7384 Y-22.9597 I0.5221 J-4.83
G2 X349.7891 Y-22.7951 I11.3688 J-128.7785
G2 X352.526 Y-22.6148 I14.59 J-200.6662
G1 X352.8794 Y-22.5944
G1 X353.6333 Y-22.5527
G1 X354.4376 Y-22.511
G1 X355.2956 Y-22.4694
G2 X359.8733 Y-22.2872 I18.4082 J-404.9284
G2 X360.164 Y-22.2773 I0.5991 J-13.2189
G1 X361.4043 Y-22.2355
G1 X362.0446 Y-22.2139
G1 X362.8693 Y-20.3325
G0 Z5.0
G0 X361.8051 Y-23.6658
G1 Z0.0
G1 X351.7634 Y-24.2055
G1 Y-25.5434
G1 X352.5023 Y-25.5035
G1 X352.7485 Y-25.4897
G1 X353.7334 Y-25.4324
G1 X354.0148 Y-25.4153
G1 X354.7649 Y-25.3683
G1 X355.7649 Y-25.3014
G1 X356.0316 Y-25.2825
G1 X356.6409 Y-25.2375
G1 X357.3368 Y-25.1817
G1 X357.3807 Y-25.1779
G3 X357.5616 Y-25.1623 I-0.7784 J10.0515
G1 X357.9474 Y-25.127
G1 X357.9717 Y-25.1246
G1 X358.1714 Y-25.1049
G1 X358.5971 Y-25.0583
G1 X358.8164 Y-25.0307
G3 X359.2814 Y-24.9504 I-0.5821 J4.7609
G3 X360.0689 Y-24.7149 I-1.5353 J6.5676
G3 X360.1789 Y-24.6736 I-0.5885 J1.7346
G1 X360.3036 Y-24.624
G3 X361.2512 Y-24.1208 I-1.9769 J4.8671
G3 X361.8051 Y-23.6658 I-2.0484 J3.0582
G0 Z5.0
G0 X360.8625 Y-26.0792
G1 Z0.0
G3 X358.3089 Y-26.0234 I-1.8207 J-24.8484
G3 X355.7643 Y-26.2444 I0.7488 J-23.3821
G3 X350.8323 Y-27.5463 I3.1191 J-21.8083
G3 X350.8388 Y-27.5849 I0.0409 J-0.0129
G3 X350.8672 Y-27.6118 I0.0958 J0.0723
G3 X350.933 Y-27.646 I0.1812 J0.2686
G3 X351.0681 Y-27.6889 I0.3389 J0.8335
G1 X351.159 Y-27.71
G3 X351.5198 Y-27.7684 I0.9783 J4.8978
G3 X352.2394 Y-27.8325 I1.4196 J11.8706
G3 X353.675 Y-27.8674 I1.2835 J23.2279
G1 X354.085 Y-27.8617
G3 X355.1762 Y-27.8163 I-0.524 J25.7364
G1 X355.3168 Y-27.8072
G1 X355.6165 Y-27.7853
G1 X355.9358 Y-27.7579
G3 X357.6285 Y-27.5323 I-1.7665 J19.7149
G3 X358.5823 Y-27.3243 I-2.2763 J12.7265
G3 X359.0826 Y-27.1791 I-2.1427 J8.3207
G3 X359.605 Y-26.9878 I-1.895 J5.9831
G3 X360.1391 Y-26.7251 I-1.6406 J4.0094
G3 X360.6511 Y-26.3401 I-1.2436 J2.1868
G3 X360.8625 Y-26.0792 I-1.0223 J1.0447
G0 Z5.0
G0 X367.5003 Y-28.9256
G1 Z0.0
G3 X367.4838 Y-28.9648 I4.494 J-1.9271
G1 X367.4316 Y-29.0902
G1 X367.379 Y-29.2251
G3 X367.149 Y-29.9599 I6.1236 J-2.3201
G3 X368.3536 Y-29.7965 I-0.8354 J10.6827
G3 X368.7494 Y-29.7091 I-1.2163 J6.4462
G1 X368.9735 Y-29.6504
G3 X369.2272 Y-29.5748 I-1.3764 J5.0827
G3 X369.8866 Y-29.3219 I-1.6245 J5.2223
G3 X370.6964 Y-28.8384 I-1.6975 J3.7629
G3 X371.092 Y-28.4682 I-1.7129 J2.2268
G3 X371.444 Y-27.9531 I-1.7947 J1.6042
G1 X371.176 Y-27.8486
G1 X370.906 Y-27.7492
G1 X370.7249 Y-27.6857
G3 X369.9924 Y-27.4574 I-3.887 J-11.1867
G1 X369.7801 Y-27.4026
G3 X369.2046 Y-27.2982 I-1.0207 J-3.9902
G3 X368.869 Y-27.2991 I-0.1644 J-1.3997
G3 X368.696 Y-27.3563 I0.0559 J-0.4592
G3 X368.3437 Y-27.6326 I1.1234 J-1.7951
G3 X368.0478 Y-27.9686 I1.8142 J-1.8955
G1 X367.9723 Y-28.0719
G3 X367.5003 Y-28.9256 I4.022 J-2.7808
G0 Z5.0
G0 X348.1033 Y-27.4513
G1 Z0.0
G1 X346.412 Y-27.5463
G1 Y-28.4814
G3 X346.586 Y-28.6448 I0.224 J0.0643
G3 X346.8247 Y-28.6434 I0.1161 J0.5316
G3 X347.2368 Y-28.4796 I-0.3044 J1.3664
G3 X347.8567 Y-27.9355 I-1.0338 J1.8031
G3 X348.1033 Y-27.4513 I-1.1636 J0.8976
G0 Z5.0
G0 X337.6919 Y-23.7413
G1 Z0.0
G3 X337.9521 Y-22.8921 I-9.2972 J3.3129
G3 X338.263 Y-21.2637 I-12.0827 J3.151
G3 X337.1009 Y-22.0612 I4.2807 J-7.4835
G3 X336.0509 Y-23.0014 I9.3459 J-11.4934
G1 X335.9168 Y-23.1332
G1 X335.6139 Y-23.4378
G1 X335.3577 Y-23.6963
G1 X335.0993 Y-23.9525
G1 X334.9257 Y-24.122
G2 X334.6924 Y-24.3462 I-24.4283 J25.1812
G2 X334.5581 Y-24.4734 I-5.7534 J5.9419
G2 X334.4038 Y-24.6177 I-3.6248 J3.7214
G2 X333.1302 Y-25.7289 I-17.9386 J19.2746
G2 X332.2364 Y-26.4156 I-12.4471 J15.276
G2 X330.9788 Y-27.2389 I-9.1468 J12.5998
G1 X330.8106 Y-27.3357
G2 X328.9261 Y-28.1949 I-5.5584 J9.696
G2 X327.7806 Y-28.5059 I-3.0052 J8.8039
G2 X324.5988 Y-28.473 I-1.5145 J7.4098
G2 X322.8623 Y-27.8656 I1.8865 J8.179
G3 X323.2783 Y-27.0192 I-27.389 J13.9888
G1 X323.6832 Y-26.1675
G2 X323.9686 Y-25.6073 I13.8281 J-6.6906
G2 X324.4145 Y-24.8967 I5.3008 J-2.8314
G1 X324.4803 Y-24.8105
G2 X325.3213 Y-24.0115 I3.1355 J-2.4582
G2 X325.8904 Y-23.6645 I3.1752 J-4.567
G2 X326.2093 Y-23.5066 I2.8256 J-5.3086
G2 X326.9611 Y-23.1993 I4.2145 J-9.2358
G1 X327.0583 Y-23.1644
G1 X327.1571 Y-23.1299
G3 X329.4496 Y-22.0438 I-3.293 J9.9135
G3 X331.4183 Y-20.4439 I-5.9763 J9.3651
G3 X332.5199 Y-19.159 I-8.8886 J8.7351
G3 X333.074 Y-18.3665 I-10.9945 J8.276
G3 X334.3011 Y-16.108 I-14.0591 J9.1017
G3 X334.8549 Y-14.7495 I-17.1915 J7.8002
G1 X334.9183 Y-14.5743
G3 X333.9531 Y-14.9486 I0.3525 J-2.3404
G3 X333.6741 Y-15.1554 I1.691 J-2.5724
G3 X333.5226 Y-15.2836 I2.1706 J-2.7188
G1 X333.1292 Y-15.634
G2 X333.0226 Y-15.7253 I-5.8018 J6.6624
G2 X332.7709 Y-15.9236 I-2.732 J3.2081
G3 X331.8892 Y-16.5883 I43.1587 J-58.173
G1 X331.5975 Y-16.8127
G3 X330.4398 Y-17.7222 I48.7577 J-63.2534
G3 X330.1109 Y-17.9845 I33.38 J-42.1989
G1 X329.9356 Y-18.1245
G1 X329.5346 Y-18.4442
G2 X328.453 Y-19.2809 I-26.1313 J32.6631
G2 X327.8129 Y-19.7295 I-9.5597 J12.959
G1 X327.6432 Y-19.8386
G2 X326.8334 Y-20.2826 I-3.8746 J6.1054
G1 X326.7804 Y-20.3068
G2 X325.7671 Y-20.6483 I-2.2746 J5.0744
G2 X325.203 Y-20.7489 I-1.4728 J6.6307
G2 X323.8886 Y-20.8078 I-1.0431 J8.5733
G2 X323.549 Y-20.7951 I0.2045 J9.9925
G2 X322.0061 Y-20.6527 I1.1628 J21.0351
G1 X321.9092 Y-20.6405
G1 X321.8116 Y-20.6279
G1 X321.4098 Y-20.5731
G1 X321.3086 Y-20.5587
G1 X321.2067 Y-20.5439
G1 X321.1041 Y-20.5288
G1 X320.6814 Y-20.4643
G2 X319.7833 Y-20.318 I40.1575 J249.318
G1 X319.5556 Y-20.2793
G3 X316.3415 Y-17.7977 I-21.0094 J-23.8878
G3 X315.1974 Y-17.0728 I-14.1795 J-21.114
G3 X313.5996 Y-16.23 I-8.6718 J-14.5054
G1 X313.3864 Y-16.1354
G3 X312.3869 Y-15.7613 I-4.0408 J-9.2729
G3 X311.8364 Y-15.6128 I-1.9286 J-6.0537
G3 X311.2356 Y-15.5093 I-1.2412 J-5.4118
G2 X311.3417 Y-14.9508 I4.3538 J-0.5372
G2 X311.5355 Y-14.4164 I3.0565 J-0.8064
G2 X312.2064 Y-13.503 I2.6621 J-1.2523
G2 X312.8116 Y-13.0469 I2.6851 J-2.9332
G2 X313.7038 Y-12.5876 I3.7217 J-6.1326
G2 X313.8225 Y-12.5359 I2.4552 J-5.4791
G1 X314.0765 Y-12.4292
G1 X314.6565 Y-12.1948
G3 X315.311 Y-11.9203 I-6.2466 J15.8117
G1 X315.3931 Y-11.8834
G1 X315.4762 Y-11.8452
G3 X315.6463 Y-11.764 I-1.7519 J3.8882
G3 X316.3886 Y-11.3383 I-2.7683 J5.6868
G3 X317.123 Y-10.6937 I-2.0763 J3.1065
G3 X316.9771 Y-9.7838 I-6.2785 J-0.5408
G3 X316.67 Y-8.9149 I-4.2596 J-1.0165
G3 X316.3564 Y-8.3852 I-3.2674 J-1.577
G3 X315.7978 Y-7.7824 I-2.6062 J-1.8544
G3 X314.8593 Y-7.2147 I-2.3484 J-2.8231
G3 X314.2665 Y-7.0086 I-1.8961 J-4.4977
G3 X313.5679 Y-6.8585 I-1.68 J-6.1168
G3 X312.7612 Y-6.7729 I-1.2609 J-8.0394
G3 X312.3305 Y-6.756 I-0.54 J-8.2932
G3 X311.3566 Y-6.773 I-0.238 J-14.3021
G3 X311.2954 Y-6.7761 I0.0024 J-0.6398
G3 X310.7766 Y-6.811 I1.4437 J-25.3321
G3 X309.6126 Y-6.9303 I2.2145 J-27.3459
G1 X309.314 Y-6.9674
G1 X309.1627 Y-6.9868
G1 X308.523 Y-7.0723
G1 X308.3609 Y-7.0944
G1 X307.6749 Y-7.187
G1 X307.3221 Y-7.2321
G1 X307.143 Y-7.2538
G1 X307.0528 Y-7.2643
G1 X306.8698 Y-7.2847
G2 X306.4929 Y-7.3214 I-1.9933 J18.4724
G1 X306.3016 Y-7.3367
G2 X305.4889 Y-7.3604 I-0.6599 J8.6884
G1 X305.5907 Y-7.5224
G1 X305.6884 Y-7.6871
G2 X305.8687 Y-8.0248 I-5.3417 J-3.0696
G2 X306.146 Y-8.738 I-3.6143 J-1.8158
G2 X306.2422 Y-9.24 I-3.1939 J-0.8722
G2 X306.2257 Y-9.9227 I-2.6253 J-0.278
G2 X305.9597 Y-10.7948 I-3.3002 J0.5298
G2 X305.7214 Y-11.2581 I-4.6091 J2.0781
G2 X305.4045 Y-11.759 I-6.2606 J3.6096
G2 X305.0081 Y-12.3026 I-10.8535 J7.499
G2 X304.7873 Y-12.5835 I-7.056 J5.3185
G2 X304.5475 Y-12.8776 I-35.7193 J28.8858
G1 X304.2886 Y-13.1859
G1 X304.0103 Y-13.5101
G2 X304.8955 Y-14.1 I-1.1003 J-2.6102
G2 X305.5053 Y-14.9717 I-2.1906 J-2.1816
G2 X305.5199 Y-15.0025 I-0.2074 J-0.1168
G2 X305.7671 Y-15.6796 I-4.216 J-1.9228
G2 X305.9496 Y-16.6168 I-6.376 J-1.7285
G2 X305.9773 Y-16.8696 I-5.4686 J-0.7256
G2 X305.999 Y-17.1394 I-7.0455 J-0.7022
G2 X306.0139 Y-18.5635 I-14.4927 J-0.8645
G2 X305.8824 Y-20.4282 I-30.9132 J1.2442
G2 X305.774 Y-21.4833 I-70.9079 J6.7479
G1 X305.6481 Y-22.6803
G1 X305.6406 Y-22.7558
G1 X305.6105 Y-23.0669
G1 X305.5816 Y-23.3877
G1 X305.5747 Y-23.4686
G1 X305.568 Y-23.5502
G1 X305.5422 Y-23.8862
G1 X305.5306 Y-24.0569
G1 X305.52 Y-24.2303
G1 X305.5024 Y-24.5879
G1 X305.4913 Y-24.957
G1 X305.4889 Y-25.1444
G2 X306.3493 Y-25.1261 I0.9913 J-26.3792
G1 X306.6362 Y-25.1258
G2 X307.7834 Y-25.1463 I-0.2964 J-48.6703
G1 X308.5479 Y-25.1719
G1 X309.5671 Y-25.208
G1 X310.1496 Y-25.2237
G3 X310.3 Y-25.2266 I0.1566 J4.1978
G1 X310.6208 Y-25.2307
G3 X312.3315 Y-25.1788 I0.2621 J19.5731
G3 X312.786 Y-25.1344 I-0.8027 J10.5509
G1 X313.0199 Y-25.1047
G3 X314.0794 Y-24.8998 I-1.2429 J9.266
G3 X315.2496 Y-24.4967 I-1.8152 J7.1702
G3 X316.482 Y-23.784 I-2.666 J6.0313
G3 X317.6856 Y-22.6692 I-4.296 J5.8457
G3 X317.9564 Y-22.3418 I-6.0901 J5.3135
G1 X318.088 Y-22.1706
G3 X318.2176 Y-21.9934 I-3.6945 J2.8402
G2 X318.297 Y-21.9253 I0.1867 J-0.1372
G2 X318.395 Y-21.8887 I0.2052 J-0.4007
G2 X318.5996 Y-21.8657 I0.2083 J-0.9315
G2 X319.0007 Y-21.9006 I-0.0121 J-2.4676
G2 X319.7675 Y-22.0847 I-1.0256 J-5.9591
G1 X319.8679 Y-22.1157
G2 X321.4027 Y-22.7346 I-3.2386 J-10.244
G2 X321.1551 Y-23.3849 I-4.8397 J1.4697
G2 X320.821 Y-23.9955 I-4.6508 J2.1485
G2 X320.5589 Y-24.3784 I-4.5256 J2.8163
G2 X320.1715 Y-24.8602 I-6.9653 J5.2053
G2 X319.9345 Y-25.1222 I-14.5672 J12.934
G2 X319.2645 Y-25.7818 I-9.3719 J8.8513
G2 X319.2204 Y-25.8221 I-0.4172 J0.4109
G2 X319.1755 Y-25.863 I-0.4242 J0.4209
G2 X319.1298 Y-25.9043 I-0.4318 J0.4316
G2 X318.7071 Y-26.2754 I-10.2777 J11.2802
G1 X318.4787 Y-26.4697
G1 X318.2338 Y-26.675
G2 X318.1714 Y-26.727 I-0.819 J0.9198
G1 X317.9051 Y-26.948
G1 X317.2988 Y-27.454
G1 X317.1436 Y-27.5859
G1 X317.0651 Y-27.6533
G3 X316.7334 Y-27.944 I10.7054 J-12.55
G3 X316.5646 Y-28.0967 I3.8028 J-4.374
G1 X316.3925 Y-28.2565
G3 X315.6445 Y-29.0249 I8.284 J-8.8132
G1 X320.8744 Y-27.9531
G2 X321.1003 Y-28.252 I-1.5666 J-1.4187
G2 X321.2655 Y-28.5881 I-1.3668 J-0.8807
G2 X321.3365 Y-29.3305 I-1.4172 J-0.5101
G2 X321.201 Y-29.8116 I-1.9606 J0.2926
G2 X320.8911 Y-30.3934 I-3.3615 J1.4173
G2 X320.6782 Y-30.7009 I-5.0423 J3.2626
G1 X320.5585 Y-30.8594
G2 X319.8995 Y-31.6511 I-14.7816 J11.6344
G1 X319.5206 Y-32.0915
G3 X319.3233 Y-32.328 I5.8901 J-5.1143
G3 X319.1198 Y-32.5834 I5.001 J-4.1932
G3 X318.6988 Y-33.1901 I5.4594 J-4.2376
G1 X318.6513 Y-33.271
G1 X318.6281 Y-33.3122
G3 X318.5373 Y-33.7024 I0.6888 J-0.366
G3 X318.6118 Y-34.096 I1.2906 J0.0407
G3 X318.9892 Y-34.7831 I2.3653 J0.8519
G3 X319.6075 Y-34.6749 I-0.8098 J6.4454
G1 X319.6484 Y-34.6656
G3 X320.2954 Y-34.4932 I-2.2641 J9.796
G1 X320.4784 Y-34.4373
G3 X321.9183 Y-33.9234 I-6.8164 J21.3734
G3 X322.8608 Y-33.5365 I-13.2332 J33.5808
G3 X324.102 Y-32.9862 I-21.8388 J50.9251
G1 X324.2611 Y-32.9128
G3 X325.9455 Y-32.1068 I-27.0556 J58.7004
G1 X326.3915 Y-31.8854
G3 X327.4064 Y-31.3711 I-34.2207 J68.7853
G1 X327.6674 Y-31.2366
G1 X328.223 Y-30.9478
G1 X328.3639 Y-30.874
G1 X328.964 Y-30.5574
G1 X329.6023 Y-30.2165
G3 X332.9797 Y-28.3548 I-95.2892 J176.8626
G1 X333.8743 Y-27.8478
G1 X334.8264 Y-27.3035
G1 X335.3173 Y-27.0218
G3 X336.3711 Y-26.0891 I-2.9718 J4.4191
G3 X337.1678 Y-24.929 I-4.8925 J4.2134
G3 X337.5647 Y-24.0787 I-7.1449 J3.8532
G3 X337.6919 Y-23.7413 I-9.1699 J3.6503
G0 Z5.0
G0 X309.4682 Y-30.4349
G1 Z0.0
G1 X308.4306 Y-41.0582
G1 X310.4375 Y-38.7435
G1 X309.4682 Y-30.4349
G0 Z5.0
G0 X307.8834 Y-30.3551
G1 Z0.0
G1 X306.9521
G1 X306.4237 Y-42.4037
G3 X306.7413 Y-41.599 I-9.7947 J4.331
G3 X306.9977 Y-40.7728 I-12.0132 J4.18
G3 X307.3536 Y-39.081 I-14.8373 J4.0048
G1 X307.3878 Y-38.853
G3 X307.5286 Y-37.6318 I-23.821 J3.3656
G3 X307.5833 Y-36.9318 I-57.003 J4.8074
G3 X307.5892 Y-36.8428 I-1.2249 J0.1255
G3 X307.5949 Y-36.7523 I-1.2547 J0.1251
G3 X307.6005 Y-36.6604 I-1.2866 J0.1247
G3 X307.606 Y-36.5671 I-1.3211 J0.1244
G3 X307.6114 Y-36.4722 I-1.3585 J0.1241
G3 X307.6166 Y-36.3759 I-1.3991 J0.124
G3 X307.6216 Y-36.278 I-1.4436 J0.124
G3 X307.6266 Y-36.1785 I-1.4923 J0.1241
G3 X307.6455 Y-35.7544 I-17.0506 J0.9734
G3 X307.6789 Y-34.785 I-52.998 J2.3102
G3 X307.6825 Y-34.6619 I-4.6541 J0.1973
G1 X307.697 Y-34.1368
G1 X307.7317 Y-32.9375
G2 X307.7425 Y-32.628 I11.1496 J-0.2347
G1 X307.7704 Y-31.9684
G1 X307.7788 Y-31.8009
G1 X307.788 Y-31.6308
G1 X307.7981 Y-31.458
G2 X307.8214 Y-31.1016 I12.131 J-0.6141
G1 X307.8495 Y-30.7341
G1 X307.8834 Y-30.3551
G0 Z5.0
G0 X296.785 Y-36.6493
G1 Z0.0
G3 X294.8586 Y-37.2963 I1.445 J-7.4935
G3 X293.1884 Y-38.4538 I3.1861 J-6.3815
G3 X292.2734 Y-39.4558 I5.6344 J-6.0641
G3 X292.0568 Y-39.7459 I13.636 J-10.4067
G3 X291.0792 Y-41.4011 I9.2996 J-6.6086
G3 X290.6354 Y-42.4037 I14.07 J-6.8279
G2 X290.102 Y-43.2739 I-3.6323 J1.6276
G2 X289.3524 Y-43.9664 I-2.7388 J2.2128
G2 X288.7577 Y-44.3002 I-2.177 J3.182
G2 X287.8989 Y-44.5918 I-1.9617 J4.3677
G2 X286.7105 Y-44.7698 I-1.6473 J6.939
G2 X286.6727 Y-44.7725 I-0.0382 J0.2725
G2 X286.3505 Y-44.7893 I-0.5374 J7.2261
G2 X286.0074 Y-44.7966 I-0.3485 J8.2742
G2 X285.2275 Y-44.7804 I-0.1268 J12.6542
G2 X284.8135 Y-44.7569 I0.6215 J14.6141
G1 X284.7085 Y-44.7496
G2 X284.4922 Y-44.733 I0.27 J4.9436
G1 X284.033 Y-44.6918
G1 X283.5456 Y-44.6408
G1 X283.2947 Y-44.6123
G1 X282.762 Y-44.5481
G1 X282.1965 Y-44.4763
G1 X281.5958 Y-44.399
G3 X281.5201 Y-44.3894 I-0.313 J-2.1468
G1 X280.8769 Y-44.309
G1 X280.5452 Y-44.2697
G1 X280.3768 Y-44.2505
G1 X280.0296 Y-44.213
G3 X278.4498 Y-44.0925 I-2.7453 J-25.5746
G1 X278.3501 Y-44.0886
G1 X278.2496 Y-44.0852
G3 X277.394 Y-44.0828 I-0.4699 J-14.7049
G3 X276.485 Y-44.1444 I0.2657 J-10.6532
G2 X276.5547 Y-44.0931 I0.5479 J-0.6703
G2 X276.6249 Y-44.0423 I0.6184 J-0.7809
G1 X276.7663 Y-43.9421
G2 X276.8612 Y-43.8763 I1.36 J-1.8602
G1 X276.9886 Y-43.7897
G1 X277.0617 Y-43.7409
G2 X277.6592 Y-43.3687 I5.9076 J-8.8163
G2 X277.7407 Y-43.3221 I0.6856 J-1.1052
G1 X277.8283 Y-43.2734
G2 X278.3076 Y-43.0375 I2.7235 J-4.9282
G2 X278.5944 Y-42.932 I0.9469 J-2.1322
G3 X278.5393 Y-42.767 I-0.348 J-0.0247
G3 X278.4241 Y-42.6368 I-0.4947 J-0.3215
G3 X278.1321 Y-42.461 I-0.7767 J-0.9601
G1 X278.0425 Y-42.4234
G3 X277.7999 Y-42.3405 I-1.029 J-2.6165
G3 X277.6595 Y-42.3017 I-0.5516 J-1.7201
G3 X277.2844 Y-42.2196 I-1.4301 J-5.6361
G3 X277.0691 Y-42.183 I-0.8506 J-4.3523
G3 X276.823 Y-42.1482 I-0.9188 J-5.6178
G1 X276.5422 Y-42.1161
G3 X276.3923 Y-42.1018 I-0.5847 J-5.3343
G1 X276.2326 Y-42.0885
G1 X276.0625 Y-42.0763
G3 X275.1606 Y-42.0407 I-1.0937 J-16.2556
G3 X275.0442 Y-42.0392 I-0.0809 J-1.7396
G3 X273.811 Y-42.059 I-0.2591 J-22.2134
G3 X273.7722 Y-42.0607 I-0.0022 J-0.4156
G1 X273.4415 Y-42.0767
G1 X273.271 Y-42.0866
G1 X272.9079 Y-42.1112
G3 X272.8157 Y-42.1182 I0.0858 J-1.7352
G3 X272.6256 Y-42.1337 I0.6381 J-9.015
G3 X270.6166 Y-42.3851 I2.0072 J-24.1925
G1 X270.3593 Y-42.4305
G1 X270.0946 Y-42.4812
G3 X268.8985 Y-42.7723 I2.7475 J-13.8888
G3 X269.1029 Y-42.8474 I1.7176 J4.3619
G1 X269.308 Y-42.9203
G1 X269.4451 Y-42.9682
G1 X269.9938 Y-43.1576
G1 X270.3585 Y-43.2871
G2 X270.84 Y-43.4729 I-3.0783 J-8.6934
G2 X270.9668 Y-43.5264 I-0.798 J-2.0682
G1 X271.1011 Y-43.586
G2 X271.7887 Y-43.9621 I-1.9529 J-4.3868
G2 X271.9587 Y-44.0844 I-4.3387 J-6.2108
G2 X272.3117 Y-44.4104 I-1.4767 J-1.9525
G1 X272.051 Y-44.4283
G1 X271.7903 Y-44.4477
G1 X271.2694 Y-44.491
G1 X270.9223 Y-44.5228
G3 X270.7241 Y-44.542 I0.482 J-5.997
G3 X269.1411 Y-44.7205 I6.4016 J-63.9064
G3 X265.9892 Y-45.1835 I9.5028 J-75.6395
G1 X265.5702 Y-45.254
G3 X263.3411 Y-45.6578 I16.0774 J-95.1122
G3 X260.3812 Y-46.2574 I25.779 J-134.8523
G1 X259.5939 Y-46.427
G1 X258.7551 Y-46.6117
G3 X257.8611 Y-46.8126 I192.1357 J-857.0225
G2 X257.594 Y-46.2572 I3.7785 J2.1589
G2 X257.3979 Y-45.673 I4.9659 J1.9921
G2 X257.1699 Y-44.4642 I7.8161 J2.1003
G2 X257.1334 Y-44.1145 I9.6186 J1.1813
G1 X257.1175 Y-43.9277
G2 X257.0887 Y-43.5005 I12.6961 J1.07
G1 X257.0647 Y-43.0121
G1 X257.0427 Y-42.4542
G1 X257.0152 Y-41.8174
G3 X256.9666 Y-41.0915 I-21.9091 J-1.1021
G1 X256.9582 Y-40.9994
G3 X256.8459 Y-40.1626 I-9.0603 J-0.7903
G3 X256.7509 Y-39.7221 I-6.5671 J-1.1858
G3 X256.3974 Y-38.7509 I-4.5226 J-1.096
G3 X256.2686 Y-38.5159 I-4.079 J-2.0842
G3 X255.4514 Y-37.5804 I-2.9319 J-1.7363
G2 X255.3 Y-38.0209 I-9.2783 J2.9427
G1 X255.2438 Y-38.1657
G2 X254.993 Y-38.7337 I-8.2663 J3.3104
G2 X254.9567 Y-38.8081 I-1.3018 J0.5884
G2 X254.306 Y-39.9607 I-11.666 J5.8258
G2 X253.8205 Y-40.6974 I-17.7075 J11.1417
G1 X253.5329 Y-41.1112
G1 X253.2 Y-41.5809
G3 X252.8194 Y-42.1172 I31.7541 J-22.9401
G1 X252.6184 Y-42.4046
G3 X252.171 Y-43.0693 I26.8786 J-18.5724
G1 X252.1159 Y-43.1549
G1 X252.0603 Y-43.2421
G3 X251.5807 Y-44.0561 I12.0727 J-7.6608
G1 X251.5242 Y-44.162
G1 X251.468 Y-44.2702
G3 X251.0214 Y-45.293 I7.8663 J-4.0435
G3 X250.8445 Y-45.8627 I6.2236 J-2.2448
G3 X250.6434 Y-47.2192 I5.9615 J-1.5771
G3 X250.6839 Y-47.438 I0.9631 J0.0651
G3 X250.7067 Y-47.5086 I0.6841 J0.1821
G3 X250.7419 Y-47.6011 I0.9264 J0.2992
G1 X250.7954 Y-47.7215
