( Made using CamBam - http://www.cambam.co.uk )
( car2 1/22/2014 9:38:37 AM )
( T0 : 0.0 )
G21 G90 G64 G40
G0 Z5.0
( T0 : 0.0 )
T0 M6
( 331-380 )
G17
M3 S1000
G0 X223.6084 Y50.9779
G1 F1.0 Z0.0
G2 X223.1237 Y51.167 I1.223 J3.8508
G2 X222.281 Y51.6498 I2.4761 J5.299
G2 X221.6062 Y52.1627 I4.6264 J6.7863
G1 X221.4652 Y52.283
G2 X220.4387 Y53.2857 I9.0578 J10.2995
G2 X220.0799 Y53.6865 I9.2268 J8.6221
G2 X218.9122 Y55.1629 I16.2375 J14.0425
G1 X218.7748 Y55.354
G2 X217.8616 Y56.7247 I20.22 J14.4591
G2 X218.3857 Y56.6199 I-0.2175 J-2.4501
G2 X218.8514 Y56.4441 I-1.2309 J-3.9654
G2 X219.269 Y56.2378 I-2.9605 J-6.5196
G1 X219.4593 Y56.1308
G2 X220.1666 Y55.6678 I-4.7655 J-8.0525
G2 X222.2928 Y53.6203 I-6.3551 J-8.7271
G1 X222.4059 Y53.4726
G2 X222.8023 Y52.8989 I-6.3787 J-4.8299
G2 X223.2944 Y51.9758 I-5.7252 J-3.645
G2 X223.6084 Y50.9779 I-4.3187 J-1.9073
G0 Z5.0
G0 X83.9521 Y23.0118
G1 Z0.0
G2 X83.9143 Y22.6928 I-7.2494 J0.6979
G2 X83.6569 Y21.4471 I-9.4366 J1.3004
G2 X82.7412 Y19.1756 I-10.7073 J2.996
G2 X81.4851 Y17.2646 I-11.3516 J6.0931
G2 X78.3438 Y14.3746 I-10.7071 J8.486
G2 X76.7183 Y13.4587 I-7.0755 J10.6571
G2 X75.0915 Y12.8351 I-5.1252 J10.9371
G2 X74.8963 Y12.7786 I-1.4815 J4.7509
G2 X73.3174 Y12.4609 I-2.9177 J10.4169
G2 X67.4999 Y13.5243 I-1.2256 J9.7396
G2 X65.666 Y14.7238 I5.3686 J10.21
G1 X65.6193 Y14.7611
G2 X64.224 Y16.0543 I8.8137 J10.9085
G1 X64.1884 Y16.0921
G2 X63.6385 Y16.7108 I11.6329 J10.894
G2 X62.6922 Y17.9392 I13.1672 J11.1214
G2 X61.276 Y20.2502 I18.2613 J12.7803
G2 X60.3867 Y22.0774 I24.746 J13.1746
G2 X59.8028 Y23.485 I31.5656 J13.9186
G2 X59.0428 Y25.6405 I36.4229 J14.0543
G2 X58.7091 Y26.7337 I51.5901 J16.3438
G1 X58.6694 Y26.871
G1 X58.5338 Y27.3522
G1 X58.4033 Y27.8349
G2 X59.1658 Y27.538 I-0.3271 J-1.9674
G2 X59.6317 Y27.1455 I-1.4104 J-2.1465
G2 X59.9228 Y26.7945 I-2.4098 J-2.2956
G2 X60.2922 Y26.2195 I-4.5728 J-3.3434
G2 X60.3342 Y26.1451 I-1.4476 J-0.8666
G1 X60.406 Y26.014
G2 X60.6115 Y25.6153 I-13.2202 J-7.0642
G3 X60.9383 Y24.9846 I29.3866 J14.8294
G3 X61.1045 Y24.6803 I15.1166 J8.0565
G3 X61.2731 Y24.3821 I9.0048 J4.8942
G3 X61.9844 Y23.231 I18.0911 J10.385
G3 X62.732 Y22.1862 I15.229 J10.1067
G3 X64.3665 Y20.3854 I11.5342 J8.8266
G3 X64.5672 Y20.2041 I4.2393 J4.4917
G3 X66.2923 Y18.9571 I6.9481 J7.7952
G3 X67.1306 Y18.5368 I4.2715 J7.4743
G3 X68.8114 Y18.0324 I2.9242 J6.6902
G3 X70.3393 Y17.9583 I1.0702 J6.2772
G3 X72.877 Y18.714 I-0.4658 J6.2024
G3 X74.4619 Y19.8938 I-3.4871 J6.3389
G3 X75.4284 Y21.0139 I-6.1985 J6.3255
G3 X76.03 Y21.9458 I-8.3056 J6.0216
G1 X76.1314 Y22.1274
G3 X76.4815 Y22.8241 I-8.8416 J4.8781
G3 X77.2628 Y25.0262 I-12.0844 J5.5275
G3 X77.8789 Y24.3182 I4.0925 J2.9394
G3 X79.1951 Y23.3355 I4.6559 J4.863
G3 X80.3221 Y22.8141 I3.4562 J5.9928
G3 X80.3775 Y22.7948 I0.2304 J0.5697
G3 X81.2703 Y22.5619 I1.9427 J5.6199
G3 X81.9611 Y22.4901 I0.8354 J4.676
G3 X82.9974 Y22.5954 I0.1342 J3.8286
G3 X83.9521 Y23.0118 I-0.7379 J2.9951
G0 Z5.0
G0 X74.928 Y28.4745
G1 Z0.0
G1 X74.8606 Y28.3632
G2 X73.3265 Y28.709 I1.087 J8.398
G2 X72.2256 Y29.1277 I3.5689 J11.0404
G2 X71.8236 Y29.3103 I10.049 J22.6594
G2 X71.7363 Y29.3518 I0.6043 J1.3848
G2 X71.652 Y29.3924 I0.5785 J1.3083
G2 X71.0056 Y29.7207 I11.1901 J22.8293
G1 X70.7658 Y29.849
G1 X70.3489 Y30.0782
G1 X69.1064 Y30.7806
G1 Y32.2438
G1 X76.324 Y30.7806
G1 X74.928 Y28.4745
G0 Z5.0
G0 X71.8561 Y23.5843
G1 Z0.0
G3 X71.9152 Y23.5476 I4.9623 J7.8996
G2 X71.361 Y22.6625 I-2.0756 J0.6836
G2 X70.5913 Y22.1596 I-1.7035 J1.7666
G2 X69.7842 Y21.9472 I-1.1791 J2.8408
G2 X69.0149 Y21.9295 I-0.4717 J3.7876
G2 X67.6262 Y22.2519 I0.3972 J4.8629
G2 X67.0608 Y22.5042 I2.1209 J5.5121
G2 X66.9964 Y22.5374 I0.3784 J0.8125
G2 X66.4995 Y22.8255 I2.6896 J5.2127
G2 X66.0571 Y23.1311 I4.7699 J7.3776
G2 X65.2892 Y23.782 I4.8246 J6.4703
G2 X64.6827 Y24.4191 I6.6513 J6.9392
G2 X64.2 Y25.0179 I8.3937 J7.2601
G2 X63.4562 Y26.1384 I10.0146 J7.4548
G2 X62.5571 Y27.9427 I12.8736 J7.5411
G2 X62.4612 Y28.1759 I5.5376 J2.4137
G2 X62.1519 Y29.0022 I16.8136 J6.7658
G1 X62.0807 Y29.211
G1 X62.0288 Y29.3681
G1 X61.9535 Y29.6045
G1 X61.881 Y29.8418
G1 X62.8236 Y33.5894
G2 X63.0817 Y33.0241 I-2.8145 J-1.6267
G2 X63.2211 Y32.4987 I-3.485 J-1.2054
G2 X63.2615 Y32.2636 I-5.2713 J-1.0266
G1 X63.2916 Y32.0416
G1 X63.3384 Y31.6234
G1 X63.3594 Y31.4398
G3 X63.4814 Y30.7571 I4.9087 J0.5248
G3 X63.9176 Y29.8153 I2.7147 J0.6854
G3 X64.2545 Y29.4188 I2.6369 J1.8986
G3 X64.6442 Y29.0741 I3.0292 J3.0316
G3 X64.9849 Y29.4009 I-0.9323 J1.3126
G3 X65.2259 Y29.7655 I-1.9711 J1.565
G3 X65.4073 Y30.131 I-4.6907 J2.5567
G3 X65.677 Y30.8454 I-7.0675 J3.076
G1 X65.7277 Y31.0044
G3 X66.0662 Y32.2528 I-20.9637 J6.3535
G1 X66.2911 Y33.1966
G1 X66.333 Y33.3737
G2 X66.3528 Y33.4567 I2.3502 J-0.5157
G2 X66.6797 Y34.7376 I29.0237 J-6.7256
G2 X67.0995 Y35.9914 I11.3161 J-3.0917
G3 X67.1453 Y35.13 I104.6485 J5.13
G3 X67.1481 Y35.0793 I0.5076 J0.0025
G3 X67.1509 Y35.0289 I0.5056 J0.0027
G3 X67.1537 Y34.9786 I0.5037 J0.0028
G3 X67.1565 Y34.9286 I0.5018 J0.003
G3 X67.1593 Y34.8787 I0.4998 J0.0031
G3 X67.1621 Y34.829 I0.4979 J0.0033
G3 X67.1649 Y34.7795 I0.4961 J0.0035
G3 X67.1678 Y34.7302 I0.4942 J0.0037
G3 X67.2163 Y33.9453 I41.7803 J2.189
G3 X67.2194 Y33.8992 I0.4633 J0.0079
G3 X67.2225 Y33.8532 I0.4617 J0.0082
G3 X67.2256 Y33.8075 I0.46 J0.0085
G3 X67.2288 Y33.7619 I0.4584 J0.0088
G3 X67.2319 Y33.7165 I0.4568 J0.0091
G3 X67.2351 Y33.6712 I0.4552 J0.0094
G3 X67.3591 Y32.2321 I38.1937 J2.5657
G1 X67.3937 Y31.9168
G1 X67.4305 Y31.6114
G1 X67.4694 Y31.3159
G3 X67.6575 Y30.1753 I18.8777 J2.5265
G1 X67.7079 Y29.9269
G1 X67.7603 Y29.6869
G3 X68.3113 Y27.8654 I12.2785 J2.7202
G3 X68.9309 Y26.5761 I8.5117 J3.2966
G3 X70.2339 Y24.8755 I7.2608 J4.2136
G3 X71.8561 Y23.5843 I6.5846 J6.6085
G0 Z5.0
G0 X70.9801 Y33.5894
G1 Z0.0
G1 X71.0521 Y33.9786
G1 X71.121 Y34.3442
G1 X71.1376 Y34.4302
G1 X71.1709 Y34.5993
G1 X71.2384 Y34.9267
G2 X71.5486 Y36.1445 I13.8063 J-2.8682
G2 X71.8832 Y37.0371 I7.3412 J-2.2429
G2 X72.2269 Y37.6701 I4.1636 J-1.8509
G2 X72.5551 Y38.1021 I2.7938 J-1.7817
G2 X73.177 Y38.6258 I2.087 J-1.8474
G2 X73.9295 Y38.9333 I1.3259 J-2.17
G2 X74.4852 Y39.0149 I0.6821 J-2.7133
G2 X75.4468 Y38.8655 I0.1107 J-2.4563
G2 X76.0932 Y38.5374 I-1.0842 J-2.9368
G2 X76.5284 Y38.2132 I-2.3996 J-3.6752
G2 X76.6059 Y38.1473 I-1.0689 J-1.336
G2 X77.1558 Y37.6192 I-4.9118 J-5.6647
G2 X77.4156 Y37.3401 I-7.3639 J-7.1134
G1 X77.6694 Y37.0557
G1 X77.5745 Y36.9857
G2 X76.7945 Y36.4814 I-5.8334 J8.1664
G2 X76.0852 Y36.0859 I-9.7232 J16.604
G1 X75.7705 Y35.9213
G1 X75.4736 Y35.7704
G1 X75.334 Y35.7006
G2 X74.2451 Y35.1736 I-25.2754 J50.8393
G1 X74.04 Y35.0765
G1 X73.2706 Y34.7139
G1 X72.694 Y34.4408
G3 X70.9801 Y33.5894 I19.8726 J-42.1571
G0 Z5.0
G0 X55.4311 Y35.6717
G1 Z0.0
G1 X55.1309 Y33.4298
G1 X54.7089 Y33.5096
G1 X54.9712 Y41.8903
G1 X55.9936 Y39.872
G1 X55.4311 Y35.6717
G0 Z5.0
G0 X53.4101 Y35.7118
G1 Z0.0
G1 X53.352 Y32.7798
G1 X52.8769 Y32.8596
G1 X52.3069 Y45.0411
G1 X53.5801 Y44.2923
G1 X53.4101 Y35.7118
G0 Z5.0
G0 X58.4033 Y45.6302
G1 Z0.0
G2 X57.5988 Y46.3484 I3.2505 J4.4512
G2 X56.9672 Y47.1348 I5.4207 J5.0004
G2 X56.7059 Y47.5305 I7.3616 J5.1445
G2 X56.471 Y47.9263 I14.1715 J8.6796
G2 X56.0589 Y48.7198 I13.3211 J7.422
G1 X55.9689 Y48.9106
G1 X55.8825 Y49.0999
G1 X55.7994 Y49.2875
G2 X55.489 Y50.0346 I22.8078 J9.915
G2 X55.2151 Y50.7483 I27.5606 J10.9875
G1 X55.1523 Y50.9177
G1 X54.9094 Y51.5876
G1 X54.4556 Y52.8558
G1 X54.2482 Y53.4179
G1 X54.1982 Y53.5502
G3 X54.1484 Y53.6804 I-3.6054 J-1.3054
G3 X53.7315 Y54.6978 I-20.5889 J-7.8416
G3 X53.3101 Y55.5759 I-13.1336 J-5.762
G3 X52.8759 Y56.3184 I-7.9389 J-4.1447
G3 X52.7703 Y56.4756 I-2.4041 J-1.5015
G3 X52.5533 Y56.7719 I-4.6631 J-3.1872
G3 X52.0973 Y57.2887 I-4.0432 J-3.1078
G3 X51.1281 Y58.0031 I-2.7946 J-2.777
G3 X50.2807 Y58.3112 I-1.6357 J-3.1789
G1 X50.1152 Y58.3448
G3 X49.4855 Y58.4075 I-0.7269 J-4.112
G3 X49.0114 Y58.3951 I-0.0938 J-5.5151
G3 X48.3069 Y58.2984 I0.415 J-5.6345
G3 X47.9598 Y58.2209 I1.1537 J-5.984
G1 X47.7878 Y58.176
G1 X47.6167 Y58.1272
G2 X46.3022 Y57.8597 I-2.1577 J7.2378
G2 X45.2881 Y57.8339 I-0.6521 J5.7012
G2 X44.5317 Y57.9452 I0.2802 J4.5302
G2 X43.4695 Y58.3749 I0.8255 J3.5688
G2 X42.6148 Y59.1382 I1.6708 J2.731
G2 X42.8095 Y60.1358 I5.0577 J-0.4696
G2 X43.7168 Y61.7678 I4.2639 J-1.3022
G1 X43.7833 Y61.8435
G2 X44.0606 Y62.1307 I3.7768 J-3.3699
G2 X44.347 Y62.3898 I3.7793 J-3.8888
G2 X44.9401 Y62.8447 I5.5105 J-6.5705
G1 X45.0123 Y62.8944
G1 X45.0843 Y62.9431
G2 X45.6693 Y63.3087 I6.1923 J-9.2583
G1 X45.9503 Y63.4695
G2 X46.5028 Y63.767 I10.7678 J-19.3422
G1 X46.7648 Y63.9018
G2 X47.2756 Y64.1577 I17.4318 J-34.1547
G1 X48.2372 Y64.6331
G1 X48.6573 Y64.8456
G1 X49.049 Y65.0502
G1 X49.2315 Y65.1485
G1 X49.4076 Y65.2453
G3 X50.0797 Y65.639 I-8.1565 J14.6946
G3 X51.1977 Y66.4212 I-6.1407 J9.9673
G3 X51.9597 Y67.1072 I-5.208 J6.5519
G3 X53.5801 Y69.6968 I-4.9484 J4.8981
G3 X53.8118 Y69.6982 I0.0782 J6.4142
G1 X54.716 Y69.7119
G1 X54.7667 Y69.7122
G1 X54.9673 Y69.7112
G1 X55.0628 Y69.7095
G1 X55.1558 Y69.7068
G2 X55.5175 Y69.6823 I-0.0903 J-4.0179
G2 X55.8433 Y69.6267 I-0.2673 J-2.5487
G2 X56.1206 Y69.5203 I-0.271 J-1.1206
G2 X56.306 Y69.3474 I-0.2485 J-0.4524
G2 X56.3698 Y69.1462 I-0.3931 J-0.2354
G2 X56.3598 Y68.9657 I-0.6571 J-0.0539
G2 X56.2651 Y68.6667 I-1.2583 J0.234
G2 X56.0411 Y68.2541 I-2.8478 J1.2787
G2 X55.9771 Y68.1557 I-2.7285 J1.7062
G1 X55.8771 Y68.0108
G1 X55.7731 Y67.8686
G3 X54.8436 Y66.817 I7.3787 J-7.4588
G3 X54.6509 Y66.5543 I5.5326 J-4.2594
G3 X54.4732 Y66.2891 I4.0072 J-2.8779
G3 X53.9171 Y65.1715 I4.6222 J-2.9969
G3 X53.6924 Y64.0574 I3.6316 J-1.3123
G3 X53.7963 Y63.0298 I3.4736 J-0.1676
G3 X54.135 Y62.1447 I4.0105 J1.0273
G3 X54.601 Y61.3995 I4.8999 J2.5457
G3 X55.1234 Y60.7679 I6.2447 J4.6336
G3 X55.6636 Y60.2241 I7.997 J7.4034
G3 X55.7956 Y60.1024 I5.4623 J5.7874
G1 X55.8283 Y60.0727
G3 X56.3624 Y59.6148 I8.7377 J9.6509
G3 X56.8807 Y59.2073 I13.8441 J17.0764
G1 X56.9423 Y59.1608
G1 X57.1886 Y58.9782
G1 X57.4294 Y58.8046
G1 X57.4881 Y58.7629
G1 X57.5464 Y58.7218
G1 X57.6044 Y58.6811
G1 X57.662 Y58.6408
G1 X57.7193 Y58.6011
G1 X57.9474 Y58.4447
G1 X58.1696 Y58.2951
G3 X59.0405 Y57.7302 I21.6994 J32.5003
G1 X59.4252 Y57.4891
G1 X59.7875 Y57.2655
G1 X60.4697 Y56.8512
G1 X61.0688 Y56.492
G1 X62.1184 Y55.8658
G2 X62.9039 Y55.3933 I-62.9917 J-105.625
G2 X62.9774 Y55.3488 I-0.6703 J-1.1879
G1 X63.5455 Y55.001
G2 X63.9695 Y54.7368 I-13.3485 J-21.8974
G1 X64.286 Y54.5364
G2 X65.2257 Y53.9198 I-18.1135 J-28.6286
G1 X58.4033 Y45.6302
G0 Z5.0
G0 X60.5323 Y63.3848
G1 Z0.0
G2 X60.4458 Y63.396 I0.5609 J4.6773
G2 X59.7898 Y63.5373 I0.5553 J4.1724
G2 X59.3099 Y63.7171 I0.9061 J3.1489
G1 X59.2219 Y63.7595
G2 X58.9062 Y63.9473 I1.1346 J2.2666
G2 X58.6914 Y64.1251 I0.9756 J1.3971
G2 X58.5532 Y64.2844 I0.8501 J0.8775
G2 X58.4135 Y64.5686 I0.6986 J0.5196
G2 X58.4033 Y64.885 I0.6704 J0.18
G2 X59.0821 Y65.1672 I1.6197 J-2.9387
G2 X59.7065 Y65.308 I1.5061 J-5.2222
G2 X60.8199 Y65.402 I1.215 J-7.7523
G1 X60.9246 Y65.4037
G1 X61.1274 Y65.4044
G2 X61.8876 Y65.3806 I-0.1163 J-15.8876
G2 X62.1722 Y65.3633 I-0.9566 J-18.095
G2 X62.6698 Y65.3254 I-1.6047 J-24.3563
G1 X63.4153 Y65.2589
G1 X63.7881 Y65.2266
G1 X63.8348 Y65.2228
G1 X64.1615 Y65.2005
G2 X63.0498 Y63.8536 I-2.475 J0.9108
G2 X62.4551 Y63.5727 I-1.6594 J2.7423
G2 X61.3233 Y63.3569 I-1.3104 J3.7982
G2 X60.5323 Y63.3848 I-0.2302 J4.7052
G0 Z5.0
G0 X61.0403 Y67.2278
G1 Z0.0
G3 X60.9413 Y67.2406 I-2.0269 J-15.333
G3 X60.4101 Y67.2947 I-1.481 J-11.8987
G2 X60.4178 Y67.3175 I0.157 J-0.0405
G1 X60.5425 Y67.6745
G3 X60.7208 Y68.2136 I-7.6235 J2.8213
G3 X60.7878 Y68.4902 I-2.3796 J0.7221
G3 X60.8168 Y68.7732 I-1.5351 J0.3003
G1 X67.7874 Y68.511
G2 X67.1099 Y67.7541 I-3.3572 J2.3238
G2 X66.3765 Y67.2687 I-2.3266 J2.7186
G2 X65.6617 Y67.0024 I-1.6363 J3.2998
G2 X65.009 Y66.8803 I-1.2465 J4.8561
G2 X64.4307 Y66.8421 I-0.727 J6.6059
G2 X63.4188 Y66.8858 I-0.1314 J8.6879
G2 X62.6652 Y66.9779 I1.2613 J13.4554
G1 X62.5243 Y66.9985
G1 X61.4698 Y67.1649
G3 X61.0403 Y67.2278 I-2.4563 J-15.2701
G0 Z5.0
G0 X51.178 Y70.7724
G1 Z0.0
G1 X45.0283 Y65.4209
G2 X44.9777 Y66.0041 I2.3906 J0.5013
G2 X45.0434 Y66.5427 I3.0995 J-0.105
G2 X45.383 Y67.4938 I3.8708 J-0.8457
G2 X45.8414 Y68.2469 I4.7348 J-2.3662
G2 X46.887 Y69.3796 I5.472 J-4.0025
G2 X47.8269 Y70.0621 I4.5752 J-5.3117
G2 X48.6051 Y70.4609 I3.1069 J-5.1043
G2 X49.8671 Y70.8181 I1.974 J-4.5665
G2 X50.5246 Y70.8546 I0.54 J-3.7906
G2 X51.178 Y70.7724 I-0.1229 J-3.6189
G0 Z5.0
G0 X41.7368 Y39.0017
G1 Z0.0
G2 X41.2129 Y38.3694 I-2.1777 J1.2713
G2 X40.6242 Y37.9757 I-1.954 J2.285
G2 X40.3443 Y37.8471 I-2.1349 J4.2762
G1 X40.2101 Y37.7948
G2 X39.676 Y37.6331 I-1.6034 J4.3325
G2 X39.5573 Y37.6054 I-0.6299 J2.4385
G2 X39.3258 Y37.5587 I-1.224 J5.4679
G2 X39.1075 Y37.5224 I-0.669 J3.3431
G1 X38.9019 Y37.4941
G1 X38.8054 Y37.4827
G2 X38.4304 Y37.4481 I-0.8607 J7.2708
G2 X38.1014 Y37.4288 I-0.6836 J8.8554
G2 X36.9484 Y37.4204 I-0.7119 J18.6272
G1 X36.8043 Y37.424
G1 X36.6782 Y37.4277
G2 X36.2372 Y37.4438 I0.5284 J20.5376
G1 X35.7962 Y37.4623
G2 X35.7916 Y37.7071 I2.0608 J0.1617
G2 X35.8584 Y38.1708 I1.8689 J-0.0329
G2 X36.3138 Y38.8785 I1.3331 J-0.3574
G2 X36.6092 Y39.0719 I0.9899 J-1.1897
G2 X36.9113 Y39.1991 I1.014 J-1.9852
G2 X37.5069 Y39.3353 I1.0029 J-3.0174
G2 X37.7718 Y39.3644 I0.5506 J-3.7863
G2 X38.7696 Y39.3705 I0.5444 J-7.454
G1 X38.9561 Y39.3587
G1 X39.1308 Y39.3449
G2 X40.4352 Y39.1841 I-1.8799 J-20.6153
G1 X41.0851 Y39.086
G1 X41.1664 Y39.074
G1 X41.3087 Y39.0537
G3 X41.5224 Y39.0253 I0.9877 J6.6374
G1 X41.6295 Y39.0127
G1 X41.6832 Y39.007
G3 X41.7368 Y39.0017 I0.0654 J0.3871
G0 Z5.0
G0 X40.2051 Y35.5961
G1 Z0.0
G2 X39.8432 Y35.088 I-1.8893 J0.9623
G2 X39.4261 Y34.7455 I-1.6754 J1.6151
G2 X38.5749 Y34.3531 I-1.8463 J2.8857
G2 X37.8929 Y34.1897 I-1.4687 J4.6266
G2 X36.8468 Y34.0892 I-1.2207 J7.207
G2 X36.3211 Y34.0891 I-0.2636 J8.2768
G2 X35.7962 Y34.1177 I0.4732 J13.5357
G1 Y35.5961
G1 X40.2051
G0 Z5.0
G0 X37.803 Y32.2438
G1 Z0.0
G1 Y31.1797
G1 X35.7962
G1 Y32.2438
G1 X37.803
G0 Z5.0
G0 X33.9984 Y10.127
G1 Z0.0
G1 X34.1109 Y9.8288
G3 X34.2973 Y9.3878 I4.5067 J1.6453
G1 X34.3247 Y9.3343
G3 X34.5648 Y8.9906 I1.2882 J0.6442
G2 X33.6967 Y8.7966 I-2.4599 J8.9668
G1 X33.5046 Y8.7648
G1 X33.3181 Y8.737
G1 X33.137 Y8.7126
G1 X32.7853 Y8.6717
G2 X32.7026 Y8.6631 I-0.1324 J0.8705
G2 X32.6212 Y8.6549 I-0.1285 J0.8727
G2 X32.5411 Y8.6472 I-0.1248 J0.8734
G2 X32.2254 Y8.6189 I-1.1638 J11.2374
G1 X31.6327 Y8.5711
G3 X30.5955 Y8.4747 I1.9438 J-26.5374
G3 X30.5469 Y8.469 I0.0656 J-0.765
G3 X30.4513 Y8.4572 I0.0865 J-1.0979
G3 X30.3587 Y8.4452 I0.0986 J-1.1206
G3 X30.2691 Y8.4329 I0.1126 J-1.1532
G3 X29.9229 Y8.3786 I1.0473 J-7.8049
G3 X28.7349 Y8.0768 I1.2511 J-7.414
G3 X27.6283 Y7.5501 I1.862 J-5.3378
G3 X28.1376 Y7.2715 I1.3703 J1.9002
G3 X28.6534 Y7.1129 I1.2542 J3.1618
G3 X29.1508 Y7.0252 I1.1944 J5.3179
G3 X30.0959 Y6.9547 I1.1994 J9.7004
G1 X30.3041 Y6.9491
G1 X30.7084 Y6.944
G1 X30.8035 Y6.9435
G1 X30.8971 Y6.9433
G1 X31.6347 Y6.9431
G2 X32.2838 Y6.9354 I0.0109 J-26.218
G2 X33.4231 Y6.8619 I-0.2257 J-12.3805
G2 X33.851 Y6.7995 I-0.8595 J-7.3828
G2 X34.5871 Y6.6172 I-0.9252 J-5.3139
G2 X35.1147 Y6.3985 I-1.2086 J-3.6611
G2 X35.8142 Y5.9053 I-1.3317 J-2.6314
G2 X36.3321 Y5.2241 I-1.9298 J-2.0048
G2 X35.258 Y4.9343 I-8.7531 J30.3109
G1 X34.7859 Y4.8161
G2 X33.8982 Y4.6051 I-20.0029 J82.1771
G1 X33.1192 Y4.4296
G2 X30.3826 Y3.8639 I-27.0457 J123.917
G2 X27.6358 Y3.3502 I-30.7551 J156.8457
G2 X26.954 Y4.3434 I2.4091 J2.3844
G2 X26.7851 Y4.7625 I5.1031 J2.3002
G1 X26.7215 Y4.9501
G2 X26.7072 Y4.9943 I0.4026 J0.1541
G2 X26.6934 Y5.038 I0.4079 J0.1532
G1 X26.5896 Y5.383
G1 X26.5001 Y5.686
G3 X26.3237 Y6.211 I-7.8753 J-2.354
G3 X25.9409 Y6.949 I-3.2193 J-1.2014
G3 X25.3668 Y7.5501 I-2.2738 J-1.5972
G3 X24.7989 Y7.691 I-1.1388 J-3.3739
G1 X24.6631 Y7.7108
G3 X24.1241 Y7.7491 I-0.5978 J-4.6025
G3 X23.1077 Y7.6952 I-0.092 J-7.8656
G3 X22.6588 Y7.6364 I2.2958 J-19.2803
G1 X22.4471 Y7.6036
G1 X22.0362 Y7.5331
G1 X21.6481 Y7.4607
G1 X20.9138 Y7.3176
G2 X20.2557 Y7.1956 I-4.124 J20.4142
G2 X19.6645 Y7.1046 I-2.5938 J14.8806
G2 X19.3999 Y7.0735 I-0.7446 J5.1976
G2 X18.898 Y7.0392 I-0.6782 J6.2339
G2 X18.4527 Y7.0473 I-0.1437 J4.3385
G2 X18.3548 Y7.0557 I0.0678 J1.3715
G2 X17.9787 Y7.1174 I0.2179 J2.5019
G2 X17.6602 Y7.2192 I0.5813 J2.3677
G2 X16.8182 Y7.996 I0.6012 J1.4964
G2 X16.6207 Y8.5364 I2.1682 J1.0988
G2 X16.5299 Y9.1046 I3.6313 J0.8717
G1 X17.0755 Y9.1479
G3 X17.3396 Y9.1701 I-0.8259 J11.4145
G1 X17.4696 Y9.1813
G1 X17.5986 Y9.1926
G1 X17.7265 Y9.2039
G1 X18.2341 Y9.2503
G1 X18.7257 Y9.297
G3 X19.6779 Y9.3915 I-11.2469 J118.1646
G1 X20.5703 Y9.4831
G1 X22.2435 Y9.656
G1 X22.4266 Y9.6746
G1 X23.1474 Y9.7469
G1 X23.3165 Y9.7636
G1 X23.4829 Y9.7798
G1 X24.1381 Y9.8421
G2 X26.598 Y10.0456 I11.3519 J-122.2879
G1 X27.0598 Y10.0768
G2 X30.5283 Y10.214 I4.2875 J-64.4916
G2 X32.2641 Y10.203 I0.5357 J-52.6439
G2 X32.6979 Y10.1905 I-2.4956 J-93.6649
G1 X32.8606 Y10.1847
G1 X33.4297 Y10.1597
G1 X33.7141 Y10.1443
G1 X33.9984 Y10.127
G0 Z5.0
G0 X42.9492 Y2.1454
G1 Z0.0
G2 X45.3465 Y2.2881 I1.949 J-12.539
G2 X46.2453 Y2.2293 I-0.5251 J-14.9284
G2 X47.8033 Y1.9945 I-1.5634 J-15.6582
G2 X52.2422 Y0.4122 I-3.424 J-16.6231
G1 X44.4924 Y-0.1237
G1 X44.4313 Y-0.0625
G2 X43.9746 Y0.4276 I6.1671 J6.2043
G2 X43.3794 Y1.2372 I4.3239 J3.8023
G2 X42.9492 Y2.1454 I4.2906 J2.5882
G0 Z5.0
G0 X45.4312 Y-2.0013
G1 Z0.0
G1 X45.9145 Y-1.9506
G3 X47.7849 Y-1.7284 I-11.6437 J105.9786
G1 X47.8873 Y-1.7156
G1 X48.7002 Y-1.6141
G1 X49.4632 Y-1.5209
G1 X50.1796 Y-1.4375
G2 X51.5259 Y-1.2994 I7.4937 J-66.38
G2 X53.8929 Y-1.1547 I3.3976 J-36.1554
G2 X55.676 Y-1.1767 I0.6109 J-22.8031
G1 X55.8432 Y-1.1865
G1 X56.0052 Y-1.1975
G2 X57.255 Y-1.3371 I-1.0575 J-15.1344
G2 X57.7201 Y-1.4173 I-2.2142 J-14.2333
G2 X59.3156 Y-1.8421 I-1.9831 J-10.6577
G2 X60.8168 Y-2.5295 I-2.9282 J-8.3765
G2 X59.1505 Y-2.742 I-3.1595 J18.138
G2 X58.418 Y-2.7947 I-1.8555 J20.6738
G1 X58.0742 Y-2.8136
G2 X57.4077 Y-2.8419 I-1.4169 J25.5229
G2 X56.7826 Y-2.8606 I-1.1353 J27.424
G2 X54.4375 Y-2.8983 I-4.271 J192.6339
G1 X53.9975 Y-2.9046
G1 X53.1727 Y-2.9196
G3 X53.0824 Y-2.9216 I0.0199 J-2.9065
G1 X52.372 Y-2.9411
G3 X51.1293 Y-2.9963 I1.4596 J-46.8822
G3 X49.2703 Y-3.1574 I1.5693 J-28.9197
G3 X47.4304 Y-3.4684 I2.1569 J-18.3586
G1 X47.1877 Y-3.2755
G3 X46.315 Y-2.6308 I-15.8271 J-20.5078
G1 X46.0938 Y-2.4737
G1 X45.9278 Y-2.3561
G1 X45.6791 Y-2.1793
G1 X45.648 Y-2.1571
G1 X45.4312 Y-2.0013
G0 Z5.0
G0 X49.3042 Y-4.9392
G1 Z0.0
G2 X52.7706 Y-4.4966 I6.6533 J-38.3057
G2 X58.0098 Y-4.3617 I3.7818 J-45.0715
G1 X58.3376 Y-4.3739
G2 X60.7899 Y-4.5562 I-1.361 J-34.8927
G1 X61.0954 Y-4.5916
G1 X61.2289 Y-4.608
G2 X63.219 Y-4.9392 I-2.8638 J-23.3516
G1 X62.8236 Y-5.346
G1 X51.7177 Y-6.2771
G1 X49.3042 Y-4.9392
G0 Z5.0
G0 X64.2515 Y-11.1656
G1 Z0.0
G2 X64.4022 Y-10.8858 I1.4816 J-0.6172
G2 X64.6997 Y-10.5261 I1.8919 J-1.2623
G2 X65.0291 Y-10.2417 I2.6613 J-2.7486
G2 X65.7151 Y-9.8013 I3.3736 J-4.5008
G2 X65.8726 Y-9.7156 I1.6716 J-2.886
G1 X66.0268 Y-9.6352
G1 X66.3291 Y-9.4852
G2 X66.9044 Y-9.2167 I16.0839 J-33.6999
G1 X67.1592 Y-9.1007
G3 X68.1125 Y-8.6516 I-10.4871 J23.4963
G1 X68.2915 Y-8.5596
G3 X68.9446 Y-8.177 I-3.0785 J6.0042
G3 X69.0632 Y-8.0953 I-2.1288 J3.2155
G3 X69.4801 Y-7.7511 I-2.003 J2.8512
G3 X69.6205 Y-7.6025 I-1.6012 J1.6537
G3 X69.9795 Y-6.9872 I-1.325 J1.1853
G3 X70.0375 Y-6.2771 I-1.5251 J0.482
G1 X67.6278 Y8.5687
G1 X68.1676 Y8.4765
G3 X69.1822 Y8.3171 I7.0169 J41.3537
G3 X70.9689 Y8.1134 I3.9038 J26.3001
G3 X72.3173 Y8.0591 I1.3623 J17.0617
G3 X73.3291 Y8.0898 I-0.0168 J17.228
G3 X76.324 Y8.5687 I-1.0637 J16.256
G1 X76.1302 Y6.8305
G3 X74.8606 Y-5.346 I1118.0507 J-122.7311
G3 X75.0753 Y-6.324 I1.6997 J-0.1395
G3 X75.6272 Y-6.9583 I1.8942 J1.0909
G3 X76.2449 Y-7.3416 I2.031 J2.5841
G3 X77.4534 Y-7.7183 I1.9565 J4.1497
G3 X79.3487 Y-7.7116 I0.9288 J5.3881
G3 X80.2649 Y-7.4452 I-0.8091 J4.4919
G3 X81.094 Y-6.9728 I-1.3323 J3.3015
G2 X81.66 Y-6.625 I1.8349 J-2.3519
G2 X82.1361 Y-6.4605 I1.0395 J-2.2364
G2 X82.5132 Y-6.4162 I0.3966 J-1.75
G2 X83.5569 Y-6.8131 I0.0111 J-1.5414
G2 X82.7234 Y-7.8435 I-7.5753 J5.2758
G2 X81.8254 Y-8.6927 I-7.602 J7.1396
G2 X80.9051 Y-9.3903 I-7.9589 J9.5447
G1 X80.6807 Y-9.5406
G2 X78.8215 Y-10.5689 I-8.1521 J12.5436
G2 X77.1021 Y-11.2671 I-8.2023 J17.7322
G1 X77.0063 Y-11.3006
G2 X75.4667 Y-11.7713 I-7.7117 J22.4675
G1 X75.126 Y-11.8601
G2 X74.4625 Y-12.0187 I-5.7329 J22.5168
G2 X71.9449 Y-12.4666 I-6.3377 J28.3231
G2 X68.121 Y-12.748 I-4.3393 J32.85
G2 X67.1618 Y-12.7486 I-0.4959 J25.9646
G1 X66.8021 Y-12.7415
G2 X65.5446 Y-12.6838 I0.7463 J29.9948
G2 X65.2307 Y-12.661 I0.5302 J9.4943
G1 X64.9954 Y-12.6417
G2 X64.2907 Y-12.5713 I1.882 J22.3907
G2 X64.1385 Y-11.9653 I2.1705 J0.8675
G2 X64.2515 Y-11.1656 I1.5947 J0.1824
G0 Z5.0
G0 X62.3599 Y6.1628
G1 Z0.0
G2 X62.2839 Y6.159 I-0.0698 J0.6392
G1 X61.345
G1 Y7.6375
G1 X62.8236
G3 X62.8426 Y7.215 I7.4111 J0.122
G1 X62.8493 Y7.0502
G1 X62.8504 Y6.9768
G2 X62.8351 Y6.7004 I-2.2681 J-0.0132
G2 X62.7863 Y6.4928 I-1.1546 J0.1622
G2 X62.711 Y6.3495 I-0.4973 J0.1698
G2 X62.5208 Y6.2018 I-0.3557 J0.2617
G2 X62.3599 Y6.1628 I-0.2307 J0.6002
G0 Z5.0
G0 X62.2839 Y9.1046
G1 Z0.0
G1 X61.345
G1 Y10.032
G1 X62.2839
G1 Y9.1046
G0 Z5.0
G0 X80.5157 Y5.6196
G1 Z0.0
G1 X80.6188 Y6.159
G1 Y-0.1237
G1 X79.4026 Y-0.2035
G1 X80.5157 Y5.6196
G0 Z5.0
G0 X82.9829 Y5.4251
G1 Z0.0
G1 X83.0096 Y5.7638
G2 X83.2652 Y5.4389 I-2.5824 J-2.2952
G2 X83.6395 Y4.7596 I-3.4734 J-2.3564
G2 X84.0392 Y3.4533 I-5.3628 J-2.3554
G2 X84.1375 Y2.4092 I-5.6266 J-1.0562
G2 X84.0656 Y1.6103 I-4.2059 J-0.0239
G2 X83.8953 Y1.0246 I-2.9097 J0.5282
G2 X83.6796 Y0.6173 I-2.087 J0.8445
G2 X83.1902 Y0.1308 I-1.4254 J0.9444
G2 X82.5459 Y-0.1161 I-0.9254 J1.4511
G1 X82.9829 Y5.4251
G0 Z5.0
G0 X23.6754 Y2.5483
G1 Z0.0
G1 X23.2568 Y2.4851
G3 X22.4563 Y2.3512 I4.3979 J-28.7634
G1 X21.7311 Y2.2193
G1 X21.6907 Y2.2118
G1 X21.6507 Y2.2044
G1 X21.3327 Y2.1462
G1 X21.2574 Y2.1327
G1 X21.1088 Y2.1066
G1 X20.9637 Y2.0822
G1 X20.6799 Y2.0389
G1 X20.5446 Y2.0213
G2 X20.4126 Y2.007 I-0.2396 J1.5903
G2 X19.8973 Y1.9962 I-0.3199 J2.9805
G2 X19.6759 Y2.0318 I0.1285 J1.5045
G2 X19.3055 Y2.2126 I0.2056 J0.8912
G2 X19.0753 Y2.4769 I0.7072 J0.8485
G2 X18.9341 Y2.746 I1.6389 J1.0311
G2 X18.8841 Y2.869 I1.699 J0.7639
G2 X18.8031 Y3.104 I3.5523 J1.3544
G2 X18.6882 Y3.5235 I5.9796 J1.8636
G1 X18.6508 Y3.6822
G2 X18.4303 Y4.8021 I26.8362 J5.8667
G1 X19.5196 Y5.0748
G1 X19.7239 Y5.126
G2 X20.1072 Y5.2209 I4.013 J-15.3886
G2 X21.455 Y5.5262 I7.5668 J-30.2739
G1 X21.7941 Y5.5927
G1 X21.9215 Y5.6165
G1 X22.1448 Y5.6564
G1 X22.3124 Y5.685
G2 X22.3754 Y5.6954 I0.1355 J-0.6231
G1 X22.8164 Y5.7638
G2 X23.1083 Y4.9825 I-6.756 J-2.9693
G1 X23.1543 Y4.8331
G2 X23.3068 Y4.2672 I-13.7985 J-4.0238
G1 X23.3326 Y4.1604
G2 X23.508 Y3.3552 I-34.4483 J-7.9263
G1 X23.5287 Y3.2543
G1 X23.6012 Y2.901
G1 X23.6754 Y2.5483
G0 Z5.0
G0 X23.9446 Y0.3519
G1 Z0.0
G2 X24.309 Y0.3886 I1.0376 J-8.4658
G1 X24.3576 Y0.3926
G2 X24.6978 Y0.4122 I0.9443 J-13.417
G3 X25.5363 Y-1.6664 I39.0356 J14.5383
G3 X27.406 Y-5.4259 I39.0486 J17.0753
G3 X29.3225 Y-8.5579 I40.4662 J22.6089
G3 X33.2059 Y-13.6713 I44.0887 J29.4521
G3 X34.812 Y-15.4658 I45.1205 J38.7679
G1 X35.1732 Y-15.8494
G3 X41.1773 Y-21.3752 I44.7761 J42.6268
G3 X47.8447 Y-26.0792 I39.8863 J49.4566
G1 X48.373 Y-29.0249
G3 X50.0853 Y-30.0524 I6.4866 J8.869
G1 X50.1901 Y-30.1027
G3 X51.9134 Y-30.7753 I5.9113 J12.6038
G3 X52.744 Y-31.0125 I4.2468 J13.2975
G1 X52.9467 Y-31.0632
G3 X53.7565 Y-31.2403 I3.8998 J15.8918
G3 X53.9536 Y-31.2776 I0.9483 J4.4685
G3 X55.5287 Y-31.504 I3.9162 J21.657
G3 X55.8996 Y-31.5403 I1.8864 J17.3214
G3 X57.3634 Y-31.6291 I2.2375 J24.7911
G1 X57.7067 Y-31.6382
G3 X60.4102 Y-31.5756 I0.6153 J31.8478
G3 X61.589 Y-31.4821 I-2.4876 J38.8397
G1 X61.8649 Y-31.455
G3 X66.1793 Y-30.802 I-4.8403 J46.5594
G3 X67.78 Y-30.4604 I-10.8855 J54.9329
G1 X68.1288 Y-30.3794
G3 X73.4621 Y-28.8505 I-13.6495 J57.6825
G3 X73.5032 Y-28.8366 I-0.0857 J0.3196
G3 X73.544 Y-28.8227 I-0.0852 J0.3168
G3 X74.1893 Y-28.5979 I-14.9106 J43.8422
G3 X74.2246 Y-28.5853 I-0.0768 J0.2716
G3 X76.4389 Y-27.7326 I-15.7271 J44.1445
G3 X76.9845 Y-27.4991 I-30.6922 J72.4347
G1 X77.0863 Y-27.4541
G1 X77.2767 Y-27.3689
G1 X77.6083 Y-27.2161
G1 X77.8554 Y-27.0981
G1 X78.0397 Y-27.0075
G1 X78.3141 Y-26.8675
G1 X78.4503 Y-26.7954
G1 X78.5855 Y-26.7216
G1 X79.0047 Y-26.4876
G1 X79.0968 Y-26.437
G1 X79.455 Y-26.2434
G1 X79.7705 Y-26.078
G2 X80.3287 Y-25.8001 I7.1435 J-13.6512
G2 X81.186 Y-25.4255 I5.1634 J-10.6488
G2 X81.627 Y-25.2684 I2.8096 J-7.1922
G2 X82.0785 Y-25.1444 I1.6212 J-5.0156
G1 X76.7268 Y-30.3551
G1 X77.2628 Y-30.8911
G3 X78.5401 Y-30.1689 I-8.113 J15.8387
G1 X78.6856 Y-30.0776
G3 X80.8865 Y-28.4741 I-11.73 J18.4116
G1 X81.001 Y-28.3793
G1 X81.1141 Y-28.2845
G1 X81.2258 Y-28.1899
G3 X82.9336 Y-26.6154 I-19.3833 J22.7375
G1 X83.2919 Y-26.2555
G3 X83.4636 Y-26.0795 I-8.9725 J8.9258
G3 X84.7798 Y-24.6587 I-29.4618 J28.611
G3 X85.0598 Y-24.3408 I-15.9061 J14.2961
G3 X85.5953 Y-23.719 I-27.2543 J24.0126
G1 X85.8434 Y-23.425
G1 X86.082 Y-23.1388
G1 X86.3118 Y-22.8603
G1 X86.753 Y-22.3177
G3 X86.8558 Y-22.19 I-5.1572 J4.2539
G1 X87.2581 Y-21.6853
G1 X87.6322 Y-21.2099
G3 X87.6759 Y-21.154 I-1.3242 J1.0805
G3 X87.7192 Y-21.0986 I-1.2903 J1.0524
G3 X87.7621 Y-21.0435 I-1.2585 J1.0261
G3 X87.8047 Y-20.9888 I-1.2287 J1.0013
G3 X87.8469 Y-20.9346 I-1.2006 J0.978
G3 X87.8888 Y-20.8807 I-1.1741 J0.956
G1 X88.5497 Y-20.0237
G1 X89.124 Y-19.2706
G1 X90.1248 Y-17.9496
G1 X90.8765 Y-16.9597
G1 X91.4437 Y-16.2198
G1 X91.8723 Y-15.6673
G1 X92.1961 Y-15.2548
G1 X92.4406 Y-14.9467
G1 X92.8103 Y-14.4871
G1 X92.9968 Y-14.2584
G2 X93.0904 Y-14.1445 I5.1616 J-4.1459
G2 X93.1843 Y-14.0308 I3.3518 J-2.6733
G2 X93.5054 Y-14.3613 I-1.2117 J-1.4982
G2 X93.5685 Y-14.4445 I-0.7234 J-0.6134
G2 X93.7923 Y-14.7864 I-2.9888 J-2.2012
G2 X94.1505 Y-15.4532 I-9.8536 J-5.7235
G1 X94.3044 Y-15.7598
G1 X94.4547 Y-16.051
G3 X94.6014 Y-16.3109 I3.6627 J1.8956
G1 X94.6369 Y-16.3685
G3 X94.7901 Y-16.5852 I1.6086 J0.975
G3 X94.9616 Y-16.7546 I0.7228 J0.5601
G3 X95.1509 Y-16.8377 I0.258 J0.3306
G3 X95.3202 Y-16.815 I0.0428 J0.3236
G3 X95.445 Y-16.7406 I-0.2049 J0.4857
G3 X95.6198 Y-16.5589 I-0.6294 J0.7804
G3 X95.8242 Y-16.2419 I-2.1886 J1.6354
G3 X95.8468 Y-16.2005 I-0.6008 J0.3549
G3 X95.9931 Y-15.9046 I-4.9187 J2.6155
G3 X96.0226 Y-15.8271 I-1.6693 J0.6793
G3 X99.4204 Y-5.7954 I-132.4276 J50.4459
G1 X99.5842 Y-5.2396
G3 X101.8536 Y3.6733 I-123.2902 J36.1376
G1 X101.9592 Y4.1652
G1 X102.1629 Y5.1425
G3 X104.3103 Y20.707 I-118.42 J24.2682
G3 X104.5874 Y26.5945 I-117.484 J8.4809
G3 X104.3796 Y36.9039 I-121.5095 J2.707
G3 X103.6635 Y44.6042 I-126.9559 J-7.9223
G1 X103.6186 Y44.964
G3 X103.2307 Y47.7925 I-118.0371 J-14.7459
G3 X101.413 Y57.6159 I-139.4867 J-20.7304
G1 X101.2768 Y58.2253
G3 X98.9387 Y67.2947 I-154.194 J-34.9154
G2 X98.9119 Y67.3619 I1.5839 J0.6702
G1 X98.702 Y67.896
G1 X98.6044 Y68.1475
G1 X98.2253 Y69.1227
G1 X98.0549 Y69.5502
G1 X97.9734 Y69.7505
G3 X97.2833 Y71.2791 I-19.2646 J-7.7771
G3 X96.6445 Y72.3759 I-8.9406 J-4.4723
G3 X96.0553 Y73.1304 I-5.4916 J-3.6813
G3 X95.5345 Y73.6273 I-3.5428 J-3.1921
G3 X93.5909 Y74.52 I-2.6341 J-3.1726
G3 X92.8569 Y73.7873 I2.8402 J-3.5792
G3 X92.3949 Y73.0162 I2.6749 J-2.1267
G3 X92.1697 Y72.2707 I3.3132 J-1.4074
G3 X92.0951 Y71.5963 I4.426 J-0.831
G3 X92.0903 Y71.448 I2.1952 J-0.145
G3 X92.0981 Y70.8731 I8.7077 J-0.1701
G3 X92.1037 Y70.7473 I3.1629 J0.0792
G3 X92.1101 Y70.6254 I2.2246 J0.0543
G3 X92.1384 Y70.1532 I28.4039 J1.4673
G2 X92.1613 Y69.7394 I-13.2765 J-0.9419
G2 X92.1735 Y69.0136 I-10.8935 J-0.547
G2 X92.1694 Y68.8773 I-4.0999 J0.0561
G2 X92.0417 Y67.864 I-5.4369 J0.1706
G2 X91.7058 Y66.8994 I-4.4129 J0.996
G1 X90.2464 Y69.2939
G3 X90.1068 Y71.27 I-5.8907 J0.577
G3 X89.994 Y71.6834 I-5.2278 J-1.2047
G1 X89.9629 Y71.7822
G3 X89.6696 Y72.5494 I-7.8569 J-2.5639
G3 X88.9451 Y73.9037 I-9.8687 J-4.4087
G3 X88.7644 Y74.1866 I-23.6325 J-14.8991
G3 X88.0131 Y75.248 I-16.4111 J-10.8192
G1 X87.8404 Y75.4744
G3 X87.4998 Y75.9083 I-32.9559 J-25.5118
G3 X87.3379 Y76.1101 I-13.2171 J-10.4371
G1 X87.0213 Y76.4988
G1 X86.4217 Y77.2234
G2 X85.3791 Y78.499 I51.2575 J42.9585
G1 X85.1879 Y78.7425
G2 X84.4976 Y79.6762 I17.9322 J13.9818
G2 X84.0203 Y80.406 I11.5321 J8.0625
G1 X83.9361 Y80.5465
G2 X83.6397 Y81.0839 I9.4156 J5.5426
G1 X83.5879 Y81.1868
G2 X83.2468 Y81.9797 I7.0288 J3.4938
G2 X83.0096 Y82.8096 I5.3352 J1.974
G2 X83.3501 Y82.6781 I-0.8904 J-2.8143
G2 X83.947 Y82.3402 I-2.0678 J-4.3475
G1 X84.0732 Y82.2557
G1 X84.1944 Y82.1716
G1 X84.253 Y82.1302
G1 X84.3104 Y82.089
G2 X84.5355 Y81.9248 I-5.5444 J-7.8362
G1 X84.6411 Y81.8469
G3 X85.0533 Y81.5463 I10.7033 J14.2442
G3 X85.1456 Y81.4814 I1.423 J1.9254
G1 X85.3267 Y81.3584
G1 X85.4131 Y81.3023
G3 X85.7572 Y81.0989 I2.9896 J4.6669
G3 X86.0744 Y80.9473 I1.99 J3.7559
G3 X86.6675 Y80.7807 I0.9577 J2.2704
G3 X87.5796 Y80.8814 I0.2563 J1.8607
G3 X87.9938 Y81.0827 I-0.7956 J2.1636
G3 X88.3687 Y81.35 I-1.9153 J3.0822
G3 X86.8189 Y85.2819 I-16.9941 J-4.4273
G3 X85.0576 Y87.9141 I-15.2029 J-8.2671
G3 X83.4524 Y89.663 I-14.86 J-12.0282
G3 X83.1288 Y89.9686 I-16.6166 J-17.2691
G3 X81.861 Y91.0537 I-14.6148 J-15.7927
G3 X79.8257 Y92.5092 I-16.3946 J-20.775
G3 X77.6694 Y93.7786 I-17.3205 J-26.9548
G3 X69.3681 Y96.7622 I-20.1323 J-42.9742
G3 X61.7801 Y98.0969 I-12.3744 J-48.116
G3 X58.4182 Y98.3152 I-5.081 J-52.2526
G3 X52.1083 Y98.1513 I-1.7464 J-54.2987
G3 X46.6351 Y97.4237 I4.8026 J-57.0809
G3 X37.3083 Y94.9325 I10.8533 J-59.3383
G3 X24.3269 Y88.5569 I20.9197 J-58.9981
G3 X18.4778 Y84.2825 I33.2642 J-51.6589
G3 X13.1853 Y79.3356 I37.3235 J-45.2356
G1 X12.3488 Y78.3957
G3 X9.1732 Y74.6899 I108.5467 J-96.2304
G1 X8.8332 Y74.2756
G1 X8.5004 Y73.8659
G1 X8.1748 Y73.4608
G3 X8.0152 Y73.2607 I20.5155 J-16.5201
G3 X7.8574 Y73.0617 I10.0164 J-8.1039
G3 X5.4336 Y69.8393 I62.5697 J-49.5859
G1 X5.1784 Y69.4779
G1 X4.9294 Y69.1204
G3 X4.4462 Y68.4117 I53.6447 J-37.0891
G1 X4.2156 Y68.0658
G1 X3.9909 Y67.7236
G3 X2.3117 Y64.9714 I42.2305 J-27.6532
G3 X0.9958 Y62.4701 I37.9899 J-21.5827
G1 X0.862 Y62.1909
G3 X0.8294 Y62.122 I1.3262 J-0.67
G3 X-0.1357 Y59.8936 I33.5373 J-15.8481
G3 X-1.4259 Y55.8432 I28.8363 J-11.4163
G3 X-1.4722 Y55.6491 I4.8618 J-1.261
G3 X-2.0105 Y52.5536 I26.0315 J-6.1214
G3 X-1.2578 Y43.2092 I24.1738 J-2.7553
G3 X-2.87 Y34.2508 I97.5037 J-22.1713
G1 X-2.9794 Y33.4034
G1 X-3.0784 Y32.5816
G3 X-3.2505 Y30.987 I89.7357 J-10.4889
G3 X-3.5004 Y27.9899 I94.3977 J-9.3801
G3 X-3.5787 Y26.6761 I105.3494 J-6.9373
G1 X-3.6086 Y26.0598
G1 X-3.6215 Y25.7612
G3 X-3.6622 Y24.5851 I87.7539 J-3.6205
G1 X-3.6755 Y24.0336
G3 X-3.6848 Y23.4992 I37.2177 J-0.9179
G3 X-3.6868 Y21.4281 I84.9769 J-1.116
G3 X-3.5497 Y17.806 I70.8848 J0.8688
G1 X-3.527 Y17.4669
G1 X-3.5033 Y17.1384
G3 X-3.2605 Y14.5981 I61.3923 J4.5865
G3 X-2.68 Y10.8147 I52.043 J6.0491
G3 X-1.7974 Y7.0903 I42.0566 J7.9992
G1 X-1.2663 Y7.1697
G1 X-0.2365 Y7.3195
G1 X0.7294 Y7.4561
G1 X1.6354 Y7.5812
G2 X5.0368 Y8.0228 I40.2177 J-296.4625
G1 X5.3561 Y8.0617
G1 X6.5936 Y8.2082
G2 X10.9333 Y8.6457 I15.9184 J-136.1457
G1 X11.477 Y8.6889
G1 X11.7149 Y8.7066
G1 X11.9381 Y8.7226
G1 X12.1474 Y8.7369
G1 X12.3436 Y8.7498
G2 X12.5276 Y8.7613 I1.0209 J-14.8707
G1 X12.7002 Y8.7715
G1 X12.862 Y8.7807
G1 X13.4687 Y8.8103
G1 X13.924 Y8.827
G1 X14.2656 Y8.8357
G1 X14.5219 Y8.8397
G1 X14.9065 Y8.8408
G1 X15.0987 Y8.8388
G1 X15.2909 Y8.8348
G2 X15.3978 Y8.3727 I-1.8606 J-0.6739
G2 X15.2244 Y7.5259 I-1.4457 J-0.145
G2 X15.0075 Y7.2114 I-1.5794 J0.8567
G2 X14.4627 Y6.7271 I-2.1333 J1.8514
G2 X13.8801 Y6.3829 I-2.7366 J3.9672
G2 X12.7093 Y5.9077 I-3.767 J7.6008
G2 X11.6483 Y5.6043 I-4.3676 J13.2677
G1 X11.4138 Y5.5477
G2 X9.5781 Y5.1942 I-5.7102 J24.7077
G1 X9.2316 Y5.1414
G2 X6.6207 Y4.8412 I-6.5233 J45.2292
G1 X6.2934 Y4.8133
G1 X5.7202 Y4.7687
G2 X3.9988 Y4.6615 I-6.4488 J89.7198
G3 X3.2745 Y4.6083 I1.5054 J-25.4313
G3 X2.0122 Y4.4528 I1.4571 J-17.0328
G3 X1.0754 Y4.267 I2.0864 J-12.9787
G3 X-0.2917 Y3.8387 I2.1941 J-9.398
G3 X-1.5656 Y3.183 I2.6815 J-6.7751
G3 X-1.5924 Y2.8098 I3.3603 J-0.4293
G3 X-1.5903 Y2.4423 I6.6386 J-0.1449
G3 X-1.5443 Y1.7207 I13.309 J0.4855
G1 X-1.5362 Y1.6335
G1 X-1.4999 Y1.2867
G3 X-1.3093 Y-0.0733 I31.1421 J3.6707
G1 X-1.2831 Y-0.2322
G3 X-0.7886 Y-2.7407 I46.2105 J7.8069
G3 X0.3613 Y-7.0751 I56.6749 J12.7158
G1 X0.4873 Y-7.4792
G1 X0.5494 Y-7.6746
G1 X0.6114 Y-7.8668
G1 X0.7355 Y-8.2446
G3 X0.7968 Y-8.4274 I21.8339 J7.2117
G3 X0.8577 Y-8.6072 I4.3255 J1.3668
G3 X0.888 Y-8.6956 I2.3205 J0.745
G1 X1.0098 Y-9.046
G3 X2.0541 Y-11.7256 I39.3661 J13.7976
G3 X2.502 Y-12.7145 I26.4708 J11.3952
G1 X2.605 Y-12.9292
G3 X3.4715 Y-14.5591 I20.067 J9.6233
G3 X3.4936 Y-14.5966 I0.2947 J0.1482
G3 X4.2436 Y-15.7566 I14.255 J8.3948
G3 X4.8846 Y-16.5762 I9.1207 J6.4726
G3 X4.9491 Y-16.65 I1.1037 J0.8985
G3 X5.4763 Y-17.1957 I5.7446 J5.0224
G3 X6.3782 Y-17.8911 I3.8045 J4.0018
G3 X6.8867 Y-18.1516 I1.8676 J3.0186
G3 X7.4309 Y-18.3256 I1.2359 J2.928
G1 X7.021 Y-17.3045
G1 X6.2509 Y-15.39
G2 X5.9177 Y-14.5503 I62.4955 J25.2821
G1 X5.8403 Y-14.3532
G1 X5.5384 Y-13.5759
G2 X4.4708 Y-10.6363 I69.5548 J26.9237
G2 X4.4241 Y-10.4972 I2.9844 J1.0804
G1 X4.2436 Y-9.9484
G1 X4.08 Y-9.4319
G2 X3.7895 Y-8.4587 I35.6583 J11.174
G1 X3.6697 Y-8.0307
G1 X3.5617 Y-7.6283
G1 X3.4646 Y-7.2499
G2 X2.8821 Y-4.3792 I29.6891 J7.5188
G1 X2.8301 Y-4.0165
G1 X2.7888 Y-3.6986
G2 X2.7803 Y-3.6289 I1.4409 J0.2108
G2 X2.6229 Y-1.4615 I21.4687 J2.6492
G2 X3.3593 Y-2.539 I-9.5515 J-7.3188
G2 X3.9208 Y-3.5319 I-13.3153 J-8.1842
G1 X4.0352 Y-3.7536
G2 X4.2497 Y-4.1867 I-12.5263 J-6.4757
G2 X4.2988 Y-4.2888 I-3.2695 J-1.6338
G2 X5.0282 Y-5.917 I-39.9361 J-18.8666
G1 X5.5534 Y-7.1484
G1 X5.7539 Y-7.609
G1 X5.9334 Y-8.0103
G1 X6.0947 Y-8.3594
G3 X6.1669 Y-8.5115 I2.974 J1.3175
G3 X6.7483 Y-9.6319 I15.1563 J7.1548
G1 X6.9078 Y-9.9044
G3 X7.4309 Y-10.6937 I9.608 J5.7993
G3 X7.4769 Y-10.2846 I-8.0543 J1.1121
G3 X7.4533 Y-8.7443 I-8.5519 J0.6397
G3 X6.9707 Y-6.4866 I-10.5837 J-1.082
G3 X6.5391 Y-5.4129 I-8.9104 J-2.9583
G3 X5.96 Y-4.4109 I-6.4068 J-3.0345
G2 X5.6246 Y-3.7954 I6.8482 J4.1304
G2 X5.4154 Y-3.3088 I4.3982 J2.1796
G2 X5.2966 Y-2.9272 I2.9903 J1.1402
G2 X5.2223 Y-2.3312 I2.2407 J0.5821
G2 X5.3594 Y-1.7466 I1.3511 J-0.0086
G2 X5.4791 Y-1.5794 I0.6259 J-0.3214
G2 X5.7938 Y-1.341 I0.9996 J-0.9927
G1 X5.8766 Y-1.2956
G2 X6.2186 Y-1.1438 I1.526 J-2.9773
G2 X6.3887 Y-1.0828 I0.9488 J-2.376
G2 X7.0734 Y-0.8929 I2.1904 J-6.5693
G2 X7.726 Y-0.7637 I2.2591 J-9.7016
G2 X7.8798 Y-0.7383 I0.5099 J-2.6076
G1 X8.1832 Y-0.6927
G1 X8.4778 Y-0.6535
G2 X9.0502 Y-0.5897 I1.9212 J-14.619
G1 X9.319 Y-0.5645
G2 X11.4079 Y-0.4522 I2.7826 J-32.2575
G2 X14.5472 Y-0.5089 I0.9069 J-36.6982
G1 X14.9401 Y-0.5363
G2 X15.1119 Y-0.5501 I-0.2614 J-4.3343
G1 X15.4338 Y-0.5792
G2 X16.5558 Y-0.7262 I-1.5301 J-16.0344
G2 X17.111 Y-0.8447 I-1.2368 J-7.1555
G1 X17.2479 Y-0.8836
G2 X17.3494 Y-0.9166 I-1.8365 J-5.817
G2 X17.6398 Y-1.0511 I-0.4186 J-1.2852
G2 X18.549 Y-1.7856 I-3.0912 J-4.7562
G2 X19.2063 Y-2.5616 I-4.3735 J-4.3705
G1 X19.3329 Y-2.7439
G2 X19.563 Y-3.1071 I-5.1736 J-3.5313
G2 X19.9487 Y-3.8143 I-10.0933 J-5.9648
G2 X20.253 Y-4.4505 I-24.5219 J-12.118
G1 X20.7619 Y-5.5758
G1 X20.8106 Y-5.6811
G1 X20.8582 Y-5.7829
G1 X20.9048 Y-5.8813
G1 X20.9504 Y-5.9765
G1 X20.9951 Y-6.0684
G1 X21.0388 Y-6.1572
G3 X21.3984 Y-6.8348 I10.6987 J5.2427
G3 X22.0284 Y-7.7977 I7.8967 J4.4792
G3 X22.7899 Y-8.6603 I5.7982 J4.3512
G1 X23.7478 Y-8.284
G2 X22.5652 Y-6.3986 I12.9369 J9.4281
G2 X22.1839 Y-5.6569 I17.6152 J9.5242
G2 X21.5707 Y-4.3327 I32.9207 J16.0496
G1 X21.1332 Y-3.3294
G1 X20.8042 Y-2.5773
G1 X20.7416 Y-2.4366
G1 X20.5028 Y-1.911
G3 X19.7264 Y-0.3632 I-21.7439 J-9.9378
G1 X19.882 Y-0.3398
G1 X20.183 Y-0.292
G1 X20.2535 Y-0.2803
G1 X20.5307 Y-0.2331
G3 X21.0497 Y-0.14 I-3.5932 J21.5386
G1 X21.957 Y0.0289
G1 X22.6381 Y0.1529
G1 X23.1501 Y0.2395
G2 X23.9214 Y0.349 I2.8689 J-17.4398
G2 X23.9446 Y0.3519 I1.0608 J-8.463
G0 Z5.0
G0 X121.8233 Y137.3927
G1 Z0.0
G3 X122.7229 Y137.4516 I0.2307 J3.3774
G3 X123.0596 Y137.5448 I-0.4475 J2.2716
G3 X123.5937 Y137.8446 I-0.5505 J1.6062
G3 X124.0218 Y138.6398 I-0.8181 J0.9532
G3 X124.0306 Y139.0934 I-1.8035 J0.2619
G3 X123.9998 Y139.3184 I-2.3235 J-0.203
G1 X123.9893 Y139.3741
G1 X123.9715 Y139.4573
G1 X123.9516 Y139.5401
G1 X121.0137
G1 X121.8233 Y137.3927
G0 Z5.0
G0 X213.5781 Y61.145
G1 Z0.0
G3 X215.9576 Y56.7611 I28.8252 J12.8075
G1 X216.0866 Y56.5647
G1 X216.3449 Y56.1812
G3 X218.5505 Y53.3576 I22.7626 J15.5078
G3 X220.4549 Y51.4524 I17.2694 J15.3577
G3 X221.2273 Y50.7986 I14.0917 J15.8633
G3 X222.6565 Y49.7526 I11.397 J14.0737
G3 X224.9826 Y48.4709 I8.8489 J13.3075
G3 X227.5004 Y47.6256 I5.5519 J12.3656
G3 X227.4902 Y47.7087 I-1.3442 J-0.1233
G3 X227.1967 Y49.0011 I-7.2025 J-0.9562
G3 X227.0005 Y49.5446 I-8.1126 J-2.6205
G3 X226.5438 Y50.5254 I-9.3261 J-3.7457
G3 X225.5368 Y52.1245 I-12.0097 J-6.447
G1 X225.3261 Y52.4092
G3 X224.4914 Y53.4418 I-16.3091 J-12.3303
G1 X224.3283 Y53.6299
G1 X224.1738 Y53.8048
G1 X223.8804 Y54.1295
G3 X222.8237 Y55.2378 I-29.9631 J-27.5106
G1 X222.5545 Y55.5099
G3 X222.1487 Y55.9163 I-28.1219 J-27.681
G1 X221.7423 Y56.3218
G1 X222.1489 Y56.7247
G3 X222.7187 Y56.3884 I3.4489 J5.192
G1 X222.8642 Y56.3134
G1 X223.0105 Y56.2411
G3 X224.2068 Y55.7256 I6.9354 J14.4471
G3 X224.5058 Y55.611 I3.2436 J8.0165
G1 X224.6551 Y55.5553
G3 X225.8568 Y55.136 I13.931 J37.9994
G3 X228.2515 Y54.4021 I19.6525 J59.8448
G1 X228.5431 Y54.319
G1 X229.1248 Y54.1565
G3 X231.442 Y53.5434 I30.7854 J111.6759
G1 X231.5124 Y53.5255
G1 X232.0747 Y53.3839
G3 X234.3111 Y52.8412 I45.4055 J182.229
G3 X234.4467 Y52.8092 I1.2788 J5.1205
G3 X235.5302 Y52.5571 I23.2581 J97.5184
G1 X236.598 Y52.3142
G3 X240.8114 Y51.399 I66.0462 J293.9368
G1 X241.306 Y51.2955
G1 X242.2877 Y51.0922
G1 X242.7712 Y50.9931
G1 X243.7308 Y50.7982
G1 X244.676 Y50.6085
G1 X245.6067 Y50.4238
G3 X252.9482 Y49.0311 I108.4928 J551.8528
G1 X253.3502 Y48.9577
G1 X253.7492 Y48.8852
G1 X255.3328 Y48.5999
G1 X255.5247 Y48.5656
G3 X267.7717 Y46.4876 I129.9512 J728.7695
G1 X270.0717 Y46.12
G1 X271.1502 Y45.95
G1 X273.2405 Y45.6247
G1 X275.2009 Y45.3249
G1 X277.0395 Y45.0482
G1 X278.7639 Y44.7929
G1 X280.3809 Y44.5571
G1 X281.1391 Y44.4479
G1 X281.5064 Y44.3952
G1 X281.868 Y44.3436
G3 X287.5665 Y43.5564 I103.8769 J730.9089
G1 X288.6358 Y43.4146
G1 X290.6413 Y43.1544
G1 X292.3971 Y42.9333
G1 X292.7813 Y42.8858
G1 X293.1536 Y42.84
G1 X293.5142 Y42.7961
G3 X296.3104 Y42.4661 I38.9533 J318.1331
G1 X296.5727 Y42.4363
G1 X297.5892 Y42.3226
G1 X298.4789 Y42.2259
G1 X298.6736 Y42.2051
G1 X298.8623 Y42.1851
G1 X299.5932 Y42.1088
G1 X299.9131 Y42.0761
G1 X300.513 Y42.016
G1 X301.5631 Y41.9148
G1 X302.3512 Y41.8426
G1 X302.9424 Y41.7909
G3 X304.7173 Y41.6508 I9.1351 J104.4221
G3 X305.4592 Y41.6107 I1.3869 J18.7609
G3 X305.8917 Y41.6018 I0.5403 J15.8037
G1 X306.0874 Y41.6038
G3 X306.3671 Y41.6184 I-0.0509 J3.6504
G3 X306.5374 Y41.6418 I-0.1676 J1.8576
G1 X306.604 Y41.6588
G3 X306.6569 Y41.6825 I-0.1571 J0.4203
G3 X306.683 Y41.7181 I-0.0233 J0.0444
G3 X306.6722 Y41.7485 I-0.0456 J0.0009
G3 X306.5745 Y41.817 I-0.2159 J-0.2039
G3 X306.4727 Y41.8611 I-0.3665 J-0.7071
G1 X306.3749 Y41.8961
G3 X306.0007 Y42.003 I-1.4861 J-4.4927
G1 X305.7166 Y42.0702
G1 X305.5027 Y42.1163
G1 X305.3418 Y42.149
G3 X305.2209 Y42.1727 I-0.4529 J-1.9914
G1 X304.8578 Y42.2399
G1 X304.2326 Y42.326
G1 X302.9922 Y42.4984
G1 X300.5508 Y42.8427
G1 X298.1864 Y43.1814
G1 X298.0433 Y43.2021
G1 X295.7578 Y43.5341
G2 X278.0636 Y46.2292 I218.1345 J1491.5464
G1 X277.6492 Y46.295
G1 X277.238 Y46.3604
G1 X276.4222 Y46.4904
G1 X273.2107 Y47.0075
G1 X270.201 Y47.4997
G1 X268.7905 Y47.733
G1 X266.0585 Y48.1901
G2 X265.8985 Y48.2171 I1.5355 J9.5904
G1 X264.6233 Y48.4331
G1 X262.1532 Y48.8563
G2 X257.5249 Y49.6678 I121.373 J705.8552
G1 X255.5012 Y50.0311
G2 X247.9221 Y51.4484 I101.4571 J563.543
G1 X246.5028 Y51.7257
G1 X245.1729 Y51.9897
G1 X244.5497 Y52.1149
G1 X243.3429 Y52.3602
G2 X238.8254 Y53.3185 I57.5792 J282.5684
G2 X238.4025 Y53.412 I5.04 J23.7908
G1 X237.5836 Y53.5954
G1 X236.8165 Y53.7699
G1 X236.098 Y53.9362
G1 X235.4249 Y54.0945
G2 X234.1644 Y54.3985 I22.3978 J95.6379
G2 X233.6137 Y54.5347 I8.2617 J34.5737
G2 X231.5539 Y55.0669 I27.9929 J112.6052
G1 X230.784 Y55.2768
G1 X230.1119 Y55.4663
G2 X227.7761 Y56.1855 I15.039 J52.994
G1 X227.4867 Y56.2837
G1 X227.3602 Y56.3274
G2 X226.4187 Y56.6723 I8.6219 J24.989
G2 X225.9535 Y56.8592 I6.7479 J17.4726
G1 X225.8379 Y56.9078
G1 X225.6653 Y56.9824
G1 X225.4936 Y57.0592
G2 X224.0577 Y57.7214 I127.6084 J278.5919
G1 X223.7436 Y57.8672
G1 X222.5256 Y58.4296
G3 X222.2583 Y58.5515 I-7.8233 J-16.792
G3 X221.7396 Y58.7857 I-12.2223 J-26.3716
G3 X220.7625 Y59.2154 I-44.6234 J-100.1697
G1 X220.3324 Y59.3982
G1 X220.1302 Y59.4826
G3 X219.9339 Y59.5634 I-5.2506 J-12.4682
G3 X219.7433 Y59.6409 I-2.6422 J-6.2283
G3 X219.0011 Y59.9315 I-23.2475 J-58.2692
G3 X218.9603 Y59.947 I-0.1886 J-0.437
G3 X218.9198 Y59.9622 I-0.1864 J-0.4336
G3 X218.8795 Y59.9773 I-0.1843 J-0.4302
G3 X218.8396 Y59.9922 I-0.1823 J-0.4269
G3 X218.7999 Y60.007 I-0.1802 J-0.4236
G3 X218.7606 Y60.0216 I-0.1782 J-0.4204
G3 X218.7215 Y60.036 I-0.1762 J-0.4173
G3 X218.6827 Y60.0503 I-0.1742 J-0.4141
G3 X217.4418 Y60.4718 I-8.4186 J-22.7441
G3 X216.9703 Y60.612 I-8.4142 J-27.4458
G3 X215.2927 Y60.9962 I-4.2877 J-14.8656
G1 X215.1863 Y61.0135
G3 X213.5781 Y61.145 I-1.611 J-9.803
G0 Z5.0
G0 X217.8616 Y-26.6075
G1 Z0.0
G1 Y-28.4814
G1 X219.7202 Y-28.4206
G3 X219.7489 Y-27.9679 I-4.6437 J0.5216
G3 X219.7422 Y-27.2877 I-15.1466 J0.1905
G2 X219.7354 Y-26.6075 I12.3889 J0.4633
G1 X217.8616
G0 Z5.0
G0 X305.4889 Y-50.1573
G1 Z0.0
G3 X306.4237 Y-52.0235 I5.307 J1.4913
G2 X307.0024 Y-51.759 I2.5472 J-4.8077
G2 X307.0676 Y-51.7338 I0.4971 J-1.1872
G1 X307.3259 Y-51.6395
G1 X307.5704 Y-51.5566
G1 X308.0326 Y-51.4092
G3 X308.8453 Y-51.1499 I-9.6928 J31.7779
G1 X308.9981 Y-51.0971
G3 X309.5635 Y-50.8749 I-2.2926 J6.6649
G3 X309.668 Y-50.827 I-0.9292 J2.1643
G3 X310.0479 Y-50.6224 I-1.5728 J3.3759
G1 X310.1164 Y-50.5786
G3 X310.5733 Y-50.1761 I-1.0647 J1.6691
G3 X310.8403 Y-49.6289 I-1.0011 J0.8273
G3 X310.2928 Y-49.0395 I-2.7345 J-1.9913
G3 X309.0341 Y-48.4451 I-1.7344 J-2.0427
G3 X307.9978 Y-48.4569 I-0.4856 J-2.8563
G3 X307.2577 Y-48.6887 I0.6852 J-3.4858
G3 X306.275 Y-49.3045 I1.6729 J-3.7618
G3 X305.4889 Y-50.1573 I2.931 J-3.4904
G0 Z5.0
G0 X328.2233 Y-38.6913
G1 Z0.0
G3 X328.3652 Y-38.9057 I0.9783 J0.4934
G3 X328.8727 Y-39.2652 I0.9548 J0.8099
G3 X329.7915 Y-39.2974 I0.5057 J1.3053
G3 X330.2097 Y-39.0957 I-0.4517 J1.4713
G3 X330.5551 Y-38.7854 I-0.997 J1.4569
G3 X330.8333 Y-38.3371 I-1.1642 J1.0331
G3 X330.8058 Y-37.4353 I-1.0307 J0.4199
G3 X330.3681 Y-36.9217 I-1.2143 J-0.5916
G3 X329.3983 Y-36.6651 I-0.8182 J-1.1315
G3 X328.9144 Y-36.83 I0.1457 J-1.2205
G3 X328.5292 Y-37.1661 I0.7227 J-1.2166
G3 X328.2345 Y-37.6331 I1.6224 J-1.3504
G3 X328.1096 Y-38.108 I1.2829 J-0.5912
G3 X328.2233 Y-38.6913 I1.092 J-0.0899
G0 Z5.0
G0 X359.9313 Y-50.6932
G1 Z0.0
G1 X360.9158 Y-52.3731
G1 X362.341 Y-51.0885
G1 X359.9313 Y-50.6932
G0 Z5.0
G0 X361.444 Y-49.2685
G1 Z0.0
G3 X361.8955 Y-49.608 I1.2115 J1.141
G3 X362.5057 Y-49.7486 I0.5951 J1.1885
G3 X362.9208 Y-49.6853 I-0.0342 J1.617
G3 X363.4275 Y-49.4568 I-0.5996 J2.0052
G3 X363.9929 Y-48.9981 I-1.5235 J2.4559
G3 X364.5487 Y-48.2359 I-2.4647 J2.3811
G3 X364.7546 Y-47.7437 I-2.6138 J1.3824
G3 X364.1989 Y-47.6298 I-0.7971 J-2.4749
G3 X363.6317 Y-47.6246 I-0.313 J-3.1918
G3 X362.53 Y-47.8724 I0.3085 J-3.9436
G3 X361.8601 Y-48.218 I1.091 J-2.937
G3 X361.5327 Y-48.5013 I1.0336 J-1.5252
G3 X361.3973 Y-48.6912 I0.8128 J-0.7226
G3 X361.3223 Y-48.9354 I0.5041 J-0.2886
G3 X361.4022 Y-49.2223 I0.4532 J-0.0283
G3 X361.444 Y-49.2685 I1.2533 J1.0949
G0 Z5.0
G0 X365.6448 Y-53.3684
G1 Z0.0
G3 X365.3656 Y-53.7648 I1.0908 J-1.0646
G3 X365.2828 Y-54.038 I0.86 J-0.4098
G3 X365.9876 Y-54.4306 I1.2187 J1.3588
G3 X366.7911 Y-54.5033 I0.5942 J2.0911
G3 X367.3197 Y-54.4019 I-0.2513 J2.7379
G3 X367.9766 Y-54.1254 I-0.8781 J3.0054
G3 X368.7194 Y-53.5475 I-1.4228 J2.5952
G3 X369.0304 Y-53.1066 I-1.4334 J1.3414
G3 X368.3424 Y-52.6779 I-1.268 J-1.2683
G3 X367.5395 Y-52.5649 I-0.708 J-2.1214
G3 X366.0299 Y-53.0517 I0.1303 J-2.9883
G3 X365.674 Y-53.3393 I1.4127 J-2.1121
G3 X365.6448 Y-53.3684 I1.0616 J-1.0937
G0 Z5.0
G0 X370.1321 Y-51.7143
G1 Z0.0
G3 X370.2379 Y-51.9078 I0.7049 J0.2598
G3 X370.4589 Y-52.1238 I0.8129 J0.6106
G3 X371.0067 Y-52.3884 I1.0108 J1.3932
G3 X371.4058 Y-52.4529 I0.4295 J1.3918
G1 X371.444 Y-51.0885
G1 X370.1061 Y-51.6282
G3 X370.1321 Y-51.7143 I0.7309 J0.1737
G0 Z5.0
G0 X372.8118 Y-54.0174
G1 Z0.0
G3 X372.5082 Y-54.4445 I2.1626 J-1.8587
G1 X376.2482
G1 X376.4271 Y-54.425
G1 X376.6055 Y-54.4013
G3 X376.9602 Y-54.3406 I-0.6436 J4.8242
G3 X377.1945 Y-54.2894 I-1.4109 J7.0247
G3 X378.1037 Y-53.9841 I-1.1735 J5.0008
G3 X378.6633 Y-53.6725 I-1.5361 J3.4177
G3 X379.2919 Y-53.0907 I-1.5415 J2.2959
G3 X379.7334 Y-52.0235 I-1.6682 J1.315
G2 X378.8424 Y-52.2919 I-2.3406 J6.1577
G1 X378.7124 Y-52.3206
G2 X377.6635 Y-52.4944 I-2.6905 J12.9813
G1 X377.362 Y-52.5322
G1 X376.5577 Y-52.625
G1 X376.454 Y-52.6372
G3 X375.3517 Y-52.7952 I2.1907 J-19.2067
G3 X375.0602 Y-52.8528 I1.1993 J-6.8381
G1 X374.9106 Y-52.8863
G3 X374.5938 Y-52.9683 I2.0466 J-8.5603
G3 X373.8898 Y-53.2249 I1.2325 J-4.4771
G3 X373.1565 Y-53.6791 I1.3838 J-3.0528
G3 X372.8118 Y-54.0174 I1.8179 J-2.197
G0 Z5.0
G0 X370.1481 Y-45.4786
G1 Z0.0
G3 X370.896 Y-45.1417 I-1.0126 J3.2461
G3 X371.4603 Y-44.6938 I-1.4587 J2.4175
G3 X371.9684 Y-43.8747 I-1.5548 J1.5315
G1 X368.0877
G3 X368.1193 Y-44.4298 I4.2159 J-0.0388
G3 X368.2484 Y-44.9707 I2.3776 J0.2817
G3 X368.4256 Y-45.2982 I1.24 J0.4591
G3 X368.8213 Y-45.6077 I0.7547 J0.5573
G3 X369.8972 Y-45.5464 I0.3666 J3.0417
G3 X370.1481 Y-45.4786 I-0.7617 J3.314
G0 Z5.0
G0 X377.188 Y-44.9285
G1 Z0.0
G3 X377.3199 Y-45.3417 I0.9437 J0.0737
G1 X382.5308 Y-43.4755
G3 X381.8249 Y-43.1081 I-1.5826 J-2.1792
G3 X381.0474 Y-42.938 I-1.0987 J-3.1602
G3 X380.5173 Y-42.9161 I-0.428 J-3.9294
G3 X378.4838 Y-43.3981 I0.117 J-5.0236
G3 X377.9642 Y-43.7 I1.6167 J-3.381
G3 X377.4568 Y-44.1669 I1.3227 J-1.9468
G3 X377.265 Y-44.4868 I1.073 J-0.8609
G3 X377.1858 Y-44.89 I0.8981 J-0.3858
G3 X377.188 Y-44.9285 I0.9459 J0.0353
G0 Z5.0
G0 X383.5745 Y-41.6693
G1 Z0.0
G3 X383.7919 Y-42.0151 I2.0403 J1.0412
G3 X384.2734 Y-42.4296 I1.1969 J0.9034
G3 X384.6797 Y-42.5616 I0.5615 J1.0374
G3 X385.2491 Y-42.4947 I0.1548 J1.1403
G3 X385.8475 Y-42.0142 I-0.466 J1.1931
G3 X386.0399 Y-41.6158 I-1.2683 J0.858
G3 X386.1214 Y-41.1229 I-1.752 J0.543
G3 X386.0689 Y-40.5699 I-2.2708 J0.0635
G3 X385.8832 Y-39.994 I-2.9531 J-0.6346
G1 X383.481 Y-41.461
G3 X383.5745 Y-41.6693 I2.1338 J0.8329
G0 Z5.0
G0 X385.7728 Y-45.956
G1 Z0.0
G3 X385.6048 Y-46.0449 I3.3305 J-6.4945
G3 X385.0814 Y-46.3671 I2.8023 J-5.1387
G3 X384.5377 Y-46.8126 I2.2351 J-3.2826
G3 X385.9254 Y-46.8127 I0.6944 J9.8845
G3 X387.2953 Y-46.5909 I-0.5228 J7.5703
G3 X389.7637 Y-45.3417 I-1.6103 J6.245
G3 X389.3021 Y-45.2309 I-0.8881 J-2.6834
G3 X388.8292 Y-45.1884 I-0.5477 J-3.4409
G3 X388.6935 Y-45.1867 I-0.0995 J-2.5973
G3 X387.6186 Y-45.3045 I0.0448 J-5.3749
G3 X385.7728 Y-45.956 I1.4847 J-7.1461
G0 Z5.0
G0 X392.1149 Y-50.1578
G1 Z0.0
G3 X392.0849 Y-50.2045 I1.7156 J-1.1366
G3 X391.7706 Y-51.0885 I1.7851 J-1.1325
G1 X394.5794 Y-49.6289
G3 X393.8324 Y-49.3339 I-1.0839 J-1.6511
G3 X393.0331 Y-49.4106 I-0.255 J-1.5462
G3 X392.5624 Y-49.6736 I0.6038 J-1.6333
G3 X392.1149 Y-50.1578 I1.268 J-1.6208
G0 Z5.0
G0 X387.8899 Y-53.502
G1 Z0.0
G1 X384.9406 Y-55.5088
G3 X385.6278 Y-55.7294 I1.35 J3.0256
G3 X386.3469 Y-55.7922 I0.6218 J2.9704
G3 X386.8247 Y-55.7259 I-0.089 J2.396
G3 X387.4114 Y-55.4564 I-0.391 J1.6247
G3 X387.9072 Y-54.7339 I-0.8033 J1.0826
G3 X387.978 Y-54.2269 I-1.848 J0.5165
G3 X387.9213 Y-53.6483 I-2.8286 J0.0153
G1 X387.8899 Y-53.502
G0 Z5.0
G0 X396.5861 Y-54.038
G1 Z0.0
G1 X397.122 Y-55.2807
G3 X397.479 Y-55.1297 I-0.2744 J1.1459
G3 X397.7824 Y-54.8885 I-0.9323 J1.4838
G3 X398.2396 Y-54.2714 I-1.7243 J1.7557
G3 X398.4233 Y-53.7935 I-1.8907 J1.001
G3 X398.4599 Y-53.502 I-1.2024 J0.299
G1 X396.5861 Y-54.038
G0 Z5.0
G0 X402.9463 Y-44.6501
G1 Z0.0
G3 X402.9741 Y-44.6679 I0.3551 J0.5241
G3 X403.3036 Y-44.7881 I0.4866 J0.8216
G3 X403.535 Y-44.8159 I0.2954 J1.4834
G3 X403.8422 Y-44.8184 I0.1878 J4.1183
G1 X404.0167 Y-44.8115
G2 X404.1095 Y-44.8077 I0.1231 J-1.8852
G2 X404.1573 Y-44.8064 I0.0327 J-0.3019
G2 X404.2067 Y-44.8058 I0.0306 J-0.4981
G3 X404.398 Y-44.6983 I-0.8468 J1.7314
G3 X404.5687 Y-44.5604 I-0.5421 J0.8461
G3 X404.7665 Y-44.1703 I-0.4626 J0.4797
G3 X404.7427 Y-43.8747 I-0.7806 J0.0859
G1 X402.7358 Y-44.4104
G3 X402.9463 Y-44.6501 I0.5656 J0.2845
G0 Z5.0
G0 X401.625 Y-40.0456
G1 Z0.0
G3 X401.8758 Y-39.9353 I-0.2805 J0.9774
G3 X402.143 Y-39.7129 I-0.6638 J1.0696
G3 X402.4053 Y-39.3361 I-1.3003 J1.1845
G3 X402.624 Y-38.7785 I-2.36 J1.2474
G3 X402.7464 Y-38.0157 I-3.4692 J0.9482
G3 X402.7358 Y-37.5804 I-2.8541 J0.1481
G1 X400.3261 Y-39.5949
G1 X400.8696 Y-39.994
G3 X401.3797 Y-40.0845 I0.4861 J1.2575
G3 X401.625 Y-40.0456 I-0.0351 J1.0163
G0 Z5.0
G0 X397.9127 Y-40.5299
G1 Z0.0
G3 X397.5744 Y-40.2568 I-1.3246 J-1.2951
G3 X397.1763 Y-40.0823 I-0.7654 J-1.2046
G3 X396.3164 Y-40.1373 I-0.3474 J-1.3207
G3 X395.8225 Y-40.4396 I0.6467 J-1.6107
G3 X395.3528 Y-41.038 I1.343 J-1.5379
G3 X395.1153 Y-41.997 I1.8342 J-0.9631
G3 X396.3252 Y-41.7888 I0.0256 J3.4712
G3 X397.3718 Y-41.1472 I-1.1118 J2.9879
G3 X397.9127 Y-40.5299 I-2.477 J2.7162
G0 Z5.0
G0 X395.1153 Y-38.1164
G1 Z0.0
G2 X395.2049 Y-37.8105 I6.1349 J-1.6313
G1 X395.2183 Y-37.7669
G1 X395.3258 Y-37.4187
G1 X395.3399 Y-37.3722
G1 X395.4115 Y-37.123
G3 X395.4916 Y-36.7868 I-4.1239 J1.16
G3 X395.5517 Y-36.3296 I-2.8471 J0.6069
G3 X395.5105 Y-35.7142 I-2.4525 J0.1449
G1 X393.6368 Y-37.1776
G3 X393.6033 Y-37.4122 I1.0906 J-0.2752
G3 X393.6261 Y-37.6481 I0.8375 J-0.0382
G3 X393.8919 Y-38.0363 I0.6475 J0.1581
G3 X394.1802 Y-38.1698 I0.5124 J0.7287
G3 X394.593 Y-38.2142 I0.3495 J1.3063
G3 X395.1153 Y-38.1164 I-0.0723 J1.8294
G0 Z5.0
G0 X398.4599 Y-34.2358
G1 Z0.0
G1 X399.9308 Y-33.3046
G1 X398.4599 Y-32.7687
G1 Y-34.2358
G0 Z5.0
G0 X405.1052 Y-36.8112
G1 Z0.0
G3 X405.0731 Y-36.9221 I0.6085 J-0.2358
G3 X405.0569 Y-37.1217 I0.971 J-0.1793
G3 X405.1493 Y-37.5804 I1.5621 J0.0758
G1 X407.559 Y-36.2502
G1 X407.5335
G1 X407.508 Y-36.25
G2 X407.4571 Y-36.2494 I-0.0207 J0.3783
G2 X407.3552 Y-36.2472 I-0.0264 J1.1753
G2 X407.1514 Y-36.2415 I0.2252 J11.5392
G1 X407.0155 Y-36.2377
G1 X406.8344 Y-36.234
G1 X406.5927 Y-36.2338
G3 X406.2707 Y-36.2468 I0.0661 J-5.6403
G3 X405.8447 Y-36.3041 I0.189 J-3.0132
G1 X405.7331 Y-36.3313
G3 X405.4862 Y-36.4226 I0.3427 J-1.3064
G3 X405.2385 Y-36.5997 I0.3807 J-0.7944
G3 X405.1052 Y-36.8112 I0.4752 J-0.4473
G0 Z5.0
G0 X408.4546 Y-27.6619
G1 Z0.0
G3 X411.0389 Y-28.5635 I30.7971 J84.1242
G3 X419.0447 Y-30.8136 I28.4695 J85.9269
G3 X419.3 Y-30.8725 I2.5128 J10.2996
G3 X419.8192 Y-30.99 I7.281 J30.9603
G3 X431.0262 Y-32.7672 I19.7534 J88.3424
G3 X437.5035 Y-33.1222 I7.7007 J81.2381
G1 X437.6051 Y-33.1236
G1 X437.7069 Y-33.1248
G1 X437.8089 Y-33.1259
G1 X437.9111 Y-33.1269
G3 X439.5988 Y-33.1225 I0.6645 J68.6051
G1 X440.0241 Y-33.1151
G1 X440.2376 Y-33.1105
G3 X443.877 Y-32.9246 I-1.3822 J62.792
G3 X447.7406 Y-32.4707 I-4.0246 J50.9273
G1 X447.8008 Y-32.4611
G1 X448.042 Y-32.4218
G3 X450.0256 Y-32.0392 I-5.9772 J36.32
G3 X452.0473 Y-31.5142 I-6.2723 J28.3097
G1 X452.1725 Y-31.476
G3 X453.1818 Y-31.1364 I-6.9665 J22.376
G3 X453.6832 Y-30.9434 I-4.3828 J12.1328
G3 X454.6816 Y-30.494 I-4.8594 J12.1302
G3 X455.1688 Y-30.232 I-5.029 J9.9359
G3 X456.1059 Y-29.5952 I-3.3522 J5.9411
G3 X456.5285 Y-29.2035 I-2.9955 J3.6555
G3 X457.5946 Y-27.8813 I-8.0932 J7.6164
G3 X458.4371 Y-26.4066 I-8.665 J5.9286
G3 X458.8476 Y-25.3501 I-7.9702 J3.7049
G1 X458.8689 Y-25.2813
G3 X459.1548 Y-23.7717 I-6.448 J2.0032
G1 X459.1649 Y-23.5732
G1 X459.1677 Y-23.3679
G3 X459.0736 Y-22.4314 I-4.7955 J-0.0088
G3 X457.7941 Y-20.2337 I-3.8021 J-0.7423
G2 X456.0728 Y-22.615 I-10.9281 J6.0861
G2 X453.8422 Y-24.5277 I-9.3514 J8.6492
G2 X452.1457 Y-25.5107 I-8.0428 J11.9241
G2 X449.7247 Y-26.4841 I-7.7645 J15.8143
G1 X449.4033 Y-26.5848
G2 X447.9179 Y-26.9812 I-6.7464 J22.299
G2 X446.1978 Y-27.3208 I-5.8307 J25.01
G2 X444.2173 Y-27.5858 I-5.4318 J33.0608
G2 X441.9486 Y-27.7596 I-4.2833 J41.0092
G2 X439.3599 Y-27.8277 I-2.7982 J57.1367
G2 X436.4152 Y-27.7786 I-0.2762 J71.7704
G2 X435.6566 Y-27.7488 I1.7378 J53.8446
G2 X432.2111 Y-27.5463 I5.8205 J128.4924
G2 X430.3183 Y-27.382 I3.7912 J54.6336
G2 X430.1923 Y-27.3689 I0.3436 J3.942
G2 X430.0579 Y-27.3548 I0.3624 J4.0825
G2 X429.9145 Y-27.3393 I0.3828 J4.2295
G2 X429.7617 Y-27.3225 I0.4049 J4.3837
G2 X427.3228 Y-27.0044 I6.6124 J60.2034
G2 X427.1659 Y-26.9808 I0.6602 J4.9177
G2 X427.0039 Y-26.956 I0.6883 J5.0402
G2 X421.8577 Y-25.9657 I11.0643 J71.3653
G2 X420.4015 Y-25.6164 I15.9915 J69.8664
G2 X418.7457 Y-25.1834 I15.9204 J64.2628
G2 X414.3779 Y-23.8634 I22.9437 J83.805
G1 X414.103 Y-23.7718
G1 X413.824 Y-23.6779
G2 X413.2491 Y-23.4812 I22.3144 J66.1488
G2 X410.6382 Y-22.5338 I33.1762 J95.5047
G1 X410.3087 Y-22.408
G2 X403.3956 Y-19.4484 I35.6268 J92.7706
G2 X401.5904 Y-18.5746 I55.1073 J116.1473
G2 X397.5288 Y-16.4519 I47.4981 J95.8316
G2 X397.474 Y-16.1146 I2.6885 J0.6097
G2 X397.4761 Y-15.7728 I1.5115 J0.1616
G2 X397.7712 Y-15.1588 I0.973 J-0.0896
G2 X398.1577 Y-14.9059 I0.95 J-1.0305
G2 X398.402 Y-14.8085 I1.1312 J-2.4824
G2 X398.6858 Y-14.7199 I1.5725 J-4.5373
G1 X398.8374 Y-14.6776
G3 X399.1781 Y-14.583 I-16.4387 J59.8475
G1 X399.3566 Y-14.5278
G1 X399.4015 Y-14.5127
G3 X399.493 Y-14.4797 I-0.4279 J1.3333
G1 X399.5859 Y-14.4428
G3 X399.9747 Y-14.2175 I-0.585 J1.4577
G3 X400.2719 Y-13.7909 I-0.5791 J0.7202
G3 X400.3261 Y-13.5101 I-1.0064 J0.3401
G3 X399.5306 Y-12.9564 I-2.3754 J-2.5644
G3 X398.604 Y-12.6719 I-1.3196 J-2.6467
G3 X397.9564 Y-12.6516 I-0.4273 J-3.2891
G3 X397.1078 Y-12.7979 I0.2889 J-4.2082
G3 X396.041 Y-13.1952 I1.8556 J-6.6134
G3 X396.0085 Y-13.2103 I0.0944 J-0.2458
G3 X395.4269 Y-13.5049 I4.1639 J-8.9439
G3 X394.7863 Y-13.8743 I7.5284 J-13.7927
G1 X394.6239 Y-13.974
G3 X393.8986 Y-14.4417 I14.9435 J-23.9713
G3 X393.5184 Y-14.6975 I11.1706 J-17.0148
G1 X392.6633 Y-15.2843
G1 X392.2089 Y-15.5953
G2 X391.1661 Y-16.2784 I-20.0549 J29.4761
G1 X391.0315 Y-16.3614
G2 X390.4505 Y-16.6994 I-6.2536 J10.0798
G1 X390.3005 Y-16.7805
G2 X389.647 Y-17.0962 I-3.8091 J7.0503
G2 X388.9191 Y-17.3577 I-2.2705 J5.1763
G1 X388.8249 Y-17.383
G3 X396.7486 Y-22.358 I46.0678 J64.5745
G3 X405.1895 Y-26.3937 I40.2965 J73.4388
G3 X408.4546 Y-27.6619 I34.0623 J82.8559
G0 Z5.0
G0 X373.9068 Y-24.635
G1 Z0.0
G1 X371.9684 Y-26.6075
G1 X373.4394
G1 X373.9068 Y-24.635
G0 Z5.0
M5
M30
