( Made using CamBam - http://www.cambam.co.uk )
( car2 1/22/2014 9:34:10 AM )
( T0 : 0.0 )
G21 G90 G64 G40
G0 Z5.0
( T0 : 0.0 )
T0 M6
( 181-200 )
G17
M3 S1000
G0 X-74.4381 Y157.4571
G1 F1.0 Z0.0
G1 X-76.5627 Y157.6965
G1 X-76.4829 Y156.1648
G1 X-74.4381 Y157.4571
G0 Z5.0
G0 X-63.8213 Y128.8019
G1 Z0.0
G1 X-98.9228 Y115.7966
G1 X-107.2311 Y112.7218
G1 X-108.4183 Y112.2831
G1 X-117.9168 Y108.7776
G1 X-120.6311 Y107.7773
G1 X-127.8704 Y105.1126
G1 X-132.0078 Y103.5917
G1 X-136.7369 Y101.8553
G1 X-137.9574 Y101.4075
G2 X-138.265 Y101.2946 I-9.1828 J24.5577
G2 X-138.8899 Y101.0654 I-108.1799 J293.9801
G1 X-144.6034 Y98.9717
G1 X-144.9634 Y98.8399
G1 X-151.546 Y96.4322
G1 X-159.0711 Y93.686
G1 X-163.0854 Y92.2241
G1 X-167.3682 Y90.667
G1 X-169.579 Y89.8643
G1 X-174.2964 Y88.1544
G1 X-179.3297 Y86.3345
G1 X-181.9282 Y85.3971
G2 X-193.8141 Y81.1314 I-1205.4916 J3340.2855
G1 X-196.8838 Y80.037
G1 X-200.0538 Y78.911
G1 X-203.3275 Y77.7532
G2 X-206.709 Y76.5638 I-576.2463 J1632.8627
G1 X-207.5614 Y76.2652
G1 X-208.4207 Y75.9647
G1 X-208.8521 Y75.8141
G1 X-210.6056 Y75.2035
G1 X-212.3879 Y74.5859
G1 X-214.1996 Y73.9618
G1 X-216.0415 Y73.3319
G1 X-216.5041 Y73.1745
G1 X-216.8538 Y73.0515
G1 X-217.2036 Y72.9283
G1 X-217.9029 Y72.6815
G3 X-219.3004 Y72.1846 I98.4968 J-279.2306
G3 X-219.3905 Y72.1524 I0.458 J-1.4209
G1 X-220.3507 Y71.8062
G3 X-224.1722 Y70.369 I50.8326 J-140.9564
G3 X-224.4173 Y70.2724 I5.39 J-14.0455
G3 X-227.0163 Y69.2048 I34.8714 J-88.5862
G1 X-227.3493 Y69.0613
G1 X-228.0576 Y68.7504
G3 X-231.7746 Y66.96 I25.8462 J-58.4121
G1 X-231.8897 Y66.8994
G3 X-224.9122 Y68.6055 I-55.5248 J242.2105
G1 X-223.9196 Y68.8655
G1 X-222.7863 Y69.1672
G3 X-219.7704 Y69.9943 I-65.7105 J245.5027
G1 X-218.9676 Y70.2201
G1 X-218.112 Y70.4633
G1 X-217.2 Y70.7253
G3 X-212.3482 Y72.1633 I-93.3086 J323.7296
G1 X-211.0575 Y72.5573
G1 X-209.6821 Y72.9818
G1 X-208.2164 Y73.4392
G1 X-206.6546 Y73.9319
G1 X-204.9901 Y74.4624
G1 X-203.2165 Y75.0331
G1 X-202.4295 Y75.2894
G1 X-201.6432 Y75.5478
G1 X-200.0726 Y76.0703
G1 X-199.6242 Y76.2208
G3 X-199.5085 Y76.2597 I-0.5887 J1.9416
G1 X-198.9798 Y76.438
G1 X-198.3758 Y76.6425
G3 X-193.5517 Y78.3008 I-192.315 J567.283
G1 X-192.9094 Y78.5244
G1 X-191.4418 Y79.0372
G1 X-189.7655 Y79.6261
G1 X-187.8508 Y80.3022
G1 X-186.8301 Y80.664
G1 X-185.7416 Y81.0508
G1 X-183.2548 Y81.938
G1 X-181.929 Y82.4128
G1 X-178.9002 Y83.5017
G1 X-175.4406 Y84.7517
G3 X-175.0014 Y84.9109 I-22.1533 J61.8304
G1 X-170.9874 Y86.3692
G1 X-166.4026 Y88.043
G1 X-163.9584 Y88.9384
G1 X-161.3518 Y89.8953
G1 X-158.5723 Y90.918
G1 X-158.2222 Y91.047
G1 X-157.5108 Y91.3092
G1 X-156.0424 Y91.8508
G1 X-155.2965 Y92.1261
G1 X-152.115 Y93.3019
G1 X-151.7142 Y93.4503
G1 X-148.2948 Y94.717
G3 X-147.4264 Y95.0391 I-57.7036 J156.8983
G1 X-145.634 Y95.7044
G1 X-144.7236 Y96.0426
G1 X-140.8399 Y97.4871
G1 X-136.6984 Y99.0306
G1 X-135.6467 Y99.423
G1 X-131.1603 Y101.0991
G1 X-126.3759 Y102.8898
G1 X-123.907 Y103.8152
G1 X-118.6408 Y105.7919
G1 X-117.3036 Y106.2944
G1 X-115.9451 Y106.8051
G1 X-103.529 Y111.4831
G1 X-102.747 Y111.7783
G1 X-99.5186 Y112.9977
G1 X-96.1865 Y114.2575
G1 X-92.7473 Y115.5589
G1 X-91.0005 Y116.2203
G3 X-89.2261 Y116.8926 I-244.2194 J647.3296
G1 X-85.5631 Y118.2812
G1 X-81.7824 Y119.7158
G1 X-73.7186 Y122.7803
G1 X-65.1196 Y126.0552
G1 X-60.6824 Y127.7482
G1 X-56.1031 Y129.4984
G2 X-50.1619 Y131.6844 I193.3356 J-516.3004
G2 X-44.2007 Y133.8146 I290.2378 J-802.7916
G1 X-42.4941 Y134.4142
G1 X-40.5423 Y135.0947
G1 X-38.3095 Y135.8666
G1 X-37.7329 Y136.0648
G1 X-37.1376 Y136.2689
G2 X-30.7788 Y138.4199 I265.4641 J-774.2908
G1 X-30.3745 Y138.5549
G1 X-28.6489 Y139.1285
G1 X-28.2104 Y139.2737
G1 X-26.3389 Y139.8905
G1 X-24.3412 Y140.5439
G1 X-23.3095 Y140.8793
G1 X-21.1072 Y141.5907
G1 X-18.7561 Y142.3432
G1 X-16.2459 Y143.1386
G2 X-16.0883 Y143.1883 I1.7634 J-5.321
G1 X-14.7866 Y143.5972
G2 X-14.6232 Y143.6484 I2.3244 J-7.1359
G1 X-13.2735 Y144.0697
G2 X-12.9333 Y144.1755 I7.2714 J-22.7824
G1 X-12.242 Y144.39
G2 X-5.9125 Y146.3226 I216.679 J-698.3129
G1 X-4.2764 Y146.8126
G1 X-2.5865 Y147.3146
G1 X-2.1604 Y147.4404
G1 X-1.9465 Y147.5035
G1 X-1.0772 Y147.759
G1 X0.7185 Y148.2831
G2 X8.9462 Y150.6132 I173.4114 J-596.6431
G1 X9.4656 Y150.756
G2 X18.9891 Y153.2715 I132.974 J-484.1464
G1 X19.2887 Y153.3471
G2 X24.412 Y154.6003 I88.0889 J-349.0353
G1 X25.7161 Y154.9063
G1 X27.0423 Y155.2114
G1 X28.391 Y155.5152
G2 X34.1639 Y156.7284 I51.7079 J-231.6944
G1 X34.5272 Y156.7994
G1 X34.892 Y156.8699
G2 X37.9109 Y157.423 I32.3672 J-168.144
G2 X38.6732 Y157.5532 I10.9367 J-61.7464
G1 X39.4422 Y157.6802
G1 X40.2182 Y157.8036
G1 X40.608 Y157.8637
G1 X41.7769 Y158.0073
G1 X42.9463 Y158.1462
G1 X43.7262 Y158.2362
G1 X44.7664 Y158.3528
G1 X46.1541 Y158.5023
G1 X46.9474 Y158.5845
G1 X47.8544 Y158.6757
G1 X48.8912 Y158.7761
G2 X51.658 Y159.0237 I27.1848 J-288.1519
G1 X52.3963 Y159.0847
G2 X64.229 Y159.7482 I18.8619 J-230.5259
G1 X64.6051 Y159.759
G1 X64.9872 Y159.7693
G1 X65.3755 Y159.7791
G1 X65.7699 Y159.7883
G1 X66.1706 Y159.7968
G2 X74.7196 Y159.7869 I4.0457 J-196.4315
G1 X75.8225 Y159.7575
G2 X80.861 Y159.5358 I-5.4751 J-181.8203
G1 X81.1782 Y159.5169
G2 X86.9702 Y159.0622 I-10.0743 J-165.441
G2 X90.0514 Y158.7318 I-14.0215 J-145.2804
G1 X90.4391 Y158.6856
G1 X90.8298 Y158.6381
G1 X91.2233 Y158.5891
G2 X98.3941 Y157.4989 I-17.1907 J-137.1944
G1 X99.3002 Y157.3331
G2 X107.5256 Y155.5131 I-22.7451 J-122.2931
G1 X108.0393 Y155.3795
G2 X112.3978 Y154.143 I-28.6271 J-109.2079
G2 X122.1513 Y150.642 I-30.8223 J-101.2052
G2 X123.3634 Y150.1281 I-37.3839 J-89.8521
G2 X128.458 Y147.753 I-39.4253 J-91.2199
G2 X128.6152 Y147.6739 I-2.8054 J-5.7714
G3 X128.7588 Y147.6024 I1.8416 J3.5198
G1 X128.9039 Y147.5341
G3 X129.2002 Y147.4112 I1.6015 J3.4439
G1 X129.287 Y147.3815
G1 X129.3879 Y147.3529
G3 X129.5065 Y147.3344 I0.1349 J0.4765
G3 X129.5709 Y147.3446 I0.0128 J0.1268
G3 X129.5932 Y147.3754 I-0.0151 J0.0343
G3 X129.5796 Y147.4264 I-0.1008 J0.0006
G3 X129.5421 Y147.4812 I-0.3568 J-0.2041
G3 X129.4383 Y147.5875 I-0.7269 J-0.6056
G3 X129.2425 Y147.746 I-2.051 J-2.3337
G3 X128.8433 Y148.0159 I-3.4454 J-4.6661
G3 X123.8543 Y150.9118 I-39.805 J-62.8315
G3 X122.1443 Y151.7921 I-39.6996 J-75.0104
G3 X115.108 Y154.8952 I-36.6175 J-73.5013
G3 X114.8801 Y154.983 I-4.4267 J-11.1515
G3 X109.9642 Y156.7053 I-32.5975 J-85.1672
G3 X109.8078 Y156.755 I-1.589 J-4.7303
G3 X109.6501 Y156.8048 I-1.573 J-4.7063
G1 X108.998 Y157.0075
G1 X108.3235 Y157.2119
G1 X107.6257 Y157.4177
G3 X100.1024 Y159.3047 I-29.4782 J-101.5882
G3 X99.9833 Y159.33 I-0.72 J-3.0893
G3 X95.6148 Y160.1737 I-25.4615 J-120.1072
G1 X95.058 Y160.2697
G1 X94.2564 Y160.404
G1 X93.454 Y160.5335
G1 X92.9186 Y160.6171
G1 X92.2043 Y160.7252
G1 X91.251 Y160.8635
G1 X90.7058 Y160.9395
G3 X86.3345 Y161.4702 I-18.8226 J-136.7738
G3 X77.5538 Y162.1349 I-15.6375 J-148.2561
G3 X71.6854 Y162.3015 I-7.4913 J-160.4455
G3 X71.3127 Y162.305 I-0.3691 J-19.5425
G3 X70.934 Y162.3076 I-0.3303 J-19.8122
G3 X70.5492 Y162.3095 I-0.2899 J-20.1026
G3 X70.1584 Y162.3105 I-0.2477 J-20.4154
G3 X69.7614 Y162.3106 I-0.2037 J-20.7536
G3 X69.3581 Y162.3098 I-0.1574 J-21.1195
G3 X65.6713 Y162.2586 I0.7809 J-189.2581
G3 X55.8535 Y161.7592 I4.5995 J-187.1631
G1 X54.589 Y161.6584
G1 X53.9469 Y161.6042
G1 X53.2949 Y161.5471
G1 X52.6327 Y161.4869
G1 X51.9602 Y161.4236
G3 X45.8224 Y160.7465 I21.7583 J-225.3929
G1 X45.0444 Y160.6482
G1 X44.2545 Y160.5456
G3 X40.8885 Y160.0775 I30.2252 J-229.658
G3 X37.3061 Y159.5255 I37.6904 J-256.5218
G1 X36.3976 Y159.377
G1 X35.94 Y159.3009
G1 X35.4789 Y159.2233
G3 X31.5508 Y158.5278 I48.8533 J-287.342
G1 X31.0567 Y158.4359
G1 X30.5589 Y158.3425
G1 X30.0573 Y158.2473
G3 X20.9206 Y156.3494 I52.9543 J-277.8739
G1 X20.6349 Y156.2852
G1 X19.4749 Y156.0217
G3 X8.9194 Y153.4189 I74.6474 J-325.4385
G3 X3.3248 Y151.9003 I91.6016 J-348.5223
G1 X2.9745 Y151.8022
G1 X2.6229 Y151.7035
G1 X2.27 Y151.604
G1 X0.8373 Y151.1966
G1 X0.4779 Y151.0935
G1 X0.1172 Y150.9898
G1 X-0.2447 Y150.8853
G1 X-0.9741 Y150.6737
G1 X-2.4547 Y150.2398
G3 X-15.9161 Y146.0571 I144.8684 J-489.9852
G1 X-17.6174 Y145.5012
G1 X-19.3441 Y144.9317
G1 X-21.0964 Y144.3484
G1 X-21.9789 Y144.0527
G1 X-23.7705 Y143.4488
G1 X-24.2199 Y143.2965
G3 X-27.9273 Y142.0301 I330.4131 J-973.3137
G1 X-29.8082 Y141.3811
G1 X-30.7556 Y141.0529
G1 X-63.8213 Y128.8019
G0 Z5.0
G0 X-60.6748 Y119.5217
G1 Z0.0
G1 X-66.5004 Y117.5465
G1 X-77.7363 Y113.7309
G1 X-83.7281 Y111.6939
G1 X-90.119 Y109.5198
G1 X-104.7251 Y104.5464
G1 X-112.5145 Y101.892
G1 X-120.8228 Y99.0596
G1 X-139.8122 Y92.5829
G1 X-161.5143 Y85.1811
G1 X-173.0898 Y81.2362
G1 X-185.4385 Y77.0333
G1 X-188.5752 Y75.9671
G1 X-195.0517 Y73.7685
G1 X-201.7387 Y71.5038
G1 X-205.1362 Y70.3561
G1 X-208.5885 Y69.1927
G2 X-215.7203 Y66.8043 I-790.492 J2348.607
G1 X-216.616 Y66.5067
G1 X-218.4222 Y65.9089
G1 X-220.2441 Y65.3109
G1 X-220.4722 Y65.2365
G1 X-220.9295 Y65.0878
G1 X-221.8481 Y64.7912
G1 X-222.7716 Y64.4974
G1 X-225.1133 Y63.7622
G2 X-225.448 Y63.6576 I-5.558 J17.2053
G1 X-228.1268 Y62.8253
G2 X-228.4841 Y62.7148 I-6.0032 J18.7851
G2 X-228.8653 Y62.5971 I-6.2443 J19.5457
G1 X-230.899 Y61.9714
G2 X-239.042 Y59.4967 I-471.1126 J1535.5985
G2 X-239.3008 Y59.4187 I-6.8147 J22.1326
G2 X-239.5636 Y59.3395 I-6.9477 J22.5741
G2 X-239.8306 Y59.259 I-7.0868 J23.0362
G2 X-240.1018 Y59.1773 I-7.2326 J23.5207
G2 X-240.3774 Y59.0944 I-7.3857 J24.0294
G1 X-246.2568 Y57.3289
G1 X-254.0965 Y54.9764
G1 X-256.1864 Y54.3469
G1 X-258.4151 Y53.6734
G1 X-260.7915 Y52.9523
G3 X-273.443 Y49.0325 I331.5805 J-1092.5731
G1 X-275.0717 Y48.5146
G1 X-276.7517 Y47.9765
G3 X-278.4847 Y47.4169 I218.5377 J-679.7443
G3 X-286.3875 Y44.7993 I192.7734 J-595.2571
G1 X-287.3885 Y44.4592
G1 X-288.4048 Y44.1117
G1 X-289.4364 Y43.7567
G1 X-290.4837 Y43.3938
G1 X-291.5468 Y43.0229
G1 X-291.9948 Y42.8666
G1 X-292.1443 Y42.8148
G1 X-292.7426 Y42.6093
G1 X-293.1419 Y42.4734
G2 X-294.7416 Y41.9374 I-54.0216 J158.5727
G1 X-295.1991 Y41.7859
G1 X-295.7223 Y41.6132
G1 X-297.1175 Y41.1536
G1 X-297.9146 Y40.8901
G1 X-298.3395 Y40.7489
G1 X-299.3096 Y40.4234
G3 X-301.8855 Y39.5226 I37.0004 J-109.9385
G1 X-302.5681 Y39.2701
G1 X-302.9194 Y39.137
G1 X-303.0976 Y39.0686
G3 X-303.8551 Y38.7705 I15.507 J-40.5132
G1 X-304.0468 Y38.693
G3 X-305.7821 Y37.9424 I15.2879 J-37.725
G3 X-307.7095 Y36.9624 I11.425 J-24.855
G3 X-308.6981 Y36.3662 I8.8087 J-15.7258
G1 X-308.943 Y36.2048
G1 X-309.1888 Y36.0361
G3 X-310.1974 Y35.2573 I7.2768 J-10.4658
G1 X-310.258 Y35.2051
G3 X-311.2303 Y34.2392 I6.4075 J-7.4227
G3 X-311.4538 Y33.9714 I7.2061 J-6.2407
G3 X-312.2708 Y32.7116 I5.6912 J-4.5858
G3 X-312.8237 Y31.1797 I5.86 J-2.9807
G1 X-310.4102 Y33.5894
G2 X-308.4589 Y34.9327 I9.6921 J-11.9904
G2 X-306.3416 Y35.9951 I9.7514 J-16.7926
G2 X-304.8689 Y36.5662 I9.2277 J-21.608
G1 X-304.47 Y36.7015
G2 X-302.3093 Y37.3093 I8.0403 J-24.4403
G2 X-299.368 Y37.843 I6.6457 J-28.2508
G2 X-295.3972 Y38.0996 I3.9638 J-30.4893
G2 X-290.1222 Y37.6531 I0.0571 J-30.709
G1 X-289.791 Y37.5934
G2 X-286.8046 Y36.8641 I-5.0978 J-27.3515
G2 X-283.5272 Y35.5961 I-6.9085 J-22.7272
G3 X-280.3565 Y34.526 I8.6516 J20.4022
G3 X-277.0597 Y33.951 I5.5257 J21.9401
G3 X-274.8314 Y33.8259 I2.6043 J26.4837
G3 X-271.8597 Y33.9172 I0.4104 J35.0419
G1 X-271.4771 Y33.9459
G1 X-271.0825 Y33.9789
G3 X-270.2419 Y34.0593 I-4.9199 J55.8787
G3 X-268.3266 Y34.2831 I-7.2645 J70.4941
G1 X-267.3075 Y34.4177
G1 X-264.9837 Y34.7396
G1 X-263.7447 Y34.9074
G2 X-263.6669 Y34.9177 I0.1833 J-1.0913
G2 X-263.5888 Y34.9279 I0.1828 J-1.0915
G2 X-263.5103 Y34.9382 I0.1823 J-1.0917
G2 X-263.4316 Y34.9484 I0.1818 J-1.0919
G2 X-263.3525 Y34.9586 I0.1813 J-1.0921
G1 X-262.7 Y35.0408
G1 X-262.0261 Y35.1211
G2 X-261.1793 Y35.2093 I6.0357 J-53.8639
G2 X-260.3308 Y35.2799 I2.9396 J-30.1789
G1 X-260.2175 Y35.2877
G2 X-259.613 Y35.3214 I2.6448 J-41.98
G2 X-259.5349 Y35.3247 I0.0888 J-1.1911
G1 X-259.1779 Y35.3358
G2 X-258.2254 Y35.3232 I0.3226 J-11.6721
G1 X-258.1028 Y35.3151
G2 X-257.5448 Y35.242 I-0.289 J-4.3762
G2 X-257.4749 Y35.2264 I-0.0959 J-0.5917
G2 X-257.185 Y35.1257 I-0.3225 J-1.3966
G2 X-257.0543 Y35.0312 I-0.2017 J-0.4164
G2 X-256.9971 Y34.8555 I-0.1464 J-0.1449
G2 X-257.0343 Y34.7531 I-0.3328 J0.0631
G2 X-257.1063 Y34.6531 I-0.5244 J0.3014
G2 X-257.3318 Y34.4527 I-1.0951 J1.0051
G2 X-257.6019 Y34.2753 I-2.1749 J3.0186
G2 X-258.3021 Y33.9159 I-3.6091 J6.1692
G2 X-258.472 Y33.8398 I-1.9208 J4.0626
G1 X-258.6296 Y33.7718
G1 X-258.9159 Y33.6534
G1 X-259.211 Y33.5372
G2 X-260.9581 Y32.9279 I-11.7516 J30.8872
G2 X-273.0523 Y29.7748 I-35.6748 J112.0658
G2 X-273.1488 Y29.7551 I-0.6389 J2.8777
G2 X-273.246 Y29.7353 I-0.6396 J2.8911
G1 X-273.6568 Y29.6506
G1 X-273.7934 Y29.6213
G3 X-273.8715 Y29.6043 I0.2196 J-1.1982
G3 X-274.0795 Y29.5581 I6.6685 J-30.509
G3 X-274.9077 Y29.3573 I5.952 J-26.3583
G3 X-276.5331 Y28.8456 I3.7954 J-14.8926
G1 X-276.6357 Y28.8058
G1 X-276.8531 Y28.7176
G3 X-277.083 Y28.6182 I2.1862 J-5.3715
G3 X-278.2598 Y27.9857 I3.5755 J-8.0639
G3 X-279.6521 Y26.8697 I4.7837 J-7.3942
G3 X-279.9858 Y26.5292 I9.3784 J-9.5244
G3 X-280.1524 Y26.3481 I6.9237 J-6.5392
G1 X-280.3207 Y26.1579
G1 X-280.4908 Y25.9583
G3 X-281.2275 Y25.0152 I14.6247 J-12.1822
G3 X-282.0102 Y23.8977 I26.4575 J-19.364
G3 X-282.4111 Y23.2919 I34.2028 J-23.0732
G1 X-282.615 Y22.9775
G2 X-282.8993 Y22.5501 I-13.3896 J8.5987
G1 X-282.9969 Y22.4095
G1 X-283.129 Y22.2235
G2 X-283.681 Y21.4967 I-15.0207 J10.8353
G2 X-284.8885 Y20.1288 I-14.6392 J11.7057
G2 X-287.644 Y17.7432 I-15.5758 J15.2064
G2 X-289.672 Y16.4035 I-14.8395 J20.2595
G2 X-289.8048 Y16.3249 I-1.5342 J2.4391
G2 X-289.9402 Y16.2457 I-1.5579 J2.5092
G2 X-290.0782 Y16.1661 I-1.5846 J2.5864
G2 X-291.3587 Y15.474 I-15.9986 J28.0716
G2 X-294.909 Y13.9242 I-15.354 J30.3313
G2 X-299.8439 Y12.4494 I-14.0815 J38.1256
G2 X-300.5843 Y11.5285 I-4.5016 J2.861
G2 X-301.4842 Y10.7627 I-5.197 J5.1952
G2 X-302.1421 Y10.3295 I-5.6396 J7.8489
G2 X-303.0696 Y9.8393 I-5.1243 J8.5735
G2 X-304.37 Y9.3317 I-4.8673 J10.5499
G1 X-304.542 Y9.2781
G1 X-304.7204 Y9.2257
G2 X-306.663 Y8.8574 I-2.9691 J10.3549
G2 X-307.7932 Y8.824 I-0.8143 J8.4179
G2 X-309.0766 Y8.9891 I0.2071 J6.6825
G2 X-309.7399 Y9.1896 I1.0945 J4.8179
G2 X-310.4102 Y9.5113 I1.4067 J3.7899
G2 X-310.8376 Y9.9634 I1.6286 J1.9677
G2 X-311.1194 Y10.5179 I1.5805 J1.1523
G2 X-311.0389 Y11.7466 I1.6208 J0.5108
G2 X-310.5344 Y12.4087 I1.7575 J-0.816
G2 X-309.5585 Y12.9002 I1.5139 J-1.7914
G2 X-308.9431 Y12.9777 I0.6585 J-2.7464
G3 X-306.4992 Y13.0947 I-0.0277 J26.1489
G3 X-304.0751 Y13.4269 I-2.7083 J28.7755
G3 X-299.3409 Y14.6463 I-5.9795 J33.0158
G3 X-290.5867 Y18.9298 I-11.9869 J35.5845
G3 X-288.3205 Y20.5594 I-19.8303 J29.9687
G3 X-287.1661 Y21.4996 I-21.407 J27.4612
G3 X-284.6914 Y23.8345 I-21.2182 J24.9676
G3 X-282.1969 Y26.8201 I-21.1083 J20.1709
G2 X-281.4867 Y27.7181 I10.7956 J-7.8081
G1 X-281.4625 Y27.746
G2 X-280.6424 Y28.597 I8.4121 J-7.2861
G2 X-278.7333 Y29.986 I6.5297 J-6.9686
G2 X-277.2941 Y30.6306 I4.7588 J-8.6961
G2 X-276.434 Y30.9009 I3.6611 J-10.1454
G2 X-275.4323 Y31.1383 I4.1241 J-15.168
G2 X-274.2756 Y31.3414 I4.4174 J-21.7581
G1 X-273.976 Y31.3858
G2 X-273.6666 Y31.4292 I4.3258 J-29.702
G1 X-273.0067 Y31.5164
G1 X-272.6662 Y31.5598
G1 X-272.315 Y31.6045
G1 X-271.5675 Y31.7023
G3 X-271.5206 Y31.7087 I-0.0455 J0.51
G3 X-271.4735 Y31.7152 I-0.0459 J0.5102
G3 X-271.4263 Y31.7217 I-0.0462 J0.5103
G3 X-271.3788 Y31.7282 I-0.0466 J0.5104
G3 X-271.3312 Y31.7349 I-0.0469 J0.5104
G1 X-270.9391 Y31.7914
G3 X-270.5354 Y31.8538 I-2.5257 J17.7009
G3 X-270.4848 Y31.8619 I-0.0559 J0.5087
G3 X-270.4339 Y31.8702 I-0.0566 J0.5084
G3 X-270.3829 Y31.8786 I-0.0573 J0.5082
G1 X-269.9629 Y31.9509
G1 X-269.531 Y32.0324
G1 X-269.3122 Y32.0766
G3 X-268.957 Y32.1756 I-0.4244 J2.2104
G3 X-268.8464 Y32.2299 I-0.1853 J0.5176
G3 X-268.7948 Y32.2789 I-0.0727 J0.1283
G3 X-268.797 Y32.3218 I-0.0315 J0.0199
G3 X-268.8497 Y32.3545 I-0.0842 J-0.0771
G3 X-268.9235 Y32.372 I-0.1134 J-0.3135
G3 X-269.083 Y32.3828 I-0.1476 J-0.9934
G3 X-269.3692 Y32.3655 I0.0257 J-2.7959
G1 X-269.7258 Y32.3252
G2 X-269.8447 Y32.312 I-0.2758 J1.9439
G1 X-270.3203 Y32.2606
G1 X-270.6376 Y32.2277
G1 X-271.0607 Y32.1855
G2 X-272.7556 Y32.0421 I-6.3597 J65.066
G1 X-273.2406 Y32.0102
G1 X-273.3658 Y32.0028
G1 X-273.4951 Y31.9955
G2 X-274.8752 Y31.9435 I-1.977 J34.1639
G1 X-275.2435 Y31.9391
G1 X-275.6364 Y31.9395
G2 X-276.0554 Y31.9463 I-0.0112 J12.1458
G2 X-278.2847 Y32.1206 I0.4452 J20.0353
G2 X-281.194 Y32.7911 I2.4069 J17.0905
G1 X-281.3745 Y32.8496
G1 X-281.5575 Y32.9106
G1 X-281.9336 Y33.0411
G1 X-282.3197 Y33.1816
G1 X-282.5152 Y33.2551
G2 X-284.2832 Y33.9704 I16.7156 J43.8562
G1 X-284.7358 Y34.1633
G1 X-284.8928 Y34.2299
G3 X-284.9453 Y34.2518 I-0.2664 J-0.5647
G3 X-285.1558 Y34.3378 I-2.2169 J-5.1219
G3 X-285.2162 Y34.362 I-0.2812 J-0.6147
G1 X-285.3774 Y34.4255
G3 X-286.0274 Y34.666 I-8.0139 J-20.6596
G3 X-287.3483 Y35.0856 I-8.0226 J-22.9654
G3 X-290.05 Y35.6996 I-7.0375 J-24.7145
G1 X-290.4145 Y35.7604
G3 X-296.3028 Y36.116 I-4.7842 J-30.2903
G3 X-300.2179 Y35.7267 I1.0228 J-30.1643
G3 X-302.4196 Y35.2657 I4.2627 J-25.8458
G3 X-303.5752 Y34.9418 I5.2867 J-21.0903
G3 X-306.1427 Y33.9721 I6.0606 J-19.9296
G3 X-307.4496 Y33.3073 I7.4799 J-16.3217
G3 X-308.7726 Y32.467 I7.0881 J-12.6216
G3 X-310.0696 Y31.4023 I7.0089 J-9.8608
G1 X-310.2219 Y31.2552
G3 X-311.3984 Y29.8684 I6.7936 J-6.9551
G3 X-312.4866 Y28.1882 I25.4474 J-17.6744
G3 X-313.488 Y26.4549 I45.6007 J-27.5035
G1 X-313.763 Y25.9534
G1 X-314.073 Y25.378
G1 X-314.4231 Y24.7182
G1 X-314.8196 Y23.9623
G1 X-315.2712 Y23.0977
G1 X-315.7901 Y22.1109
G1 X-316.0699 Y21.5864
G2 X-316.7237 Y20.3953 I-49.5546 J26.4243
G2 X-316.8968 Y20.0902 I-38.6363 J21.7207
G2 X-317.7198 Y18.7144 I-36.1507 J20.6915
G1 X-317.8289 Y18.5424
G1 X-317.9409 Y18.3685
G2 X-319.0328 Y16.823 I-18.4093 J11.849
G1 X-319.1064 Y16.729
G2 X-320.0697 Y16.7757 I-0.1748 J6.3636
G2 X-321.0126 Y16.9782 I0.6938 J5.5247
G2 X-322.6909 Y17.9158 I1.4077 J4.4912
G2 X-323.5685 Y18.856 I4.0155 J4.6279
G2 X-323.7713 Y19.1329 I4.7618 J3.6979
G2 X-324.1936 Y19.7909 I8.3314 J5.8117
G2 X-324.6219 Y20.5704 I13.0085 J7.6551
G2 X-325.0649 Y21.4782 I22.2289 J11.4121
G1 X-325.2901 Y21.9655
G1 X-325.4049 Y22.2172
G1 X-325.6486 Y22.752
G1 X-325.7752 Y23.0271
G3 X-326.0494 Y23.6089 I-28.8328 J-13.2343
G1 X-326.195 Y23.9066
G3 X-326.5179 Y24.532 I-19.9267 J-9.8933
G3 X-329.7263 Y28.5532 I-12.5998 J-6.7626
G3 X-334.1394 Y31.1966 I-9.5607 J-10.956
G3 X-337.4732 Y32.0397 I-5.3057 J-13.9664
G3 X-339.4352 Y32.1811 I-2.0981 J-15.4322
G3 X-341.6772 Y32.0536 I-0.1569 J-17.0145
G3 X-344.191 Y31.5628 I2.272 J-18.32
G3 X-346.9492 Y30.6125 I5.4127 J-20.1886
G3 X-349.9073 Y29.1144 I9.6642 J-22.7527
G1 X-350.268 Y28.8973
G3 X-350.6308 Y28.6713 I10.2052 J-16.7855
G3 X-353.7614 Y26.3948 I16.8494 J-26.4609
G3 X-355.3103 Y25.0446 I22.1448 J-26.9678
G1 X-355.6912 Y24.6889
G1 X-356.0729 Y24.323
G3 X-357.2343 Y23.1492 I29.3407 J-30.1935
G1 X-357.6116 Y22.7484
G3 X-359.0776 Y21.1058 I37.2859 J-34.7514
G3 X-359.1701 Y20.9979 I3.9421 J-3.4707
G3 X-359.2652 Y20.8863 I4.5311 J-3.9604
G3 X-359.4674 Y20.6475 I8.793 J-7.6507
G1 X-359.6818 Y20.3919
G1 X-360.1675 Y19.8038
G3 X-361.4365 Y18.2148 I75.4034 J-61.5207
G1 X-361.7696 Y17.7869
G1 X-362.123 Y17.3289
G1 X-362.4979 Y16.839
G3 X-362.6908 Y16.5855 I10.1023 J-7.8887
G1 X-363.1009 Y16.044
G1 X-364.0341 Y14.8034
G2 X-365.0998 Y13.385 I-225.5925 J168.399
G1 X-365.3759 Y13.0198
G1 X-365.9674 Y12.2427
G1 X-366.2747 Y11.8431
G1 X-366.5936 Y11.4321
G2 X-366.9251 Y11.0095 I-21.8586 J16.8042
G2 X-367.27 Y10.5755 I-30.7353 J24.0714
G2 X-368.5945 Y10.228 I-3.2218 J9.5812
G2 X-369.9544 Y10.0676 I-1.7714 J9.178
G2 X-372.6722 Y10.3456 I-0.396 J9.5532
G2 X-374.4025 Y10.9214 I2.9161 J11.6511
G2 X-375.3493 Y11.3557 I6.0684 J14.4792
G1 X-375.5888 Y11.4778
G2 X-376.6582 Y12.0772 I9.0141 J17.3331
G2 X-377.2139 Y12.4204 I15.2036 J25.2413
G1 X-377.4972 Y12.6026
G2 X-378.0941 Y13.0008 I18.9082 J28.9928
G2 X-378.1688 Y13.0519 I0.6758 J1.0689
G2 X-378.2439 Y13.1034 I0.6943 J1.0914
G2 X-378.3194 Y13.1556 I0.7142 J1.1157
G2 X-378.3955 Y13.2083 I0.7355 J1.142
G2 X-378.472 Y13.2616 I0.7586 J1.1708
G2 X-378.5489 Y13.3154 I0.7835 J1.2022
G1 X-378.8653 Y13.539
G2 X-379.5341 Y14.0217 I38.0697 J53.4565
G2 X-379.618 Y14.083 I1.7713 J2.5125
G2 X-379.7882 Y14.2077 I3.2589 J4.625
G1 X-380.5108 Y14.741
G1 X-380.694 Y14.8766
G1 X-381.4752 Y15.4523
G1 X-381.5739 Y15.5244
G3 X-383.3945 Y16.7998 I-27.5032 J-37.3235
G1 X-383.6307 Y16.9542
G3 X-384.1227 Y17.2649 I-16.3551 J-25.353
G3 X-388.5061 Y19.7705 I-26.5532 J-41.3674
G3 X-388.5777 Y19.8067 I-0.8004 J-1.4931
G3 X-393.263 Y21.8937 I-23.9993 J-47.5767
G3 X-403.1157 Y24.7034 I-19.9272 J-51.197
G3 X-409.9036 Y25.5122 I-9.5292 J-51.0897
G3 X-413.8123 Y25.5542 I-2.469 J-47.8111
G3 X-418.2666 Y25.1914 I1.3165 J-43.6789
G3 X-418.8288 Y25.112 I2.8486 J-22.2058
G3 X-421.2143 Y24.6844 I6.0154 J-40.4252
G1 X-421.5128 Y24.6201
G1 X-421.8132 Y24.5529
G1 X-422.1154 Y24.4827
G3 X-425.2678 Y23.7727 I11.9403 J-60.3757
G3 X-428.3811 Y22.9074 I15.4921 J-61.7696
G3 X-434.4674 Y20.74 I20.0426 J-65.9111
G3 X-436.1673 Y20.0192 I26.6803 J-65.2885
G3 X-448.9962 Y12.7529 I29.3112 J-66.7084
G3 X-452.3641 Y10.2117 I42.367 J-59.6519
G3 X-456.0177 Y7.0654 I43.8922 J-54.6637
G3 X-459.9058 Y3.1601 I44.371 J-48.063
G3 X-461.8394 Y0.9453 I48.6937 J-44.4609
G3 X-462.7959 Y-0.2331 I41.5295 J-34.6893
G3 X-463.7522 Y-1.4743 I54.1661 J-42.7236
G3 X-467.6877 Y-7.4613 I45.6478 J-34.2928
G3 X-471.1804 Y-14.8801 I45.0577 J-25.7442
G3 X-472.5389 Y-19.0464 I45.0983 J-17.0095
G1 X-472.6831 Y-19.5796
G3 X-473.2132 Y-21.7996 I44.6684 J-11.8393
G2 X-466.2288 Y-10.469 I110.4779 J-60.283
G2 X-463.6338 Y-6.868 I94.7949 J-65.5765
G2 X-459.9594 Y-2.2286 I86.4442 J-64.6892
G1 X-459.4669 Y-1.6449
G2 X-453.9355 Y4.3349 I71.8022 J-60.8694
G2 X-452.3705 Y5.8426 I62.6406 J-63.4574
G2 X-451.547 Y6.6043 I48.1363 J-51.2131
G2 X-450.6855 Y7.3781 I49.6902 J-54.4555
G1 X-450.5766 Y7.4743
G1 X-450.467 Y7.5706
G1 X-450.3568 Y7.6672
G2 X-446.1909 Y11.0369 I44.9132 J-51.2656
G1 X-445.9194 Y11.2377
G2 X-443.5567 Y12.8885 I35.3603 J-48.0912
G2 X-442.3046 Y13.693 I34.4281 J-52.2107
G2 X-439.5559 Y15.2869 I26.8652 J-43.1609
G2 X-436.5061 Y16.7759 I20.652 J-38.4321
G1 X-436.3109 Y16.8611
G2 X-432.9031 Y18.1479 I14.95 J-34.435
G1 X-432.6851 Y18.2172
G2 X-428.8867 Y19.1663 I9.6224 J-30.4332
G1 X-428.6448 Y19.21
G2 X-427.6569 Y19.3667 I4.3888 J-24.4682
G2 X-426.8065 Y19.3903 I0.5118 J-3.1105
G2 X-425.9959 Y19.1321 I-0.2364 J-2.1442
G2 X-425.5372 Y18.7935 I-1.148 J-2.0349
G2 X-425.0572 Y18.2075 I-2.1654 J-2.2634
G2 X-428.2154 Y16.7354 I-28.8157 J57.6967
G2 X-431.432 Y15.3957 I-49.4456 J114.1891
G2 X-433.5906 Y14.5377 I-101.2543 J251.5925
G3 X-433.7278 Y14.4835 I2.2654 J-5.9328
G3 X-433.8671 Y14.4284 I2.3065 J-6.0396
G3 X-434.0087 Y14.3725 I2.3494 J-6.1501
G3 X-434.1525 Y14.3156 I2.394 J-6.2642
G3 X-433.2607 Y14.3082 I0.4766 J3.7246
G3 X-432.3873 Y14.4882 I-0.5444 J4.8515
G3 X-431.8242 Y14.6785 I-2.0424 J6.9727
G3 X-431.7524 Y14.7058 I-0.2454 J0.7521
G3 X-431.6786 Y14.7345 I-0.2621 J0.7831
G3 X-431.6026 Y14.7647 I-0.2819 J0.8217
G3 X-431.5244 Y14.7963 I-0.3058 J0.8702
G3 X-431.4438 Y14.8293 I-0.3355 J0.9322
G3 X-431.3609 Y14.8639 I-0.3736 J1.0139
G3 X-430.984 Y15.0255 I-5.7945 J14.0329
G1 X-430.7837 Y15.1129
G1 X-430.3257 Y15.3106
G2 X-429.7972 Y15.522 I4.976 J-11.6706
G2 X-429.6591 Y15.5723 I0.7905 J-1.9566
G2 X-429.017 Y15.7669 I2.2706 J-6.335
G1 X-428.934 Y15.7865
G2 X-426.5363 Y16.4497 I8.7501 J-26.9653
G2 X-424.0875 Y16.8891 I5.7325 J-24.9066
G2 X-419.12 Y17.0541 I3.3292 J-25.3706
G2 X-415.8298 Y16.6369 I-1.6713 J-26.3639
G2 X-411.5649 Y15.4827 I-5.5219 J-28.8597
G2 X-409.2166 Y14.5549 I-10.5729 J-30.1976
G2 X-407.9942 Y13.9905 I-12.744 J-29.2065
G2 X-406.7146 Y13.3401 I-15.3876 J-31.8606
G2 X-403.8864 Y11.6876 I-19.7246 J-37.0046
G2 X-403.1776 Y11.2272 I-17.4476 J-27.6358
G2 X-400.0505 Y8.9753 I-28.376 J-42.7005
G2 X-396.6876 Y6.1529 I-37.1272 J-47.6532
G1 X-396.275 Y5.7781
G1 X-396.0683 Y5.588
G1 X-395.8608 Y5.3956
G2 X-395.013 Y4.593 I-48.4815 J-52.0604
G2 X-394.1523 Y3.7512 I-54.7206 J-56.8137
G1 X-393.7204 Y3.3186
G2 X-389.9396 Y-0.7598 I-61.4167 J-60.7262
G2 X-385.9341 Y-5.6487 I-82.3693 J-71.5707
G1 X-385.4454 Y-6.2848
G2 X-384.4273 Y-7.6287 I-137.5506 J-105.2538
G1 X-384.09 Y-8.0781
G2 X-383.6415 Y-8.6785 I-59.6088 J-44.9987
G1 X-383.3858 Y-9.022
G1 X-382.7063 Y-9.9396
G1 X-382.3192 Y-10.4649
G1 X-381.2907 Y-11.8682
G1 X-381.1583 Y-12.0496
G1 X-379.7501 Y-13.9865
G1 X-377.8794 Y-16.5741
G1 X-376.8118 Y-18.0538
G1 X-375.5912 Y-19.7444
G1 X-374.1938 Y-21.6748
G1 X-373.4467 Y-22.7031
G3 X-372.648 Y-23.7986 I150.6388 J108.99
G3 X-368.3412 Y-29.6065 I354.4959 J258.3726
G1 X-368.0643 Y-29.9726
G1 X-367.7824 Y-30.3442
G3 X-367.1989 Y-31.11 I244.6308 J185.8102
G1 X-366.5939 Y-31.8986
G3 X-363.7905 Y-35.4745 I198.8608 J153.0127
G3 X-360.4939 Y-39.4872 I150.4435 J120.2387
G1 X-360.3885 Y-39.6115
G1 X-360.2826 Y-39.7363
G1 X-360.1762 Y-39.8613
G3 X-359.9613 Y-40.1131 I10.7012 J8.9153
G3 X-355.9258 Y-44.6261 I99.3183 J84.7513
G3 X-354.8472 Y-45.7569 I92.5646 J87.2105
G1 X-354.7106 Y-45.8976
G1 X-354.5732 Y-46.0387
G1 X-354.0119 Y-46.6088
G3 X-352.8369 Y-47.7703 I68.404 J68.0216
G3 X-350.2498 Y-50.1662 I50.3549 J51.7795
G1 X-349.9154 Y-50.4587
G3 X-348.5118 Y-51.6413 I35.567 J40.7885
G3 X-345.3795 Y-53.9994 I30.3198 J37.0151
G1 X-344.9705 Y-54.2768
G1 X-344.7638 Y-54.4142
G1 X-344.5554 Y-54.5508
G3 X-343.6987 Y-55.0914 I25.9295 J40.1336
G3 X-342.8119 Y-55.6152 I17.9779 J29.4276
G3 X-338.8753 Y-57.638 I26.8127 J47.339
G3 X-334.7984 Y-59.3605 I26.7585 J57.6482
G3 X-334.7333 Y-59.3854 I0.4069 J0.9634
G3 X-334.6676 Y-59.4106 I0.408 J0.9684
G3 X-334.6014 Y-59.4358 I0.4091 J0.9734
G3 X-334.5347 Y-59.4612 I0.4102 J0.9784
G3 X-334.4674 Y-59.4867 I0.4113 J0.9835
G1 X-333.8924 Y-59.7015
G3 X-330.7982 Y-60.7691 I26.983 J73.185
G1 X-330.3959 Y-60.8978
G1 X-329.9799 Y-61.0285
G3 X-328.0706 Y-61.5998 I32.4834 J105.0877
G1 X-327.576 Y-61.7404
G3 X-322.2595 Y-63.0829 I28.2474 J100.6726
G1 X-321.5688 Y-63.2365
G3 X-314.1569 Y-64.6322 I27.9767 J128.191
G1 X-313.6839 Y-64.7071
G3 X-311.6634 Y-65.0097 I32.4694 J209.8999
G3 X-307.0336 Y-65.6052 I24.9012 J175.2856
G1 X-305.8365 Y-65.7387
G3 X-305.6861 Y-65.7549 I0.3995 J3.003
G3 X-305.5352 Y-65.771 I0.4001 J3.0295
G3 X-305.3837 Y-65.7871 I0.4008 J3.0565
G3 X-305.2316 Y-65.8031 I0.4014 J3.084
G3 X-299.6641 Y-66.3062 I20.6439 J197.3965
G1 X-298.9562 Y-66.3592
G3 X-295.9351 Y-66.5597 I14.461 J195.0532
G3 X-295.7454 Y-66.5709 I0.6409 J9.2158
G3 X-295.555 Y-66.582 I0.6715 J9.8626
G3 X-295.3638 Y-66.593 I0.7099 J10.6646
G3 X-295.1719 Y-66.6039 I0.76 J11.6968
G3 X-294.7851 Y-66.6254 I1.2934 J19.8051
G3 X-293.999 Y-66.6671 I4.374 J75.0561
G1 X-293.2004 Y-66.7068
G1 X-292.3891 Y-66.7444
G1 X-291.5648 Y-66.78
G3 X-288.0478 Y-66.9017 I10.4287 J250.3712
G3 X-280.0109 Y-67.012 I7.9483 J286.434
G1 X-279.7587 Y-67.0119
G1 X-278.7341 Y-67.0095
G3 X-276.6192 Y-66.9942 I-0.4681 J210.4832
G3 X-276.0864 Y-66.9882 I-0.7772 J92.0797
G1 X-275.0039 Y-66.9732
G1 X-274.4585 Y-66.9644
G1 X-273.1471 Y-66.9392
G1 X-271.8359 Y-66.9087
G1 X-270.9618 Y-66.8858
G1 X-269.7964 Y-66.8526
G1 X-269.1305 Y-66.8324
G1 X-268.7754 Y-66.8212
G1 X-266.8815 Y-66.7579
G1 X-266.3764 Y-66.7401
G1 X-265.2221 Y-66.6978
G3 X-265.1493 Y-66.6951 I0.0074 J0.7753
G3 X-265.076 Y-66.6924 I0.0074 J0.781
G3 X-265.0021 Y-66.6896 I0.0074 J0.7868
G3 X-264.9276 Y-66.6868 I0.0074 J0.7926
G1 X-263.5664 Y-66.6341
G1 X-262.0109 Y-66.5711
G1 X-261.8133 Y-66.5629
G1 X-261.6126 Y-66.5546
G1 X-261.4088 Y-66.546
G1 X-259.5453 Y-66.4661
G1 X-258.5514 Y-66.422
G1 X-256.28 Y-66.3182
G1 X-255.0686 Y-66.2612
G1 X-254.761 Y-66.2465
G1 X-254.1258 Y-66.2161
G1 X-251.2226 Y-66.0733
G1 X-247.9051 Y-65.9038
G3 X-239.0596 Y-65.4247 I-142.9079 J2720.9216
G1 X-237.9184 Y-65.3605
G1 X-235.4839 Y-65.2218
G1 X-234.8656 Y-65.1863
G1 X-233.5892 Y-65.1124
G1 X-230.8664 Y-64.9532
G1 X-230.1748 Y-64.9123
G1 X-227.2245 Y-64.7366
G1 X-226.4752 Y-64.6916
G1 X-224.9283 Y-64.5982
G1 X-221.6285 Y-64.397
G1 X-218.109 Y-64.1799
G3 X-217.8881 Y-64.1663 I-0.4923 J9.7401
G1 X-217.4429 Y-64.1387
G1 X-213.6443 Y-63.9041
G1 X-213.4059 Y-63.8896
G1 X-212.4372 Y-63.8325
G3 X-182.7852 Y-62.0837 I-178.6374 J3281.2021
G1 X-178.5504 Y-61.8122
G1 X-177.4576 Y-61.7411
G1 X-175.1265 Y-61.5883
G1 X-174.8328 Y-61.5689
G1 X-172.3268 Y-61.4023
G1 X-169.6539 Y-61.2222
G1 X-169.3171 Y-61.1993
G3 X-154.9528 Y-60.182 I-154.0726 J2277.4379
G1 X-151.1235 Y-59.8957
G1 X-150.151 Y-59.8218
G1 X-148.1435 Y-59.6678
G1 X-146.0713 Y-59.5067
G1 X-143.9325 Y-59.3378
G1 X-141.725 Y-59.1608
G1 X-140.6037 Y-59.0698
G1 X-138.2892 Y-58.8793
G3 X-133.3526 Y-58.4609 I-102.7405 J1241.4089
G3 X-122.0752 Y-57.4299 I-95.3692 J1105.4217
G1 X-120.6439 Y-57.29
G1 X-119.1902 Y-57.1454
G1 X-117.7137 Y-56.9959
G3 X-111.4174 Y-56.3228 I-61.0575 J600.9441
G1 X-110.6247 Y-56.2334
G1 X-109.0145 Y-56.048
G1 X-108.9137 Y-56.0362
G1 X-108.8129 Y-56.0244
G1 X-107.1746 Y-55.8295
G1 X-105.511 Y-55.6251
G1 X-103.822 Y-55.41
G1 X-103.7507 Y-55.4005
G3 X-103.6795 Y-55.3901 I-0.0931 J0.8856
G1 X-103.6591 Y-55.3869
G1 X-103.497 Y-55.3588
G3 X-103.1774 Y-55.2805 I-0.6365 J3.2899
G3 X-102.9759 Y-55.193 I-0.2217 J0.7867
G3 X-102.9315 Y-55.1536 I-0.1212 J0.1815
G3 X-102.9397 Y-55.0782 I-0.0371 J0.0341
G3 X-103.046 Y-55.0286 I-0.1748 J-0.2359
G3 X-103.1872 Y-54.9994 I-0.3022 J-1.1061
G3 X-103.5963 Y-54.9699 I-0.4339 J-3.1653
G3 X-103.822 Y-54.9691 I-0.1311 J-4.7705
G3 X-105.2994 Y-55.0209 I1.0797 J-51.8827
G1 X-105.7916 Y-55.044
G1 X-106.4478 Y-55.0775
G3 X-109.0712 Y-55.2317 I17.5281 J-320.6689
G3 X-114.3148 Y-55.5883 I48.0348 J-745.1265
G1 X-114.6531 Y-55.6126
G3 X-118.2602 Y-55.8775 I67.7584 J-947.1298
G3 X-118.3168 Y-55.8817 I0.0177 J-0.6168
G3 X-118.3736 Y-55.886 I0.0178 J-0.6199
G3 X-118.4307 Y-55.8903 I0.0179 J-0.623
G1 X-119.4039 Y-55.9634
G3 X-119.465 Y-55.968 I0.0207 J-0.6819
G3 X-119.5263 Y-55.9727 I0.0209 J-0.6855
G1 X-121.768 Y-56.1432
G1 X-122.3464 Y-56.1876
G3 X-123.5805 Y-56.2827 I17.374 J-233.4792
G1 X-126.4009 Y-56.502
G1 X-129.6241 Y-56.7552
G1 X-133.3074 Y-57.0468
G1 X-133.7752 Y-57.0839
G1 X-143.7531 Y-57.878
G1 X-149.4551 Y-58.3273
G2 X-150.9267 Y-58.4418 I-31.2185 J391.8074
G1 X-154.0663 Y-58.6825
G1 X-155.6869 Y-58.8042
G1 X-157.36 Y-58.9271
G1 X-157.7817 Y-58.9575
G1 X-157.9934 Y-58.9727
G2 X-158.4201 Y-59.003 I-35.4962 J496.1529
G2 X-159.287 Y-59.0636 I-7.5024 J101.1076
G2 X-161.0771 Y-59.1825 I-19.713 J283.1512
G1 X-161.9868 Y-59.238
G1 X-162.4454 Y-59.2639
G3 X-168.9472 Y-59.6526 I43.2638 J-778.3369
G1 X-171.1138 Y-59.793
G3 X-179.7775 Y-60.3946 I80.2889 J-1218.9372
G3 X-180.9324 Y-60.4785 I14.696 J-210.2446
G3 X-181.0779 Y-60.4891 I0.2683 J-4.6792
G3 X-181.2245 Y-60.4998 I0.2702 J-4.7079
G3 X-181.3724 Y-60.5106 I0.272 J-4.7369
G3 X-181.5214 Y-60.5215 I0.2739 J-4.7662
G3 X-181.6715 Y-60.5325 I0.2758 J-4.7958
G3 X-181.8229 Y-60.5436 I0.2777 J-4.8258
G3 X-181.9754 Y-60.5548 I0.2797 J-4.856
G3 X-182.1291 Y-60.5661 I0.2816 J-4.8866
G3 X-182.2841 Y-60.5775 I0.2836 J-4.9175
G3 X-182.4403 Y-60.589 I0.2856 J-4.9488
G1 X-185.2952 Y-60.8006
G3 X-192.9077 Y-61.3725 I517.343 J-6937.5071
G1 X-197.2577 Y-61.6983
G1 X-198.3804 Y-61.7816
G1 X-200.7755 Y-61.9579
G1 X-203.3304 Y-62.1431
G1 X-204.6492 Y-62.2373
G1 X-207.4629 Y-62.4346
G1 X-208.9154 Y-62.5341
G2 X-215.5564 Y-62.9654 I-66.9079 J979.0306
G2 X-215.9748 Y-62.991 I-2.9511 J44.6913
G2 X-216.825 Y-63.0426 I-5.9094 J90.4583
G2 X-220.4531 Y-63.2526 I-42.5708 J703.8889
G1 X-222.326 Y-63.3543
G1 X-224.2597 Y-63.454
G1 X-225.242 Y-63.5026
G1 X-226.2399 Y-63.5503
G1 X-227.2538 Y-63.5972
G1 X-228.2839 Y-63.6431
G1 X-230.4107 Y-63.7322
G1 X-231.4911 Y-63.7743
G1 X-232.5887 Y-63.8149
G1 X-233.7039 Y-63.8538
G1 X-234.2659 Y-63.8725
G2 X-244.5463 Y-64.0954 I-15.081 J458.3807
G2 X-250.0309 Y-64.1103 I-3.6882 J348.4526
G2 X-255.881 Y-64.0341 I1.4464 J335.7577
G1 X-256.618 Y-64.0173
G1 X-257.3607 Y-63.9986
G1 X-258.8696 Y-63.9551
G1 X-260.4021 Y-63.9035
G2 X-263.5654 Y-63.7718 I8.676 J246.4312
G2 X-265.4218 Y-63.595 I1.0264 J20.6154
G2 X-267.258 Y-63.2701 I3.681 J26.1588
G2 X-270.8536 Y-62.291 I7.3696 J34.1537
G2 X-273.1908 Y-61.449 I13.6341 J41.5074
G2 X-282.0087 Y-56.9449 I18.7616 J47.6152
G2 X-282.5448 Y-56.5957 I25.5678 J39.8291
G1 X-282.6117 Y-56.5513
G2 X-284.9988 Y-54.8432 I22.6789 J34.216
G1 X-285.1448 Y-54.7296
G2 X-285.4395 Y-54.4964 I17.7595 J22.7468
G1 X-285.7362 Y-54.2562
G1 X-285.8102 Y-54.1953
G2 X-286.4143 Y-53.6841 I14.2903 J17.4994
G1 X-286.7158 Y-53.4182
G1 X-286.8663 Y-53.2825
G1 X-287.1688 Y-53.0032
G2 X-288.402 Y-51.7504 I13.949 J14.9632
G2 X-288.6967 Y-51.4144 I13.0363 J11.7316
G2 X-289.274 Y-50.6932 I10.3788 J8.8993
G2 X-289.5972 Y-50.1567 I3.8251 J2.6706
G2 X-289.8528 Y-49.5849 I4.8673 J2.5179
G2 X-290.1733 Y-48.3764 I5.2984 J2.052
G2 X-290.212 Y-47.5422 I3.8708 J0.5977
G2 X-290.2023 Y-47.4346 I2.6297 J-0.1838
G2 X-290.0939 Y-46.9507 I2.0764 J-0.2111
G2 X-289.979 Y-46.7098 I1.4628 J-0.5496
G2 X-289.4921 Y-46.3012 I0.8107 J-0.4717
G2 X-289.1379 Y-46.2374 I0.3689 J-1.0335
G2 X-288.7419 Y-46.2766 I0.0284 J-1.7333
G1 X-287.8508 Y-46.4205
G1 X-287.5537 Y-46.468
G1 X-286.3649 Y-46.655
G1 X-285.572 Y-46.7771
G1 X-284.5142 Y-46.9365
G1 X-283.1028 Y-47.1426
G3 X-282.7263 Y-47.1962 I3.1906 J21.0407
G3 X-282.3245 Y-47.2529 I3.6682 J24.5775
G3 X-281.8958 Y-47.3125 I7.0824 J49.3179
G1 X-281.4385 Y-47.3753
G1 X-280.3927 Y-47.5154
G1 X-279.8347 Y-47.5881
G1 X-278.5586 Y-47.7488
G1 X-277.8775 Y-47.8313
G1 X-277.1507 Y-47.9166
G3 X-276.9661 Y-47.9379 I0.9106 J7.1064
G3 X-276.7785 Y-47.9592 I1.0832 J8.6705
G1 X-275.9779 Y-48.0483
G3 X-271.7015 Y-48.4584 I17.4308 J159.2626
G1 X-271.1489 Y-48.5025
G1 X-270.5783 Y-48.5457
G3 X-264.4812 Y-48.8369 I8.3442 J110.7461
G1 X-263.6936 Y-48.848
G1 X-262.8804 Y-48.8521
G1 X-262.4673 Y-48.8511
G1 X-262.3636 Y-48.8505
G1 X-262.2594 Y-48.8498
G1 X-262.1549 Y-48.8489
G1 X-262.05 Y-48.8479
G1 X-261.9446 Y-48.8467
G1 X-261.8388 Y-48.8454
G3 X-257.9745 Y-48.6863 I-0.788 J66.1415
G2 X-267.4307 Y-47.1191 I13.587 J111.2931
G2 X-276.7205 Y-44.7576 I23.5703 J112.1729
G1 X-277.3129 Y-44.5791
G2 X-283.5698 Y-42.4882 I35.7848 J117.4906
G1 X-284.3688 Y-42.194
G1 X-285.1914 Y-41.8847
G1 X-286.0381 Y-41.5595
G1 X-286.9098 Y-41.2174
G2 X-288.761 Y-40.4666 I56.3333 J141.5444
G2 X-289.2292 Y-40.2714 I14.4537 J35.3313
G2 X-289.7041 Y-40.0712 I12.4056 J30.0989
G2 X-299.6412 Y-35.3783 I54.0541 J127.3238
G2 X-305.1483 Y-32.3603 I71.2469 J136.5414
G2 X-305.319 Y-32.262 I3.7153 J6.6478
G2 X-308.2134 Y-30.5511 I74.7832 J129.8156
G2 X-308.3938 Y-30.4417 I3.8814 J6.6053
G2 X-314.8915 Y-26.2875 I89.6072 J147.3183
G1 X-315.7031 Y-25.7393
G1 X-316.5244 Y-25.1779
G1 X-317.3555 Y-24.603
G1 X-318.1965 Y-24.0142
G2 X-325.7315 Y-18.4271 I110.6807 J157.1415
G2 X-327.6326 Y-16.9287 I116.9768 J150.3784
G2 X-331.6299 Y-13.6622 I131.4084 J164.8839
G2 X-331.8782 Y-13.4541 I9.3957 J11.4634
G2 X-332.1271 Y-13.2449 I9.6102 J11.6865
G2 X-341.023 Y-5.3707 I157.1793 J186.5355
G2 X-345.6138 Y-1.0078 I196.1823 J211.0288
G1 X-346.1851 Y-0.4508
G1 X-346.7593 Y0.1121
G1 X-347.3364 Y0.681
G1 X-347.9164 Y1.256
G2 X-348.4517 Y1.9153 I5.463 J4.9833
G2 X-348.8841 Y2.6463 I3.9212 J2.8128
G2 X-349.0813 Y3.1781 I2.9206 J1.3852
G2 X-349.1637 Y3.9327 I2.267 J0.6293
G2 X-348.8239 Y4.8995 I1.8852 J-0.1195
G2 X-348.42 Y5.3381 I1.8681 J-1.315
G2 X-347.8522 Y5.7154 I1.9683 J-2.3467
G2 X-347.138 Y6.0083 I2.0256 J-3.9209
G2 X-346.2944 Y6.2058 I1.8198 J-5.8747
G2 X-345.3356 Y6.2996 I1.2342 J-7.6652
G1 X-345.0073 Y6.3099
G1 X-344.6788 Y6.3165
G1 X-344.4597 Y6.3191
G1 X-344.1677 Y6.3205
G1 X-343.7784 Y6.3189
G1 X-343.2593 Y6.3115
G2 X-341.1842 Y6.242 I-1.6529 J-80.3394
G1 X-340.5915 Y6.2158
G3 X-339.0112 Y6.1465 I16.8605 J366.3717
G1 X-338.1079 Y6.1135
G3 X-337.6261 Y6.0996 I6.2452 J208.83
G1 X-337.3773 Y6.0938
G1 X-336.8466 Y6.0847
G1 X-336.7117 Y6.0833
G1 X-336.1366 Y6.0813
G3 X-334.822 Y6.108 I-0.1826 J41.3855
G3 X-333.322 Y6.2084 I-1.1537 J28.4693
G1 X-332.9362 Y6.2495
G3 X-331.184 Y6.5376 I-2.1048 J18.2745
G3 X-330.7376 Y6.643 I-3.57 J16.1178
G3 X-329.7973 Y6.9185 I-3.3615 J13.2168
G1 X-329.6804 Y6.9584
G3 X-328.7002 Y7.3518 I-3.6259 J10.4534
G3 X-327.7016 Y7.8824 I-3.9505 J8.6378
G3 X-327.6412 Y7.9197 I-0.6481 J1.1203
G3 X-325.6424 Y9.6193 I-4.6058 J7.4416
G3 X-324.7986 Y10.7547 I-7.347 J6.3413
G3 X-324.0795 Y12.0943 I-8.849 J5.613
G3 X-323.9258 Y12.4494 I-11.7014 J5.2763
G2 X-327.2763 Y10.9859 I-9.915 J18.1324
G2 X-330.8277 Y10.1171 I-7.131 J21.4561
G2 X-331.8628 Y9.9696 I-3.9196 J23.7979
G1 X-331.9946 Y9.9538
G2 X-334.8169 Y9.7546 I-3.6471 J31.5868
G2 X-336.433 Y9.7402 I-1.1487 J38.2834
G1 X-336.85 Y9.7456
G2 X-338.7534 Y9.8055 I1.4043 J74.8742
G1 X-339.2442 Y9.8278
G1 X-339.4935 Y9.8398
G1 X-339.6191 Y9.846
G1 X-339.8742 Y9.8588
G3 X-342.2033 Y9.9722 I-14.1227 J-266.0936
G1 X-342.8044 Y9.9939
G1 X-342.8799 Y9.9962
G3 X-343.5029 Y10.0105 I-1.0466 J-31.9162
G3 X-344.1459 Y10.0147 I-0.4654 J-22.0505
G1 X-344.4725 Y10.0117
G3 X-345.1464 Y9.9918 I0.1631 J-16.9576
G1 X-345.4884 Y9.9734
G3 X-346.193 Y9.9137 I1.1428 J-17.6882
G3 X-346.9167 Y9.8146 I1.0889 J-10.6439
G1 X-347.098 Y9.7825
G1 X-347.2802 Y9.7469
G3 X-348.0254 Y9.5608 I1.833 J-8.9259
G3 X-348.7744 Y9.2915 I2.0002 J-6.739
G1 X-348.8661 Y9.2515
G3 X-349.5999 Y8.8602 I2.324 J-5.2421
G3 X-350.9456 Y7.6375 I2.7834 J-4.4152
G1 X-351.0238 Y7.5358
G1 X-351.0991 Y7.432
G3 X-351.2399 Y7.2176 I2.2535 J-1.633
G3 X-351.4761 Y6.7624 I2.7899 J-1.7367
G3 X-351.7225 Y5.7692 I2.8829 J-1.2423
G3 X-351.7035 Y5.0851 I3.3628 J-0.2491
G3 X-351.4866 Y4.2014 I4.1154 J0.5416
G3 X-350.9741 Y3.1127 I6.3013 J2.3013
G3 X-350.6119 Y2.5324 I8.5564 J4.9387
G3 X-350.1615 Y1.9009 I10.3131 J6.8775
G1 X-350.0403 Y1.7419
G1 X-349.9137 Y1.5796
G3 X-349.3217 Y0.8598 I21.9057 J17.4121
G1 X-348.9982 Y0.4857
G1 X-348.8297 Y0.2947
G3 X-348.0577 Y-0.5602 I53.7728 J47.7896
G1 X-347.1772 Y-1.5201
G1 X-346.7125 Y-2.0321
G1 X-346.5953 Y-2.1626
G1 X-346.3552 Y-2.4325
G1 X-346.234 Y-2.5702
G1 X-345.9864 Y-2.8554
G1 X-345.7345 Y-3.1518
G2 X-345.608 Y-3.3034 I-3.447 J-3.0047
G1 X-345.3508 Y-3.6185
G2 X-344.8226 Y-4.3031 I-21.1784 J-16.8866
G2 X-344.2978 Y-5.058 I-11.6648 J-8.6689
G2 X-343.798 Y-5.8997 I-9.3689 J-6.1322
G2 X-343.572 Y-6.3517 I-10.3189 J-5.4427
G2 X-343.1882 Y-7.3604 I-6.5856 J-3.083
G2 X-343.2333 Y-7.4026 I-0.6175 J0.6145
G2 X-343.279 Y-7.4442 I-0.6897 J0.7112
G2 X-343.3721 Y-7.5255 I-1.1728 J1.2502
G2 X-343.5657 Y-7.679 I-2.2933 J2.6919
G2 X-343.9843 Y-7.9411 I-1.9881 J2.7096
G2 X-344.9361 Y-8.1959 I-1.0381 J1.9727
G2 X-345.5935 Y-8.1214 I-0.0701 J2.3194
G2 X-345.9542 Y-8.0064 I0.7147 J2.8635
G2 X-346.3479 Y-7.8304 I1.8942 J4.767
G2 X-346.7752 Y-7.5909 I2.8344 J5.5574
G2 X-347.2402 Y-7.2881 I5.3148 J8.6718
G1 X-347.3577 Y-7.2068
G1 X-347.6051 Y-7.0314
G2 X-347.7318 Y-6.9401 I3.501 J4.9932
G1 X-348.3025 Y-6.5283
G1 X-348.4506 Y-6.424
G3 X-349.1338 Y-5.978 I-7.1686 J-10.2356
G3 X-349.9584 Y-5.5676 I-2.8544 J-4.7014
G3 X-350.4267 Y-5.421 I-1.2805 J-3.2707
G3 X-350.9456 Y-5.346 I-0.6705 J-2.806
G3 X-349.508 Y-8.0974 I21.8914 J9.6869
G3 X-347.7621 Y-10.6643 I25.5764 J15.5192
G3 X-346.4656 Y-12.2777 I28.6655 J21.7068
G1 X-346.105 Y-12.6955
G1 X-345.9167 Y-12.9091
G3 X-343.8238 Y-15.1091 I33.3206 J29.6023
G3 X-340.8424 Y-17.8422 I41.1599 J41.9064
G3 X-340.7942 Y-17.8836 I0.8311 J0.9212
G3 X-340.7458 Y-17.925 I0.8352 J0.9277
G3 X-338.9512 Y-19.4083 I51.717 J60.7421
G3 X-338.4808 Y-19.7822 I39.5971 J49.3388
G1 X-337.9926 Y-20.1643
G3 X-335.7297 Y-21.8676 I56.5668 J72.7987
G3 X-335.5855 Y-21.9727 I4.3665 J5.8369
G3 X-335.4401 Y-22.0784 I5.3212 J7.1704
G1 X-334.8378 Y-22.5122
G1 X-334.2133 Y-22.9558
G1 X-333.5659 Y-23.4094
G3 X-330.5772 Y-25.4345 I93.7236 J135.1005
G3 X-327.1177 Y-27.6738 I115.5745 J174.7597
G1 X-326.2197 Y-28.2429
G1 X-326.1069 Y-28.3142
G1 X-325.6483 Y-28.6033
G1 X-321.4553 Y-31.2321
G1 X-320.3756 Y-31.9135
G1 X-319.2648 Y-32.6218
G1 X-318.7025 Y-32.9842
G1 X-318.1329 Y-33.3549
G1 X-317.5563 Y-33.7344
G1 X-316.973 Y-34.1236
G1 X-316.3836 Y-34.5235
G1 X-315.7887 Y-34.9351
G2 X-314.5763 Y-35.8068 I-29.1342 J-41.7973
G2 X-313.3564 Y-36.7492 I-24.6842 J-33.2146
G2 X-312.7547 Y-37.2507 I-17.8436 J-22.0177
G2 X-311.5733 Y-38.3579 I-11.2484 J-13.1869
G1 X-311.5032 Y-38.4313
G1 X-311.4336 Y-38.5054
G2 X-311.2958 Y-38.6561 I-4.8872 J-4.6096
G2 X-310.5894 Y-39.4755 I-19.7321 J-17.7238
G1 X-310.3624 Y-39.7558
G2 X-309.5053 Y-40.916 I-15.9764 J-12.6989
G2 X-309.2778 Y-41.2598 I-8.2272 J-5.6913
G2 X-308.7178 Y-42.2057 I-11.9023 J-7.6849
G2 X-308.1049 Y-43.5379 I-9.8343 J-5.3321
G1 X-308.0398 Y-43.7156
G2 X-307.7919 Y-44.5459 I-8.1606 J-2.8885
G1 X-307.7669 Y-44.6531
G2 X-307.7205 Y-44.8758 I-3.7166 J-0.8918
G2 X-307.6059 Y-45.9114 I-6.0727 J-1.196
G2 X-307.709 Y-47.1048 I-5.2267 J-0.1495
G2 X-308.1805 Y-48.4057 I-4.732 J0.979
G2 X-309.1502 Y-49.6825 I-4.6424 J2.5193
G2 X-309.8055 Y-50.2418 I-4.5459 J4.6627
G2 X-310.576 Y-50.7468 I-4.7057 J6.3383
G2 X-311.4521 Y-51.1896 I-4.9535 J8.7128
G2 X-312.4248 Y-51.5659 I-4.7012 J10.7066
G2 X-314.7006 Y-52.1237 I-4.6705 J14.1361
G2 X-317.3002 Y-52.3816 I-3.3184 J20.2153
G2 X-320.1744 Y-52.3314 I-0.9767 J26.3839
G2 X-324.2918 Y-51.8758 I3.3126 J48.7697
G2 X-328.353 Y-51.0593 I6.903 J44.8449
G2 X-336.1677 Y-48.3321 I10.8729 J43.7164
G2 X-341.0526 Y-45.757 I20.0357 J43.9265
G1 X-341.2016 Y-45.667
G2 X-343.8704 Y-43.9364 I27.3629 J45.1189
G2 X-346.7927 Y-41.7765 I33.5579 J48.4615
G2 X-349.9709 Y-39.1079 I41.3537 J52.4763
G2 X-353.4109 Y-35.8507 I56.1361 J62.7325
G2 X-357.1345 Y-31.9329 I80.3783 J80.1224
G2 X-359.0527 Y-29.785 I122.2588 J111.1164
G1 X-359.2846 Y-29.5201
G1 X-359.5157 Y-29.2544
G1 X-359.6693 Y-29.0768
G1 X-359.8736 Y-28.8396
G2 X-360.6842 Y-27.8852 I64.1951 J55.3545
G2 X-362.2791 Y-25.9544 I102.1178 J85.9691
G2 X-362.3292 Y-25.8926 I0.8457 J0.7379
G2 X-362.3801 Y-25.8299 I0.8545 J0.7452
G2 X-362.4318 Y-25.7661 I0.8635 J0.7526
G2 X-365.6849 Y-21.6446 I183.3669 J148.0752
G1 X-366.1125 Y-21.0902
G1 X-367.0861 Y-19.8203
G1 X-368.1941 Y-18.3654
G1 X-368.7835 Y-17.5883
G1 X-371.9244 Y-13.4421
G1 X-372.7646 Y-12.3384
G1 X-373.6637 Y-11.1634
G3 X-373.7202 Y-11.0898 I-2.4118 J-1.7931
G3 X-375.8002 Y-8.4066 I-224.2751 J-171.7046
G3 X-375.9321 Y-8.2383 I-7.5322 J-5.771
G3 X-376.0653 Y-8.0688 I-8.416 J-6.4734
G3 X-376.1996 Y-7.898 I-9.6985 J-7.492
G3 X-376.473 Y-7.5514 I-19.2506 J-14.9028
G1 X-377.0392 Y-6.8375
G1 X-377.6266 Y-6.1028
G3 X-380.3559 Y-2.7799 I-152.6422 J-122.5923
G3 X-383.5861 Y0.9247 I-108.8424 J-91.6449
G1 X-383.7943 Y1.1539
G3 X-385.5968 Y3.0863 I-80.0455 J-72.8593
G1 X-386.0624 Y3.5697
G1 X-386.5388 Y4.0576
G3 X-388.6128 Y6.0989 I-59.2731 J-58.1486
G3 X-390.9055 Y8.1935 I-49.6206 J-52.012
G3 X-392.124 Y9.2354 I-55.0665 J-63.1673
G1 X-392.2788 Y9.3641
G3 X-394.9849 Y11.4827 I-38.9575 J-46.9731
G1 X-395.1588 Y11.6103
G1 X-395.334 Y11.7377
G1 X-395.5103 Y11.8648
G1 X-395.6879 Y11.9918
G3 X-397.1751 Y13.0124 I-33.5739 J-47.3298
G3 X-400.4753 Y15.0034 I-25.922 J-39.2366
G3 X-404.1881 Y16.7955 I-19.2801 J-35.201
G3 X-408.3558 Y18.2546 I-13.8379 J-32.8464
G3 X-418.4888 Y19.4966 I-9.0911 J-32.2139
G3 X-423.9626 Y18.9107 I1.1519 J-36.6301
G1 X-424.3655 Y19.8799
G2 X-421.2429 Y20.6984 I7.4551 J-22.0756
G2 X-418.0402 Y21.1024 I4.8843 J-25.821
G2 X-415.8886 Y21.1629 I1.8755 J-28.4118
G2 X-415.8207 Y21.1623 I0.021 J-1.3592
G2 X-412.9343 Y20.9977 I-0.3294 J-31.1729
G2 X-409.1314 Y20.3878 I-3.4835 J-33.8827
G2 X-404.2119 Y18.9393 I-7.7284 J-35.3239
G2 X-401.5113 Y17.8008 I-12.2871 J-32.92
G2 X-399.0673 Y16.421 I-27.4119 J-51.4067
G1 X-398.7239 Y16.214
G1 X-398.3333 Y15.9745
G2 X-395.2766 Y13.9516 I-31.8062 J-51.3818
G2 X-394.4257 Y13.3408 I-26.6394 J-38.0014
G2 X-392.2054 Y11.6467 I-42.0137 J-57.3698
G2 X-389.3517 Y9.2555 I-46.2928 J-58.1436
G2 X-387.7731 Y7.8292 I-53.3768 J-60.6617
G2 X-386.0127 Y6.1525 I-57.5658 J-62.2044
G1 X-385.5656 Y5.7125
G1 X-385.1071 Y5.2552
G2 X-380.3885 Y0.2172 I-84.0536 J-83.4522
G2 X-380.3167 Y0.1361 I-2.3453 J-2.1489
G2 X-380.2447 Y0.0546 I-2.3566 J-2.156
G2 X-380.1724 Y-0.0272 I-2.3682 J-2.1633
G2 X-380.1 Y-0.1095 I-2.3799 J-2.1706
G2 X-380.0273 Y-0.1921 I-2.3918 J-2.1782
G2 X-379.9544 Y-0.275 I-2.4039 J-2.1858
G2 X-379.8812 Y-0.3584 I-2.4161 J-2.1937
G2 X-379.8079 Y-0.4421 I-2.4286 J-2.2016
G2 X-379.7343 Y-0.5262 I-2.4412 J-2.2097
G2 X-379.6605 Y-0.6107 I-2.4541 J-2.218
G2 X-379.5865 Y-0.6956 I-2.4672 J-2.2264
G2 X-376.9208 Y-3.8321 I-123.7723 J-107.8931
G2 X-376.8383 Y-3.9315 I-3.1151 J-2.6696
G2 X-376.7555 Y-4.0314 I-3.1415 J-2.6884
G2 X-373.7698 Y-7.7108 I-184.4321 J-152.7099
G2 X-373.6772 Y-7.8271 I-4.8455 J-3.955
G2 X-372.9144 Y-8.7887 I-137.9892 J-110.2525
G1 X-372.1303 Y-9.7836
G2 X-371.9332 Y-10.0347 I-11.7148 J-9.3995
G2 X-371.7347 Y-10.2879 I-13.2055 J-10.5571
G2 X-371.5348 Y-10.5432 I-15.4435 J-12.2974
G2 X-371.3335 Y-10.8007 I-19.3766 J-15.3597
G2 X-371.1308 Y-11.0602 I-29.5195 J-23.266
G1 X-370.2953 Y-12.1327
G1 X-366.4891 Y-17.0393
G1 X-366.2489 Y-17.3481
G1 X-365.2558 Y-18.6213
G1 X-365.005 Y-18.9417
G1 X-363.9669 Y-20.262
G1 X-363.4375 Y-20.931
G3 X-361.1589 Y-23.7673 I242.2677 J192.2993
G1 X-360.869 Y-24.1223
G1 X-360.7232 Y-24.3003
G1 X-360.5766 Y-24.4788
G1 X-360.4293 Y-24.6578
G1 X-360.2812 Y-24.8374
G3 X-359.6773 Y-25.5654 I95.4266 J78.5481
G1 X-359.0603 Y-26.3017
G1 X-358.4293 Y-27.0462
G3 X-355.6851 Y-30.1762 I116.0204 J98.952
G3 X-354.2303 Y-31.7571 I95.0616 J86.0186
G3 X-351.0221 Y-35.0306 I73.3378 J68.6663
G1 X-350.8156 Y-35.2308
G1 X-350.6076 Y-35.4311
G3 X-346.948 Y-38.735 I54.6799 J56.8892
G1 X-346.7111 Y-38.9342
G1 X-346.4725 Y-39.1332
G3 X-342.2516 Y-42.3523 I40.5124 J48.742
G1 X-341.7002 Y-42.7312
G3 X-336.7991 Y-45.6877 I29.3174 J43.0606
G3 X-331.2059 Y-48.2028 I21.9895 J41.4242
G1 X-330.8445 Y-48.3357
G3 X-324.4822 Y-50.1325 I15.3838 J42.3101
G3 X-317.434 Y-51.0353 I9.6065 J47.0363
G3 X-316.3995 Y-50.9755 I0.2174 J5.2246
G3 X-316.059 Y-50.9148 I-0.6959 J4.8802
G3 X-315.6104 Y-50.8086 I-1.16 J5.9058
G3 X-315.0231 Y-50.6285 I-2.8179 J10.2341
G3 X-312.8262 Y-49.5556 I-3.3876 J9.7229
G3 X-311.5337 Y-48.562 I-5.1373 J8.0201
G3 X-310.8861 Y-47.8909 I-5.263 J5.7265
G3 X-310.2651 Y-47.0223 I-4.5968 J3.9426
G3 X-309.7901 Y-45.8901 I-3.8224 J2.2695
G3 X-309.6841 Y-45.2371 I-3.4537 J0.8955
G3 X-309.939 Y-43.7094 I-3.3653 J0.2237
G3 X-310.3417 Y-42.9663 I-3.7715 J-1.5634
G3 X-312.4025 Y-40.3484 I-19.6052 J-13.3132
G3 X-314.7879 Y-38.0222 I-20.6113 J-18.7498
G3 X-314.8679 Y-37.9529 I-1.8948 J-2.1046
G3 X-315.6089 Y-37.3311 I-17.3333 J-19.9043
G1 X-316.0111 Y-37.0079
G3 X-318.2225 Y-35.3739 I-27.1487 J-34.4292
G3 X-321.2925 Y-33.3774 I-38.7352 J-56.2021
G3 X-323.0821 Y-32.2953 I-56.0507 J-90.6823
G3 X-323.1953 Y-32.228 I-1.5259 J-2.4375
G1 X-324.1626 Y-31.6562
G1 X-325.1955 Y-31.0491
G1 X-326.2963 Y-30.401
G2 X-327.4667 Y-29.7047 I69.8731 J118.7805
G1 X-328.0685 Y-29.3416
G1 X-328.6874 Y-28.9633
G1 X-329.0007 Y-28.7696
G1 X-329.3181 Y-28.5715
G2 X-330.6616 Y-27.7102 I33.6948 J54.0378
G1 X-330.9996 Y-27.4867
G1 X-331.3414 Y-27.2573
G1 X-331.687 Y-27.0218
G2 X-332.5399 Y-26.418 I22.7185 J32.9959
G1 X-332.6608 Y-26.3305
G2 X-333.6225 Y-25.6225 I66.1919 J90.9147
G2 X-335.5226 Y-24.1754 I76.2608 J102.1056
G2 X-335.5523 Y-24.1523 I0.1507 J0.2248
G1 X-336.0944 Y-23.729
G1 X-336.3827 Y-23.5022
G1 X-336.6895 Y-23.2593
G2 X-341.5024 Y-19.2571 I84.2339 J106.1917
G1 X-341.8061 Y-18.9909
G1 X-342.1186 Y-18.7149
G2 X-345.3798 Y-15.6916 I62.0359 J70.1888
G1 X-345.7892 Y-15.2896
G2 X-346.652 Y-14.421 I53.8083 J54.3138
G2 X-348.5576 Y-12.371 I38.3831 J37.5891
G2 X-349.524 Y-11.2325 I32.5644 J28.622
G2 X-350.0048 Y-10.6297 I17.9417 J14.8023
G2 X-350.9767 Y-9.3014 I21.5114 J16.7599
G2 X-351.0927 Y-9.1294 I8.8715 J6.1107
G1 X-351.2079 Y-8.955
G2 X-352.1041 Y-7.4079 I12.8909 J8.5006
G2 X-352.4801 Y-6.562 I8.7171 J4.3812
G1 X-352.5614 Y-6.3431
G2 X-352.8199 Y-5.408 I6.1453 J2.2017
G2 X-352.8941 Y-4.3946 I4.0825 J0.8086
G2 X-352.8194 Y-3.8751 I3.097 J-0.1805
G1 X-352.7138 Y-3.7725
G1 X-352.605 Y-3.6735
G2 X-352.3769 Y-3.4875 I2.2718 J-2.5542
G2 X-351.8752 Y-3.1804 I1.7052 J-2.2222
G2 X-350.7215 Y-2.9722 I0.9461 J-1.9418
G2 X-349.9574 Y-3.1668 I-0.2869 J-2.7237
G2 X-349.8633 Y-3.2061 I-0.3456 J-0.961
G2 X-349.6663 Y-3.2977 I-2.7012 J-6.0644
G2 X-349.2353 Y-3.5379 I-2.54 J-5.064
G2 X-348.7692 Y-3.8466 I-3.9317 J-6.442
G2 X-348.2607 Y-4.2211 I-13.6347 J-19.0448
G1 X-348.1316 Y-4.3197
G1 X-347.8587 Y-4.5296
G1 X-347.7182 Y-4.6375
G1 X-347.4191 Y-4.8638
G3 X-346.7267 Y-5.346 I7.1751 J9.5637
G3 X-346.6162 Y-5.4026 I0.3708 J0.5884
G3 X-346.4955 Y-5.4316 I0.1402 J0.3172
G3 X-346.4133 Y-5.4157 I0.0111 J0.1632
G3 X-346.3562 Y-5.3109 I-0.0542 J0.0975
G3 X-346.4044 Y-5.1587 I-0.3238 J-0.0188
G3 X-346.5215 Y-5.0116 I-0.6705 J-0.4132
G2 X-349.158 Y-2.204 I26.9023 J27.9054
G2 X-351.5067 Y0.8486 I31.7325 J26.8455
G2 X-351.649 Y1.0524 I5.558 J4.0307
G1 X-351.9492 Y1.4896
G1 X-352.2645 Y1.9591
G1 X-352.4165 Y2.1939
G1 X-352.563 Y2.4321
G2 X-352.6575 Y2.5929 I2.9099 J1.8186
G2 X-353.0072 Y3.2518 I8.8699 J5.1292
G2 X-353.537 Y4.6452 I7.2157 J3.5411
G2 X-353.5616 Y4.7384 I1.0668 J0.3314
G2 X-353.7318 Y5.752 I5.46 J1.4379
G2 X-353.6328 Y7.1227 I4.4961 J0.3643
G2 X-352.8033 Y8.7731 I3.8738 J-0.9134
G2 X-352.0307 Y9.5097 I3.7604 J-3.1705
G2 X-350.9951 Y10.1523 I3.884 J-5.1043
G2 X-349.7143 Y10.6695 I4.0772 J-8.2522
G2 X-349.0102 Y10.8713 I3.5029 J-10.8896
G2 X-347.3981 Y11.1836 I3.5768 J-14.1501
G2 X-347.1918 Y11.2114 I0.7964 J-5.1189
G2 X-346.9826 Y11.2373 I1.0724 J-7.816
G2 X-346.5523 Y11.2833 I2.436 J-20.738
G1 X-346.334 Y11.3032
G1 X-346.1129 Y11.321
G2 X-345.6587 Y11.3509 I1.8183 J-24.1495
G2 X-343.5228 Y11.4345 I3.5123 J-62.4703
G2 X-341.3856 Y11.4623 I2.3592 J-99.0656
G1 X-340.7749 Y11.4643
G1 X-339.1466 Y11.4655
G1 X-338.9364 Y11.4658
G1 X-337.9759 Y11.4689
G1 X-337.4636 Y11.4728
G1 X-336.9171 Y11.4792
G3 X-335.6684 Y11.506 I-0.8184 J67.073
G1 X-335.5099 Y11.5109
G1 X-335.3488 Y11.5163
G1 X-335.1852 Y11.5222
G1 X-335.019 Y11.5286
G1 X-334.8502 Y11.5356
G1 X-334.6787 Y11.5432
G3 X-333.1125 Y11.6406 I-1.8823 J42.9169
G1 X-332.9139 Y11.657
G1 X-332.7122 Y11.6746
G1 X-332.2961 Y11.7145
G1 X-331.8671 Y11.7606
G3 X-329.9142 Y12.0454 I-3.49 J30.767
G3 X-329.4138 Y12.1407 I-2.5633 J14.8268
G3 X-327.1523 Y12.7069 I-4.8264 J24.0768
G3 X-321.5199 Y15.3911 I-5.9712 J19.781
G3 X-321.1286 Y15.0069 I5.5147 J5.2247
G1 X-320.9929 Y14.8843
G3 X-320.4223 Y14.4274 I4.6439 J5.2156
G3 X-320.0158 Y14.1583 I3.6044 J5.0021
G3 X-318.2034 Y13.453 I2.8586 J4.6645
G3 X-316.9069 Y13.3428 I1.1755 J6.1514
G3 X-316.1645 Y13.392 I-0.0973 J7.0996
G2 X-315.2556 Y13.3244 I0.2724 J-2.4828
G2 X-314.4434 Y12.9108 I-0.6031 J-2.1884
G2 X-314.0101 Y12.4822 I-1.8663 J-2.3199
G2 X-313.5685 Y11.8067 I-3.1365 J-2.5329
G2 X-313.1672 Y10.8239 I-5.406 J-2.7808
G2 X-313.0875 Y10.5529 I-4.9408 J-1.5999
G2 X-312.8237 Y9.1046 I-7.9741 J-2.2006
G2 X-312.7005 Y8.1856 I-25.0948 J-3.8313
G1 X-312.6665 Y7.8784
G2 X-312.5579 Y6.647 I-45.6663 J-4.649
G2 X-312.4365 Y4.178 I-60.7591 J-4.2231
G1 X-312.4192 Y3.472
G1 X-312.4069 Y2.6649
G2 Y0.5128 I-92.6187 J-1.0732
G1 X-312.4139 Y-0.061
G2 X-312.8237 Y-9.2266 I-164.5753 J2.7652
G1 X-313.3558 Y-15.5093
G3 X-312.9919 Y-15.2353 I-0.4537 J0.9809
G3 X-312.7423 Y-14.8541 I-1.3133 J1.1325
G3 X-312.6872 Y-14.7361 I-1.6379 J0.836
G1 X-312.6308 Y-14.5987
G3 X-312.5733 Y-14.4393 I-1.8635 J0.763
G3 X-312.444 Y-14.0095 I-6.1846 J2.0941
G1 X-312.2895 Y-13.4362
G2 X-312.2444 Y-13.2847 I2.4918 J-0.6589
G2 X-312.1911 Y-13.125 I1.8279 J-0.5211
G2 X-312.0301 Y-12.7758 I1.7933 J-0.615
G2 X-311.902 Y-12.6135 I0.7904 J-0.4924
G2 X-311.7088 Y-12.4939 I0.3635 J-0.3714
G2 X-311.4498 Y-12.4772 I0.1641 J-0.5293
G2 X-311.1692 Y-12.5686 I-0.2022 J-1.0978
G2 X-310.8905 Y-12.729 I-0.9254 J-1.9305
G2 X-310.7548 Y-12.8249 I-5.5055 J-7.9316
G2 X-310.478 Y-13.0478 I-4.0231 J-5.2777
G1 X-310.4102 Y-13.1071
G2 X-310.7337 Y-14.306 I-10.6583 J2.2334
G2 X-311.1673 Y-15.4696 I-14.913 J4.8934
G1 X-311.2309 Y-15.6225
G1 X-311.3801 Y-15.9703
G1 X-311.5562 Y-16.3653
G1 X-311.763 Y-16.8141
G2 X-311.8172 Y-16.9295 I-3.5788 J1.6096
G2 X-311.8734 Y-17.0486 I-1.9738 J0.8598
G1 X-310.1783 Y-17.6985
G2 X-309.853 Y-16.5579 I31.2444 J-8.2949
G1 X-309.8017 Y-16.3964
G2 X-309.3193 Y-15.1296 I11.3209 J-3.586
G2 X-309.1509 Y-14.7806 I6.6047 J-2.9721
G2 X-308.6103 Y-13.8988 I5.8451 J-2.9764
G2 X-308.2314 Y-13.4435 I3.6223 J-2.629
G2 X-307.7292 Y-12.9865 I2.9755 J-2.7653
G2 X-307.0693 Y-12.5713 I2.4765 J-3.2041
G2 X-306.9353 Y-12.9428 I-1.6225 J-0.7949
G2 X-306.8803 Y-13.3338 I-1.9255 J-0.4704
G2 X-306.9415 Y-14.1171 I-3.211 J-0.1428
G2 X-307.0699 Y-14.6241 I-5.2573 J1.0613
G2 X-308.0042 Y-16.4519 I-6.0152 J1.9221
G3 X-308.2117 Y-16.8591 I2.4472 J-1.5034
G3 X-308.3315 Y-17.3 I1.5705 J-0.6635
G3 X-308.3324 Y-17.6059 I1.1853 J-0.156
G3 X-308.2057 Y-17.9958 I1.0932 J0.1396
G3 X-307.8578 Y-18.4182 I1.3748 J0.7778
G3 X-307.6118 Y-18.6101 I2.1169 J2.4606
G3 X-307.3135 Y-18.7984 I2.0199 J2.869
G3 X-307.1503 Y-18.8894 I2.145 J3.6519
G3 X-307.0654 Y-18.9346 I0.9687 J1.72
G3 X-306.6798 Y-19.1273 I4.5958 J8.714
G1 X-306.2454 Y-19.3356
G1 X-306.1343 Y-19.3899
G1 X-306.08 Y-19.1907
G1 X-306.0277 Y-18.991
G1 X-305.9276 Y-18.5905
G3 X-305.8998 Y-18.4759 I-3.4565 J0.899
G1 X-305.6806 Y-17.5579
G1 X-305.6165 Y-17.296
G2 X-305.4344 Y-16.6004 I17.8752 J-4.3083
G2 X-305.1483 Y-15.6852 I12.521 J-3.4113
G2 X-304.6368 Y-14.5122 I7.8151 J-2.7095
G2 X-304.2493 Y-13.8897 I5.4121 J-2.9381
G2 X-302.7858 Y-12.5713 I3.6345 J-2.5627
G1 X-304.1237 Y-19.7852
G3 X-303.8479 Y-19.9114 I2.0072 J4.0226
G3 X-303.5644 Y-20.0192 I1.2777 J2.9327
G3 X-302.9721 Y-20.1484 I0.8187 J2.3308
G3 X-302.5666 Y-20.1282 I0.1288 J1.4904
G3 X-302.0683 Y-19.9046 I-0.2306 J1.1809
G3 X-301.8366 Y-19.6905 I-1.0305 J1.3477
G3 X-301.6166 Y-19.4058 I-1.7983 J1.6167
G1 X-301.5655 Y-19.3283
G1 X-301.4621 Y-19.1608
G3 X-301.2419 Y-18.7753 I-19.9418 J11.6423
G2 X-300.9883 Y-18.3461 I6.7358 J-3.6903
G2 X-300.8397 Y-18.1285 I3.248 J-2.0588
G2 X-300.4381 Y-17.6956 I1.9428 J-1.3997
G2 X-299.8439 Y-17.383 I1.0489 J-1.2726
G1 X-299.1294 Y-21.3244
G3 X-298.8205 Y-21.3047 I0.0056 J2.3426
G3 X-298.5192 Y-21.2343 I-0.1821 J1.4595
G3 X-298.0145 Y-20.8796 I-0.3414 J1.0222
G3 X-297.8109 Y-20.5174 I-1.1901 J0.9073
G3 X-297.6561 Y-19.9932 I-3.3304 J1.268
G1 X-297.6249 Y-19.8514
G3 X-297.6171 Y-19.8154 I-0.2729 J0.0772
G1 X-297.547 Y-19.4906
G1 X-297.5057 Y-19.3195
G1 X-297.4824 Y-19.232
G2 X-297.426 Y-19.0486 I2.1643 J-0.5651
G2 X-297.3925 Y-18.9558 I0.846 J-0.2529
G2 X-297.1879 Y-18.5591 I1.8459 J-0.7009
G2 X-296.8234 Y-18.1998 I1.1194 J-0.7711
G2 X-296.2746 Y-17.9711 I0.9088 J-1.408
G2 X-295.9595 Y-17.919 I0.5232 J-2.1864
G2 X-295.6076 Y-18.4521 I-0.9622 J-1.0179
G2 X-295.529 Y-19.0859 I-1.4941 J-0.507
G2 X-295.5916 Y-19.5068 I-2.5042 J0.157
G2 X-295.7457 Y-20.0463 I-5.1752 J1.187
G2 X-295.9987 Y-20.7379 I-20.7795 J7.2072
G3 X-296.3199 Y-21.648 I13.1806 J-5.1645
G1 X-296.3551 Y-21.7673
G1 X-296.389 Y-21.8909
G3 X-295.815 Y-22.2342 I3.5119 J5.2205
G3 X-295.1982 Y-22.4934 I1.7414 J3.2805
G3 X-295.0131 Y-22.5421 I0.7026 J2.2952
G3 X-294.5027 Y-22.5818 I0.3903 J1.7171
G3 X-293.855 Y-22.3381 I-0.0991 J1.2463
G3 X-293.5636 Y-22.0599 I-0.9793 J1.3174
G3 X-293.3032 Y-21.6808 I-1.9528 J1.6205
G3 X-293.0709 Y-21.2165 I-4.8074 J2.6955
G3 X-292.8531 Y-20.6762 I-10.1377 J4.4011
G1 X-292.63 Y-20.0665
G2 X-292.5109 Y-19.7469 I12.8498 J-4.609
G1 X-292.4474 Y-19.5843
G1 X-292.431 Y-19.5435
G1 X-292.4144 Y-19.5025
G2 X-292.0791 Y-18.8014 I5.1671 J-2.0403
G2 X-291.8521 Y-18.462 I2.7441 J-1.5896
G2 X-291.5521 Y-18.1515 I1.4637 J-1.114
G2 X-291.1516 Y-17.919 I0.8854 J-1.0643
G2 X-290.7213 Y-18.6027 I-1.4612 J-1.3969
G2 X-290.6067 Y-19.4023 I-1.9383 J-0.6857
G2 X-290.6801 Y-19.9363 I-3.0435 J0.1458
G2 X-290.8839 Y-20.6188 I-5.2606 J1.1996
G1 X-290.9508 Y-20.7962
G2 X-291.3427 Y-21.7106 I-17.3937 J6.9135
G1 X-291.5722 Y-22.2261
G3 X-291.8154 Y-22.8179 I14.1089 J-6.142
G3 X-292.0371 Y-23.5099 I5.574 J-2.1678
G3 X-291.7731 Y-23.6173 I3.7365 J8.81
G1 X-291.6849 Y-23.6528
G1 X-291.3314 Y-23.7922
G1 X-291.2299 Y-23.8308
G1 X-290.9579 Y-23.9302
G1 X-290.8014 Y-23.9839
G1 X-290.6213 Y-24.042
G1 X-290.5248 Y-24.0714
G3 X-290.0035 Y-24.2046 I2.0276 J6.8451
G3 X-289.293 Y-24.3081 I1.115 J5.1679
G1 X-289.1854 Y-23.9766
G1 X-289.0772 Y-23.6453
G1 X-288.8578 Y-22.9839
G1 X-288.7941 Y-22.7951
G1 X-288.6214 Y-22.2931
G2 X-287.8646 Y-20.3086 I32.0528 J-11.0879
G2 X-287.2709 Y-19.0226 I19.4435 J-8.1951
G2 X-286.3322 Y-17.383 I15.8991 J-8.0147
G2 X-286.1107 Y-17.4077 I-0.0327 J-1.2978
G1 X-286.0381 Y-17.4237
G2 X-285.7538 Y-17.5092 I-0.6224 J-2.584
G2 X-285.2082 Y-17.7391 I-1.9154 J-5.3073
G2 X-284.8574 Y-17.919 I-2.8331 J-5.9562
G1 X-284.8896 Y-18.0331
G1 X-284.9222 Y-18.1472
G1 X-284.9882 Y-18.375
G1 X-285.1241 Y-18.8296
G1 X-285.1637 Y-18.9592
G2 X-285.4914 Y-19.9928 I-88.1245 J27.3651
G1 X-285.7168 Y-20.6796
G1 X-285.7461 Y-20.7682
G1 X-286.0587 Y-21.7127
G1 X-286.0987 Y-21.8347
G1 X-286.14 Y-21.9607
G1 X-286.326 Y-22.5373
G3 X-286.7893 Y-24.0849 I38.3834 J-12.3317
G3 X-286.8164 Y-24.1839 I2.1121 J-0.6321
G1 X-286.9282 Y-24.6071
G3 X-286.9555 Y-24.7149 I1.462 J-0.428
G1 X-286.7077 Y-24.8021
G1 X-286.6251 Y-24.8315
G1 X-286.2954 Y-24.9501
G1 X-285.6362 Y-25.1872
G3 X-284.2949 Y-25.5928 I4.7378 J13.2473
G3 X-284.2687 Y-25.5196 I-1.9114 J0.7263
G3 X-284.2425 Y-25.4463 I-1.9438 J0.7362
G3 X-284.1902 Y-25.2996 I-2.8154 J1.0856
G3 X-284.1555 Y-25.2018 I-2.3788 J0.8996
G3 X-284.1093 Y-25.0713 I-2.8346 J1.0769
G1 X-283.9255 Y-24.549
G1 X-283.5579 Y-23.5046
G1 X-283.3087 Y-22.8098
G1 X-283.1634 Y-22.4137
G2 X-282.7603 Y-21.3636 I34.2448 J-12.5415
G1 X-282.648 Y-21.0855
G1 X-282.5255 Y-20.7898
G1 X-282.3916 Y-20.4759
G1 X-282.2446 Y-20.1428
G2 X-281.3748 Y-18.4061 I19.85 J-8.8557
G2 X-280.8008 Y-17.4552 I15.0828 J-8.4555
G2 X-280.0654 Y-16.4191 I12.3222 J-7.9663
G2 X-280.0161 Y-16.3559 I0.6762 J-0.4769
G2 X-279.9661 Y-16.2925 I0.6658 J-0.4742
G1 X-279.8634 Y-16.1647
G2 X-279.6465 Y-15.9046 I9.5414 J-7.7319
G2 X-279.572 Y-17.2021 I-6.6505 J-1.0331
G2 X-279.7221 Y-18.493 I-8.3985 J0.3227
G2 X-279.9199 Y-19.3367 I-10.3972 J1.9927
G1 X-279.983 Y-19.559
G2 X-280.3746 Y-20.7254 I-15.8959 J4.6868
G2 X-280.402 Y-20.7986 I-0.7803 J0.2502
G2 X-280.43 Y-20.8729 I-0.7938 J0.2576
G2 X-281.0668 Y-22.4364 I-40.409 J15.5465
G1 X-281.4428 Y-23.3233
G3 X-281.858 Y-24.3411 I38.6375 J-16.3576
G1 X-281.9086 Y-24.4712
G3 X-282.0108 Y-24.7406 I7.0174 J-2.8171
G1 X-282.1129 Y-25.0198
G1 X-282.214 Y-25.3094
G1 X-282.3133 Y-25.61
G1 X-282.3616 Y-25.7634
G1 X-282.409 Y-25.9198
G1 X-282.4554 Y-26.0792
G1 X-279.0498 Y-26.9763
G3 X-278.5454 Y-25.7113 I-19.2235 J8.3982
G1 X-278.4791 Y-25.5284
G1 X-278.3076 Y-25.0387
G1 X-278.2127 Y-24.7578
G3 X-278.1067 Y-24.436 I-58.0024 J19.2811
G1 X-278.0511 Y-24.264
G1 X-277.9925 Y-24.0804
G1 X-277.9306 Y-23.8843
G1 X-277.8652 Y-23.675
G3 X-277.5251 Y-22.556 I-210.3992 J64.5635
G1 X-277.334 Y-21.9156
G2 X-276.8181 Y-20.2102 I120.6818 J-35.5764
G1 X-276.7495 Y-19.9908
G2 X-276.4249 Y-18.9913 I48.4683 J-15.1868
G1 X-276.2425 Y-18.4613
G2 X-275.7926 Y-17.2615 I29.1164 J-10.2359
G1 X-275.6673 Y-16.9554
G1 X-275.6351 Y-16.8785
G2 X-274.9888 Y-15.4976 I17.7271 J-7.4539
G1 X-274.8981 Y-15.3265
G2 X-273.9508 Y-13.8261 I10.5811 J-5.6307
G2 X-273.6676 Y-13.465 I9.0633 J-6.8168
G2 X-273.3563 Y-13.1071 I5.4058 J-4.3887
G2 X-273.3724 Y-14.1357 I-12.4455 J-0.3189
G2 X-273.4667 Y-15.16 I-16.1656 J0.9708
G2 X-273.8329 Y-17.1829 I-20.3446 J2.6384
G2 X-274.1737 Y-18.5103 I-27.8568 J6.4446
G2 X-274.7098 Y-20.2557 I-39.884 J11.2952
G1 X-274.8645 Y-20.7174
G2 X-275.2313 Y-21.7675 I-76.7365 J26.2132
G1 X-275.4327 Y-22.3253
G1 X-275.6505 Y-22.9192
G1 X-275.8849 Y-23.5516
G1 X-276.4201 Y-24.9963
G3 X-277.0061 Y-26.6556 I63.4237 J-23.3308
G1 X-277.0764 Y-26.8677
G3 X-277.3585 Y-27.7783 I24.0141 J-7.9399
G1 X-275.1008 Y-28.5004
G3 X-274.0611 Y-26.0674 I-58.4165 J26.4029
G3 X-273.0998 Y-23.6024 I-109.0572 J43.9498
G1 X-272.834 Y-22.8948
G1 X-272.6932 Y-22.517
G1 X-271.9455 Y-20.5011
G1 X-271.5145 Y-19.3506
G1 X-271.2815 Y-18.7381
G1 X-271.0298 Y-18.0861
G1 X-270.7567 Y-17.3924
G2 X-269.1879 Y-13.7386 I63.1046 J-24.932
G1 X-269.0804 Y-13.5101
G2 X-269.1545 Y-15.3228 I-14.2394 J-0.326
G2 X-269.4357 Y-17.1151 I-18.3999 J1.9692
G2 X-269.7115 Y-18.2927 I-21.0094 J4.2999
G2 X-270.1621 Y-19.8402 I-29.1322 J7.6428
G1 X-270.2952 Y-20.2489
G2 X-270.6156 Y-21.1772 I-49.2885 J16.4923
G2 X-270.6365 Y-21.2355 I-1.248 J0.4142
G2 X-270.6791 Y-21.3537 I-1.839 J0.5959
G1 X-270.864 Y-21.8569
G1 X-271.0663 Y-22.3916
G1 X-271.2868 Y-22.96
G1 X-271.4023 Y-23.2527
G1 X-271.5224 Y-23.5544
G1 X-271.7812 Y-24.1968
G1 X-272.0598 Y-24.8808
G1 X-272.1308 Y-25.0544
G1 X-272.203 Y-25.2308
G1 X-272.5103 Y-25.9829
G1 X-272.8353 Y-26.7859
G1 X-272.8759 Y-26.8872
G1 X-273.0424 Y-27.3059
G1 X-273.1262 Y-27.5189
G1 X-273.2969 Y-27.9593
G3 X-273.6489 Y-28.9032 I45.394 J-17.4675
G1 X-270.4221 Y-29.8725
G1 X-270.2605 Y-29.4315
G3 X-270.2375 Y-29.3684 I-0.6232 J0.2623
G1 X-270.0553 Y-28.8634
G1 X-269.6958 Y-27.8518
G1 X-269.5938 Y-27.5625
G3 X-269.4775 Y-27.2317 I-17.2993 J6.2685
G1 X-269.1677 Y-26.3496
G1 X-268.7524 Y-25.1744
G1 X-268.5121 Y-24.5038
G2 X-268.4814 Y-24.4187 I1.9959 J-0.6727
G2 X-268.4501 Y-24.3323 I2.1105 J-0.7149
G2 X-268.4183 Y-24.2445 I2.2446 J-0.7643
G2 X-268.3858 Y-24.1553 I2.4052 J-0.8237
G1 X-268.0863 Y-23.3417
G1 X-267.9238 Y-22.9088
G1 X-267.7478 Y-22.448
G1 X-267.6559 Y-22.2106
G1 X-267.4569 Y-21.7052
G1 X-267.2401 Y-21.168
G1 X-267.1842 Y-21.0319
G2 X-266.6555 Y-19.7948 I45.135 J-18.5558
G1 X-266.5859 Y-19.6388
G2 X-266.2818 Y-18.9762 I31.3736 J-13.9984
G1 X-266.1201 Y-18.6365
G1 X-265.9495 Y-18.2875
G2 X-265.1156 Y-16.7191 I28.1935 J-13.9835
G2 X-264.8843 Y-16.3232 I11.7522 J-6.5987
G2 X-263.7251 Y-14.5743 I18.3409 J-10.8988
G2 X-263.7463 Y-14.763 I-3.9311 J0.347
G2 X-263.7691 Y-14.9516 I-4.294 J0.4238
G2 X-263.7759 Y-15.0055 I-0.5589 J0.0432
G1 X-263.8347 Y-15.4359
G2 X-263.8779 Y-15.7222 I-8.5761 J1.1484
G2 X-264.08 Y-16.8625 I-34.1601 J5.467
G2 X-264.1455 Y-17.1869 I-14.0258 J2.6626
G2 X-264.3347 Y-18.0487 I-35.8349 J7.4126
G1 X-264.4513 Y-18.5393
G2 X-264.7876 Y-19.8409 I-42.9641 J10.4075
G2 X-264.8101 Y-19.9233 I-0.9393 J0.2118
G2 X-264.833 Y-20.007 I-0.9544 J0.2166
G2 X-264.8564 Y-20.092 I-0.9698 J0.2216
G2 X-264.8803 Y-20.1783 I-0.9859 J0.2268
G2 X-264.9837 Y-20.5459 I-14.5965 J3.9043
G2 X-265.5642 Y-22.4971 I-88.9985 J25.4191
G1 X-265.7254 Y-23.0155
G1 X-266.0999 Y-24.1983
G1 X-266.5331 Y-25.5481
G1 X-266.6449 Y-25.8965
G1 X-266.7601 Y-26.2561
G1 X-267.0044 Y-27.0238
G1 X-267.1293 Y-27.4203
G1 X-267.2572 Y-27.8299
G1 X-267.5254 Y-28.7051
G1 X-267.6607 Y-29.1577
G1 X-267.7978 Y-29.6257
G1 X-267.8319 Y-29.7438
G1 X-267.8661 Y-29.8629
G1 X-268.0048 Y-30.3551
G1 X-267.5864 Y-30.4787
G1 X-267.1675 Y-30.6006
G1 X-266.8876 Y-30.6799
G1 X-266.8129 Y-30.7007
G3 X-265.6105 Y-31.008 I7.6413 J27.3967
G1 X-265.2644 Y-31.0849
G1 X-258.9056 Y-14.5743
G1 X-257.8415 Y-14.3919
G2 X-258.7234 Y-18.1539 I-69.6181 J14.3368
G2 X-259.0595 Y-19.3973 I-64.0461 J16.6472
G1 X-259.1043 Y-19.5574
G1 X-259.1507 Y-19.7225
G1 X-259.199 Y-19.8929
G1 X-259.2492 Y-20.0687
G1 X-259.3013 Y-20.2501
G1 X-259.3555 Y-20.4373
G1 X-259.4118 Y-20.6303
G1 X-259.6737 Y-21.5114
G1 X-259.8161 Y-21.9806
G1 X-259.9699 Y-22.4805
G1 X-260.1357 Y-23.013
G1 X-260.5206 Y-24.2285
G1 X-261.5621 Y-27.4643
G3 X-261.8376 Y-28.3278 I121.2 J-39.1343
G1 X-262.1278 Y-29.25
G3 X-262.7704 Y-31.3643 I115.0522 J-36.1275
G3 X-262.79 Y-31.4309 I0.7262 J-0.2501
G1 X-259.9395 Y-31.8868
G1 X-259.7553 Y-31.4118
G1 X-259.5772 Y-30.9345
G1 X-259.4615 Y-30.6151
G1 X-259.3107 Y-30.188
G3 X-258.7398 Y-28.4689 I-57.953 J20.1986
G3 X-258.3795 Y-27.3162 I-79.9504 J25.6212
G1 X-258.1779 Y-26.6562
G1 X-257.9492 Y-25.9015
G1 X-257.6881 Y-25.0389
G1 X-257.3867 Y-24.0541
G1 X-257.3079 Y-23.8002
G1 X-257.1379 Y-23.2593
G1 X-256.9531 Y-22.6835
G1 X-256.9054 Y-22.5374
G1 X-256.6987 Y-21.9155
G1 X-256.5895 Y-21.5953
G2 X-256.0632 Y-20.141 I44.9627 J-15.4481
G1 X-255.9927 Y-19.9577
G1 X-255.8442 Y-19.5804
G1 X-255.6864 Y-19.1927
G2 X-255.3327 Y-18.3725 I38.8575 J-16.2687
G2 X-254.4212 Y-16.5441 I21.6369 J-9.6457
G2 X-253.1589 Y-14.5743 I15.7263 J-8.688
G2 X-253.2711 Y-16.3164 I-20.386 J0.438
G2 X-253.3392 Y-16.8945 I-30.9265 J3.3543
G2 X-253.744 Y-19.1864 I-25.937 J3.3992
G1 X-253.812 Y-19.4893
G2 X-254.2202 Y-21.0931 I-35.7973 J8.2554
G2 X-254.8582 Y-23.2044 I-48.9352 J13.6356
G1 X-254.9463 Y-23.475
G1 X-255.0384 Y-23.7539
G1 X-255.1346 Y-24.0415
G1 X-255.3429 Y-24.6538
G1 X-255.5689 Y-25.3055
G1 X-255.8132 Y-25.9994
G1 X-255.9401 Y-26.3572
G1 X-256.5215 Y-27.9915
G1 X-256.6706 Y-28.4135
G1 X-256.8235 Y-28.8495
G1 X-257.145 Y-29.7809
G1 X-257.3076 Y-30.2627
G1 X-257.4724 Y-30.7609
G1 X-257.639 Y-31.2764
G1 X-257.8066 Y-31.8098
G1 X-257.9745 Y-32.362
G1 X-254.778 Y-32.6166
G1 X-248.7423 Y-14.5743
G1 X-246.3365 Y-12.1646
G1 X-252.7598 Y-33.1031
G1 X-249.8104 Y-33.3046
G1 X-244.991 Y-20.7278
G1 X-243.9267 Y-21.7996
G1 X-247.4083 Y-33.3046
G1 X-243.0867 Y-33.5859
G1 X-242.969 Y-33.1919
G1 X-242.8539 Y-32.7973
G1 X-242.6298 Y-32.006
G1 X-242.4839 Y-31.4776
G1 X-241.9099 Y-29.3612
G2 X-241.517 Y-27.9531 I91.2404 J-24.6955
G2 X-241.0219 Y-28.7634 I-2.2507 J-1.9317
G2 X-240.8179 Y-29.6906 I-2.7602 J-1.0935
G2 X-240.8317 Y-30.3243 I-4.0749 J-0.2283
G2 X-240.9697 Y-31.1534 I-6.3997 J0.6392
G2 X-241.083 Y-31.6185 I-10.2731 J2.2569
G1 X-241.2242 Y-32.1443
G1 X-241.2995 Y-32.424
G3 X-241.3766 Y-32.7223 I12.7861 J-3.46
G3 X-241.5235 Y-33.4074 I10.5508 J-2.6217
G1 X-241.5513 Y-33.5859
G3 X-239.471 Y-33.7468 I4.4151 J43.5664
G3 X-237.3859 Y-33.8223 I3.0465 J55.2656
G3 X-233.2138 Y-33.7954 I1.5178 J88.0181
G1 X-232.6578 Y-33.7778
G1 X-232.0648 Y-33.756
G3 X-228.9048 Y-33.5916 I-5.301 J132.3775
G3 X-216.3233 Y-32.3105 I-11.4826 J175.1891
G1 X-215.5154 Y-32.1949
G1 X-215.1054 Y-32.134
G1 X-214.4627 Y-29.8869
G1 X-214.2448 Y-29.1389
G2 X-213.3222 Y-26.1623 I87.4699 J-25.4814
G2 X-212.6234 Y-24.2055 I41.8404 J-13.8378
G3 X-212.541 Y-24.2038 I0.0265 J0.7071
G1 X-212.4588 Y-24.1995
G1 X-212.2947 Y-24.1861
G1 X-211.9673 Y-24.1497
G1 X-211.7494 Y-24.1233
G1 X-211.4585 Y-24.0902
G2 X-211.069 Y-24.0649 I0.441 J-3.7805
G1 X-211.3234 Y-24.9865
G2 X-211.4093 Y-25.2935 I-25.0123 J6.8342
G1 X-211.5244 Y-25.7026
G1 X-211.6785 Y-26.2479
G1 X-211.7197 Y-26.3933
G1 X-211.9392 Y-27.1687
G1 X-212.2293 Y-28.2033
G1 X-212.3925 Y-28.7952
G1 X-212.5752 Y-29.4727
G1 X-212.6707 Y-29.8346
G1 X-212.7706 Y-30.2212
G1 X-212.8213 Y-30.421
G3 X-213.044 Y-31.3362 I40.922 J-10.4425
G1 X-213.1555 Y-31.8261
G3 X-211.5695 Y-31.8028 I0.551 J16.4994
G3 X-209.9897 Y-31.6587 I-1.5203 J25.3926
G3 X-209.5399 Y-31.6025 I-12.9331 J105.3019
G3 X-208.3438 Y-31.4309 I-6.1404 J47.0589
G3 X-207.9335 Y-30.3337 I-14.1905 J5.9316
G3 X-207.5887 Y-29.2143 I-25.8503 J8.5758
G3 X-207.3821 Y-28.4614 I-77.0737 J21.5553
G3 X-207.2694 Y-28.0298 I-18.731 J5.1206
G1 X-207.1437 Y-27.5357
G1 X-206.8145 Y-26.2169
G1 X-206.6231 Y-25.4642
G2 X-206.5983 Y-25.3687 I1.4136 J-0.316
G1 X-206.4909 Y-24.9619
G2 X-206.3729 Y-24.5289 I19.6946 J-5.1333
G2 X-206.2422 Y-24.0683 I23.2009 J-6.3352
G1 X-206.0962 Y-23.579
G1 X-206.0178 Y-23.3274
G2 X-205.8424 Y-22.7931 I32.1635 J-10.258
G2 X-205.3927 Y-21.5886 I20.0838 J-6.8133
G2 X-204.7723 Y-20.2551 I14.6623 J-6.0103
G2 X-203.8841 Y-18.823 I10.1916 J-5.3291
G2 X-202.5894 Y-17.383 I7.4981 J-5.4398
G2 X-202.7135 Y-18.376 I-16.887 J1.6066
G2 X-202.8947 Y-19.3601 I-17.7907 J2.7668
G2 X-202.908 Y-19.4233 I-0.6619 J0.1067
G2 X-202.922 Y-19.4886 I-0.6731 J0.11
G2 X-203.4495 Y-21.5539 I-30.5095 J6.6929
G2 X-203.5288 Y-21.8269 I-26.341 J7.5022
G2 X-203.615 Y-22.1176 I-14.0904 J4.016
G2 X-203.7083 Y-22.4272 I-14.3099 J4.1458
G2 X-203.8093 Y-22.7571 I-23.7574 J7.0928
G1 X-203.9182 Y-23.1085
G1 X-204.1698 Y-23.9107
G1 X-204.3043 Y-24.3384
G1 X-204.6082 Y-25.3168
G3 X-204.6271 Y-25.3786 I1.3204 J-0.4371
G3 X-204.646 Y-25.4408 I1.3493 J-0.4451
G3 X-204.6651 Y-25.5036 I1.3797 J-0.4535
G1 X-204.8254 Y-26.0395
G3 X-205.1712 Y-27.2703 I49.6068 J-14.5994
G3 X-205.2125 Y-27.4273 I6.4311 J-1.7748
G3 X-205.5536 Y-28.8719 I32.1515 J-8.3558
G1 X-205.6292 Y-29.2475
G1 X-205.7009 Y-29.6365
G3 X-205.9341 Y-31.4309 I18.5253 J-3.3192
G3 X-203.9489 Y-31.2301 I-2.7711 J37.311
G1 X-203.6665 Y-31.1914
G3 X-202.9161 Y-31.0696 I-3.5855 J24.4539
G1 X-202.7171 Y-31.0314
G3 X-201.6685 Y-30.7661 I-1.7258 J9.0253
G3 X-201.3959 Y-30.6706 I-1.5247 J4.7908
G1 X-201.2365 Y-30.2504
G1 X-201.1843 Y-30.1099
G1 X-200.9797 Y-29.5467
G3 X-200.5838 Y-28.4154 I-88.7583 J31.6964
G1 X-200.473 Y-28.0913
G1 X-200.1814 Y-27.2259
G1 X-200.1441 Y-27.1141
G1 X-200.1057 Y-26.9986
G1 X-199.9309 Y-26.4708
G1 X-199.7328 Y-25.867
G1 X-199.508 Y-25.1764
G3 X-199.4939 Y-25.1328 I-0.4782 J0.179
G1 X-199.3738 Y-24.7613
G1 X-199.1008 Y-23.9117
G3 X-198.956 Y-23.4584 I-26.7208 J8.7881
G1 X-198.6265 Y-22.4218
G1 X-198.5848 Y-22.2901
G1 X-198.2049 Y-21.0858
G1 X-197.198 Y-17.8724
G1 X-196.6215 Y-16.0365
G1 X-196.3099 Y-15.0587
G1 X-196.1457 Y-14.5551
G2 X-195.9684 Y-14.0378 I14.7626 J-4.7723
G1 X-195.919 Y-13.9092
G2 X-195.8407 Y-13.7307 I1.8737 J-0.7151
G2 X-195.7499 Y-13.5585 I1.5517 J-0.7088
G2 X-195.5257 Y-13.2403 I1.91 J-1.1072
G2 X-194.916 Y-12.7603 I1.5339 J-1.3214
G2 X-194.4328 Y-12.5713 I1.2286 J-2.4276
G2 X-194.7723 Y-14.6993 I-43.808 J5.896
G2 X-195.205 Y-16.8104 I-54.9864 J10.1709
G1 X-195.3416 Y-17.4109
G1 X-195.5034 Y-18.0958
G2 X-195.9589 Y-19.9159 I-105.6615 J25.4731
G1 X-196.085 Y-20.4002
G1 X-196.2212 Y-20.9163
G1 X-196.5373 Y-22.0944
G1 X-196.6197 Y-22.3982
G1 X-196.9982 Y-23.7865
G1 X-197.4295 Y-25.3732
G1 X-197.5396 Y-25.7831
G1 X-197.6525 Y-26.2064
G1 X-197.8895 Y-27.1101
G1 X-198.0095 Y-27.5773
G3 X-198.5283 Y-29.7199 I79.5792 J-20.4002
G1 X-198.6517 Y-30.2753
G3 X-198.0269 Y-30.2154 I-1.1698 J15.4898
G3 X-197.9852 Y-30.2108 I-0.0142 J0.3177
G1 X-197.7635 Y-30.1849
G1 X-197.4683 Y-30.1475
G3 X-197.0753 Y-30.0925 I-1.8695 J14.7958
G3 X-196.8511 Y-30.0586 I-1.0377 J7.6258
G3 X-195.0684 Y-29.7242 I-4.1959 J27.2828
G3 X-193.897 Y-29.424 I-4.0168 J18.1127
G1 X-187.6066 Y-9.7549
G1 X-186.1395
G2 X-186.5032 Y-11.0127 I-112.6549 J31.8941
G1 X-186.8746 Y-12.2683
G1 X-186.9818 Y-12.6268
G1 X-187.1048 Y-13.0364
G2 X-187.1367 Y-13.142 I-2.4408 J0.6774
G1 X-187.2825 Y-13.625
G1 X-188.4562 Y-17.4858
G1 X-188.6118 Y-18.0009
G1 X-188.9648 Y-19.1789
G1 X-189.0093 Y-19.3287
G1 X-189.1981 Y-19.9677
G1 X-189.3973 Y-20.6499
G1 X-189.607 Y-21.3785
G1 X-189.6597 Y-21.5637
G1 X-189.7131 Y-21.752
G1 X-189.9378 Y-22.5557
G1 X-190.1718 Y-23.4146
G3 X-190.6792 Y-25.3853 I98.3243 J-26.3696
G1 X-190.8028 Y-25.8957
G3 X-191.0541 Y-26.9874 I52.0325 J-12.555
G3 X-191.3012 Y-28.1568 I79.9175 J-17.4963
G1 X-191.36 Y-28.4546
G3 X-191.4758 Y-29.0706 I30.9977 J-6.1475
G1 X-186.9605 Y-28.4206
G1 X-179.9823 Y-5.8818
G1 X-178.9143
G1 X-179.0019 Y-6.4512
G2 X-179.015 Y-6.5325 I-1.2617 J0.1611
G2 X-179.0301 Y-6.6254 I-1.3501 J0.1718
G2 X-179.0475 Y-6.7315 I-1.4451 J0.1834
G2 X-179.1951 Y-7.579 I-46.3429 J7.6318
G2 X-179.5285 Y-9.2665 I-60.4179 J11.0597
G2 X-179.5516 Y-9.3751 I-1.5385 J0.2708
G2 X-180.3762 Y-12.8291 I-78.5745 J16.9331
G2 X-180.9978 Y-15.1134 I-121.7535 J31.9077
G1 X-181.1707 Y-15.7205
G1 X-181.3576 Y-16.3673
G1 X-181.5597 Y-17.0566
G1 X-181.7777 Y-17.791
G2 X-181.8054 Y-17.8835 I-2.5834 J0.7214
G2 X-181.8333 Y-17.9767 I-2.6334 J0.737
G2 X-181.8614 Y-18.0707 I-2.6861 J0.7534
G2 X-181.8898 Y-18.1653 I-2.7417 J0.7706
G2 X-183.1158 Y-22.1981 I-1008.4099 J304.3615
G1 X-183.4419 Y-23.2737
G1 X-183.7862 Y-24.422
G1 X-184.1472 Y-25.6487
G1 X-184.2376 Y-25.9606
G1 X-184.3288 Y-26.2777
G1 X-184.5149 Y-26.9328
G1 X-184.7038 Y-27.61
G1 X-184.7508 Y-27.7809
G1 X-184.7979 Y-27.9531
G3 X-182.3139 Y-27.6016 I-7.5768 J62.4853
G1 X-182.234 Y-27.5886
G1 X-181.869 Y-27.528
G3 X-180.8972 Y-27.3576 I-30.4011 J176.2328
G1 X-180.3428 Y-27.2553
G3 X-180.2723 Y-27.2421 I-0.0959 J0.7056
G1 X-179.6294 Y-27.1195
G3 X-178.8952 Y-26.9763 I-40.4159 J209.0548
G1 X-173.6958 Y-10.1577
G1 X-173.1637 Y-10.6937
G2 X-173.1664 Y-11.763 I-20.9885 J-0.4807
G2 X-173.2266 Y-12.8307 I-18.7989 J0.5242
G2 X-173.2323 Y-12.8995 I-0.6977 J0.0229
G2 X-173.5132 Y-15.0884 I-25.5562 J2.1675
G2 X-173.7924 Y-16.533 I-36.2204 J6.2512
G1 X-173.8774 Y-16.9161
G1 X-173.9725 Y-17.3236
G1 X-174.0788 Y-17.7572
G2 X-174.1065 Y-17.8672 I-1.5376 J0.3298
G2 X-174.1351 Y-17.9788 I-1.5902 J0.3468
G2 X-174.1643 Y-18.0921 I-1.6479 J0.3655
G2 X-174.1944 Y-18.2071 I-1.7116 J0.3861
G2 X-174.3262 Y-18.6967 I-18.213 J4.6412
G2 X-175.1152 Y-21.281 I-49.3404 J13.6517
G2 X-176.3457 Y-24.6636 I-66.7852 J22.3783
G2 X-177.1165 Y-26.5696 I-98.5137 J38.7299
G3 X-175.9929 Y-26.5088 I-0.126 J12.7374
G3 X-174.8827 Y-26.3252 I-0.8265 J8.4465
G3 X-174.1626 Y-26.113 I-1.4167 J6.1379
G1 X-174.1177 Y-26.0967
G3 X-173.1996 Y-25.6571 I-1.7253 J4.7813
G3 X-172.1541 Y-24.7853 I-2.3939 J3.9336
G3 X-171.6808 Y-24.1632 I-3.8359 J3.4099
G1 X-171.5734 Y-23.9923
G3 X-171.1478 Y-23.1749 I-6.5107 J3.9092
G3 X-170.7557 Y-22.2025 I-13.1097 J5.8513
G3 X-170.733 Y-22.1405 I-1.3072 J0.5153
G3 X-170.6871 Y-22.0145 I-2.1721 J0.8613
G3 X-170.6411 Y-21.8865 I-3.1621 J1.2103
G1 X-170.5469 Y-21.6224
G2 X-170.3457 Y-21.062 I146.8848 J-52.4291
G1 X-170.2933 Y-20.9203
G1 X-170.1822 Y-20.6296
G2 X-169.9258 Y-20.021 I12.385 J-4.8598
G2 X-169.6074 Y-19.3962 I7.8416 J-3.602
G2 X-169.4189 Y-19.0877 I3.9769 J-2.2195
G2 X-168.9504 Y-18.4766 I4.1875 J-2.7245
G2 X-168.3443 Y-17.919 I3.1943 J-2.8646
G2 X-168.2116 Y-18.4684 I-4.1386 J-1.29
G2 X-168.1434 Y-19.0296 I-5.0512 J-0.8983
G2 X-168.1579 Y-20.1581 I-7.0678 J-0.4739
G1 X-168.1721 Y-20.308
G2 X-168.2867 Y-21.102 I-9.9046 J1.024
G2 X-168.3271 Y-21.312 I-8.419 J1.5102
G1 X-168.3742 Y-21.5351
G2 X-168.4288 Y-21.7721 I-8.2918 J1.7862
G2 X-168.7855 Y-23.016 I-15.1856 J3.6822
G1 X-168.8388 Y-23.1743
G2 X-169.1001 Y-23.8905 I-18.8434 J6.4709
G1 X-169.1722 Y-24.0735
G2 X-169.5244 Y-24.8996 I-18.074 J7.217
G2 X-169.6213 Y-25.1101 I-4.8386 J2.1004
G1 X-168.9887 Y-25.0098
G1 X-168.3563 Y-24.9073
G1 X-167.0923 Y-24.6991
G1 X-164.5653 Y-24.2753
G1 X-163.8436 Y-24.1529
G1 X-161.9192 Y-23.8246
G1 X-159.3541 Y-23.3826
G1 X-155.935 Y-22.7864
G1 X-155.0236 Y-22.6262
G1 X-154.0514 Y-22.4546
G1 X-153.0145 Y-22.271
G1 X-152.7512 Y-22.2242
G1 X-150.3442 Y-21.7945
G3 X-150.0386 Y-21.7396 I-2.4791 J14.6874
G1 X-149.4077 Y-21.6261
G1 X-146.5244 Y-21.1034
G1 X-144.9871 Y-20.8219
G1 X-143.3478 Y-20.5192
G1 X-142.5019 Y-20.362
G1 X-140.6977 Y-20.024
G1 X-140.2396 Y-19.9375
G1 X-138.2857 Y-19.5658
G1 X-136.2027 Y-19.1633
G1 X-135.1281 Y-18.9528
G1 X-134.9933 Y-18.9262
G1 X-133.8802 Y-18.7054
G1 X-133.8104 Y-18.6915
G1 X-133.2442 Y-18.578
G1 X-132.0757 Y-18.3413
G1 X-131.4824 Y-18.2197
G1 X-130.2583 Y-17.965
G1 X-129.6369 Y-17.8337
G1 X-128.3553 Y-17.5572
G1 X-128.1945 Y-17.5219
G1 X-127.5418 Y-17.3771
G3 X-127.3781 Y-17.3403 I-0.8366 J4.1081
G1 X-126.7132 Y-17.1889
G3 X-126.6299 Y-17.1697 I-0.1971 J1.0444
G1 X-125.9541 Y-17.0114
G1 X-125.614 Y-16.9298
G1 X-124.924 Y-16.7596
G1 X-124.7511 Y-16.7157
G1 X-124.4029 Y-16.6256
G3 X-124.2284 Y-16.5794 I-1.3222 J5.3508
G1 X-123.8773 Y-16.4841
G1 X-123.7894 Y-16.4596
G1 X-123.4361 Y-16.3584
G1 X-123.0816 Y-16.2506
G1 X-122.9046 Y-16.1937
G3 X-122.5505 Y-16.0702 I-6.7481 J19.9215
G3 X-122.5065 Y-16.0536 I-0.3011 J0.8648
G3 X-122.1584 Y-15.9036 I-1.325 J3.5528
G3 X-121.9945 Y-15.8053 I-0.586 J1.1625
G3 X-121.9252 Y-15.7373 I-0.2224 J0.2963
G3 X-121.5569 Y-15.0985 I-4.0748 J2.7749
G3 X-121.2682 Y-14.42 I-6.5847 J3.2021
G3 X-120.8472 Y-13.0094 I-12.1585 J4.3974
G1 X-120.8248 Y-12.917
G1 X-120.8022 Y-12.8216
G1 X-120.7038 Y-12.3844
G1 X-120.5993 Y-11.8833
G1 X-120.546 Y-11.6156
G1 X-120.428 Y-11.0036
G1 X-120.2946 Y-10.3042
G1 X-120.2218 Y-9.9316
G1 X-120.1834 Y-9.7395
G1 X-120.0987 Y-9.3304
G2 X-119.8841 Y-8.4005 I30.1842 J-6.4758
G2 X-119.5827 Y-7.3525 I16.3348 J-4.1298
G1 X-119.561 Y-7.2872
G2 X-119.0861 Y-6.1226 I8.532 J-2.8
G2 X-118.7568 Y-5.5359 I5.2269 J-2.5479
G2 X-118.3305 Y-4.9548 I4.3894 J-2.7734
G2 X-117.7785 Y-4.4109 I3.4625 J-2.9619
G2 X-117.8318 Y-5.908 I-21.7262 J0.0232
G1 X-117.8477 Y-6.1215
G1 X-117.8683 Y-6.3653
G2 X-118.1036 Y-8.3075 I-33.4493 J3.0685
G2 X-118.1223 Y-8.4323 I-3.5733 J0.4692
G2 X-118.1418 Y-8.5612 I-3.4548 J0.4583
G2 X-118.2348 Y-9.1495 I-52.0744 J7.9324
G1 X-118.3467 Y-9.8209
G1 X-118.4782 Y-10.5875
G1 X-118.5487 Y-10.9963
G3 X-118.8991 Y-13.1799 I74.1139 J-13.0124
G3 X-118.9088 Y-13.2489 I1.4057 J-0.2336
G3 X-118.9185 Y-13.3184 I1.3981 J-0.2305
G3 X-119.0725 Y-14.5929 I34.0588 J-4.7618
G3 X-119.1329 Y-15.275 I19.4415 J-2.0636
G3 X-119.1392 Y-15.3611 I1.1401 J-0.1274
G1 X-119.0432 Y-15.3462
G1 X-118.9473 Y-15.3311
G3 X-118.7555 Y-15.2998 I-1.0174 J6.8435
G1 X-118.3727 Y-15.2334
G3 X-118.1179 Y-15.1861 I-7.4365 J40.7874
G1 X-117.779 Y-15.1193
G1 X-117.3285 Y-15.0235
G3 X-117.2704 Y-15.0105 I-0.1145 J0.65
G3 X-115.4303 Y-14.5321 I-6.3021 J28.0139
G1 X-114.9096 Y-14.3771
G1 X-114.3154 Y-14.1973
G1 X-114.2398 Y-14.1747
G1 X-114.163 Y-14.1518
G1 X-114.0849 Y-14.1287
G1 X-113.7514 Y-14.0326
G1 X-113.5787 Y-13.9851
G1 X-113.4874 Y-13.7313
G1 X-113.3989 Y-13.4765
G3 X-113.2291 Y-12.9644 I-35.4717 J12.0457
G3 X-112.9132 Y-11.9326 I-40.0527 J12.8249
G3 X-112.3435 Y-9.8516 I-69.211 J20.0649
G1 X-112.1894 Y-9.2547
G1 X-111.7843 Y-7.6618
G1 X-111.551 Y-6.752
G1 X-111.4246 Y-6.2673
G2 X-111.2874 Y-5.7509 I33.0575 J-8.5081
G1 X-111.1376 Y-5.2011
G2 X-110.7773 Y-3.9493 I63.4186 J-17.5766
G2 X-110.3219 Y-2.5317 I39.6119 J-11.9428
G1 X-110.2912 Y-2.443
G1 X-110.1614 Y-2.0781
G2 X-109.4923 Y-0.4375 I20.2359 J-7.2966
G1 X-109.4689 Y-0.3871
G1 X-109.4452 Y-0.3365
G2 X-109.0113 Y0.5126 I12.1417 J-5.6696
G1 X-108.982 Y0.5648
G2 X-108.4369 Y1.431 I9.0103 J-5.0659
G2 X-107.7407 Y2.2784 I5.9468 J-4.1762
G1 X-107.7645 Y1.9048
G1 X-107.7931 Y1.5316
G2 X-107.8641 Y0.7863 I-39.1407 J3.3483
G2 X-108.0538 Y-0.6988 I-40.0686 J4.3643
G1 X-108.0834 Y-0.8963
G2 X-108.6672 Y-4.0355 I-50.6208 J7.7909
G1 X-108.7584 Y-4.4514
G2 X-108.8584 Y-4.8944 I-30.933 J6.7526
G2 X-109.0972 Y-5.9046 I-66.5349 J15.1974
G1 X-109.2299 Y-6.4421
G1 X-109.375 Y-7.0145
G1 X-109.5337 Y-7.6239
G1 X-109.7068 Y-8.273
G1 X-109.7977 Y-8.6076
G1 X-109.9945 Y-9.3205
G2 X-111.093 Y-13.1071 I-216.4175 J60.7301
G3 X-106.5785 Y-11.7837 I-14.5253 J57.9078
G3 X-105.1067 Y-11.2409 I-8.33 J24.8576
G1 X-99.9832 Y7.0903
G1 X-98.4933 Y7.5501
G1 X-102.9288 Y-10.6937
G1 X-102.2587 Y-10.5181
G1 X-101.5872 Y-10.3481
G2 X-101.1388 Y-10.2372 I5.7285 J-22.188
G1 X-100.5405 Y-10.0913
G1 X-99.7423 Y-9.8987
G3 X-99.6393 Y-9.8739 I-0.4826 J2.2288
G3 X-99.5329 Y-9.8483 I-0.4097 J1.9326
G1 X-98.3995 Y-9.5722
G1 X-97.7529 Y-9.4103
G1 X-97.4084 Y-9.3222
G1 X-97.0414 Y-9.2266
G1 X-91.2908 Y11.9134
G1 X-90.2684 Y12.2213
G2 X-91.0023 Y8.193 I-113.2061 J18.5425
G2 X-91.8565 Y4.1884 I-162.2431 J32.5127
G2 X-93.8294 Y-3.7587 I-209.0498 J47.6803
G1 X-93.8628 Y-3.8833
G1 X-94.1496 Y-4.9457
G1 X-94.4603 Y-6.0776
G2 X-95.1866 Y-8.6603 I-308.0903 J85.258
G1 X-94.2645 Y-8.3699
G1 X-93.3441 Y-8.0743
G1 X-92.7321 Y-7.8724
G3 X-90.3053 Y-7.003 I-17.9143 J53.8207
G1 X-89.985 Y-6.8783
G1 X-89.8199 Y-6.8131
G1 X-88.3273 Y-0.1523
G1 X-86.8368 Y6.5091
G1 X-85.8456 Y10.9506
G1 X-85.5824 Y12.1352
G1 X-85.3046 Y13.3995
G2 X-85.1758 Y13.8584 I3.5204 J-0.7406
G2 X-84.9685 Y14.2875 I2.1239 J-0.7614
G2 X-84.263 Y14.9231 I1.4554 J-0.9062
G2 X-83.6551 Y15.1175 I1.0079 J-2.1035
G2 X-83.8262 Y13.7164 I-50.9002 J5.5055
G2 X-83.8323 Y13.6713 I-0.6888 J0.0703
G1 X-83.8996 Y13.1903
G1 X-83.9951 Y12.5497
G2 X-84.433 Y9.9969 I-85.0015 J13.2677
G1 X-84.4971 Y9.6576
G1 X-84.6479 Y8.8828
G1 X-84.8267 Y7.9985
G1 X-84.9245 Y7.5274
G1 X-85.0305 Y7.0253
G1 X-85.1452 Y6.49
G1 X-85.4132 Y5.2679
G1 X-85.7266 Y3.8729
G1 X-86.5758 Y0.1562
G1 X-86.8002 Y-0.8353
G3 X-86.8567 Y-1.0873 I11.1931 J-2.6452
G1 X-87.0955 Y-2.1626
G1 X-87.3444 Y-3.3109
G1 X-87.4064 Y-3.6028
G3 X-87.9461 Y-6.2771 I122.3147 J-26.0733
G2 X-85.7199 Y-5.456 I16.1396 J-40.3292
G1 X-85.3979 Y-5.3499
G2 X-84.531 Y-5.093 I5.6982 J-17.6322
G1 X-84.4178 Y-5.0647
G1 X-84.36 Y-5.0512
G2 X-84.3012 Y-5.0381 I0.212 J-0.8166
G3 X-84.0262 Y-3.9799 I-94.6912 J25.1714
G1 X-83.7576 Y-2.9202
G3 X-83.2322 Y-0.7975 I-276.5699 J69.5862
G1 X-82.8872 Y0.6188
G1 X-81.5198 Y6.2872
G1 X-81.1269 Y7.9062
G2 X-80.0577 Y12.2182 I435.2912 J-105.6484
G1 X-79.7636 Y13.3658
G1 X-79.688 Y13.6571
G1 X-79.6107 Y13.9529
G1 X-79.4498 Y14.5631
G1 X-79.2813 Y15.1923
G1 X-79.1947 Y15.5116
G1 X-79.1058 Y15.8358
G1 X-79.0606 Y15.9991
G1 X-78.8714 Y16.6725
G1 X-78.8229 Y16.8419
G1 X-78.6185 Y17.5403
G1 X-78.5116 Y17.8943
G1 X-78.4003 Y18.253
G1 X-78.2839 Y18.6164
G1 X-78.2237 Y18.799
G1 X-78.0975 Y19.1688
G1 X-78.0315 Y19.3543
G2 X-77.7307 Y20.1103 I11.2541 J-4.0405
G1 X-77.6878 Y20.203
G1 X-75.9052 Y20.6096
G1 X-76.2743 Y19.0172
G1 X-76.3988 Y18.4868
G1 X-76.9024 Y16.3663
G1 X-77.2413 Y14.9534
G2 X-77.2628 Y14.8637 I-2.1283 J0.4641
G1 X-77.7231 Y12.9502
G1 X-78.3336 Y10.3982
G1 X-78.6782 Y8.9389
G1 X-79.0658 Y7.2696
G1 X-79.1644 Y6.8384
G3 X-80.1675 Y2.229 I215.1619 J-49.2351
G1 X-80.2884 Y1.6325
G1 X-80.3185 Y1.482
G1 X-80.441 Y0.8607
G1 X-80.5644 Y0.2187
G1 X-80.6258 Y-0.1077
G1 X-80.7497 Y-0.782
G3 X-81.2568 Y-3.8751 I93.674 J-16.9444
G3 X-79.3082 Y-3.179 I-21.62 J63.6018
G3 X-77.3983 Y-2.3833 I-11.2351 J29.6573
G3 X-77.3685 Y-2.3699 I-0.0733 J0.2027
G3 X-77.1054 Y-1.6768 I-5.7491 J2.5792
G3 X-76.891 Y-0.9672 I-14.6875 J4.825
G1 X-76.8641 Y-0.872
G3 X-76.726 Y-0.3634 I-36.0766 J10.0736
G1 X-76.6498 Y-0.072
G3 X-76.0805 Y2.2675 I-101.4228 J25.9225
G3 X-76.0718 Y2.3045 I-0.2607 J0.0805
G1 X-75.7072 Y3.8804
G1 X-75.2247 Y5.982
G1 X-74.9464 Y7.1823
G1 X-74.6232 Y8.5527
G2 X-73.7139 Y12.1954 I157.0533 J-37.2697
G1 X-73.6837 Y12.3098
G1 X-73.5576 Y12.7815
G1 X-73.4927 Y13.0209
G2 X-72.8664 Y15.2004 I83.0592 J-22.6859
G1 X-72.6929 Y15.7594
G2 X-72.3006 Y16.9449 I54.2929 J-17.3113
G1 X-72.1952 Y17.244
G2 X-71.7099 Y18.5078 I24.878 J-8.8265
G2 X-71.4298 Y19.1485 I17.0541 J-7.0752
G1 X-71.4114 Y19.1882
G1 X-71.3359 Y19.3478
G1 X-71.2578 Y19.5077
G2 X-70.908 Y20.1552 I8.121 J-3.9701
G1 X-70.8603 Y20.2344
G2 X-70.4198 Y20.861 I4.433 J-2.6486
G2 X-70.1508 Y21.1456 I2.421 J-2.0187
G1 X-70.212 Y20.6885
G1 X-70.2759 Y20.232
G1 X-70.3201 Y19.9277
G1 X-70.3807 Y19.5224
G1 X-70.4647 Y18.9825
G2 X-70.8341 Y16.8282 I-92.969 J14.8317
G2 X-71.7034 Y12.5443 I-120.3027 J22.1811
G1 X-71.8294 Y11.9753
G1 X-71.9659 Y11.3688
G1 X-72.1136 Y10.7224
G1 X-72.2732 Y10.0333
G1 X-72.4455 Y9.2988
G1 X-72.6312 Y8.5159
G1 X-72.8309 Y7.681
G1 X-73.2911 Y5.7738
G1 X-73.8161 Y3.594
G1 X-73.9503 Y3.0311
G1 X-74.0879 Y2.4499
G1 X-74.2288 Y1.8497
G1 X-74.3728 Y1.2298
G1 X-74.5196 Y0.5894
G1 X-74.669 Y-0.072
G1 X-74.8206 Y-0.7554
G1 X-74.974 Y-1.4615
G2 X-72.5918 Y-0.3779 I30.3657 J-63.5951
G1 X-71.7913 Y-0.0311
G1 X-71.3344 Y0.1686
G1 X-71.0916 Y0.2769
G3 X-70.9666 Y0.3335 I-0.993 J2.3567
G3 X-70.4006 Y0.6042 I-4.8485 J10.8659
G3 X-70.1052 Y0.7619 I-2.5533 J5.1381
G1 X-69.9659 Y1.2284
G1 X-69.8289 Y1.6957
G1 X-69.5604 Y2.6317
G3 X-69.0373 Y4.5078 I-159.7752 J45.5573
G1 X-68.8901 Y5.0445
G1 X-68.5009 Y6.4765
G1 X-68.28 Y7.2953
G1 X-67.6933 Y9.4791
G1 X-66.9094 Y12.3904
G1 X-66.4556 Y14.0524
G1 X-66.2101 Y14.9379
G2 X-66.179 Y15.0494 I3.6803 J-0.9688
G2 X-65.5943 Y17.0838 I105.3264 J-29.1664
G1 X-65.4363 Y17.6067
G2 X-65.3542 Y17.8718 I8.142 J-2.3783
G1 X-65.3122 Y18.0052
G2 X-64.9232 Y19.1336 I17.4915 J-5.3984
G2 X-64.8031 Y19.4124 I3.7522 J-1.4512
G2 X-64.5299 Y19.92 I5.1153 J-2.4261
G2 X-64.1969 Y20.3905 I3.7308 J-2.2865
G2 X-63.3284 Y21.1456 I2.5641 J-2.0725
G2 X-63.518 Y19.2251 I-29.8543 J1.9783
G2 X-63.5549 Y18.9518 I-8.9711 J1.0711
G2 X-63.5648 Y18.8813 I-1.0841 J0.116
G2 X-63.9505 Y16.6377 I-38.729 J5.5029
G2 X-64.2701 Y15.154 I-50.7422 J10.1566
G2 X-64.4702 Y14.3101 I-70.2269 J16.203
G2 X-65.0489 Y12.0718 I-89.0958 J21.8423
G2 X-65.068 Y12.0014 I-1.6227 J0.4021
G1 X-65.232 Y11.4021
G1 X-65.4094 Y10.7636
G1 X-65.8207 Y9.306
G1 X-66.2917 Y7.6408
G1 X-66.5393 Y6.7518
G1 X-66.798 Y5.8021
G1 X-66.8626 Y5.5606
G1 X-66.9275 Y5.3151
G1 X-66.9929 Y5.0656
G1 X-67.1257 Y4.5498
G3 X-67.6849 Y2.1806 I59.5171 J-15.2976
G1 X-67.7169 Y2.0306
G1 X-67.7487 Y1.8793
G1 X-64.2216 Y3.3502
G1 X-58.5166 Y22.0882
G1 X-57.6083 Y22.3846
G1 X-57.6376 Y22.1486
G2 X-57.6681 Y21.9127 I-10.7715 J1.2715
G1 X-57.689 Y21.7554
G1 X-57.777 Y21.1272
G1 X-57.8033 Y20.9478
G1 X-57.876 Y20.4699
G2 X-57.9191 Y20.1971 I-16.2479 J2.4234
G2 X-57.9424 Y20.0516 I-5.6721 J0.8373
G1 X-58.0719 Y19.2767
G1 X-58.1492 Y18.8344
G2 X-58.839 Y15.3102 I-111.336 J19.9615
G2 X-60.4887 Y8.3215 I-165.6304 J35.4099
G1 X-60.6047 Y7.8729
G1 X-60.7255 Y7.4102
G1 X-60.987 Y6.424
G2 X-61.1239 Y5.9156 I-44.4835 J11.7065
G1 X-61.4206 Y4.8322
G1 X-61.4584 Y4.6958
G1 X-59.0526 Y5.7638
G3 X-57.8661 Y10.0142 I-184.1203 J53.6872
G3 X-57.8291 Y10.1517 I-3.0443 J0.8917
G1 X-57.4372 Y11.6187
G1 X-56.9152 Y13.5748
G1 X-56.6138 Y14.6918
G2 X-56.5353 Y14.9799 I16.8102 J-4.4233
G1 X-56.3668 Y15.5941
G2 X-55.9742 Y16.996 I175.0468 J-48.2614
G1 X-55.7597 Y17.7422
G1 X-55.6473 Y18.127
G1 X-55.53 Y18.5237
G1 X-55.4074 Y18.9328
G1 X-55.1406 Y19.8039
G1 X-54.9998 Y20.2524
G1 X-54.8521 Y20.7147
G1 X-54.6968 Y21.1911
G2 X-54.6716 Y21.267 I0.8871 J-0.2534
G1 X-54.663 Y21.2923
G1 X-54.6515 Y21.326
G1 X-54.6045 Y21.4604
G1 X-54.5721 Y21.5496
G1 X-54.5633 Y21.5734
G2 X-54.4146 Y21.9499 I7.4444 J-2.7229
G2 X-54.0562 Y22.6758 I5.5343 J-2.281
G2 X-53.7462 Y23.1185 I2.7321 J-1.583
G2 X-53.521 Y23.332 I1.064 J-0.8973
G2 X-53.3757 Y23.415 I0.3826 J-0.501
G2 X-53.1934 Y23.4439 I0.146 J-0.3319
G2 X-52.9989 Y23.3402 I-0.0416 J-0.3124
G2 X-52.9256 Y23.2411 I-0.5205 J-0.4618
G2 X-52.8953 Y23.1844 I-0.7073 J-0.4135
G2 X-52.8027 Y22.9037 I-1.185 J-0.5465
G2 X-52.7562 Y22.5929 I-2.2368 J-0.4941
G2 X-52.7404 Y22.2534 I-4.1576 J-0.363
G2 X-52.7685 Y21.6307 I-7.2847 J0.0164
G2 X-52.8002 Y21.3318 I-5.8355 J0.4685
G1 X-52.8498 Y20.9481
G2 X-52.8675 Y20.8203 I-2.2224 J0.2429
G2 X-52.8779 Y20.7474 I-1.6699 J0.2002
G2 X-52.9674 Y20.1646 I-25.267 J3.5834
G2 X-52.9802 Y20.087 I-1.6819 J0.2373
G1 X-53.0516 Y19.6739
G2 X-53.3849 Y18.0305 I-41.743 J7.6106
G1 X-53.4922 Y17.5636
G2 X-53.7994 Y16.3235 I-58.4599 J13.8232
G1 X-53.9861 Y15.6178
G2 X-54.5105 Y13.7434 I-110.3891 J29.8701
G1 X-55.2299 Y11.2508
G1 X-55.2751 Y11.0923
G1 X-55.4654 Y10.4158
G1 X-55.5619 Y10.0662
G1 X-55.7628 Y9.319
G1 X-55.8126 Y9.1289
G3 X-56.2362 Y7.3829 I51.4369 J-13.4022
G1 X-53.8226 Y8.6751
G1 X-53.6045 Y9.4375
G3 X-53.5901 Y9.4884 I-0.4913 J0.1666
G1 X-53.3617 Y10.3029
G3 X-53.3471 Y10.3555 I-0.5187 J0.1724
G1 X-53.1923 Y10.9167
G1 X-52.9885 Y11.6657
G1 X-52.7209 Y12.6654
G3 X-52.704 Y12.729 I-0.6278 J0.2005
G1 X-52.3487 Y14.0849
G1 X-52.1488 Y14.8605
G1 X-51.9227 Y15.7476
G1 X-51.6673 Y16.7622
G1 X-51.5323 Y17.3036
G1 X-51.2265 Y18.5417
G3 X-51.2073 Y18.6198 I-0.8636 J0.2533
G3 X-51.188 Y18.6985 I-0.8693 J0.2549
G3 X-51.1686 Y18.7778 I-0.8752 J0.2565
G3 X-51.149 Y18.8578 I-0.8811 J0.2581
G1 X-50.7937 Y20.3193
G1 X-50.6059 Y21.0992
G3 X-49.6195 Y25.262 I-665.3236 J159.8421
G1 X-49.0643 Y27.6428
G1 X-48.4344 Y30.3647
G1 X-46.7606 Y37.6243
G2 X-46.6539 Y38.0851 I37.6074 J-8.4596
G1 X-46.4335 Y39.0365
G1 X-45.9612 Y41.0656
G2 X-45.9315 Y41.1929 I4.1932 J-0.9121
G2 X-45.9016 Y41.3207 I4.3158 J-0.941
G1 X-45.3899 Y43.5011
G1 X-45.1239 Y44.6261
G1 X-44.5516 Y47.0247
G1 X-44.4789 Y47.3268
G1 X-44.1775 Y48.5737
G1 X-44.0236 Y49.2068
G1 X-43.7035 Y50.5134
G1 X-43.6224 Y50.8425
G1 X-43.2853 Y52.2009
G1 X-42.9335 Y53.602
G1 X-42.889 Y53.7778
G1 X-42.8443 Y53.9543
G1 X-42.4725 Y55.4106
G2 X-40.6978 Y62.0485 I330.2377 J-84.7327
G1 X-40.6398 Y62.2562
G1 X-40.5814 Y62.4646
G1 X-40.3422 Y63.3109
G2 X-40.2818 Y63.5232 I9.4802 J-2.5857
G2 X-40.2209 Y63.7363 I14.4296 J-4.0088
G1 X-39.9715 Y64.6014
G2 X-38.8674 Y68.2814 I220.5223 J-64.1567
G2 X-37.603 Y72.1802 I159.4524 J-49.5547
G2 X-36.9063 Y74.1779 I102.1378 J-34.5023
G1 X-36.8164 Y74.4278
G1 X-36.6333 Y74.9307
G2 X-35.849 Y76.9973 I103.641 J-38.1492
G2 X-35.6435 Y77.5151 I27.2828 J-10.5292
G2 X-34.4344 Y80.4397 I129.3803 J-51.7775
G2 X-34.3942 Y80.5336 I1.4738 J-0.5743
G2 X-34.3527 Y80.6305 I1.4977 J-0.5841
G2 X-32.9818 Y83.7115 I115.9387 J-49.743
G2 X-29.9613 Y89.7411 I94.5916 J-43.6135
G2 X-29.0235 Y91.4248 I69.5663 J-37.6434
G2 X-26.3491 Y95.8132 I75.6099 J-43.0705
G2 X-13.0814 Y111.4714 I67.7238 J-43.9346
G2 X-8.6065 Y115.2845 I57.8782 J-63.3901
G1 X-8.3159 Y115.5144
G1 X-7.7226 Y115.9775
G2 X-2.1259 Y119.9772 I56.0034 J-72.4487
G1 X-1.3946 Y120.4553
G2 X5.4731 Y124.5248 I56.0126 J-86.6968
G2 X9.253 Y126.4825 I53.7572 J-99.1662
G1 X9.7343 Y126.7192
G1 X10.2204 Y126.9554
G1 X10.7114 Y127.1913
G1 X11.2073 Y127.4268
G2 X15.4779 Y129.3457 I54.4215 J-115.4057
G2 X20.1022 Y131.2223 I52.5877 J-122.9534
G2 X21.2868 Y131.6724 I41.4352 J-107.2662
G1 X21.8852 Y131.8953
G1 X22.4893 Y132.1173
G1 X23.099 Y132.3384
G2 X25.625 Y133.2234 I47.3833 J-131.2043
G1 X26.2638 Y133.4395
G1 X26.9084 Y133.6545
G2 X28.2206 Y134.083 I38.6599 J-116.1722
G1 X28.8832 Y134.2947
G1 X29.5517 Y134.5053
G2 X35.283 Y136.1901 I53.4882 J-171.3579
G1 X36.0088 Y136.3889
G1 X36.7409 Y136.5863
G2 X38.2304 Y136.9783 I30.9832 J-114.7
G2 X38.9821 Y137.1714 I25.012 J-95.8244
G2 X39.7403 Y137.3629 I14.8465 J-57.1662
G2 X42.8763 Y138.1224 I48.6915 J-194.1936
G1 X43.2706 Y138.2143
G1 X43.6666 Y138.3058
G1 X44.0644 Y138.3968
G1 X44.4638 Y138.4875
G2 X51.2928 Y139.9194 I49.6236 J-219.6638
G2 X54.8299 Y140.5789 I49.9155 J-257.8726
G2 X58.4872 Y141.2067 I45.9216 J-256.5835
G1 X58.9467 Y141.2818
G1 X59.4081 Y141.3564
G2 X63.219 Y141.9422 I39.4291 J-243.8152
G1 X62.7151 Y142.0104
G1 X62.2104 Y142.0712
G1 X61.8735 Y142.1078
G3 X61.7835 Y142.1171 I-0.1468 J-0.9868
G1 X61.3036 Y142.1627
G1 X61.0291 Y142.186
G3 X58.8289 Y142.3055 I-3.2491 J-39.5049
G3 X54.4245 Y142.2327 I-1.3504 J-51.5637
G3 X51.4974 Y141.9948 I3.8538 J-65.5387
G3 X49.8304 Y141.8027 I7.0584 J-68.5592
G1 X49.401 Y141.7471
G3 X47.4421 Y141.4645 I9.7388 J-74.4292
G3 X42.2544 Y140.5139 I16.4713 J-104.527
G1 X41.5886 Y140.3735
G1 X40.9021 Y140.2249
G3 X37.7748 Y139.5023 I34.8646 J-157.9973
G1 X37.3788 Y139.4058
G1 X36.9768 Y139.3069
G1 X36.5686 Y139.2054
G1 X36.1542 Y139.1013
G3 X32.3785 Y138.1083 I49.1835 J-194.6969
G3 X32.2604 Y138.0761 I0.6493 J-2.6122
G3 X32.1417 Y138.0436 I0.6587 J-2.6423
G3 X32.0227 Y138.011 I0.6684 J-2.6734
G3 X31.9031 Y137.9782 I0.6784 J-2.7055
G1 X31.4178 Y137.8443
G1 X30.4167 Y137.565
G1 X29.3845 Y137.2729
G3 X29.255 Y137.2359 I1.0143 J-3.802
G3 X29.125 Y137.1988 I1.0406 J-3.8888
G3 X28.9945 Y137.1615 I1.0686 J-3.9816
G3 X28.8636 Y137.1239 I1.0987 J-4.0811
G3 X28.7321 Y137.0862 I1.131 J-4.1882
G1 X27.6475 Y136.7727
G1 X26.5291 Y136.4457
G1 X25.3757 Y136.105
G1 X24.1862 Y135.7503
G1 X22.9593 Y135.3817
G1 X22.6502 Y135.2884
G1 X20.0154 Y134.4889
G2 X17.4747 Y133.7471 I-33.2933 J109.3055
G1 X17.3923 Y133.7243
G2 X14.7419 Y133.0607 I-13.9634 J50.142
G2 X12.9517 Y132.7227 I-6.0855 J27.3229
G1 X12.8372 Y132.7056
G2 X11.7863 Y132.5822 I-2.7415 J18.8198
G1 X11.5139 Y132.5621
G2 X10.2634 Y132.5592 I-0.6469 J9.2775
G2 X9.5997 Y132.6442 I0.4475 J6.1288
G2 X8.9094 Y132.8431 I0.6883 J3.6853
G2 X10.3702 Y134.4538 I17.9771 J-14.8372
G2 X10.8884 Y134.9609 I16.0096 J-15.8402
G2 X13.0944 Y136.8411 I18.9149 J-19.9583
G2 X14.6647 Y137.9678 I18.401 J-23.9886
G1 X15.0946 Y138.2521
G2 X15.2045 Y138.3233 I1.2058 J-1.741
G2 X15.3164 Y138.3952 I1.2026 J-1.749
G2 X17.7608 Y139.8308 I21.0602 J-33.061
G2 X18.429 Y140.1845 I14.6732 J-26.9115
G1 X18.7761 Y140.3626
G1 X19.136 Y140.5434
G2 X20.798 Y141.333 I23.0213 J-46.3138
G2 X22.7261 Y142.1691 I23.8305 J-52.3138
G2 X24.9574 Y143.0531 I32.027 J-77.5815
G2 X27.5319 Y143.9915 I43.3221 J-114.8548
G1 X27.8603 Y144.1065
G1 X28.1942 Y144.2224
G1 X28.884 Y144.4595
G1 X29.2348 Y144.5788
G1 X29.5912 Y144.6994
G1 X30.3276 Y144.9464
G1 X30.5132 Y145.0083
G1 X31.2798 Y145.2627
G1 X34.7811 Y146.418
G1 X34.8909 Y146.4545
G3 X35.7962 Y146.7579 I-36.2699 J109.7501
G1 X35.6301 Y146.7511
G1 X35.4639 Y146.7439
G1 X35.1316 Y146.7285
G1 X34.4673 Y146.6938
G3 X34.4244 Y146.6914 I0.0025 J-0.4262
G3 X33.0538 Y146.6043 I8.2622 J-140.891
G3 X30.3161 Y146.3823 I8.3122 J-119.4931
G1 X29.5347 Y146.3093
G3 X23.2958 Y145.6136 I21.5515 J-221.6077
G3 X19.1467 Y145.068 I45.2794 J-360.3416
G1 X18.6118 Y144.9939
G1 X18.0597 Y144.9166
G1 X16.8824 Y144.7493
G1 X15.6272 Y144.5673
G1 X15.469 Y144.5441
G1 X14.1202 Y144.3443
G2 X16.1479 Y146.3444 I6.5958 J-4.6587
G2 X16.9573 Y146.8484 I5.6484 J-8.1704
G1 X17.1802 Y146.9707
G1 X17.4205 Y147.0965
G2 X18.7277 Y147.7078 I11.262 J-22.3767
G1 X19.4813 Y148.0396
G1 X19.6752 Y148.1265
G1 X19.8747 Y148.2174
G3 X16.3626 Y147.662 I8.0569 J-62.3323
G3 X12.8826 Y146.9316 I14.4153 J-77.3351
G3 X6.0318 Y145.0317 I19.5123 J-83.6608
G3 X4.1062 Y144.3833 I25.5839 J-79.1634
G1 X3.6121 Y144.2078
G3 X2.5622 Y143.8217 I18.9178 J-53.0631
G1 X2.0228 Y143.616
G1 X1.7495 Y143.5097
G3 X-0.7255 Y142.4781 I20.4593 J-52.5718
G1 X0.1572 Y142.5844
G2 X1.0404 Y142.6861 I54.7644 J-471.6221
G1 X1.2928 Y142.7145
G1 X1.9662 Y142.7889
G1 X2.8642 Y142.8858
G2 X2.9801 Y142.8981 I0.2416 J-1.7172
G2 X3.0998 Y142.9109 I0.2569 J-1.8477
G1 X6.9285 Y143.3124
G1 X8.0221 Y143.4302
G1 X9.2714 Y143.5703
G1 X9.5936 Y143.6077
G1 X9.9262 Y143.647
G1 X10.6353 Y143.7335
G3 X12.254 Y143.9491 I-11.9484 J95.9056
G1 X8.2662 Y142.6437
G1 X6.9374 Y142.2071
G1 X6.1782 Y141.9573
G1 X4.1539 Y141.2903
G1 X3.6142 Y141.1121
G1 X0.7361 Y140.1608
G1 X-0.0313 Y139.9067
G1 X-4.1231 Y138.5491
G1 X-6.4608 Y137.7717
G1 X-12.6926 Y135.6933
G1 X-13.4966 Y135.4247
G1 X-14.3265 Y135.1472
G1 X-16.0967 Y134.555
G1 X-17.9848 Y133.9228
G1 X-22.2998 Y132.4759
G1 X-27.2304 Y130.8196
G1 X-27.541 Y130.7152
G1 X-33.2191 Y128.804
G1 X-39.7072 Y126.6161
G1 X-47.1207 Y124.1116
G1 X-48.0621 Y123.7933
G1 X-56.6675 Y120.8804
G1 X-60.6748 Y119.5217
G0 Z5.0
G0 X-169.4617 Y-44.7982
G1 Z0.0
G2 X-171.386 Y-45.2314 I-19.0247 J80.0069
G1 X-172.0301 Y-45.364
G1 X-172.3988 Y-45.4363
G1 X-172.4457 Y-45.4453
G1 X-172.8747 Y-45.5252
G1 X-173.1037 Y-45.5659
G1 X-173.3484 Y-45.6077
G2 X-173.4106 Y-45.618 I-0.1611 J0.7787
G1 X-173.6762 Y-45.6605
G1 X-173.8135 Y-45.6814
G1 X-174.1067 Y-45.7232
G1 X-174.1437 Y-45.7282
G1 X-174.4597 Y-45.7673
G3 X-175.8839 Y-48.3519 I24.6257 J-15.2546
G3 X-177.0591 Y-51.0588 I30.7005 J-14.9361
G3 X-177.3514 Y-51.8499 I34.0856 J-13.0472
G1 X-177.4995 Y-52.2747
G3 X-177.8168 Y-53.2526 I29.4778 J-10.1059
G3 X-178.5113 Y-55.904 I30.3922 J-9.3776
G3 X-177.4194 Y-55.9143 I0.6598 J12.0695
G3 X-176.3307 Y-55.8291 I-0.3451 J11.403
G1 X-176.1865 Y-55.8085
G3 X-175.4268 Y-55.6452 I-0.856 J5.8313
G3 X-175.0082 Y-55.494 I-0.8987 J3.1422
G3 X-174.5687 Y-55.2321 I-0.7527 J1.7625
G3 X-174.3761 Y-55.0337 I-0.7181 J0.8901
G3 X-173.8006 Y-54.1095 I-5.6926 J4.1861
G3 X-173.7667 Y-54.0452 I-1.0892 J0.6155
G3 X-173.2733 Y-52.9941 I-13.7842 J7.112
G3 X-173.1448 Y-52.6882 I-8.9944 J3.9576
G3 X-172.8191 Y-51.8661 I-31.9736 J13.1417
G1 X-172.6404 Y-51.3936
G1 X-172.5465 Y-51.1411
G3 X-172.3336 Y-50.5635 I-51.8915 J19.4566
G1 X-172.2203 Y-50.2554
G1 X-171.9595 Y-49.5521
G1 X-171.8913 Y-49.371
G1 X-171.7439 Y-48.9853
G2 X-171.3934 Y-48.1094 I35.9991 J-13.8978
G2 X-171.3471 Y-47.9989 I2.7602 J-1.0919
G2 X-170.8972 Y-47.0003 I17.1674 J-7.1332
G2 X-170.2985 Y-45.9 I11.0653 J-5.3082
G2 X-169.9234 Y-45.3457 I7.2813 J-4.5231
G2 X-169.4617 Y-44.7982 I4.4968 J-3.3237
G0 Z5.0
G0 X-176.5046 Y-45.8701
G1 Z0.0
G1 X-181.856 Y-46.2766
G3 X-182.8061 Y-48.0393 I27.6729 J-16.0518
G1 X-182.9329 Y-48.2958
G1 X-183.0754 Y-48.5901
G1 X-183.2351 Y-48.928
G3 X-184.408 Y-51.6768 I42.9072 J-19.9318
G1 X-184.5527 Y-52.0482
G1 X-184.7046 Y-52.4451
G3 X-185.4827 Y-54.5738 I105.5202 J-39.7731
G1 X-185.6838 Y-55.1438
G1 X-186.1395 Y-56.4477
G3 X-185.1444 Y-56.6609 I2.1466 J7.5903
G3 X-184.1281 Y-56.7178 I0.828 J5.6827
G3 X-183.4534 Y-56.6362 I-0.1851 J4.3602
G3 X-182.594 Y-56.3435 I-0.7037 J3.4741
G3 X-181.6092 Y-55.6339 I-1.6704 J3.3569
G3 X-181.1515 Y-55.1098 I-3.4351 J3.4615
G3 X-180.7119 Y-54.4501 I-5.3473 J4.04
G3 X-180.6103 Y-54.2727 I-4.7167 J2.817
G3 X-180.1966 Y-53.443 I-9.6152 J5.3123
G1 X-180.1002 Y-53.2245
G3 X-179.6995 Y-52.2231 I-19.1909 J8.26
G1 X-179.6029 Y-51.9629
G3 X-179.1818 Y-50.7874 I-73.324 J26.929
G1 X-178.9582 Y-50.166
G2 X-178.7125 Y-49.5121 I23.0473 J-8.2886
G2 X-178.0876 Y-48.0739 I16.2268 J-6.1951
G1 X-178.0433 Y-47.9856
G2 X-177.853 Y-47.6267 I9.4915 J-4.8039
G1 X-177.8029 Y-47.5376
G1 X-177.7514 Y-47.4483
G2 X-177.644 Y-47.2691 I3.1542 J-1.769
G2 X-177.5305 Y-47.09 I3.6222 J-2.1694
G2 X-177.4105 Y-46.9115 I3.4508 J-2.19
G2 X-177.2835 Y-46.7341 I2.7635 J-1.8445
G1 X-177.2173 Y-46.6462
G1 X-177.1492 Y-46.5588
G2 X-176.5046 Y-45.8701 I4.2044 J-3.2891
G0 Z5.0
G0 X-184.2582 Y-46.8126
G1 Z0.0
G3 X-185.4327 Y-46.648 I-1.7056 J-7.8954
G3 X-186.6179 Y-46.6923 I-0.3759 J-5.824
G3 X-187.3896 Y-46.8704 I0.6412 J-4.5373
G3 X-188.3502 Y-47.3123 I1.3537 J-4.208
G3 X-189.4344 Y-48.2143 I2.7051 J-4.3541
G3 X-189.945 Y-48.8386 I4.7174 J-4.3794
G1 X-190.0655 Y-49.0083
G3 X-190.5642 Y-49.8128 I8.4384 J-5.7882
G1 X-190.6815 Y-50.0269
G3 X-190.9183 Y-50.4885 I22.6997 J-11.9358
G1 X-191.0345 Y-50.7292
G3 X-191.5242 Y-51.8353 I24.8753 J-11.6744
G1 X-191.6435 Y-52.1229
G1 X-191.8918 Y-52.735
G1 X-192.0184 Y-53.0505
G1 X-192.149 Y-53.375
G2 X-192.4301 Y-54.0611 I-36.7729 J14.664
G1 X-192.503 Y-54.2344
G1 X-192.6564 Y-54.5896
G1 X-192.8198 Y-54.9525
G1 X-192.9053 Y-55.1353
G2 X-193.2944 Y-55.8976 I-12.8299 J6.0676
G2 X-193.5158 Y-56.2787 I-9.4565 J5.2387
G2 X-193.6349 Y-56.4679 I-6.6532 J4.0553
G2 X-193.897 Y-56.8467 I-5.1503 J3.2834
G1 X-193.6935 Y-56.9194
G1 X-193.4887 Y-56.9884
G3 X-193.3514 Y-57.0323 I1.893 J5.6898
G3 X-192.7967 Y-57.188 I2.6503 J8.3753
G3 X-191.6606 Y-57.378 I1.7085 J6.7246
G3 X-190.8914 Y-57.3777 I0.3831 J4.8159
G3 X-189.8884 Y-57.1504 I-0.2758 J3.543
