( Made using CamBam - http://www.cambam.co.uk )
( car2 1/22/2014 9:26:06 AM )
( T0 : 0.0 )
G21 G90 G64 G40
G0 Z5.0
( T0 : 0.0 )
T0 M6
( 121-140 )
G17
M3 S1000
G0 X366.6207 Y-4.4109
G1 F1.0 Z0.0
G1 X364.2072 Y-8.284
G1 X365.7123 Y-8.8806
G1 X366.6207 Y-4.4109
G0 Z5.0
G0 X376.4974 Y-8.1459
G1 Z0.0
G3 X376.2482 Y-9.2266 I3.8573 J-1.4587
G3 X376.8237 Y-9.0187 I-0.3686 J1.9215
G3 X377.3262 Y-8.6696 I-1.344 J2.4702
G3 X377.6212 Y-8.3882 I-2.5379 J2.9565
G3 X377.9714 Y-7.9743 I-3.8463 J3.6092
G3 X378.152 Y-7.7231 I-6.6014 J4.939
G3 X378.1741 Y-7.6906 I-0.3539 J0.2633
G3 X378.5962 Y-6.9717 I-5.5951 J3.7686
G3 X379.0263 Y-5.9539 I-6.4469 J3.3244
G3 X379.1937 Y-5.346 I-5.828 J1.9322
G3 X377.6206 Y-6.4142 I1.9007 J-4.4917
G3 X376.5593 Y-7.9917 I3.5247 J-3.5172
G3 X376.4974 Y-8.1459 I3.7954 J-1.6129
G0 Z5.0
G0 X379.1937 Y-9.2266
G1 Z0.0
G3 X379.798 Y-9.2048 I0.2423 J1.6708
G3 X380.3616 Y-8.9857 I-0.4406 J1.9675
G3 X380.6964 Y-8.7609 I-1.3355 J2.3505
G3 X381.0928 Y-8.4015 I-2.4787 J3.1319
G3 X381.5501 Y-7.8616 I-4.4095 J4.1987
G3 X381.7847 Y-7.5344 I-7.0996 J5.3385
G3 X382.3444 Y-6.6344 I-11.503 J7.7786
G3 X382.4125 Y-6.516 I-4.6014 J2.7214
G1 X382.5555 Y-6.263
G1 X382.8783 Y-5.6871
G2 X383.0552 Y-5.3839 I8.2966 J-4.6367
G1 X383.0782 Y-5.346
G3 X382.2736 Y-5.3313 I-0.4493 J-2.5679
G3 X381.5126 Y-5.593 I0.3184 J-2.1638
G3 X381.0748 Y-5.9058 I1.2765 J-2.2488
G3 X380.5916 Y-6.4315 I2.4131 J-2.703
G3 X380.0896 Y-7.2278 I4.7648 J-3.5601
G1 X380.0332 Y-7.3353
G1 X379.9178 Y-7.5662
G1 X379.8606 Y-7.6862
G1 X379.7432 Y-7.9433
G1 X379.6845 Y-8.0765
G1 X379.5628 Y-8.3606
G1 X379.5012 Y-8.5074
G1 X379.4857 Y-8.5445
G1 X379.354 Y-8.8585
G1 X379.2852 Y-9.0198
G2 X379.2125 Y-9.1851 I-3.2704 J1.3398
G2 X379.1937 Y-9.2266 I-0.4424 J0.175
G0 Z5.0
G0 X382.4783 Y-9.3709
G1 Z0.0
G3 X382.4766 Y-9.4427 I1.6991 J-0.0746
G3 X382.5308 Y-9.7549 I0.9357 J0.0015
G3 X383.4783 Y-9.3635 I-0.7893 J3.2533
G3 X384.2849 Y-8.7308 I-2.3487 J3.825
G3 X384.7469 Y-8.2275 I-4.2611 J4.3754
G3 X385.2924 Y-7.5019 I-7.4107 J6.1385
G3 X385.9448 Y-6.49 I-19.8809 J13.5346
G1 X386.3051 Y-5.9062
G1 X386.5 Y-5.597
G2 X386.5503 Y-5.519 I1.186 J-0.7084
G1 X386.6017 Y-5.44
G2 X386.8266 Y-5.1074 I7.4128 J-4.7708
G1 X386.9474 Y-4.9392
G1 X384.5453 Y-5.3535
G2 X384.2999 Y-5.7912 I-5.4959 J2.7931
G1 X384.2123 Y-5.9338
G2 X383.8522 Y-6.4977 I-35.9824 J22.5783
G1 X383.6111 Y-6.8729
G1 X383.5474 Y-6.9734
G1 X383.4032 Y-7.2038
G1 X383.2421 Y-7.4695
G3 X382.8444 Y-8.1964 I8.7729 J-5.272
G3 X382.6537 Y-8.6303 I5.7948 J-2.8064
G3 X382.5022 Y-9.152 I2.7541 J-1.0827
G3 X382.4783 Y-9.3709 I1.6752 J-0.2935
G0 Z5.0
G0 X379.1003 Y-22.4256
G1 Z0.0
G3 X378.9232 Y-22.3898 I-0.4212 J-1.6276
G3 X378.4403 Y-22.3872 I-0.2507 J-1.7486
G3 X377.8216 Y-22.5548 I0.3164 J-2.395
G3 X377.0845 Y-22.9621 I1.4749 J-3.5388
G3 X376.2482 Y-23.6658 I3.5582 J-5.0781
G1 X376.2441 Y-23.8629
G1 X376.2419 Y-23.9287
G1 X376.2393 Y-24.0164
G1 X376.2376 Y-24.1333
G3 X376.2412 Y-24.2892 I10.9736 J0.1745
G3 X376.2643 Y-24.496 I1.361 J0.0475
G3 X376.3499 Y-24.7608 I0.923 J0.1523
G3 X376.5985 Y-25.0429 I0.6688 J0.3387
G3 X376.7917 Y-25.1444 I0.555 J0.8217
G1 X376.854 Y-25.105
G2 X376.8748 Y-25.0919 I0.0834 J-0.1095
G1 X376.9582 Y-25.0398
G1 X377.1256 Y-24.9363
G1 X377.4618 Y-24.7319
G1 X378.1381 Y-24.3297
G1 X378.5902 Y-24.0635
G1 X379.1924 Y-23.7076
G1 X379.3526 Y-23.6119
G1 X379.717 Y-23.3905
G3 X380.1287 Y-23.1299 I-8.6269 J14.0817
G3 X379.5967 Y-22.6445 I-1.8127 J-1.4523
G3 X379.1003 Y-22.4256 I-0.9176 J-1.4087
G0 Z5.0
G0 X384.0093 Y-26.0792
G1 Z0.0
G1 X383.481 Y-27.5463
G3 X383.9315 Y-27.6461 I1.6382 J6.329
G1 X384.083 Y-27.6723
G3 X384.6964 Y-27.7184 I0.5545 J3.2723
G3 X385.1026 Y-27.6525 I-0.0154 J1.3809
G3 X385.3141 Y-27.543 I-0.2284 J0.7
G3 X385.4881 Y-27.3224 I-0.3343 J0.4425
G3 X385.5468 Y-26.9912 I-0.7183 J0.2981
G3 X385.4879 Y-26.6075 I-1.6885 J-0.0629
G1 X384.0093 Y-26.0792
G0 Z5.0
G0 Y-33.8406
G1 Z0.0
G3 X382.482 Y-34.1593 I0.0259 J-3.9423
G3 X381.1815 Y-35.0213 I1.6357 J-3.8798
G3 X380.5409 Y-35.8455 I2.6195 J-2.6971
G3 X380.1287 Y-37.1776 I2.7194 J-1.5713
G3 X381.2198 Y-36.9502 I-5.5693 J29.4563
G3 X381.3748 Y-36.9135 I-0.561 J2.7153
G3 X382.6023 Y-36.573 I-3.9665 J16.6827
G3 X383.4031 Y-36.2897 I-3.8312 J12.1013
G3 X384.4337 Y-35.8192 I-3.7352 J9.5466
G3 X384.6979 Y-35.6721 I-6.2069 J11.4539
G3 X385.2777 Y-35.2946 I-3.3104 J5.7182
G3 X385.8832 Y-34.7831 I-2.9797 J4.1416
G1 X384.0093 Y-33.8406
G0 Z5.0
G0 X370.5014 Y28.3632
G1 Z0.0
G2 X371.6035 Y29.2275 I5.027 J-5.2758
G2 X372.8433 Y29.8789 I4.7356 J-7.5068
G2 X373.7143 Y30.2151 I4.8285 J-11.2126
G2 X373.8283 Y30.2541 I1.0365 J-2.8423
G2 X375.0551 Y30.6288 I8.6482 J-26.1204
G2 X375.2144 Y30.6737 I1.2318 J-4.0701
G2 X375.3789 Y30.7196 I1.5591 J-5.2664
G1 X376.1301 Y30.9291
G1 X376.5295 Y31.0441
G3 X377.4344 Y31.3298 I-6.4071 J21.866
G3 X378.4443 Y31.723 I-3.8943 J11.4954
G3 X379.5404 Y32.3028 I-3.5627 J8.0604
G3 X380.6647 Y33.1751 I-3.7051 J5.9367
G3 X381.2434 Y39.0973 I-33.4956 J6.2624
G1 X381.2454 Y39.2895
G3 X381.2206 Y41.3388 I-55.1968 J0.3546
G1 X381.2026 Y41.885
G1 X381.1975 Y42.0237
G3 X381.1426 Y43.2913 I-135.4186 J-5.2271
G1 X381.1091 Y43.967
G1 X381.0713 Y44.6876
G2 X380.1162 Y42.8524 I-28.6932 J13.7667
G2 X379.0257 Y41.0945 I-21.0583 J11.8463
G2 X378.8679 Y40.8681 I-12.0336 J8.2176
G2 X377.9683 Y39.7032 I-13.9679 J9.8581
G1 X377.8445 Y39.5592
G2 X376.3944 Y38.1422 I-8.9355 J7.6939
G2 X375.4485 Y37.4679 I-5.487 J6.697
G2 X374.2563 Y36.8727 I-3.8964 J6.313
G2 X372.7704 Y36.4932 I-2.3163 J5.9701
G2 X368.0076 Y36.1132 I-9.6304 J90.6685
G1 X367.6894 Y36.0962
G2 X362.5954 Y35.9393 I-6.4862 J127.7964
G2 X359.1978 Y35.9379 I-1.7577 J144.481
G2 X359.0907 Y35.939 I-0.036 J1.673
G2 X358.9829 Y35.9402 I-0.0352 J1.6914
G2 X358.8741 Y35.9415 I-0.0343 J1.7102
G2 X354.2379 Y36.0561 I2.3906 J190.5146
G1 X353.0022 Y36.1051
G2 X346.4181 Y36.4793 I10.3092 J239.4908
G1 X345.5694 Y36.5403
G1 X345.3555 Y36.556
G2 X336.2468 Y37.3774 I22.4095 J299.4375
G1 X336.104 Y37.3925
G1 X334.9261 Y37.5191
G2 X329.5479 Y38.1518 I33.4153 J307.244
G1 X328.1617 Y38.3291
G2 X321.836 Y39.2155 I43.5015 J333.4602
G1 X321.0342 Y39.3375
G2 X319.3799 Y39.597 I32.9392 J215.4183
G2 X315.8575 Y40.1913 I33.184 J207.4154
G2 X315.263 Y40.3319 I0.8437 J4.8954
G2 X315.0736 Y40.4072 I0.3193 J1.0781
G2 X314.9787 Y40.4765 I0.1264 J0.2728
G2 X314.9756 Y40.5479 I0.0375 J0.0374
G2 X315.0133 Y40.5776 I0.0853 J-0.0695
G2 X315.0644 Y40.5998 I0.1054 J-0.1722
G2 X315.1962 Y40.6317 I0.283 J-0.8833
G2 X315.4551 Y40.6563 I0.3299 J-2.0952
G2 X315.9296 Y40.6474 I0.1473 J-4.7957
G2 X321.1968 Y40.2758 I-10.5292 J-186.7759
G1 X321.9485 Y40.2117
G2 X327.9545 Y39.6237 I-25.6436 J-292.8814
G1 X329.6686 Y39.4379
G1 X329.8863 Y39.4139
G1 X331.8758 Y39.1929
G1 X332.9369 Y39.0741
G1 X335.3622 Y38.8043
G1 X336.656 Y38.663
G1 X337.3239 Y38.5913
G3 X340.3785 Y38.2778 I36.3697 J339.3386
G1 X341.1673 Y38.2017
G3 X342.8508 Y38.0475 I19.0017 J198.1584
G3 X342.9565 Y38.0382 I0.1807 J1.4515
G3 X343.0627 Y38.0289 I0.1798 J1.4468
G1 X343.9388 Y37.9544
G1 X344.3841 Y37.9179
G1 X345.3034 Y37.8456
G1 X346.2527 Y37.7756
G3 X350.5973 Y37.52 I11.6584 J161.0957
G1 X351.7194 Y37.4724
G3 X363.7022 Y37.4719 I5.9978 J152.5766
G3 X370.5402 Y37.8776 I-6.5165 J167.6553
G1 X371.4072 Y37.9486
G1 X372.2877 Y38.0249
G3 X372.7553 Y38.116 I-0.2407 J2.4814
G3 X373.2013 Y38.2835 I-0.9529 J3.2142
G3 X374.0174 Y38.7688 I-2.0205 J4.327
G3 X374.5104 Y39.165 I-3.9156 J5.3769
G3 X375.1132 Y39.7511 I-6.2536 J7.0353
G1 X375.2649 Y39.9162
G3 X376.0146 Y40.8403 I-9.7342 J8.6633
G3 X376.4044 Y41.3959 I-10.9352 J8.0869
G3 X377.3244 Y42.9424 I-15.2268 J10.1043
G3 X377.7823 Y43.8606 I-19.1962 J10.1476
G1 X377.8931 Y44.1008
G1 X378.0045 Y44.3501
G3 X379.0053 Y47.0626 I-22.0537 J9.6781
G3 X379.8598 Y50.7936 I-26.2996 J7.9864
G3 X380.2085 Y55.8467 I-28.8113 J4.527
G3 X380.0472 Y58.484 I-30.4778 J-0.5412
G1 X380.0051 Y58.8592
G3 X379.5037 Y61.8365 I-31.2654 J-3.7342
G3 X377.6627 Y67.5796 I-31.058 J-6.7895
G3 X375.8414 Y71.1677 I-28.7384 J-12.3313
G3 X375.5318 Y70.2457 I8.3084 J-3.3025
G3 X375.3086 Y69.2992 I11.4343 J-3.1958
G1 X375.2573 Y69.0261
G1 X375.2043 Y68.713
G1 X375.15 Y68.3542
G3 X375.031 Y67.3943 I25.9258 J-3.6997
G1 X374.9747 Y66.8445
G1 X374.9157 Y66.2159
G2 X374.7542 Y64.5416 I-97.1774 J8.5287
G1 X374.7023 Y64.0961
G1 X374.6729 Y63.8665
G2 X374.5077 Y62.8214 I-19.8548 J2.6031
G2 X374.4822 Y62.6894 I-2.0353 J0.3239
G2 X374.1861 Y61.4963 I-11.3686 J2.1881
G2 X373.9701 Y60.8763 I-9.8944 J3.099
G2 X373.2723 Y59.5392 I-6.1689 J2.3689
G2 X372.0712 Y58.2705 I-4.5104 J3.0674
G2 X371.2773 Y57.7603 I-3.5743 J4.689
G2 X370.3494 Y57.3482 I-3.1615 J5.8678
G1 X370.2286 Y57.3055
G1 X370.1061 Y57.2644
G2 X367.3579 Y56.6243 I-6.3572 J21.0728
G2 X364.553 Y56.3163 I-4.1518 J24.8882
G2 X362.6721 Y56.2759 I-1.593 J30.3361
G2 X362.4293 Y56.2793 I-0.0205 J7.2602
G2 X362.1787 Y56.2847 I0.0112 J6.3231
G2 X359.5127 Y56.453 I0.9156 J35.6954
G2 X359.429 Y56.4613 I0.1758 J2.209
G2 X359.3446 Y56.4698 I0.1798 J2.2094
G2 X359.2596 Y56.4785 I0.1839 J2.2104
G2 X359.1739 Y56.4875 I0.1881 J2.2122
G2 X359.0875 Y56.4967 I0.1923 J2.2145
G2 X358.1512 Y56.6068 I4.5306 J42.5673
G1 X357.216 Y56.7264
G2 X355.347 Y56.9756 I46.6062 J356.6467
G1 X355.0978 Y57.0095
G1 X354.5284 Y57.0871
G2 X353.0104 Y57.2964 I31.055 J230.9328
G1 X352.1431 Y57.417
G1 X349.8307 Y57.7416
G1 X346.7483 Y58.1793
G1 X344.9872 Y58.4315
G1 X342.9746 Y58.7211
G2 X337.6089 Y59.4999 I290.9888 J2023.743
G1 X336.1782 Y59.709
G1 X335.4397 Y59.8171
G1 X333.8646 Y60.0482
G1 X333.0516 Y60.1677
G1 X329.3355 Y60.7161
G1 X327.3538 Y61.0098
G1 X325.2401 Y61.3241
G1 X320.4095 Y62.046
G1 X317.8334 Y62.4329
G2 X304.0978 Y64.5194 I788.0187 J5233.9081
G1 X300.436 Y65.0823
G1 X296.5305 Y65.6859
G1 X292.3653 Y66.3335
G1 X290.2157 Y66.6693
G1 X285.6306 Y67.3892
G1 X280.7406 Y68.1629
G2 X254.681 Y72.4128 I460.823 J2907.7354
G1 X251.3216 Y72.9804
G1 X250.4753 Y73.1244
G2 X235.0137 Y75.8358 I240.3591 J1416.0278
G1 X234.5292 Y75.924
G1 X232.5608 Y76.2845
G1 X231.5691 Y76.4678
G1 X229.555 Y76.8439
G1 X227.5099 Y77.2315
G1 X226.4797 Y77.4292
G1 X225.4418 Y77.6302
G1 X225.1818 Y77.6808
G1 X224.1341 Y77.8862
G1 X223.6084 Y77.9902
G2 X219.8251 Y78.9784 I4.7822 J26.0425
G2 X216.227 Y80.5094 I8.8213 J25.7263
G2 X215.242 Y81.0385 I13.2616 J25.8692
G2 X212.7199 Y82.6253 I14.9439 J26.5492
G2 X212.565 Y82.7341 I2.7414 J4.0701
G2 X209.411 Y85.2466 I20.8261 J29.3793
G2 X207.7324 Y86.8243 I27.0585 J30.4717
G2 X205.9155 Y88.7264 I33.0835 J33.4194
G2 X205.8601 Y88.7876 I1.4145 J1.3361
G2 X205.8046 Y88.8491 I1.423 J1.34
G2 X205.7489 Y88.911 I1.4318 J1.3441
G2 X205.6931 Y88.9732 I1.4407 J1.3482
G2 X203.7189 Y91.2972 I45.4382 J40.6001
G2 X203.6588 Y91.3716 I1.9457 J1.6321
G2 X201.5321 Y94.1418 I62.0016 J49.8011
G2 X201.4022 Y94.3193 I6.7209 J5.0563
G2 X199.0993 Y97.6063 I86.2172 J62.8535
G2 X196.5908 Y101.4315 I162.6489 J109.3983
G1 X195.9559 Y102.4258
G1 X195.3036 Y103.4531
G1 X193.916 Y105.6426
G1 X193.5628 Y106.1979
G1 X193.2032 Y106.7611
G3 X192.4572 Y107.9203 I-282.5289 J-181.0025
G1 X192.0755 Y108.5071
G1 X191.8823 Y108.8021
G1 X191.4879 Y109.3999
G1 X190.5814 Y110.8903
G1 X189.6726 Y112.3793
G1 X189.0651 Y113.371
G3 X188.9867 Y113.4989 I-5.8058 J-3.4746
G3 X188.9056 Y113.6309 I-5.9088 J-3.5365
G3 X188.8219 Y113.7672 I-6.0139 J-3.5998
G3 X188.7355 Y113.9078 I-6.121 J-3.6644
G3 X188.6462 Y114.053 I-6.2302 J-3.7303
G3 X188.5541 Y114.2028 I-6.3417 J-3.7977
G3 X188.4589 Y114.3575 I-6.4556 J-3.8667
G3 X188.3606 Y114.5171 I-6.5717 J-3.937
G3 X188.2591 Y114.6818 I-6.6901 J-4.009
G3 X188.1543 Y114.8518 I-6.811 J-4.0825
G3 X188.046 Y115.0272 I-6.9341 J-4.1575
G3 X184.5474 Y120.6195 I-399.7581 J-246.2043
G3 X184.435 Y120.7963 I-7.2976 J-4.5152
G3 X184.3208 Y120.9758 I-7.3591 J-4.5576
G3 X184.2046 Y121.1581 I-7.4208 J-4.6003
G3 X184.0865 Y121.3432 I-7.4825 J-4.6433
G3 X183.9664 Y121.5312 I-7.5443 J-4.6865
G3 X183.8444 Y121.7221 I-7.6059 J-4.7299
G3 X181.2115 Y125.7757 I-328.1574 J-210.2586
G3 X177.6016 Y131.1148 I-232.2906 J-153.167
G3 X177.4858 Y131.2816 I-6.4896 J-4.3838
G3 X176.492 Y132.7003 I-135.6123 J-93.9387
G3 X171.002 Y140.1313 I-168.814 J-118.9748
G1 X170.2683 Y141.0711
G3 X166.8327 Y145.3029 I-132.8718 J-104.3617
G1 X166.3866 Y145.8321
G1 X165.9311 Y146.3677
G1 X165.4658 Y146.9098
G3 X161.0937 Y151.7634 I-111.0119 J-95.6052
G3 X161.0235 Y151.8378 I-2.2398 J-2.0418
G3 X159.8566 Y153.0594 I-90.2544 J-85.0376
G3 X157.3172 Y155.6174 I-102.7687 J-99.4886
G1 X156.6613 Y156.256
G1 X156.3973 Y156.506
G1 X156.129 Y156.7514
G3 X155.9481 Y156.9127 I-6.2637 J-6.839
G3 X155.2119 Y157.5435 I-24.205 J-27.5059
G3 X153.6968 Y158.7527 I-30.7616 J-36.9891
G3 X150.5655 Y161.0367 I-51.3311 J-67.0839
G1 X150.1409 Y161.3313
G3 X149.1651 Y161.9969 I-55.0462 J-79.6355
G3 X148.642 Y162.3479 I-26.5794 J-39.0462
G3 X145.824 Y164.1759 I-74.1706 J-111.2589
G3 X144.1939 Y165.1889 I-66.5678 J-105.3004
G3 X143.7709 Y165.4467 I-24.8535 J-40.2977
G1 X142.8658 Y165.9916
G3 X137.9681 Y168.7753 I-64.9917 J-108.6487
G1 X137.3269 Y169.118
G1 X137.165 Y169.2037
G3 X134.1777 Y170.718 I-44.7999 J-84.6752
G3 X130.6886 Y172.2935 I-29.3198 J-60.2819
G1 X130.2385 Y172.4775
G3 X129.3033 Y172.8427 I-18.4787 J-45.9448
G1 Y174.3174
G1 X130.1027 Y174.2877
G2 X130.217 Y174.2834 I-0.0107 J-1.8052
G1 X131.1307 Y174.2485
G1 X132.958 Y174.1756
G1 X133.4801 Y174.1539
G2 X137.6558 Y173.9627 I-22.1587 J-529.749
G2 X146.0003 Y173.4539 I-17.3184 J-352.7325
G2 X146.1317 Y173.4442 I-0.1933 J-3.5085
G1 X147.2519 Y173.359
G2 X149.8111 Y173.1466 I-26.0569 J-329.5095
G2 X149.9723 Y173.1323 I-0.3781 J-5.1995
G2 X150.1347 Y173.1179 I-0.3903 J-5.306
G2 X153.1024 Y172.834 I-20.8416 J-233.5155
G2 X153.2892 Y172.8148 I-0.8642 J-9.3367
G2 X153.4775 Y172.7953 I-0.9268 J-9.8702
G2 X153.6673 Y172.7755 I-1.0005 J-10.4999
G2 X153.8585 Y172.7553 I-1.089 J-11.2584
G2 X154.2469 Y172.7139 I-1.7311 J-18.0668
G2 X154.6414 Y172.6711 I-2.2775 J-22.8161
G2 X155.0422 Y172.6268 I-3.6994 J-35.3135
G2 X158.7016 Y172.1843 I-22.6406 J-202.5956
G1 X159.6445 Y172.0585
G1 X160.1232 Y171.9927
G2 X164.4907 Y171.3267 I-23.6296 J-169.6312
G1 X165.0439 Y171.2335
G2 X170.0846 Y170.2801 I-24.2067 J-141.7825
G1 X170.722 Y170.1452
G2 X176.5144 Y168.7518 I-24.0718 J-112.8041
G1 X176.8767 Y168.6538
G1 X177.2415 Y168.5536
G1 X177.6089 Y168.4513
G1 X177.9787 Y168.3468
G2 X184.6654 Y166.1744 I-25.0222 J-88.3969
G1 X184.8723 Y166.0978
G1 X185.0799 Y166.0202
G1 Y165.0852
G1 X182.9174 Y165.3616
G2 X182.7733 Y165.3803 I0.4841 J4.303
G2 X182.6195 Y165.4002 I0.5013 J4.4664
G1 X180.1601 Y165.723
G2 X180.0015 Y165.744 I0.5805 J4.9918
G2 X179.8377 Y165.7657 I0.5936 J5.1052
G1 X179.089 Y165.8652
G1 X173.1008 Y166.6654
G3 X172.9106 Y166.6907 I-1.2 J-8.3042
G3 X172.7175 Y166.7163 I-1.2293 J-8.5216
G3 X172.5212 Y166.7423 I-1.2604 J-8.7529
G3 X172.3219 Y166.7687 I-1.2933 J-8.9997
G3 X172.1193 Y166.7955 I-1.3284 J-9.2639
G3 X171.9136 Y166.8227 I-1.366 J-9.5476
G3 X167.5234 Y167.391 I-88.1813 J-663.947
G1 X166.3521 Y167.5376
G3 X160.0985 Y168.2665 I-46.3931 J-370.8332
G1 X159.2906 Y168.3525
G1 X158.4566 Y168.439
G1 X157.5952 Y168.5256
G3 X153.6541 Y168.8848 I-24.765 J-249.9251
G1 X153.1531 Y168.9257
G1 X152.6442 Y168.966
G3 X147.9864 Y169.2744 I-14.2625 J-180.0831
G3 X146.7832 Y169.3347 I-22.8437 J-443.5969
G3 X141.2776 Y169.4945 I-7.121 J-150.4779
G1 X140.9307 Y169.4976
G1 X140.5809 Y169.4999
G1 X140.2284 Y169.5013
G1 X139.8732 Y169.5018
G3 X152.0355 Y161.9471 I192.1454 J295.7715
G3 X156.1564 Y159.5392 I173.2721 J291.7977
G3 X172.9581 Y150.4786 I171.1727 J297.3085
G1 X173.4998 Y150.2066
G1 X174.0506 Y149.9313
G3 X179.1106 Y147.4645 I132.1026 J264.5528
G1 X180.4236 Y146.8429
G1 X180.7549 Y146.6872
G1 X181.089 Y146.5307
G1 X182.4706 Y145.8889
G1 X183.1736 Y145.5657
G1 X183.8887 Y145.2392
G3 X190.4673 Y142.346 I118.0355 J259.4667
G3 X198.0786 Y139.2582 I96.7691 J227.6087
G1 X199.0524 Y138.8843
G3 X208.0343 Y135.6765 I78.0208 J204.2816
G1 X208.6049 Y135.4881
G1 X209.766 Y135.1108
G3 X214.7474 Y133.5864 I56.4638 J175.6162
G1 X215.3782 Y133.4048
G1 X216.0146 Y133.2241
G1 X216.6568 Y133.0446
G3 X218.3547 Y132.6366 I6.687 J24.0885
G1 X218.4689 Y132.6138
G1 X218.7303 Y132.5638
G3 X220.8399 Y132.2813 I3.728 J19.8179
G3 X222.2592 Y132.2419 I1.0661 J12.8458
G1 X222.3494 Y132.2451
G3 X223.1716 Y132.318 I-0.3429 J8.5422
G3 X223.605 Y132.3992 I-0.612 J4.4631
G1 X223.7138 Y132.4261
G3 X224.1685 Y132.5798 I-0.889 J3.3814
G3 X224.6142 Y132.8434 I-0.7081 J1.7056
G3 X224.8041 Y133.0386 I-0.6872 J0.8584
G3 X225.0035 Y133.6304 I-0.7602 J0.5857
G3 X224.9594 Y133.9737 I-1.3434 J0.0017
G3 X224.833 Y134.3273 I-2.1782 J-0.5791
G3 X224.7462 Y134.5017 I-2.2011 J-0.9858
G3 X224.256 Y135.2199 I-4.1377 J-2.2977
G1 X224.1142 Y135.3895
G1 X223.9656 Y135.5572
G1 X223.9276 Y135.5987
G3 X222.5046 Y136.934 I-10.3393 J-9.593
G3 X220.9328 Y138.0906 I-12.7114 J-15.6288
G3 X219.8339 Y138.7868 I-15.6868 J-23.5425
G3 X218.334 Y139.6553 I-28.8005 J-48.0135
G1 X217.9301 Y139.88
G1 X217.0053 Y140.3895
G1 X216.5123 Y140.6614
G1 X216.3872 Y140.7307
G1 X215.855 Y141.0283
G1 X215.5812 Y141.1835
G2 X214.3435 Y141.9161 I19.5676 J34.4736
G1 X214.0291 Y142.1132
G1 X213.7073 Y142.3212
G2 X213.0324 Y142.7824 I10.2592 J15.7403
G2 X211.5713 Y143.9491 I9.0053 J12.7756
G1 X213.8862 Y143.6945
G2 X214.2169 Y143.6577 I-1.5539 J-15.4692
G1 X216.8618 Y143.3593
G2 X217.2143 Y143.319 I-2.1297 J-20.1758
G2 X217.5904 Y143.2758 I-2.293 J-21.6318
G2 X217.9916 Y143.2296 I-2.485 J-23.3269
G2 X218.4194 Y143.1801 I-2.715 J-25.3387
G2 X218.8758 Y143.1271 I-2.9978 J-27.7878
G2 X219.3625 Y143.0702 I-3.3572 J-30.87
G2 X227.1457 Y142.1222 I-89.0186 J-763.2186
G2 X242.678 Y139.9661 I-80.1419 J-634.378
G1 X243.1702 Y139.8911
G1 X243.6701 Y139.8144
G1 X244.1779 Y139.7361
G1 X244.6936 Y139.656
G1 X245.2174 Y139.5741
G1 X246.2987 Y139.4034
G1 X247.4144 Y139.2248
G1 X248.5657 Y139.0379
G1 X249.7537 Y138.8421
G1 X250.3569 Y138.7416
G1 X250.9697 Y138.6387
G1 X251.592 Y138.5333
G1 X252.2241 Y138.4255
G1 X252.866 Y138.315
G1 X253.5179 Y138.2019
G1 X254.1801 Y138.0861
G1 X254.8525 Y137.9674
G2 X260.9921 Y136.8345 I-80.2026 J-451.8252
G1 X262.5737 Y136.5275
G1 X262.9721 Y136.4491
G1 X263.3735 Y136.3697
G1 X263.7781 Y136.2893
G2 X271.1587 Y134.7429 I-76.9499 J-385.6323
G1 X271.6225 Y134.6404
G1 X272.0899 Y134.5365
G1 X272.5609 Y134.4312
G1 X273.0354 Y134.3244
G2 X281.6837 Y132.25 I-73.5103 J-325.5392
G1 X282.7776 Y131.9694
G1 X283.888 Y131.6802
G2 X293.9847 Y128.8314 I-72.1028 J-274.8629
G2 X305.3751 Y125.0788 I-70.4014 J-232.8527
G1 X305.7293 Y124.9517
G1 X306.0846 Y124.8236
G1 X306.4412 Y124.6943
G2 X309.3771 Y123.6033 I-63.8009 J-176.1862
G1 X310.1144 Y123.3217
G1 X310.8564 Y123.0351
G1 X311.6032 Y122.7434
G2 X317.9293 Y120.1339 I-73.1356 J-186.2722
G1 X318.7197 Y119.7895
G1 X319.5148 Y119.4388
G2 X326.2329 Y116.2927 I-74.1146 J-167.0047
G1 X327.0697 Y115.8765
G2 X332.3519 Y113.0429 I-51.2971 J-101.9669
G1 X333.0947 Y112.6165
G1 X333.4897 Y112.3871
G2 X339.7035 Y108.5428 I-73.7423 J-126.1399
G2 X351.5787 Y100.0355 I-95.1174 J-145.3142
G1 X352.3196 Y99.4526
G2 X355.6554 Y96.7243 I-71.7323 J-91.1075
G1 X356.0508 Y97.2602
G3 X351.1701 Y103.4468 I-95.2604 J-70.1325
G3 X345.8856 Y109.2922 I-88.6661 J-74.8477
G3 X334.1777 Y119.8291 I-82.4578 J-79.8481
G3 X325.6283 Y125.9337 I-74.0861 J-94.7161
G3 X320.5184 Y129.0858 I-70.4967 J-108.5674
G1 X319.8591 Y129.4688
G1 X319.187 Y129.854
G1 X318.5021 Y130.2411
G3 X312.1399 Y133.5945 I-67.148 J-119.6854
G3 X304.6772 Y137.0323 I-67.5357 J-136.7866
G3 X304.4401 Y137.1337 I-4.0736 J-9.1952
G3 X295.6745 Y140.588 I-67.059 J-157.3189
G1 X294.5488 Y140.9932
G3 X292.2171 Y141.8073 I-60.5878 J-169.7812
G3 X281.4535 Y145.1726 I-71.0305 J-208.29
G3 X281.2837 Y145.221 I-1.6519 J-5.4669
G3 X275.4724 Y146.8043 I-68.7137 J-240.759
G3 X275.2898 Y146.8518 I-1.6006 J-5.7774
G3 X275.1069 Y146.8992 I-1.5997 J-5.7891
G3 X274.9236 Y146.9467 I-1.5989 J-5.801
G3 X274.7399 Y146.9941 I-1.5981 J-5.8131
G3 X274.5558 Y147.0415 I-1.5974 J-5.8254
G3 X274.3713 Y147.0888 I-1.5967 J-5.8378
G3 X274.1864 Y147.1361 I-1.596 J-5.8503
G3 X274.0011 Y147.1834 I-1.5954 J-5.8631
G3 X273.8155 Y147.2307 I-1.5948 J-5.876
G3 X273.6294 Y147.2779 I-1.5943 J-5.8892
G3 X267.2686 Y148.8204 I-81.7222 J-323.1197
G1 X265.6488 Y149.1924
G1 X264.002 Y149.5628
G1 X262.3277 Y149.9317
G1 X260.6257 Y150.2993
G1 X258.8956 Y150.6656
G1 X257.137 Y151.031
G3 X253.5041 Y151.7651 I-104.5333 J-507.9099
G3 X245.748 Y153.2561 I-124.613 J-627.3205
G1 X243.7763 Y153.622
G1 X241.7732 Y153.9895
G3 X241.5223 Y154.0353 I-3.0617 J-16.0754
G1 X239.4833 Y154.4052
G3 X239.2279 Y154.4513 I-3.9897 J-21.3673
G3 X238.972 Y154.4975 I-4.16 J-22.331
G3 X238.7156 Y154.5437 I-4.3556 J-23.4372
G3 X238.2008 Y154.6363 I-6.7436 J-36.0004
G3 X237.684 Y154.7291 I-7.681 J-41.2785
G3 X228.8731 Y156.2963 I-524.8532 J-2925.3046
G1 X227.7631 Y156.4931
G1 X225.5088 Y156.8936
G1 X223.2197 Y157.3021
G1 X222.6453 Y157.405
G1 X220.3126 Y157.825
G1 X219.7272 Y157.931
G1 X219.1397 Y158.0377
G1 X218.5499 Y158.145
G1 X216.155 Y158.5843
G2 X211.2178 Y159.5107 I168.0479 J909.1732
G1 X210.5987 Y159.6293
G2 X200.0686 Y161.7519 I100.1031 J523.7756
G1 X198.7456 Y162.0357
G1 X197.4133 Y162.3261
G1 X196.0718 Y162.6233
G2 X190.5485 Y163.9036 I76.8026 J343.9
G1 X190.2033 Y163.9869
G1 X187.1399 Y164.6291
G2 X187.7381 Y164.9943 I2.9044 J-4.0853
G2 X188.3761 Y165.2846 I3.0033 J-5.7539
G2 X189.7176 Y165.6824 I3.0989 J-7.9899
G1 X189.9004 Y165.7201
G2 X190.8834 Y165.8711 I2.3703 J-12.1565
G2 X191.4489 Y165.9237 I2.2001 J-20.6124
G2 X192.9595 Y165.9631 I1.1979 J-16.9407
G1 X193.0555 Y165.9611
G1 X193.1529 Y165.9586
G1 X193.3541 Y165.9518
G2 X193.5535 Y165.9299 I-0.2574 J-3.2596
G1 X193.582 Y165.9262
G2 X193.8095 Y165.8957 I-0.6999 J-6.0766
G1 X194.2638 Y165.8315
G1 X195.1717 Y165.6982
G1 X196.9863 Y165.4235
G1 X198.1955 Y165.2371
G1 X198.3516 Y165.2129
G1 X198.5127 Y165.1879
G1 X200.2302 Y164.9195
G1 X201.2114 Y164.7648
G1 X201.7346 Y164.682
G1 X204.5247 Y164.237
G2 X208.2436 Y163.6353 I-133.6084 J-837.6488
G1 X209.2351 Y163.4734
G1 X211.501 Y163.1011
G2 X212.0856 Y163.0046 I-9.3255 J-58.2815
G1 X214.7579 Y162.5606
G1 X214.9262 Y162.5325
G1 X218.0034 Y162.0157
G1 X221.519 Y161.4181
G1 X223.3935 Y161.0964
G1 X223.8695 Y161.0143
G2 X234.0179 Y159.2284 I-262.2969 J-1520.2366
G1 X235.3264 Y158.9927
G1 X238.1172 Y158.4853
G1 X241.0926 Y157.937
G1 X242.6278 Y157.6509
G1 X244.212 Y157.3533
G1 X244.6112 Y157.2779
G2 X246.2587 Y156.965 I-69.2012 J-368.8067
G1 X247.9588 Y156.6389
G1 X248.8222 Y156.4721
G1 X250.604 Y156.1248
G1 X252.4425 Y155.7622
G1 X252.9057 Y155.6701
G1 X254.8173 Y155.2868
G2 X255.7878 Y155.0901 I-24.4044 J-122.8743
G1 X256.7735 Y154.8887
G2 X260.9751 Y154.0105 I-142.9757 J-694.5697
G1 X262.041 Y153.7821
G1 X262.578 Y153.666
G1 X263.6685 Y153.4281
G1 X264.2178 Y153.3071
G1 X264.7713 Y153.1845
G1 X265.8953 Y152.9327
G1 X266.1773 Y152.8689
G1 X266.7455 Y152.7397
G1 X267.8993 Y152.4741
G2 X268.4804 Y152.3386 I-9.8154 J-43.3988
G1 X269.6601 Y152.0595
G1 X269.7339 Y152.0418
G1 X270.9321 Y151.7521
G3 X271.0396 Y151.7283 I0.4878 J1.9533
G3 X271.1481 Y151.7088 I0.4726 J2.3093
G3 X271.3675 Y151.6901 I0.2205 J1.2932
G3 X271.5128 Y151.7161 I0.0107 J0.3592
G3 X271.549 Y151.8053 I-0.0222 J0.0609
G3 X271.5139 Y151.86 I-0.1661 J-0.068
G3 X271.4008 Y151.9577 I-0.5407 J-0.5115
G3 X271.2752 Y152.0361 I-1.0634 J-1.5629
G3 X271.008 Y152.1664 I-1.3547 J-2.4396
G3 X269.5362 Y152.761 I-18.583 J-43.8808
G1 X269.0417 Y152.9491
G3 X267.0497 Y153.6641 I-24.7744 J-65.8846
G1 X266.4773 Y153.8594
G1 X265.8219 Y154.0784
G1 X265.4717 Y154.1936
G3 X259.8333 Y155.9164 I-51.8305 J-159.5413
G3 X256.0481 Y156.9747 I-67.9205 J-235.6379
G1 X255.0363 Y157.2479
G1 X253.9561 Y157.5356
G3 X248.1814 Y159.0155 I-107.1666 J-406.1882
G3 X244.8731 Y159.8261 I-158.5185 J-639.7703
G3 X236.0291 Y161.8901 I-148.0935 J-614.5897
G3 X224.1999 Y164.4672 I-182.584 J-809.6542
G3 X223.8267 Y164.5456 I-5.7258 J-26.3187
G3 X223.4505 Y164.6245 I-7.7257 J-35.9026
G3 X222.6862 Y164.7843 I-20.2354 J-94.8858
G1 X221.9096 Y164.9459
G1 X220.306 Y165.2776
G1 X219.4912 Y165.4451
G1 X217.8087 Y165.7885
G1 X216.0714 Y166.14
G1 X215.6335 Y166.2281
G1 X213.8252 Y166.5898
G3 X205.5515 Y168.203 I-216.2566 J-1087.0925
G1 X203.4144 Y168.609
G1 X202.3286 Y168.8136
G3 X192.393 Y170.6349 I-199.4981 J-1060.2662
G1 X189.8264 Y171.0907
G1 X188.5223 Y171.3199
G3 X176.5883 Y173.3449 I-198.0668 J-1131.1155
G1 X175.8358 Y173.4681
G1 X175.0773 Y173.5917
G3 X161.1931 Y175.7531 I-159.3054 J-977.6493
G1 X159.4279 Y176.0134
G1 X157.6341 Y176.2743
G1 X155.8114 Y176.5357
G1 X153.9591 Y176.7973
G3 X146.0499 Y177.8662 I-117.0091 J-835.985
G1 X145.0527 Y177.9951
G1 X143.0261 Y178.2527
G1 X142.5173 Y178.3165
G1 X141.4917 Y178.4438
G3 X137.2546 Y178.9526 I-71.3813 J-576.5584
G3 X135.1011 Y179.1999 I-37.0171 J-312.8072
G3 X132.9125 Y179.443 I-41.8994 J-367.348
G1 X131.8092 Y179.5621
G3 X131.5328 Y179.5916 I-1.669 J-14.3311
G3 X130.9778 Y179.6504 I-4.7906 J-42.5862
G3 X128.7218 Y179.883 I-36.2925 J-340.9433
G1 X127.5845 Y179.9963
G1 X126.438 Y180.1076
G1 X126.1507 Y180.135
G1 X124.9925 Y180.2437
G1 X124.411 Y180.2971
G3 X123.2387 Y180.4023 I-12.6326 J-134.2741
G3 X118.3947 Y180.7983 I-29.8513 J-335.3302
G3 X115.9321 Y180.973 I-24.4357 J-326.8902
G1 X115.3138 Y181.0138
G1 X114.6929 Y181.0533
G3 X109.5623 Y181.3227 I-14.8114 J-233.1083
G1 X109.482 Y181.326
G1 X109.5011 Y180.068
G2 X114.1783 Y178.0797 I-35.0817 J-89.0242
G2 X114.8378 Y177.776 I-25.9567 J-57.2209
G2 X120.0283 Y175.1697 I-41.7416 J-89.6024
G2 X129.8972 Y169.0527 I-46.8631 J-86.6267
G2 X132.5796 Y167.0978 I-55.7119 J-79.2591
G2 X139.418 Y161.4835 I-65.6777 J-86.9701
G1 X139.8367 Y161.1088
G2 X143.5801 Y157.5917 I-79.3348 J-88.1895
G1 X144.0446 Y157.1339
G1 X144.5141 Y156.6663
G1 X144.9885 Y156.1888
G1 X145.4679 Y155.7012
G2 X145.9523 Y155.2033 I-32.5379 J-32.1359
G2 X146.1954 Y154.9514 I-17.7912 J-17.4122
G2 X148.2424 Y152.7768 I-98.5395 J-94.8081
G2 X152.7463 Y147.6513 I-108.7818 J-100.1328
G2 X152.8839 Y147.4873 I-5.4148 J-4.6823
G2 X154.0118 Y146.1263 I-147.3569 J-123.2586
G2 X158.9897 Y139.7688 I-143.8786 J-117.7841
G1 X159.6028 Y138.9471
G1 X160.2216 Y138.1093
G1 X160.8461 Y137.2554
G1 X161.4764 Y136.3851
G1 X162.1126 Y135.4981
G1 X162.7548 Y134.5943
G1 X163.4032 Y133.6734
G1 X164.0576 Y132.7352
G1 X164.7185 Y131.7795
G1 X165.3857 Y130.806
G1 X166.0596 Y129.8146
G1 X166.7403 Y128.805
G1 X167.4279 Y127.777
G1 X168.1226 Y126.7304
G1 X168.8246 Y125.665
G1 X169.5342 Y124.5804
G1 X170.2516 Y123.4767
G2 X173.2776 Y118.7501 I-440.9879 J-285.6522
G2 X173.3716 Y118.6017 I-5.7679 J-3.7568
G2 X173.4658 Y118.4529 I-5.7978 J-3.7738
G2 X173.5601 Y118.3038 I-5.8282 J-3.7912
G2 X173.6546 Y118.1544 I-5.8591 J-3.8089
G2 X175.209 Y115.685 I-486.9692 J-308.2601
G2 X175.3061 Y115.5301 I-6.4812 J-4.1716
G2 X175.4033 Y115.375 I-6.5235 J-4.1966
G2 X175.5007 Y115.2195 I-6.5665 J-4.2221
G2 X175.5983 Y115.0638 I-6.6103 J-4.2481
G2 X175.696 Y114.9077 I-6.655 J-4.2748
G2 X175.7939 Y114.7512 I-6.7006 J-4.3019
G2 X175.8919 Y114.5945 I-6.7472 J-4.3297
G2 X175.9901 Y114.4375 I-6.7946 J-4.358
G2 X176.0885 Y114.2801 I-6.843 J-4.387
G2 X176.187 Y114.1224 I-6.8924 J-4.4166
G2 X176.2857 Y113.9644 I-6.9429 J-4.4469
G2 X176.3846 Y113.8061 I-6.9945 J-4.4779
G1 X178.0139 Y111.1908
G1 X179.6918 Y108.4903
G1 X180.5436 Y107.1187
G3 X184.184 Y101.2786 I1174.8739 J728.2924
G1 X185.1134 Y99.7989
G1 X186.0605 Y98.298
G1 X187.0263 Y96.7762
G1 X188.0117 Y95.2335
G1 X188.5103 Y94.4574
G3 X192.8247 Y87.8837 I352.0495 J226.3547
G3 X197.5887 Y80.9901 I241.4426 J161.7608
G1 X198.2038 Y80.1321
G1 X198.8274 Y79.2701
G1 X199.4597 Y78.4043
G1 X200.1011 Y77.5348
G1 X200.7518 Y76.6616
G1 X201.412 Y75.785
G1 X202.082 Y74.905
G1 X202.762 Y74.022
G1 X203.4524 Y73.136
G1 X204.1534 Y72.2471
G3 X210.3643 Y64.8526 I131.1891 J103.8844
G3 X210.7686 Y64.4012 I28.1358 J24.7943
G3 X210.9718 Y64.1756 I17.2503 J15.3408
G3 X211.1759 Y63.9501 I15.8586 J14.1444
G2 X210.6716 Y63.7877 I-0.6786 J1.2436
G2 X210.1418 Y63.7974 I-0.2304 J1.8953
G2 X209.7963 Y63.8695 I0.4681 J3.1058
G2 X209.3509 Y64.0135 I1.291 J4.7537
G2 X208.7781 Y64.25 I3.3583 J8.9477
G3 X208.0309 Y64.5844 I-83.0459 J-184.537
G1 X207.8304 Y64.6698
G3 X207.366 Y64.8454 I-2.9012 J-6.9681
G3 X206.8174 Y64.9864 I-1.2546 J-3.7428
G3 X206.5158 Y65.0168 I-0.4011 J-2.4686
G3 X205.8245 Y64.885 I-0.069 J-1.5171
G1 X211.5713 Y57.2644
G1 X209.7051 Y55.2576
G1 X212.5101 Y52.4489
G1 X213.5781 Y54.8509
G3 X215.9893 Y51.8484 I27.3553 J19.4983
G3 X218.7089 Y49.1221 I28.2516 J25.4627
G3 X220.6609 Y47.4542 I27.6701 J30.4068
G1 X220.7881 Y47.3522
G3 X223.5809 Y45.2822 I30.8257 J38.6704
G3 X227.5004 Y42.8139 I32.8414 J47.8032
G1 X233.783 Y44.2923
G1 X238.0037 Y43.7538
G1 X238.6067 Y43.6771
G1 X243.4309 Y43.0652
G1 X246.6473 Y42.6588
G1 X250.9358 Y42.1186
G1 X256.6544 Y41.4012
G1 X259.9223 Y40.9928
G1 X268.6374 Y39.9088
G3 X269.762 Y39.7695 I29.5317 J233.8087
G1 X272.1613 Y39.4728
G1 X277.6454 Y38.7969
G1 X283.9136 Y38.0285
G1 X291.0778 Y37.1562
G1 X294.8991 Y36.6936
G1 X298.9754 Y36.2024
G1 X303.3238 Y35.6812
G1 X304.4282 Y35.5492
G1 X309.1406 Y34.9886
G1 X311.573 Y34.7007
G1 X312.1859 Y34.6283
G1 X317.4164 Y34.0136
G1 X322.9963 Y33.3641
G1 X325.8766 Y33.0317
G1 X328.85 Y32.6907
G1 X330.3604 Y32.5184
G1 X331.8949 Y32.344
G1 X335.0631 Y31.9861
G1 X338.3338 Y31.6202
G1 X339.9953 Y31.4357
G3 X347.0858 Y30.6612 I386.8591 J3509.0189
G1 X350.7464 Y30.2709
G1 X351.6689 Y30.1737
G1 X351.7844 Y30.1616
G1 X353.6607 Y29.9658
G1 X353.7781 Y29.9536
G1 X355.6862 Y29.7571
G1 X357.6251 Y29.5602
G1 X359.595 Y29.3635
G1 X361.5965 Y29.1676
G1 X363.6303 Y28.973
G1 X365.6969 Y28.781
G3 X369.9655 Y28.4073 I59.823 J658.8675
G1 X370.5014 Y28.3632
G0 Z5.0
G0 X367.8157 Y61.4703
G1 Z0.0
G3 X368.4921 Y61.528 I-6.5491 J80.7322
G3 X368.5598 Y61.5341 I-0.0937 J1.4128
G3 X368.6275 Y61.5403 I-0.0948 J1.4114
G3 X369.756 Y65.4522 I-17.4811 J7.1614
G3 X370.048 Y69.5132 I-20.0458 J3.4826
G3 X369.9862 Y70.6764 I-21.8246 J-0.5768
G3 X369.5367 Y73.7461 I-23.7138 J-1.9044
G3 X368.3758 Y77.7085 I-27.2372 J-5.8286
G1 X368.2831 Y77.9539
G3 X367.3443 Y80.1575 I-31.501 J-12.119
G3 X366.0888 Y82.5848 I-31.6701 J-14.8421
G3 X364.451 Y85.2361 I-34.8279 J-19.6835
G3 X362.3579 Y88.1052 I-38.5926 J-25.9566
G3 X359.7287 Y91.1789 I-41.3524 J-32.7104
G3 X356.4744 Y94.4349 I-42.7291 J-39.4519
G1 X356.2613 Y94.6317
G1 X356.0457 Y94.8289
G3 X351.9763 Y98.2484 I-45.4589 J-49.9677
G3 X345.5777 Y102.9595 I-92.9274 J-119.5128
G3 X343.3919 Y104.4558 I-88.833 J-127.4221
G3 X334.4079 Y110.0691 I-88.6372 J-131.865
G3 X328.225 Y113.4836 I-83.6528 J-144.1726
G1 X327.417 Y113.9054
G3 X318.6692 Y118.1426 I-82.4337 J-159.0381
G1 X318.1063 Y118.3958
G1 X317.5337 Y118.6511
G3 X305.1346 Y123.6561 I-81.0998 J-183.0492
G3 X304.7389 Y123.8006 I-7.6487 J-20.3381
G3 X304.3398 Y123.9454 I-7.4767 J-19.9845
G3 X303.9373 Y124.0905 I-7.3175 J-19.6622
G3 X303.7351 Y124.1631 I-5.0595 J-13.7787
G3 X296.2972 Y126.682 I-75.4426 J-210.5259
G3 X296.0625 Y126.7569 I-3.9395 J-11.9376
G3 X287.4314 Y129.3338 I-77.5265 J-243.9256
G3 X277.4704 Y131.9188 I-77.1393 J-276.771
G3 X272.124 Y133.1557 I-80.3988 J-335.3252
G3 X271.7878 Y133.2303 I-3.4878 J-14.9287
G3 X271.4502 Y133.3048 I-3.4993 J-15.0516
G3 X268.6602 Y133.9068 I-94.8013 J-432.6308
G3 X268.3097 Y133.9807 I-3.6434 J-16.4103
G3 X255.4548 Y136.4512 I-79.5424 J-379.2082
G3 X255.0503 Y136.5219 I-8.0841 J-45.0093
G3 X254.2347 Y136.6635 I-13.6396 J-76.1764
G3 X252.5769 Y136.9464 I-53.1644 J-306.4943
G1 X250.8919 Y137.2277
G1 X249.1794 Y137.5072
G1 X247.4387 Y137.7851
G1 X245.6697 Y138.0613
G1 X243.8718 Y138.3358
G1 X242.0447 Y138.6086
G1 X241.1236 Y138.7439
G1 X240.1952 Y138.8789
G1 X239.2592 Y139.0134
G1 X238.3157 Y139.1476
G1 X237.3647 Y139.2814
G1 X236.406 Y139.4149
G3 X228.2225 Y140.5017 I-100.1175 J-722.5254
G1 X227.7086 Y140.5671
G1 X227.1927 Y140.6325
G1 X226.6748 Y140.6978
G1 X226.1548 Y140.7631
G1 X225.6328 Y140.8284
G1 X223.5114 Y141.0908
G1 X221.3562 Y141.353
G1 X220.27 Y141.4836
G1 X218.0631 Y141.7461
G1 X217.5091 Y141.8114
G1 X216.9529 Y141.8768
G1 X216.3945 Y141.9422
G3 X217.3226 Y141.3879 I12.6484 J20.1223
G3 X218.2674 Y140.8623 I21.6253 J37.763
G1 X218.9021 Y140.5211
G1 X219.7503 Y140.0696
G2 X219.8597 Y140.0112 I-1.4946 J-2.9318
G1 X220.3589 Y139.7428
G1 X220.6244 Y139.5983
G1 X220.9068 Y139.4427
G1 X221.0522 Y139.3617
G2 X221.3613 Y139.1869 I-17.5087 J-31.3283
G2 X222.9738 Y138.1939 I-12.4609 J-22.0415
G2 X223.8529 Y137.5615 I-8.7954 J-13.1523
G1 X223.9613 Y137.4769
G1 X224.0707 Y137.3899
G1 X224.1809 Y137.3004
G2 X225.1401 Y136.4235 I-7.3733 J-9.0283
G2 X225.9296 Y135.542 I-10.6604 J-10.3425
G2 X226.6212 Y134.5819 I-7.0426 J-5.8017
G2 X226.7911 Y134.2891 I-6.8829 J-4.1894
G2 X227.1468 Y133.4587 I-3.9456 J-2.1816
G2 X227.254 Y132.9514 I-2.8209 J-0.8612
G2 X227.2413 Y132.3536 I-2.077 J-0.2548
G2 X226.9927 Y131.7023 I-1.7724 J0.3033
G2 X226.4289 Y131.1082 I-1.8557 J1.1966
G2 X226.0558 Y130.8718 I-2.1082 J2.914
G2 X225.629 Y130.6713 I-2.0639 J3.8393
G2 X224.6158 Y130.3664 I-2.3068 J5.8298
G2 X223.4524 Y130.1893 I-2.1402 J10.15
G2 X222.1538 Y130.1244 I-1.3637 J14.2535
G2 X220.7524 Y130.1624 I-0.1439 J20.5675
G1 X220.5762 Y130.1735
G2 X219.8517 Y130.2326 I1.658 J24.8162
G2 X218.3252 Y130.4185 I3.1941 J32.585
G2 X214.8362 Y131.0986 I5.8548 J39.3251
G1 X214.311 Y131.228
G2 X214.276 Y131.2368 I0.0764 J0.3768
G1 X213.7173 Y131.3809
G2 X213.6812 Y131.3904 I0.0841 J0.3923
G1 X213.2976 Y131.493
G2 X211.7697 Y131.9265 I15.2114 J56.5125
G2 X211.7213 Y131.9409 I0.1201 J0.494
G2 X211.6722 Y131.9555 I0.1215 J0.499
G2 X210.6271 Y132.2744 I19.1677 J64.6806
G1 X210.0318 Y132.4629
G1 X209.7147 Y132.5651
G1 X208.9916 Y132.803
G1 X208.6067 Y132.9322
G2 X206.5625 Y133.6455 I43.1296 J126.8951
G1 X206.0196 Y133.842
G2 X203.1386 Y134.9282 I56.2785 J153.6428
G1 X202.9564 Y134.9991
G1 X202.7714 Y135.0714
G1 X202.5835 Y135.145
G1 X202.196 Y135.2977
G2 X198.0841 Y136.978 I81.953 J206.4227
G2 X195.7496 Y137.9738 I122.8255 J291.1803
G2 X195.6764 Y138.0054 I0.4463 J1.1328
G2 X195.603 Y138.0372 I0.4491 J1.1387
G2 X195.5294 Y138.0691 I0.4519 J1.1447
G1 X194.2739 Y138.6164
G2 X187.6157 Y141.616 I156.6149 J356.5163
G2 X187.1947 Y141.8103 I13.944 J30.7818
G1 X186.326 Y142.2124
G1 X185.4301 Y142.6289
G2 X185.3177 Y142.6813 I1.49 J3.3437
G2 X185.2048 Y142.734 I1.5316 J3.4317
G1 X184.2736 Y143.1692
G1 X182.2892 Y144.1022
G1 X180.1753 Y145.1028
G1 X179.0852 Y145.6211
G1 X176.7612 Y146.7298
G1 X174.2838 Y147.9151
G1 X173.6547 Y148.2164
G1 X170.9707 Y149.5012
G1 X168.1061 Y150.868
G1 X166.6264 Y151.5706
G1 X165.0976 Y152.2928
G1 X164.712 Y152.4742
G1 X163.1189 Y153.2201
G1 X161.4716 Y153.9841
G1 X160.6336 Y154.3694
G1 X160.5286 Y154.4175
G1 X160.4233 Y154.4656
G1 X159.5674 Y154.8556
G1 X159.1356 Y155.0512
G2 X162.355 Y152.2184 I-42.0665 J-51.0551
G1 X162.8008 Y151.7981
G2 X166.2563 Y148.3229 I-60.7017 J-63.813
G2 X166.3093 Y148.2667 I-1.1943 J-1.1792
G2 X168.5295 Y145.835 I-73.34 J-69.1895
G1 X168.8106 Y145.5164
G2 X171.7369 Y142.0565 I-88.187 J-77.5559
G2 X175.4397 Y137.2838 I-101.5393 J-82.5982
G1 X175.9008 Y136.6553
G2 X177.6531 Y134.3532 I-133.8561 J-103.7046
G2 X179.3683 Y132.0232 I-147.1551 J-110.1203
G1 X179.5945 Y131.7107
G2 X180.7916 Y130.0373 I-146.7391 J-106.2419
G1 X181.1084 Y129.5894
G1 X181.4453 Y129.1108
G1 X181.8035 Y128.5996
G1 X182.1843 Y128.0534
G1 X182.5893 Y127.4698
G1 X183.0198 Y126.8464
G1 X183.4775 Y126.1804
G1 X183.9643 Y125.469
G1 X184.2149 Y125.1014
G1 X184.4732 Y124.7217
G1 X185.6498 Y122.9831
G1 X186.9882 Y120.9918
G1 X188.5137 Y118.7135
G1 X190.2585 Y116.1107
G1 X191.1921 Y114.7246
G1 X192.1922 Y113.249
G1 X192.7105 Y112.4889
G1 X193.2473 Y111.7054
G1 X193.8036 Y110.8982
G1 X194.3804 Y110.0667
G1 X194.9788 Y109.2104
G1 X195.5999 Y108.3289
G1 X196.2451 Y107.4219
G1 X196.9158 Y106.4889
G3 X200.052 Y102.2748 I150.9073 J109.0363
G3 X200.1525 Y102.1442 I6.1792 J4.6485
G3 X200.2535 Y102.0131 I6.0777 J4.5802
G3 X204.0523 Y97.3018 I107.2996 J82.6279
G3 X206.1701 Y94.8648 I88.9894 J75.1997
G3 X206.2376 Y94.7895 I2.3124 J2.0022
G3 X206.3052 Y94.7141 I2.3014 J1.9959
G3 X208.6573 Y92.1785 I83.1695 J74.7926
G1 X209.2683 Y91.5474
G1 X209.5783 Y91.2314
G3 X212.2846 Y88.5932 I65.739 J64.7288
G1 X212.6331 Y88.2688
G3 X215.68 Y85.5765 I57.3393 J61.8222
G3 X217.7839 Y84.845 I26.6874 J73.3625
G3 X219.9063 Y84.1693 I33.1174 J100.3492
G1 X220.5153 Y83.9847
G1 X221.2125 Y83.7777
G3 X226.8253 Y82.248 I45.8721 J157.255
G1 X227.0043 Y82.2025
G1 X227.1862 Y82.1564
G1 X227.9628 Y81.9617
G1 X228.7918 Y81.7571
G1 X229.6769 Y81.5422
G3 X231.7028 Y81.0631 I58.8153 J244.1577
G3 X232.2262 Y80.942 I8.5818 J35.8921
G1 X232.4922 Y80.8808
G1 X232.7624 Y80.8189
G1 X233.9159 Y80.5578
G1 X235.1474 Y80.284
G1 X236.462 Y79.997
G3 X237.141 Y79.8507 I14.3904 J65.1785
G1 X237.8422 Y79.7011
G1 X238.5662 Y79.5481
G1 X239.3139 Y79.3915
G1 X240.9097 Y79.062
G1 X241.7339 Y78.8943
G1 X243.4931 Y78.5414
G3 X252.8925 Y76.7577 I117.7437 J594.8225
G1 X254.1073 Y76.5379
G3 X259.6644 Y75.5584 I167.4096 J933.4665
G3 X274.5083 Y73.1112 I181.4894 J1054.6413
G1 X274.9764 Y73.0374
G1 X276.9092 Y72.7342
G1 X278.9047 Y72.4241
G1 X279.1551 Y72.3854
G3 X283.4304 Y71.7313 I214.854 J1389.9603
G1 X283.6987 Y71.6906
G1 X285.9147 Y71.3566
G3 X286.4731 Y71.2729 I6.5983 J42.1199
G1 X288.7791 Y70.9292
G1 X289.9505 Y70.7558
G1 X291.1406 Y70.5803
G3 X291.7404 Y70.4921 I14.1012 J93.8568
G1 X294.2171 Y70.13
G1 X296.7741 Y69.7592
G1 X299.4139 Y69.3792
G1 X300.0792 Y69.2839
G1 X301.4307 Y69.0908
G1 X301.6001 Y69.0666
G1 X301.7698 Y69.0424
G1 X302.4536 Y68.945
G1 X305.2772 Y68.5444
G1 X306.7116 Y68.3418
G1 X312.8318 Y67.4821
G1 X319.3601 Y66.5675
G2 X322.729 Y66.0922 I-131.9488 J-947.5159
G1 X324.4398 Y65.8486
G1 X325.3018 Y65.7249
G1 X326.1706 Y65.5995
G1 X327.9351 Y65.3417
G1 X329.7267 Y65.0737
G1 X330.629 Y64.9351
G1 X331.5379 Y64.7921
G2 X333.3818 Y64.484 I-16.5744 J-104.8709
G1 X333.6123 Y64.4427
G1 X334.0746 Y64.3567
G3 X337.8609 Y63.649 I77.2787 J402.9426
G1 X339.1249 Y63.4235
G3 X344.1932 Y62.594 I37.2877 J211.9359
G3 X347.5847 Y62.1231 I23.7082 J158.3053
G3 X347.8004 Y62.0958 I1.0107 J7.1301
G3 X348.0196 Y62.0685 I0.9899 J7.0415
G1 X348.9551 Y61.9558
G1 X349.9539 Y61.843
G3 X350.0798 Y61.8293 I0.5497 J4.4814
G3 X350.2067 Y61.8157 I0.543 J4.4566
G3 X352.5297 Y61.5901 I12.3537 J115.1112
G3 X358.7436 Y61.2332 I9.0028 J102.4777
G1 X359.5467 Y61.2158
G3 X363.2192 Y61.2284 I1.5444 J85.5841
G3 X364.1666 Y61.257 I-1.0698 J51.0462
G3 X367.8157 Y61.4703 I-2.9 J80.9455
G0 Z5.0
G0 X130.6411 Y163.6105
G1 Z0.0
G1 X121.5382 Y169.897
G3 X113.9226 Y173.4227 I-39.1111 J-74.4941
G3 X106.0089 Y176.216 I-35.3037 J-87.4127
G1 X105.4903 Y176.3724
G3 X99.9121 Y177.8704 I-29.8568 J-100.0466
G3 X92.3687 Y179.4107 I-27.1502 J-113.7209
G1 X91.3887 Y179.5737
G3 X91.2655 Y179.5936 I-0.5948 J-3.2871
G3 X89.1621 Y179.9146 I-23.6734 J-148.0882
G3 X84.3376 Y180.5192 I-18.6993 J-129.6571
G1 X83.7235 Y180.5836
G3 X82.4549 Y180.708 I-8.8645 J-83.895
G3 X76.6456 Y181.1345 I-13.4145 J-142.9293
G1 X75.9069 Y181.1726
G1 X75.1563 Y181.2077
G3 X68.2915 Y181.3673 I-7.3235 J-167.3299
G3 X64.6302 Y181.3392 I-0.3898 J-187.8437
G3 X64.4004 Y181.3349 I0.0699 J-9.9499
G3 X64.1698 Y181.3304 I0.0871 J-10.2035
G3 X60.2366 Y181.208 I4.013 J-192.2488
G3 X51.2674 Y180.6307 I8.3122 J-199.116
G1 X50.7033 Y180.5812
G3 X40.4255 Y179.4218 I19.653 J-220.3578
G3 X30.1489 Y177.7618 I28.6359 J-209.9176
G3 X26.7421 Y177.1005 I47.3951 J-253.2673
G3 X22.2156 Y176.1416 I52.1792 J-257.4843
G1 X21.0116 Y175.8717
G1 X19.7288 Y175.5773
G3 X12.9129 Y173.9011 I59.9661 J-258.5311
G3 X12.6989 Y173.8455 I1.8077 J-7.3984
G3 X12.4832 Y173.7893 I1.8263 J-7.4499
G3 X12.2659 Y173.7325 I1.8452 J-7.5023
G3 X12.0469 Y173.6751 I1.8645 J-7.5557
G1 X11.1434 Y173.4362
G1 X10.2116 Y173.1866
G3 X0.3223 Y170.3466 I83.858 J-310.634
G1 X-0.9472 Y169.9579
G3 X-6.732 Y168.1229 I119.0475 J-385.3293
G3 X-7.0955 Y168.0042 I6.1662 J-19.5001
G3 X-7.4616 Y167.8843 I6.4489 J-20.3045
G3 X-7.8306 Y167.763 I6.7684 J-21.2157
G3 X-8.2023 Y167.6405 I7.1339 J-22.2602
G3 X-8.5768 Y167.5165 I7.5581 J-23.4753
G3 X-8.9542 Y167.3913 I8.0581 J-24.9106
G3 X-9.3344 Y167.2647 I8.6605 J-26.6444
G3 X-9.7175 Y167.1367 I9.4065 J-28.7966
G3 X-16.7 Y164.7345 I143.0998 J-427.2926
G3 X-24.633 Y161.8586 I183.027 J-517.2412
G1 X-25.6371 Y161.4845
G1 X-26.1428 Y161.2953
G3 X-35.3606 Y157.7611 I232.9636 J-621.3874
G1 X-35.9396 Y157.5341
G1 X-36.5229 Y157.3049
G1 X-37.1107 Y157.0734
G1 X-37.7029 Y156.8397
G1 X-38.2995 Y156.6036
G1 X-39.5112 Y156.1227
G1 X-42.0104 Y155.1242
G1 X-43.2788 Y154.6144
G1 X-45.895 Y153.5567
G3 X-57.8247 Y148.655 I651.418 J-1602.3742
G1 X-59.3373 Y148.0272
G1 X-60.8737 Y147.3889
G1 X-64.0447 Y146.0698
G1 X-70.809 Y143.2572
G2 X-71.2336 Y143.0811 I-11.7743 J27.7813
G1 X-74.7407 Y141.6296
G1 X-76.523 Y140.8949
G1 X-78.3345 Y140.1508
G1 X-78.5615 Y140.0578
G1 X-78.789 Y139.9646
G1 X-79.706 Y139.5895
G1 X-81.5699 Y138.8298
G1 X-81.8035 Y138.7348
G1 X-82.0376 Y138.6398
G1 X-82.2722 Y138.5446
G1 X-82.5072 Y138.4493
G1 X-83.4863 Y138.0543
G1 X-84.4661 Y137.6613
G1 X-86.4274 Y136.8798
G1 X-86.6891 Y136.776
G1 X-88.0853 Y136.2236
G1 X-89.9481 Y135.4905
G1 X-90.4451 Y135.2955
G1 X-90.9754 Y135.0879
G1 X-93.8051 Y133.985
G2 X-93.8495 Y133.9677 I-0.1909 J0.4259
G2 X-93.8942 Y133.9504 I-0.1917 J0.4276
G2 X-93.939 Y133.933 I-0.1924 J0.4294
G2 X-93.984 Y133.9155 I-0.1932 J0.4311
G2 X-94.0291 Y133.898 I-0.194 J0.4328
G2 X-94.0745 Y133.8804 I-0.1947 J0.4346
G2 X-94.12 Y133.8627 I-0.1955 J0.4364
G1 X-95.7834 Y133.2188
G1 X-96.671 Y132.8764
G1 X-98.7007 Y132.0963
G2 X-98.7644 Y132.0719 I-0.2759 J0.6245
G2 X-98.8285 Y132.0473 I-0.2771 J0.6272
G2 X-98.8927 Y132.0227 I-0.2782 J0.6299
G2 X-98.9573 Y131.998 I-0.2794 J0.6327
G1 X-100.0575 Y131.5771
G2 X-117.7166 Y124.9896 I-418.5527 J1095.0475
G1 X-117.9956 Y124.8882
G1 X-118.5625 Y124.6824
G1 X-119.7332 Y124.2586
G1 X-122.2324 Y123.3593
G1 X-123.5233 Y122.8978
G1 X-124.8565 Y122.4233
G1 X-126.2335 Y121.9356
G2 X-132.5383 Y119.7357 I-309.9342 J878.0987
G2 X-132.7364 Y119.6675 I-4.2825 J12.1177
G2 X-133.5416 Y119.3909 I-33.9959 J97.6574
G1 X-135.2048 Y118.8227
G1 X-136.9231 Y118.2404
G2 X-140.5937 Y117.0133 I-193.5575 J572.8651
G1 X-142.4912 Y116.3885
G1 X-143.4558 Y116.0736
G2 X-152.3023 Y113.2801 I-156.3148 J479.6122
G2 X-157.0441 Y111.8666 I-112.8487 J369.9145
G1 X-157.193 Y111.8233
G1 X-157.3421 Y111.7801
G2 X-159.8076 Y111.0764 I-101.4279 J350.6691
G2 X-160.4297 Y110.9023 I-20.9339 J73.6267
G2 X-165.7563 Y109.4796 I-62.78 J224.3614
G2 X-171.4799 Y108.1225 I-41.8573 J163.7913
G1 X-171.8407 Y108.0447
G2 X-172.5687 Y107.891 I-10.1856 J46.4379
G1 X-173.3035 Y107.7406
G1 X-173.6727 Y107.6669
G1 X-174.4177 Y107.5224
G1 X-174.6045 Y107.4871
G1 X-175.3584 Y107.3485
G2 X-176.8939 Y107.0873 I-12.3934 J68.2197
G1 X-177.2801 Y107.0266
G2 X-180.4857 Y106.6198 I-8.4211 J53.5317
G1 X-180.5361 Y106.6151
G1 X-180.5865 Y106.6104
G1 X-180.991 Y106.5752
G2 X-181.1938 Y106.5591 I-0.7417 J8.0767
G1 X-181.6014 Y106.5303
G2 X-182.9978 Y106.4657 I-2.5614 J40.2305
G2 X-184.3957 Y106.464 I-0.731 J27.1826
G2 X-185.3266 Y106.509 I0.5327 J20.6683
G2 X-186.5618 Y106.6478 I0.9875 J14.3545
G2 X-186.8885 Y106.7044 I1.0902 J7.267
G2 X-187.6276 Y106.8743 I1.8689 J9.8224
G2 X-188.4481 Y107.1587 I1.648 J6.0811
G1 X-188.5491 Y107.2035
G2 X-188.6506 Y107.2513 I0.8881 J2.0155
G2 X-189.0699 Y107.4853 I1.6446 J3.4388
G2 X-189.4802 Y107.7967 I1.6827 J2.6436
G2 X-190.1471 Y108.8048 I1.5204 J1.7305
G2 X-190.2612 Y109.4638 I2.2871 J0.7352
G2 X-190.2042 Y110.1938 I3.2294 J0.1152
G2 X-189.9937 Y110.9591 I4.5827 J-0.8487
G2 X-189.6578 Y111.7402 I7.2601 J-2.6596
G2 X-189.4539 Y112.1278 I7.0092 J-3.44
G1 X-189.4 Y112.2239
G2 X-189.1692 Y112.6123 I12.5654 J-7.2046
G1 X-189.0471 Y112.8054
G2 X-187.787 Y114.9895 I45.5723 J-24.8384
G2 X-187.6992 Y115.1329 I3.6191 J-2.1156
G2 X-187.6052 Y115.2856 I3.6586 J-2.1492
G2 X-186.034 Y117.6859 I47.541 J-29.4045
G2 X-182.5677 Y122.2557 I55.1554 J-38.2372
G2 X-182.0777 Y122.8432 I772.0322 J-643.3715
G2 X-179.3746 Y125.8974 I67.2277 J-56.7763
G1 X-179.0159 Y126.2824
G2 X-175.0756 Y130.277 I82.4737 J-77.4135
G2 X-175.0123 Y130.3382 I1.6977 J-1.6917
G2 X-174.9487 Y130.3996 I1.7047 J-1.7009
G2 X-174.8848 Y130.4612 I1.7118 J-1.7102
G2 X-174.8207 Y130.523 I1.719 J-1.7197
G2 X-174.7562 Y130.585 I1.7263 J-1.7292
G2 X-174.6915 Y130.6473 I1.7337 J-1.7389
G2 X-172.3006 Y132.895 I103.2755 J-107.4582
G2 X-172.2248 Y132.9648 I2.0932 J-2.1965
G3 X-171.8863 Y133.2983 I-3.903 J4.2999
G1 X-171.8406 Y133.3486
G1 X-171.8166 Y133.3758
G3 X-171.6952 Y133.5261 I-3.3 J2.7887
G3 X-171.6655 Y133.5683 I-0.2175 J0.1843
G1 X-171.6361 Y133.6148
G3 X-171.5868 Y133.7312 I-0.3098 J0.1997
G3 X-171.6241 Y133.7986 I-0.048 J0.0175
G3 X-171.6797 Y133.7972 I-0.0238 J-0.1582
G3 X-171.7439 Y133.7789 I0.1235 J-0.5555
G3 X-171.889 Y133.7113 I0.3851 J-1.0157
G3 X-172.1149 Y133.5714 I1.2735 J-2.3079
G3 X-172.4242 Y133.3429 I2.6448 J-3.9045
G3 X-172.5213 Y133.265 I0.9392 J-1.2705
G3 X-179.3869 Y127.095 I60.8098 J-74.5698
G3 X-185.625 Y120.2912 I66.8397 J-67.5441
G1 X-186.0039 Y119.8315
G3 X-187.6972 Y117.6985 I71.1767 J-58.2422
G1 X-187.9076 Y117.424
G3 X-189.7792 Y114.8755 I68.7305 J-52.4382
G3 X-190.7381 Y113.488 I57.9453 J-41.0717
G1 X-190.8569 Y113.3118
G1 X-190.9762 Y113.1339
G3 X-193.0712 Y109.8253 I63.5339 J-42.5477
G1 X-193.3251 Y109.3977
G3 X-195.5086 Y105.4087 I60.5694 J-35.747
G1 X-195.7669 Y104.8921
G3 X-195.1516 Y104.6732 I1.8849 J4.3229
G3 X-194.5134 Y104.5337 I1.5734 J5.6704
G3 X-193.2129 Y104.4415 I1.2222 J8.0209
G3 X-192.3447 Y104.4708 I-0.0561 J14.5393
G1 X-192.1136 Y104.4857
G1 X-191.5863 Y104.5258
G1 X-190.9845 Y104.5743
G1 X-190.6636 Y104.5978
G1 X-190.582 Y104.6032
G1 X-190.4137 Y104.6134
G1 X-190.2399 Y104.6223
G2 X-189.4449 Y104.6319 I0.515 J-9.7819
G2 X-189.344 Y104.6281 I-0.0067 J-1.5405
G2 X-189.1359 Y104.6158 I-0.1515 J-4.3048
G2 X-188.1945 Y104.4525 I-0.2949 J-4.4954
G2 X-187.2076 Y103.9495 I-0.788 J-2.7664
G3 X-189.9366 Y103.2784 I5.4113 J-27.8882
G3 X-192.5903 Y102.3533 I8.7248 J-29.2968
G3 X-197.5946 Y99.8079 I11.6907 J-29.1755
G3 X-200.6433 Y97.632 I16.4402 J-26.2588
G3 X-204.2412 Y94.171 I18.2527 J-22.5757
G1 X-204.4484 Y93.9305
G3 X-206.2066 Y91.622 I19.587 J-16.7417
G3 X-207.8797 Y88.7554 I20.1962 J-13.7085
G3 X-209.2787 Y85.223 I20.6484 J-10.2215
G3 X-207.0132 Y86.45 I-46.8929 J89.2892
G1 X-206.6917 Y86.6291
G1 X-205.836 Y87.1101
G1 X-204.698 Y87.7564
G1 X-204.0485 Y88.1271
G1 X-202.3161 Y89.1148
G1 X-201.3238 Y89.6752
G1 X-200.7933 Y89.9718
G1 X-200.5191 Y90.1242
G1 X-199.933 Y90.4472
G2 X-196.7721 Y92.1047 I42.0663 J-76.3768
G1 X-196.5689 Y92.2051
G2 X-194.694 Y93.0877 I25.6867 J-52.1351
G1 X-194.2047 Y93.3037
G2 X-191.9354 Y94.2162 I16.7715 J-38.4308
G1 X-191.7907 Y94.269
G2 X-189.102 Y95.1194 I11.2451 J-30.8792
G1 X-188.9301 Y95.1648
G2 X-185.7367 Y95.793 I6.5335 J-24.7813
G2 X-185.9744 Y95.3576 I-2.9881 J1.3486
G2 X-186.2605 Y94.9523 I-4.1261 J2.6092
G2 X-186.4686 Y94.6954 I-6.1728 J4.7868
G2 X-186.7608 Y94.3655 I-6.8275 J5.7549
G2 X-187.1684 Y93.9429 I-14.9574 J14.0157
G2 X-187.7307 Y93.3997 I-16.3247 J16.3372
G1 X-187.883 Y93.2572
G1 X-188.6993 Y92.5046
G1 X-189.1633 Y92.0724
G1 X-189.4079 Y91.839
G1 X-189.6653 Y91.5865
G3 X-190.2329 Y90.9893 I9.3051 J-9.4123
G3 X-190.3726 Y90.829 I6.3135 J-5.6454
G3 X-190.9514 Y90.0462 I4.6965 J-4.0776
G2 X-187.5433 Y92.1056 I205.5655 J-336.3466
G1 X-187.0545 Y92.3965
G1 X-185.7485 Y93.1682
G1 X-185.0007 Y93.6065
G1 X-184.1447 Y94.1051
G2 X-177.2432 Y98.0003 I171.4352 J-295.6837
G2 X-177.0225 Y98.1212 I5.939 J-10.575
G2 X-162.7144 Y105.5032 I156.472 J-285.7245
G2 X-152.9854 Y110.0383 I150.5816 J-310.3359
G2 X-147.3657 Y112.4966 I140.3841 J-313.2668
G1 X-147.0104 Y112.6483
G1 X-145.5414 Y113.271
G1 X-145.1709 Y113.4269
G1 X-144.7972 Y113.5837
G1 X-144.4205 Y113.7413
G1 X-142.8632 Y114.3878
G1 X-141.2529 Y115.0481
G2 X-133.8566 Y117.9792 I150.3598 J-368.618
G2 X-129.8902 Y119.4865 I139.3436 J-360.6952
G1 X-128.8807 Y119.8635
G1 X-103.5659 Y129.2132
G1 X-78.2501 Y138.5603
G1 X-71.0167 Y141.2301
G1 X-51.7268 Y148.3468
G1 X-40.7022 Y152.4091
G1 X-39.302 Y152.9242
G1 X-36.4107 Y153.9863
G1 X-34.9413 Y154.5233
G1 X-34.5716 Y154.6559
G1 X-33.4135 Y155.048
G1 X-33.0272 Y155.1782
G1 X-31.4817 Y155.697
G1 X-30.4507 Y156.0408
G1 X-29.075 Y156.4966
G1 X-27.2393 Y157.0995
G1 X-26.1894 Y157.4415
G1 X-24.989 Y157.8301
G2 X-24.3483 Y158.0363 I20.3172 J-62.0199
G2 X-24.2676 Y158.0622 I0.6256 J-1.8092
G2 X-24.1862 Y158.0883 I0.6286 J-1.8183
G2 X-24.1041 Y158.1147 I0.6316 J-1.8275
G2 X-24.0215 Y158.1412 I0.6347 J-1.8367
G2 X-23.9381 Y158.1679 I0.6377 J-1.8461
G2 X-23.8541 Y158.1948 I0.6408 J-1.8554
G2 X-23.7694 Y158.2219 I0.6439 J-1.8649
G2 X-12.9007 Y161.5798 I163.0917 J-508.6224
G1 X-12.197 Y161.7884
G1 X-11.4702 Y162.0026
G1 X-10.7197 Y162.2226
G1 X-9.1175 Y162.6878
G1 X-7.4067 Y163.1778
G1 X-5.5798 Y163.6933
G1 X-4.6361 Y163.9563
G1 X-3.6613 Y164.2257
G1 X-2.6544 Y164.5015
G2 X8.127 Y167.2877 I109.1959 J-400.2884
G1 X8.8141 Y167.4545
G1 X10.2336 Y167.7948
G2 X16.7396 Y169.2788 I79.5894 J-333.9264
G2 X24.2086 Y170.8215 I73.9825 J-339.3247
G2 X28.2064 Y171.5725 I56.315 J-288.7679
G2 X28.4576 Y171.6179 I1.9855 J-10.272
G2 X28.7098 Y171.6633 I2.0073 J-10.4397
G2 X37.9592 Y173.1708 I51.2788 J-285.483
G2 X48.5875 Y174.5046 I38.0447 J-260.1442
G2 X60.7957 Y175.4533 I23.689 J-225.8288
G1 X61.5663 Y175.4905
G1 X62.3431 Y175.5252
G1 X63.1262 Y175.5573
G2 X69.8134 Y175.7084 I7.7849 J-196.531
G1 X70.2331 Y175.7103
G1 X70.6545 Y175.7113
G1 X71.0776 Y175.7114
G2 X78.2979 Y175.5648 I-0.1539 J-185.3612
G2 X85.9897 Y175.0817 I-6.815 J-169.9998
G2 X94.1642 Y174.1638 I-13.1047 J-153.5632
G2 X96.2319 Y173.8606 I-20.238 J-145.1947
G1 X97.2723 Y173.6966
G2 X106.1025 Y171.9815 I-22.2227 J-138.0047
G1 X106.6526 Y171.8546
G2 X115.9594 Y169.3171 I-28.998 J-124.6951
G2 X118.2907 Y168.5589 I-35.7535 J-113.8913
G2 X128.0643 Y164.7814 I-37.1839 J-110.7383
G2 X128.2144 Y164.7153 I-2.0419 J-4.8413
G2 X130.6411 Y163.6105 I-41.5239 J-94.4272
G0 Z5.0
G0 X-2.1965 Y173.2455
G1 Z0.0
G3 X-2.8176 Y173.2433 I-0.2786 J-8.92
G3 X-3.4379 Y173.2088 I0.4211 J-13.1691
G1 X-3.6148 Y173.1943
G1 X-3.7091 Y173.1859
G1 X-3.8097 Y173.1764
G3 X-5.4104 Y172.9642 I2.632 J-26.0021
G3 X-6.47 Y172.7761 I4.9018 J-30.6832
G3 X-7.0731 Y172.6561 I5.6785 J-30.1256
G3 X-7.1111 Y172.6483 I0.0399 J-0.2895
G3 X-7.1494 Y172.6403 I0.0404 J-0.2916
G3 X-8.7744 Y172.2772 I11.6226 J-55.8231
G1 X-8.8773 Y172.2526
G1 X-8.9818 Y172.2274
G3 X-11.1992 Y171.6553 I19.6494 J-80.7387
G3 X-12.4588 Y171.3017 I22.3414 J-82.006
G3 X-13.1286 Y171.1062 I24.7671 J-86.1284
G3 X-16.6774 Y169.995 I35.8629 J-120.7498
G1 X-17.6179 Y169.681
G3 X-22.592 Y167.8961 I46.8663 J-138.4334
G3 X-22.6695 Y167.8667 I0.6171 J-1.7425
G3 X-22.7473 Y167.8371 I0.6327 J-1.7811
G3 X-29.3164 Y165.1516 I49.779 J-131.146
G3 X-33.0013 Y163.4596 I45.6478 J-104.2714
G3 X-33.2314 Y163.3486 I5.4609 J-11.6072
G3 X-37.3804 Y161.2047 I36.0867 J-74.9236
G1 X-37.1159 Y161.2781
G1 X-36.8517 Y161.3525
G3 X-36.8346 Y161.3573 I-0.0174 J0.0938
G1 X-36.2899 Y161.5134
G1 X-35.2022 Y161.8323
G1 X-34.478 Y162.0482
G1 X-33.5135 Y162.3393
G1 X-32.2288 Y162.7317
G3 X-27.1011 Y164.3376 I-176.2085 J571.6238
G1 X-26.7708 Y164.4429
G3 X-16.2345 Y167.9126 I-175.7121 J551.2931
G1 X-14.8353 Y168.3923
G1 X-13.3449 Y168.9096
G1 X-12.9667 Y169.0421
G1 X-12.1865 Y169.3169
G1 X-11.7904 Y169.4573
G1 X-11.5908 Y169.5283
G1 X-10.7676 Y169.8229
G1 X-9.9189 Y170.1299
G3 X-6.0578 Y171.5841 I-54.7679 J151.2693
G3 X-4.0198 Y172.4147 I-33.131 J84.2023
G3 X-3.8928 Y172.469 I-0.9553 J2.4117
G1 X-3.3782 Y172.6931
G1 X-3.2495 Y172.7504
G3 X-2.1965 Y173.2455 I-10.7568 J24.247
G0 Z5.0
G0 X-87.6915 Y145.3668
G1 Z0.0
G3 X-88.4355 Y144.7566 I4.8356 J-6.6555
G3 X-89.1202 Y144.0805 I8.9801 J-9.7782
G3 X-90.3567 Y142.6085 I13.372 J-12.4882
G3 X-92.4254 Y139.3787 I19.7194 J-14.908
G3 X-92.6598 Y138.9238 I30.7691 J-16.1398
G1 X-92.7757 Y138.6863
G3 X-93.0087 Y138.1731 I10.3562 J-5.0106
G3 X-93.2276 Y137.6127 I7.2288 J-3.1469
G1 X-93.252 Y137.5409
G3 X-92.7008 Y137.9302 I-4.2748 J6.6387
G3 X-92.1856 Y138.3663 I-5.3474 J6.8386
G3 X-92.0446 Y138.4979 I-2.4027 J2.7152
G3 X-91.0041 Y139.6341 I-8.3289 J8.6726
G3 X-90.3836 Y140.4525 I-12.0985 J9.8164
G3 X-89.63 Y141.594 I-17.65 J12.4721
G3 X-88.7324 Y143.1785 I-22.066 J13.5476
G3 X-87.6915 Y145.3668 I-28.4846 J14.8907
G0 Z5.0
G0 X-112.0242 Y146.3512
G1 Z0.0
G1 X-114.43
G1 X-122.8488 Y132.7823
G1 X-120.671 Y133.0294
G1 X-112.0242 Y146.3512
G0 Z5.0
G0 X-114.4901 Y148.5264
G1 Z0.0
G3 X-114.2216 Y148.8813 I-2.2228 J1.9608
G3 X-113.8432 Y149.599 I-3.8126 J2.4686
G3 X-113.5072 Y150.606 I-6.5972 J2.7611
G3 X-113.4988 Y150.6384 I-0.5122 J0.1489
G3 X-114.1865 Y150.4845 I0.2659 J-2.8012
G3 X-114.8215 Y150.1792 I1.1246 J-3.1515
G3 X-115.8379 Y149.2163 I1.7924 J-2.9099
G3 X-116.2337 Y148.3656 I2.2252 J-1.5529
G3 X-116.3038 Y147.8296 I2.1474 J-0.5535
G3 X-115.6092 Y147.8425 I0.3099 J2.0343
G3 X-114.9668 Y148.107 I-0.3551 J1.7744
G3 X-114.6072 Y148.4011 I-1.1799 J1.8092
G3 X-114.4901 Y148.5264 I-2.1057 J2.0861
G0 Z5.0
G0 X-140.0359 Y141.6268
G1 Z0.0
G1 X-142.4419 Y141.0909
G1 X-149.861 Y127.7995
G1 X-147.8428 Y128.5217
G1 X-140.0359 Y141.6268
G0 Z5.0
G0 X-142.5718 Y143.0125
G1 Z0.0
G3 X-142.3247 Y143.547 I-3.8559 J2.1071
G3 X-142.1943 Y143.904 I-6.2274 J2.4763
G1 X-142.0589 Y144.313
G2 X-141.9016 Y144.7745 I13.2023 J-4.2436
G1 X-141.8566 Y144.8917
G3 X-142.3723 Y144.9004 I-0.2742 J-0.959
G3 X-142.8447 Y144.6931 I0.394 J-1.5402
G3 X-143.1199 Y144.488 I1.2379 J-1.9479
G3 X-143.4418 Y144.1684 I2.0368 J-2.3735
G3 X-143.8027 Y143.6914 I3.0952 J-2.7166
G1 X-143.8442 Y143.6264
G3 X-144.2056 Y142.8991 I3.3628 J-2.1247
G3 X-144.3257 Y142.4515 I2.2059 J-0.8314
G3 X-144.3399 Y142.2035 I1.1506 J-0.1905
G3 X-144.2662 Y141.9422 I0.5416 J0.0116
G3 X-143.5207 Y142.0835 I0.0274 J1.8937
G3 X-142.9069 Y142.5299 I-0.6789 J1.5785
G3 X-142.6112 Y142.9419 I-1.7709 J1.5831
G3 X-142.5718 Y143.0125 I-3.8164 J2.1777
G0 Z5.0
G0 X-163.1258 Y134.3141
G1 Z0.0
G3 X-163.541 Y134.0321 I0.9517 J-1.8479
G3 X-163.666 Y133.9205 I1.2983 J-1.5798
G3 X-164.118 Y133.4282 I3.4063 J-3.5815
G3 X-164.876 Y132.335 I7.8756 J-6.2704
G3 X-165.3156 Y131.5666 I13.6256 J-8.3045
G3 X-165.8457 Y130.5152 I20.049 J-10.7675
G3 X-166.1251 Y129.9038 I16.4171 J-7.8713
G1 X-166.1946 Y129.745
G3 X-166.8695 Y128.0276 I22.403 J-9.7956
G1 X-166.0714 Y127.465
G1 X-165.8879 Y127.848
G1 X-165.6988 Y128.2284
G1 X-165.5707 Y128.481
G1 X-165.3983 Y128.8168
G1 X-165.2994 Y129.0086
G1 X-165.1861 Y129.2277
G1 X-165.1258 Y129.3445
G3 X-165.1104 Y129.3742 I-0.3006 J0.174
G3 X-165.0949 Y129.4044 I-0.3067 J0.1774
G3 X-165.079 Y129.4351 I-0.313 J0.1809
G1 X-164.9349 Y129.7153
G3 X-164.5562 Y130.4656 I-69.1657 J35.3825
G3 X-164.5082 Y130.5629 I-1.2596 J0.6816
G3 X-164.017 Y131.6101 I-25.9246 J12.7988
G3 X-163.4546 Y133.0469 I-14.525 J6.5143
G3 X-163.3323 Y133.44 I-20.3068 J6.5305
G1 X-163.318 Y133.4899
G1 X-163.3038 Y133.5403
G1 X-163.2482 Y133.749
G3 X-163.1472 Y134.1988 I-10.4582 J2.5854
G3 X-163.1258 Y134.3141 I-1.9296 J0.4179
G0 Z5.0
G0 X-162.4416 Y132.2198
G1 Z0.0
G3 X-162.8437 Y131.5031 I12.5712 J-7.5239
G1 X-162.9705 Y131.2602
G1 X-163.135 Y130.934
G3 X-163.7368 Y129.6029 I18.8621 J-9.3296
G1 X-163.7719 Y129.5154
G3 X-164.1047 Y128.5664 I10.1071 J-4.0771
G3 X-164.1757 Y128.3076 I5.5683 J-1.6655
G3 X-164.2882 Y127.7037 I4.0087 J-1.0595
G3 X-164.2998 Y127.3749 I1.9526 J-0.2335
G3 X-164.2326 Y127.026 I1.1152 J0.0338
G3 X-164.1381 Y126.8629 I0.5386 J0.2033
G3 X-163.9771 Y126.7353 I0.3679 J0.2987
G3 X-163.2028 Y127.6374 I-3.168 J3.5025
G3 X-162.6427 Y128.686 I-5.3367 J3.5241
G3 X-162.0615 Y130.9769 I-7.2769 J3.0654
G1 X-162.4416 Y132.2198
G0 Z5.0
G0 X-165.9383 Y132.8431
G1 Z0.0
G3 X-166.5469 Y132.6317 I0.6227 J-2.7744
G3 X-167.0956 Y132.294 I1.3945 J-2.8803
G3 X-167.9591 Y131.3479 I2.2136 J-2.8874
G3 X-168.3119 Y130.5678 I2.5148 J-1.6073
G3 X-168.3939 Y130.0827 I2.1338 J-0.61
G3 X-168.3223 Y129.5186 I1.5194 J-0.0937
G3 X-167.9413 Y128.9625 I1.1584 J0.385
G3 X-167.8952 Y129.055 I-2.6403 J1.3752
G3 X-167.8494 Y129.1477 I-2.8943 J1.4884
G3 X-167.7587 Y129.3335 I-5.0216 J2.5668
G1 X-167.58 Y129.7065
G1 X-167.2273 Y130.4547
G1 X-166.9894 Y130.9522
G1 X-166.8503 Y131.2349
G1 X-166.6873 Y131.5559
G2 X-166.2211 Y132.3956 I13.6628 J-7.036
G1 X-166.0869 Y132.6138
G1 X-165.9383 Y132.8431
G0 Z5.0
G0 X-162.5122 Y120.1522
G1 Z0.0
G1 X-162.9154 Y120.0433
G3 X-163.3545 Y119.9236 I12.258 J-45.8441
G1 X-163.8225 Y119.7947
G1 X-164.8908 Y119.495
G3 X-167.7279 Y118.6554 I33.7437 J-119.2418
G1 X-168.481 Y118.4203
G1 X-169.2826 Y118.1638
G1 X-169.6956 Y118.0289
G1 X-170.1213 Y117.8879
G3 X-172.0588 Y117.2182 I25.6517 J-77.3521
G1 X-172.3038 Y117.13
G3 X-172.8086 Y116.9457 I56.4022 J-155.2946
G3 X-175.1007 Y116.0607 I26.0214 J-70.7985
G1 X-175.3897 Y115.943
G1 X-175.6828 Y115.8221
G3 X-178.3352 Y114.653 I23.9011 J-57.8207
G3 X-179.7267 Y113.9786 I28.5431 J-60.662
G1 X-179.9007 Y113.8909
G3 X-180.6158 Y113.5223 I21.0122 J-41.6445
G3 X-182.1221 Y112.6989 I21.843 J-41.747
G1 X-181.3201 Y111.7146
G3 X-177.9441 Y111.5786 I2.937 J30.9426
G3 X-174.5712 Y111.777 I-0.4567 J36.5418
G3 X-167.9413 Y113.041 I-4.0071 J39.0356
G1 X-156.3034 Y121.7372
G3 X-161.5941 Y120.3966 I78.7161 J-321.7733
G3 X-161.6779 Y120.3745 I0.448 J-1.8664
G3 X-161.763 Y120.352 I0.4557 J-1.8954
G3 X-161.8495 Y120.3291 I0.4638 J-1.9253
G3 X-161.9373 Y120.3058 I0.4721 J-1.9561
G3 X-162.0265 Y120.2821 I0.4807 J-1.9878
G3 X-162.1172 Y120.2579 I0.4896 J-2.0205
G1 X-162.5035 Y120.1545
G1 X-162.5122 Y120.1522
G0 Z5.0
M5
M30
