( Made using CamBam - http://www.cambam.co.uk )
( car2 1/22/2014 9:25:07 AM )
( T0 : 0.0 )
G21 G90 G64 G40
G0 Z5.0
( T0 : 0.0 )
T0 M6
( 70-120 )
G17
M3 S1000
G0 X305.4889 Y-2.5295
G1 F1.0 Z0.0
G3 X306.507 Y-2.5139 I0.4558 J3.4781
G3 X307.478 Y-2.207 I-0.6003 J3.5892
G3 X308.0676 Y-1.8692 I-2.0674 J4.292
G3 X308.2161 Y-1.7653 I-2.9135 J4.3174
G1 X308.2913 Y-1.7096
G3 X309.0341 Y-1.0511 I-3.9636 J5.2188
G3 X309.8844 Y-0.0503 I-7.2758 J7.044
G3 X310.3171 Y0.559 I-9.753 J7.3846
G3 X310.4239 Y0.7194 I-4.8634 J3.3539
G1 X310.5322 Y0.886
G1 X310.642 Y1.0589
G1 X310.7534 Y1.2382
G1 X310.8665 Y1.4243
G1 X310.9812 Y1.6171
G3 X311.0978 Y1.817 I-8.9949 J5.3799
G3 X311.6085 Y2.7357 I-28.1847 J16.2679
G1 X311.736 Y2.9747
G1 X312.0029 Y3.4853
G1 X312.2819 Y4.0307
G1 X312.9069 Y5.2739
G1 X313.0681 Y5.5943
G1 X313.4141 Y6.274
G1 X313.5954 Y6.6229
G1 X313.6884 Y6.7994
G2 X314.5888 Y8.375 I21.2379 J-11.0917
G2 X314.7134 Y8.5687 I8.9064 J-5.5884
G1 X311.7297 Y9.0779
G3 X306.9602 Y0.4194 I133.7293 J-79.3065
G3 X305.4889 Y-2.5295 I155.0315 J-79.1944
G0 Z5.0
G0 X303.8178 Y-1.5095
G1 Z0.0
G1 X310.2968 Y9.1046
G2 X308.5292 Y9.3322 I3.3888 J33.3039
G2 X308.2778 Y9.3726 I1.075 J7.4892
G1 X308.1438 Y9.395
G1 X307.838 Y9.4483
G1 X307.4892 Y9.5134
G2 X306.5644 Y9.7127 I3.699 J19.4031
G1 X299.7344 Y-2.0013
G1 X303.3413 Y-2.2901
G1 X303.8178 Y-1.5095
G0 Z5.0
G0 X299.4061 Y1.0042
G1 Z0.0
G1 X304.55 Y10.032
G1 X301.1939 Y10.5755
G2 X301.1066 Y10.4212 I-5.8378 J3.2028
G2 X301.019 Y10.267 I-7.1285 J3.9432
G2 X300.8435 Y9.9587 I-19.9544 J11.1591
G1 X300.4908 Y9.3434
G1 X299.7797 Y8.1158
G1 X299.3025 Y7.2993
G1 X299.1749 Y7.0817
G1 X298.4931 Y5.9223
G1 X298.103 Y5.26
G1 X297.0651 Y3.4925
G1 X296.4759 Y2.4803
G1 X296.1636 Y1.9393
G1 X295.8323 Y1.3611
G3 X295.6622 Y1.0622 I17.4161 J-10.1078
G1 X295.3017 Y0.4233
G1 X294.9211 Y-0.2605
G1 X294.8735 Y-0.3468
G1 X294.4703 Y-1.0854
G2 X294.7359 Y-1.1075 I-0.2418 J-4.5137
G2 X295.0008 Y-1.1372 I-0.8544 J-8.7899
G2 X295.0361 Y-1.1417 I-0.0172 J-0.2785
G2 X295.0738 Y-1.1466 I-0.0194 J-0.2978
G2 X295.114 Y-1.1519 I-0.0219 J-0.3198
G2 X295.3276 Y-1.1822 I-1.4908 J-11.286
G2 X296.1785 Y-1.3249 I-5.21 J-33.6757
G3 X296.7447 Y-1.4258 I9.8528 J53.6096
G3 X297.5029 Y-1.5397 I2.4038 J13.4311
G3 X297.9405 Y-1.568 I0.5004 J4.3357
G1 X299.4061 Y1.0042
G0 Z5.0
G0 X295.3206 Y3.6144
G1 Z0.0
G3 X295.7386 Y4.291 I-22.1285 J14.1377
G3 X296.3113 Y5.2783 I-33.2429 J19.9434
G1 X296.6065 Y5.8092
G1 X296.9155 Y6.3769
G3 X296.9542 Y6.4486 I-0.7934 J0.4741
G1 X297.2813 Y7.0596
G1 X298.021 Y8.4514
G1 X298.4181 Y9.19
G2 X298.8484 Y9.9721 I37.3315 J-20.0281
G1 X299.0746 Y10.3728
G1 X299.1909 Y10.5755
G1 X296.0818 Y10.7694
G1 X289.7118 Y-0.6026
G3 X290.8373 Y-0.47 I0.082 J4.1461
G3 X291.8888 Y-0.0473 I-1.1787 J4.4513
G3 X292.5248 Y0.3616 I-2.5621 J4.6842
G3 X293.289 Y1.0147 I-4.6015 J6.1585
G3 X294.1812 Y2.0054 I-7.5507 J7.6972
G3 X295.2077 Y3.4392 I-14.1161 J11.19
G3 X295.3206 Y3.6144 I-22.0156 J14.3129
G0 Z5.0
G0 X291.1745 Y5.9606
G1 Z0.0
G2 X291.8278 Y7.0978 I87.9043 J-49.7431
G2 X291.8637 Y7.1589 I1.1809 J-0.6517
G2 X291.8999 Y7.2205 I1.1639 J-0.643
G1 X292.2113 Y7.7439
G2 X292.5491 Y8.2989 I37.4903 J-22.4397
G2 X294.4703 Y11.1836 I39.8969 J-24.4893
G1 X291.004 Y11.4193
G1 X289.5769 Y8.9149
G1 X289.1041 Y8.0784
G1 X288.9787 Y7.8548
G3 X288.3185 Y6.6584 I79.5842 J-44.6964
G1 X287.9493 Y5.9702
G1 X287.7555 Y5.6016
G3 X286.7724 Y3.6095 I40.4893 J-21.2191
G1 X286.7432 Y3.5458
G3 X286.236 Y2.3708 I27.5691 J-12.5967
G3 X285.7399 Y0.9938 I17.3457 J-7.0274
G3 X285.5799 Y0.3642 I5.8099 J-1.8117
G3 X285.5146 Y-0.2822 I3.4727 J-0.6776
G3 X285.5209 Y-0.468 I2.0423 J-0.0237
G3 X285.5454 Y-0.6793 I2.3819 J0.1694
G3 X285.7186 Y-1.2207 I1.8339 J0.2882
G3 X286.2022 Y-1.8115 I1.5941 J0.8115
G3 X286.5685 Y-2.0545 I1.5147 J1.8858
G1 X286.5433 Y-2.853
G1 X286.5395 Y-2.9671
G1 X286.5063 Y-3.8796
G1 X286.4819 Y-4.4879
G2 X286.3634 Y-6.9198 I-159.3183 J6.5427
G1 X286.3231 Y-7.6143
G1 X286.3122 Y-7.7936
G1 X286.3007 Y-7.9786
G1 X286.2886 Y-8.1695
G1 X286.2759 Y-8.3666
G2 X285.7241 Y-14.6615 I-133.5799 J8.5372
G1 X285.6278 Y-15.4986
G2 X285.0193 Y-19.9512 I-123.9961 J14.6793
G1 X284.9292 Y-20.524
G2 X283.8129 Y-26.6075 I-134.0874 J21.46
G1 X288.6285 Y-35.1784
G2 X289.465 Y-34.7071 I7.2843 J-11.9529
G2 X289.7503 Y-34.562 I3.4707 J-6.4694
G2 X290.9131 Y-34.0271 I9.3246 J-18.7392
G2 X290.9891 Y-33.9946 I0.3906 J-0.8074
G2 X291.0676 Y-33.9612 I0.4016 J-0.836
G2 X291.9088 Y-33.6161 I19.5325 J-46.4089
G1 X292.3918 Y-33.4249
G2 X292.4533 Y-33.4008 I0.5767 J-1.3793
G1 X293.7631 Y-32.8872
G1 X293.9316 Y-32.8199
G1 X294.2906 Y-32.6746
G3 X294.672 Y-32.5162 I-22.6535 J55.0996
G3 X295.536 Y-32.1357 I-12.334 J29.1766
G1 X295.6447 Y-32.0851
G3 X296.6231 Y-31.5907 I-6.8536 J14.7783
G3 X297.6929 Y-30.936 I-5.9758 J10.9661
G3 X298.8108 Y-30.032 I-5.0763 J7.4201
G3 X299.8669 Y-28.7587 I-4.9415 J5.1734
G3 X300.6695 Y-27.0218 I-5.9057 J3.7829
G3 X299.1186 Y-27.2547 I9.608 J-69.2705
G1 X298.8974 Y-27.2906
G2 X297.1279 Y-27.5766 I-27.9867 J167.5044
G1 X296.6214 Y-27.6522
G2 X296.0416 Y-27.7319 I-3.6808 J24.637
G1 X295.7318 Y-27.7708
G2 X295.5718 Y-27.7898 I-0.4547 J3.1446
G2 X293.8593 Y-27.9381 I-3.106 J25.9119
G2 X291.5665 Y-27.9531 I-1.3038 J23.9879
G2 X291.0666 Y-27.9179 I0.2429 J7.0105
G2 X290.5715 Y-27.8401 I0.6512 J5.7584
G2 X289.616 Y-27.5398 I0.9443 J4.6751
G2 X288.0261 Y-26.3367 I1.7064 J3.907
G2 X287.3181 Y-25.2039 I4.0162 J3.2979
G2 X287.0377 Y-24.4943 I5.7578 J2.685
G2 X286.8129 Y-23.6557 I7.4145 J2.4374
G2 X286.6628 Y-22.681 I9.4408 J1.9525
G2 X286.6404 Y-22.4279 I5.7249 J0.634
G2 X286.7547 Y-19.7852 I11.4353 J0.8291
G2 X287.0725 Y-18.6264 I7.3056 J-1.3805
G1 X287.1342 Y-18.466
G1 X287.2104 Y-18.2851
G2 X287.4466 Y-17.8175 I4.8953 J-2.1791
G2 X287.8434 Y-17.2421 I3.4997 J-1.9891
G2 X288.5255 Y-16.6046 I2.8085 J-2.3216
G2 X289.6496 Y-16.062 I2.1987 J-3.119
G2 X290.3477 Y-15.9063 I1.4549 J-4.8795
G2 X291.1591 Y-15.8345 I0.9924 J-6.5983
G2 X292.0834 Y-15.8525 I0.2876 J-8.9648
G2 X293.1234 Y-15.959 I-0.905 J-13.9759
G2 X294.2865 Y-16.1465 I-3.4526 J-25.1083
G1 X294.4334 Y-16.1736
G1 X295.0541 Y-16.2935
G1 X295.3728 Y-16.3574
G1 X295.7002 Y-16.424
G2 X295.8662 Y-16.4579 I-0.7552 J-4.1181
G1 X296.5679 Y-16.6005
G1 X296.9288 Y-16.6719
G1 X297.3002 Y-16.7429
G1 X297.6824 Y-16.8123
G1 X297.8765 Y-16.8458
G1 X298.2762 Y-16.9102
G1 X298.377 Y-16.9254
G1 X298.4786 Y-16.9402
G3 X299.3407 Y-17.0421 I2.476 J17.2346
G1 X299.395 Y-17.0469
G1 X299.4495 Y-17.0515
G3 X300.3745 Y-17.0895 I0.9194 J11.094
G3 X301.3551 Y-17.0211 I0.0127 J6.8766
G3 X301.4776 Y-17.0021 I-0.289 J2.2664
G3 X301.6006 Y-16.9802 I-0.2815 J1.9379
G1 Y-14.0308
G1 X290.0994 Y-13.1071
G2 X289.5171 Y-12.5998 I6.8045 J8.3984
G2 X288.9794 Y-12.0453 I5.9715 J6.3275
G2 X288.098 Y-10.7784 I4.8381 J4.306
G2 X287.7073 Y-9.8238 I4.7967 J2.5207
G2 X287.4707 Y-8.468 I5.5733 J1.6709
G2 X287.4669 Y-7.6806 I7.8857 J0.4326
G2 X287.5505 Y-6.7864 I10.1824 J-0.5016
G2 X287.6239 Y-6.3137 I13.1017 J-1.7927
G2 X287.8409 Y-5.2479 I18.1277 J-3.1358
G1 X287.9045 Y-4.975
G2 X288.2109 Y-3.7404 I73.9437 J-17.695
G3 X288.2207 Y-3.7017 I-0.4125 J0.1248
G3 X288.2305 Y-3.6628 I-0.4147 J0.1254
G3 X288.2404 Y-3.6238 I-0.4168 J0.1259
G3 X288.2502 Y-3.5847 I-0.419 J0.1265
G3 X288.2601 Y-3.5454 I-0.4212 J0.127
G1 X288.4258 Y-2.8774
G3 X288.4667 Y-2.7077 I-4.9702 J1.2869
G3 X288.5075 Y-2.5352 I-5.8187 J1.469
G3 X288.5482 Y-2.3601 I-6.9444 J1.7045
G3 X288.5886 Y-2.1821 I-8.3242 J1.9821
G3 X288.6285 Y-2.0013 I-9.7848 J2.2568
G2 X288.4061 Y-1.7693 I3.425 J3.5073
G1 X288.1948 Y-1.5271
G3 X287.7649 Y-1.0494 I-7.2285 J-6.0723
G3 X287.4502 Y-0.7584 I-2.5772 J-2.4708
G1 X287.8325 Y-0.0946
G1 X288.2094 Y0.5722
G1 X288.4583 Y1.0181
G1 X288.7876 Y1.614
G1 X289.2235 Y2.4103
G1 X289.8021 Y3.4734
G1 X290.133 Y4.0808
G1 X290.513 Y4.7739
G1 X290.7169 Y5.143
G2 X291.1745 Y5.9606 I88.3619 J-48.9255
G0 Z5.0
G0 X286.7698 Y8.2795
G1 Z0.0
G1 X288.5068 Y11.5789
G1 X284.748 Y11.9134
G2 X283.3886 Y8.1888 I-38.5065 J11.9434
G2 X281.6833 Y4.6092 I-41.3599 J17.5073
G1 X281.4339 Y4.1429
G2 X280.0364 Y1.6941 I-59.2097 J32.1673
G1 X279.6483 Y1.0502
G2 X279.2292 Y0.3665 I-44.5566 J26.8453
G1 X282.3458 Y-0.1237
G1 X286.7698 Y8.2795
G0 Z5.0
G0 X281.992 Y10.2637
G1 Z0.0
G3 X282.6955 Y12.1415 I-26.3281 J10.9338
G1 X279.3165 Y12.609
G1 X272.6272 Y1.4954
G1 X276.0782 Y0.8532
G3 X276.7112 Y1.6637 I-176.4182 J138.4199
G3 X276.801 Y1.7799 I-4.0455 J3.2194
G1 X277.0398 Y2.0906
G1 X277.1756 Y2.2686
G1 X277.5353 Y2.745
G1 X277.5814 Y2.8067
G3 X279.0134 Y4.813 I-39.9286 J30.0139
G3 X279.9045 Y6.1939 I-31.5586 J21.3432
G3 X281.992 Y10.2637 I-24.2406 J15.0036
G0 Z5.0
G0 X276.5452 Y12.3015
G1 Z0.0
G3 X276.8879 Y13.2703 I-26.6083 J9.9547
G1 X273.7826 Y13.9203
G1 X266.9603 Y2.8144
G1 X270.2783 Y1.9781
G1 X270.3865 Y2.1157
G1 X270.4946 Y2.2535
G1 X270.5665 Y2.3455
G1 X270.8534 Y2.7139
G1 X271.0438 Y2.9603
G1 X271.2964 Y3.2897
G3 X272.2888 Y4.621 I-53.6331 J41.0144
G1 X272.5657 Y5.0063
G1 X272.8777 Y5.4497
G3 X273.6827 Y6.6509 I-30.8644 J21.5557
G1 X273.7834 Y6.808
G1 X273.8864 Y6.9708
G1 X274.1031 Y7.3199
G3 X276.5452 Y12.3015 I-24.1662 J14.9364
G0 Z5.0
G0 X271.7759 Y14.3156
G1 Z0.0
G1 X269.3623 Y14.8514
G3 X267.0158 Y11.6179 I46.4413 J-36.1714
G3 X264.8886 Y8.2359 I48.9423 J-33.1423
G3 X263.6238 Y5.8912 I35.9676 J-20.9163
G3 X263.3156 Y5.2509 I20.3782 J-10.203
G3 X262.6766 Y3.757 I22.0823 J-10.3279
G3 X265.142 Y4.2768 I0.2858 J4.75
G3 X265.8661 Y4.719 I-2.6872 J5.215
G3 X266.7262 Y5.4492 I-4.0975 J5.6979
G3 X267.7049 Y6.5809 I-7.2574 J7.2651
G3 X268.7866 Y8.235 I-13.3558 J9.9152
G1 X268.9131 Y8.4562
G1 X269.041 Y8.6858
G3 X269.3057 Y9.1783 I-16.6709 J9.2774
G3 X269.3384 Y9.2407 I-1.3254 J0.734
G3 X269.9113 Y10.3852 I-42.22 J21.8515
G1 X269.9817 Y10.5316
G1 X270.277 Y11.1562
G1 X270.4273 Y11.479
G1 X270.5033 Y11.643
G1 X270.5802 Y11.8096
G1 X270.9072 Y12.518
G2 X271.6731 Y14.1156 I46.603 J-21.3585
G1 X271.7759 Y14.3156
G0 Z5.0
G0 X266.9603 Y14.8514
G1 Z0.0
G2 X266.6264 Y14.8901 I1.0397 J10.4313
G1 X266.2934 Y14.9345
G1 X266.0717 Y14.9664
G2 X265.9452 Y14.9854 I0.2941 J2.399
G1 X265.6079 Y15.0377
G1 X264.2602 Y15.2545
G3 X264.173 Y15.2678 I-0.8371 J-5.1965
G3 X263.7744 Y15.3247 I-1.8661 J-11.6459
G1 X263.5613 Y15.3512
G3 X263.072 Y15.3911 I-0.7182 J-5.7895
G3 X261.4083 Y12.9992 I37.7164 J-28.0071
G3 X259.9025 Y10.505 I34.285 J-22.4007
G3 X259.5081 Y9.7716 I46.5995 J-25.5317
G3 X258.5608 Y7.7633 I22.5866 J-11.8814
G3 X258.1104 Y6.5761 I18.8052 J-7.8145
G3 X257.9076 Y5.9295 I11.7688 J-4.0464
G1 X257.8611 Y5.7638
G3 X258.6528 Y5.5913 I0.8945 J2.2025
G3 X259.4571 Y5.6888 I0.095 J2.5841
G3 X259.9646 Y5.8748 I-0.9182 J3.2908
G3 X260.5913 Y6.2236 I-1.9585 J4.2553
G3 X261.344 Y6.8002 I-3.6385 J5.5301
G3 X261.3665 Y6.8199 I-0.1266 J0.1674
G3 X262.2592 Y7.7071 I-7.4267 J8.3654
G3 X262.7265 Y8.2483 I-9.9057 J9.0246
G1 X262.9655 Y8.5439
G1 X263.2134 Y8.8633
G1 X263.4705 Y9.2077
G3 X264.7347 Y11.0769 I-27.3846 J19.8836
G1 X265.0521 Y11.5862
G1 X265.3831 Y12.1316
G1 X265.4244 Y12.2006
G1 X265.7725 Y12.7892
G1 X266.1377 Y13.4181
G1 X266.9603 Y14.8514
G0 Z5.0
G0 X260.2555 Y15.6446
G1 Z0.0
G3 X260.2592 Y15.685 I-0.7709 J0.0912
G3 X260.2822 Y16.0144 I-3.917 J0.4381
G3 X259.0443 Y16.054 I-0.7269 J-3.3592
G3 X257.8822 Y15.6254 I0.5232 J-3.2085
G3 X257.2184 Y15.1317 I2.3124 J-3.802
G3 X256.8809 Y14.8012 I3.5038 J-3.9166
G3 X256.7982 Y14.7117 I1.8839 J-1.8218
G3 X256.4424 Y14.2862 I6.1714 J-5.5223
G3 X255.6336 Y13.0724 I8.8648 J-6.7834
G3 X255.2325 Y12.3484 I16.9185 J-9.8463
G3 X254.809 Y11.5116 I22.1198 J-11.719
G1 X254.5927 Y11.0629
G1 X254.1113 Y10.0427
G2 X253.8538 Y9.5018 I-47.5971 J22.329
G1 X253.7187 Y9.2243
G1 X253.6493 Y9.084
G2 X253.5036 Y8.7961 I-32.8001 J16.4123
G2 X253.1785 Y8.1925 I-18.6747 J9.668
G1 X255.5997 Y6.7481
G1 X255.6931 Y6.9232
G1 X255.7883 Y7.0974
G1 X255.8527 Y7.2131
G1 X255.9397 Y7.3667
G1 X255.9899 Y7.4541
G1 X256.0477 Y7.5539
G1 X256.2038 Y7.8188
G1 X256.2941 Y7.9694
G1 X256.5385 Y8.369
G1 X256.8702 Y8.8982
G2 X257.3183 Y9.6 I104.0413 J-65.9319
G1 X257.9162 Y10.5352
G1 X257.9928 Y10.6563
G1 X258.1553 Y10.9151
G3 X258.5209 Y11.5102 I-33.1123 J20.75
G1 X258.6135 Y11.6648
G1 X258.8081 Y11.9964
G1 X258.8569 Y12.0811
G3 X259.285 Y12.8648 I-19.8394 J11.3483
G1 X259.3894 Y13.0703
G1 X259.4939 Y13.2841
G3 X259.5456 Y13.3934 I-1.4553 J0.7553
G3 X259.9636 Y14.4176 I-9.8697 J4.6251
G3 X260.1318 Y14.9843 I-6.4482 J2.2222
G3 X260.2499 Y15.6057 I-5.7118 J1.4079
G3 X260.2555 Y15.6446 I-0.7653 J0.1301
G0 Z5.0
G0 X256.242 Y16.9837
G1 Z0.0
G1 X253.3382 Y17.7058
G1 X253.2121 Y17.5224
G1 X253.0828 Y17.3413
G1 X252.9957 Y17.2211
G1 X252.6447 Y16.7426
G3 X251.9503 Y15.78 I46.2831 J-34.1232
G3 X251.7567 Y15.5015 I8.5074 J-6.1204
G1 X251.5392 Y15.1807
G1 X251.4838 Y15.0974
G3 X250.9157 Y14.1941 I16.7109 J-11.1388
G1 X250.7728 Y13.9479
G3 X250.6253 Y13.6826 I13.6986 J-7.7884
G3 X250.311 Y13.0636 I12.4383 J-6.7047
G1 X250.2361 Y12.9008
G1 X250.2177 Y12.8595
G1 X250.1993 Y12.8178
G3 X249.9045 Y12.0387 I7.5159 J-3.2894
G3 X249.7062 Y11.1037 I4.4022 J-1.4219
G3 X249.6997 Y10.5901 I2.9648 J-0.2943
G3 X249.8103 Y10.0461 I2.131 J0.1498
G3 X250.0999 Y9.5113 I1.7567 J0.6055
G3 X250.6323 Y9.5535 I0.1325 J1.7075
G3 X251.1301 Y9.7469 I-0.5281 J2.0971
G3 X251.4318 Y9.9358 I-1.1515 J2.1746
G3 X251.7978 Y10.2356 I-2.3479 J3.2391
G3 X252.2323 Y10.6874 I-3.6331 J3.9292
G3 X252.4598 Y10.9627 I-4.3964 J3.8653
G3 X252.5762 Y11.1131 I-4.8969 J3.9099
G3 X253.1493 Y11.9376 I-11.3435 J8.4949
G3 X253.8375 Y13.0696 I-25.178 J16.0827
G1 X253.923 Y13.2174
G1 X254.3082 Y13.8924
G1 X254.7455 Y14.6611
G1 X254.9815 Y15.0684
G2 X255.5393 Y15.9839 I21.8264 J-12.6717
G2 X256.242 Y16.9837 I10.8725 J-6.8944
G0 Z5.0
G0 X251.5785 Y18.2075
G1 Z0.0
G1 X248.629 Y18.7359
G1 X248.4671 Y18.5335
G1 X248.3032 Y18.3328
G2 X248.2812 Y18.3061 I-0.2099 J0.1504
G2 X248.2577 Y18.2776 I-0.2204 J0.1578
G1 X248.1322 Y18.1261
G1 X247.6287 Y17.5217
G3 X247.4857 Y17.3483 I9.4801 J-7.9651
G3 X247.4097 Y17.2555 I2.4559 J-2.0867
G3 X247.2376 Y17.0424 I9.2546 J-7.654
G3 X246.7915 Y16.4637 I17.1521 J-13.684
G1 X246.677 Y16.306
G1 X246.6483 Y16.2656
G1 X246.6193 Y16.2244
G1 X246.5901 Y16.1825
G3 X246.0264 Y15.2491 I6.255 J-4.4142
G3 X245.9653 Y15.1222 I2.6181 J-1.338
G3 X245.7398 Y14.5172 I3.6561 J-1.7075
G3 X245.6462 Y13.7785 I2.3998 J-0.6795
G3 X245.8743 Y12.9346 I1.9071 J0.0629
G3 X246.1456 Y12.5406 I1.9262 J1.0357
G3 X246.2268 Y12.4494 I1.8994 J1.6111
G3 X246.6865 Y12.3849 I0.345 J0.7883
G3 X247.1235 Y12.541 I-0.186 J1.2105
G3 X247.2368 Y12.6106 I-0.6503 J1.1852
G3 X247.5147 Y12.825 I-1.6613 J2.4399
G3 X247.8439 Y13.1489 I-2.6606 J3.0339
G3 X248.2346 Y13.6122 I-5.0137 J4.625
G3 X248.7052 Y14.2532 I-11.0507 J8.6059
G3 X248.7636 Y14.3374 I-1.5522 J1.1392
G3 X249.3615 Y15.2335 I-44.25 J30.1731
G1 X249.6963 Y15.7461
G2 X250.081 Y16.3266 I40.1319 J-26.1789
G2 X250.29 Y16.6326 I9.6514 J-6.3681
G1 X250.5178 Y16.9548
G2 X250.5768 Y17.0358 I1.3974 J-0.9543
G1 X250.6999 Y17.2017
G1 X250.8296 Y17.3709
G2 X251.1171 Y17.7227 I7.8021 J-6.0821
G2 X251.4454 Y18.0789 I4.5781 J-3.8897
G1 X251.467 Y18.1004
G1 X251.4887 Y18.1219
G1 X251.5785 Y18.2075
G0 Z5.0
G0 X246.7552 Y19.1387
G1 Z0.0
G3 X246.3328 Y19.3839 I-2.5401 J-3.8896
G3 X245.8831 Y19.5745 I-1.4938 J-2.8998
G3 X245.5678 Y19.6577 I-0.8121 J-2.4374
G3 X245.3834 Y19.6849 I-0.6061 J-3.4741
G3 X244.8856 Y19.6702 I-0.1932 J-1.895
G3 X244.2568 Y19.45 I0.3578 J-2.03
G3 X243.9335 Y19.2472 I1.2583 J-2.3652
G3 X243.5946 Y18.9757 I2.5978 J-3.5901
G3 X243.2371 Y18.6371 I5.4016 J-6.0613
G3 X242.8525 Y18.2349 I14.5292 J-14.2763
G1 X242.4269 Y17.7745
G2 X241.9396 Y17.2649 I-18.9124 J17.5982
G3 X241.7506 Y17.0827 I0.6888 J-0.9035
G3 X241.6113 Y16.8602 I0.6917 J-0.588
G3 X241.5649 Y16.3411 I0.7717 J-0.3306
G3 X241.6858 Y16.0131 I1.3254 J0.3023
G3 X241.9413 Y15.634 I1.9445 J1.0349
G3 X242.3559 Y15.2146 I2.5935 J2.1487
G3 X242.9619 Y14.765 I3.227 J3.7167
G3 X243.8171 Y14.3156 I3.1265 J4.9118
G3 X244.4615 Y15.3373 I-22.7648 J15.0705
G1 X244.6674 Y15.6834
G1 X244.7217 Y15.7761
G1 X245.0091 Y16.2715
G1 X245.3898 Y16.9334
G1 X245.4917 Y17.1097
G1 X245.7267 Y17.5115
G1 X245.8536 Y17.7248
G1 X245.9905 Y17.9515
G2 X246.7552 Y19.1387 I23.8945 J-14.5519
G0 Z5.0
G0 X241.9396 Y20.203
G1 Z0.0
G1 X239.5299 Y21.1456
G1 X239.1706 Y20.6783
G1 X239.0536 Y20.5204
G3 X238.6244 Y19.8621 I5.2512 J-3.8935
G3 X238.4035 Y19.3863 I2.6795 J-1.5328
G3 X238.3208 Y19.0971 I1.8203 J-0.6769
G3 X238.2956 Y18.9383 I2.5736 J-0.4897
G3 X238.3034 Y18.568 I1.3203 J-0.1575
G3 X238.445 Y18.1614 I1.2179 J0.196
G3 X238.758 Y17.7693 I1.3747 J0.7763
G3 X239.2234 Y17.4297 I1.8096 J1.9915
G3 X239.4935 Y17.2858 I2.0589 J3.54
G1 X239.6363 Y17.2194
G3 X239.7931 Y17.382 I-3.2665 J3.3073
G3 X239.9454 Y17.5491 I-2.8694 J2.7671
G3 X240.2379 Y17.8934 I-9.4197 J8.3002
G3 X240.7898 Y18.6089 I-13.333 J10.8544
G3 X240.8611 Y18.706 I-1.8233 J1.4145
G3 X240.9368 Y18.8098 I-3.2257 J2.4315
G1 X241.3364 Y19.3665
G2 X241.3878 Y19.4385 I0.9894 J-0.6513
G2 X241.9396 Y20.203 I66.0319 J-47.0815
G0 Z5.0
G0 X273.2468 Y-3.8751
G1 Z0.0
G1 Y-4.9392
G3 X273.3409 Y-5.1163 I0.2585 J0.0239
G3 X273.5305 Y-5.1812 I0.2061 J0.2929
G3 X273.6629 Y-5.1789 I0.0546 J0.6665
G3 X273.8315 Y-5.149 I-0.0901 J0.9991
G3 X274.0423 Y-5.0836 I-0.6081 J2.3341
G3 X274.3037 Y-4.9712 I-0.7992 J2.2192
G3 X275.1834 Y-4.3843 I-1.8468 J3.7205
G3 X275.6564 Y-3.8751 I-1.9588 J2.294
G1 X273.2468
G0 Z5.0
G0 X274.8925 Y-6.3257
G1 Z0.0
G3 X274.436 Y-6.6662 I3.2102 J-4.7801
G3 X273.8275 Y-7.2752 I2.5861 J-3.1926
G3 X273.5663 Y-7.6564 I2.2902 J-1.8492
G3 X273.2468 Y-8.6868 I2.0276 J-1.1936
G1 X283.4101 Y-5.8818
G1 Y-4.9392
G1 X279.9323 Y-4.4109
G3 X279.1401 Y-4.6042 I5.1639 J-22.8913
G1 X278.8773 Y-4.6736
G1 X278.7275 Y-4.7146
G1 X278.3293 Y-4.8286
G3 X277.802 Y-4.9924 I5.3658 J-18.1984
G3 X277.1066 Y-5.2347 I4.8024 J-14.9005
G3 X276.1987 Y-5.6086 I4.9465 J-13.3037
G3 X275.0442 Y-6.2273 I3.9009 J-8.6657
G3 X274.8925 Y-6.3257 I3.0586 J-4.8785
G0 Z5.0
G0 X275.9456 Y-9.3923
G1 Z0.0
G3 X275.8623 Y-9.421 I14.1909 J-41.326
G1 X275.754 Y-9.4584
G1 X275.2927 Y-9.6204
G1 X275.0551 Y-9.7056
G1 X274.8102 Y-9.7944
G3 X273.695 Y-10.2113 I23.2767 J-63.9732
G1 X273.1023 Y-10.439
G1 X273.0984 Y-10.768
G1 X273.0906 Y-11.097
G1 X273.0868 Y-11.3163
G3 X273.0883 Y-11.6088 I10.4922 J-0.0924
G3 X273.1137 Y-11.9982 I3.9789 J0.0649
G1 X273.1199 Y-12.0482
G3 X273.2468 Y-12.5713 I2.2235 J0.2623
G1 X273.4052 Y-12.4943
G1 X273.5654 Y-12.4211
G2 X273.8902 Y-12.2844 I4.7862 J-10.9204
G2 X274.1092 Y-12.1997 I2.0557 J-4.9877
G2 X274.4037 Y-12.0934 I3.7387 J-9.8979
G2 X275.5995 Y-11.7237 I6.539 J-19.0325
G1 X275.7603 Y-11.6791
G2 X276.6207 Y-11.4519 I15.1957 J-55.7838
G1 X277.1133 Y-11.3264
G1 X277.2405 Y-11.2941
G1 X277.5117 Y-11.2252
G1 X278.131 Y-11.0652
G3 X278.2905 Y-11.0229 I-1.4105 J5.6432
G3 X279.0174 Y-10.8208 I-12.7058 J47.1125
G3 X279.8399 Y-10.5627 I-4.9192 J17.1139
G3 X280.05 Y-10.4893 I-2.4285 J7.2866
G1 X280.2655 Y-10.4098
G1 X280.4863 Y-10.3232
G3 X281.4631 Y-9.8485 I-2.6865 J6.7703
G3 X281.9431 Y-9.5201 I-2.3331 J3.9251
G3 X282.3913 Y-9.0838 I-1.8192 J2.3174
G3 X282.7372 Y-8.4976 I-1.6123 J1.3465
G3 X282.8741 Y-7.7557 I-1.9263 J0.7389
G3 X281.3688 Y-7.9663 I2.5462 J-23.6854
G1 X281.2688 Y-7.9835
G1 X281.1623 Y-8.0022
G3 X279.4696 Y-8.356 I5.1027 J-28.6404
G1 X279.3611 Y-8.3821
G3 X278.2099 Y-8.6839 I9.1111 J-37.1027
G1 X277.9047 Y-8.771
G1 X277.58 Y-8.8667
G3 X275.9456 Y-9.3923 I12.5565 J-41.8516
G0 Z5.0
G0 X276.8257 Y-12.9524
G1 Z0.0
G3 X275.8698 Y-13.1966 I15.3972 J-62.2806
G3 X274.8833 Y-13.4765 I6.7805 J-25.7728
G1 X274.631 Y-13.5563
G3 X274.0996 Y-13.7479 I2.0751 J-6.5892
G3 X274.0339 Y-13.7755 I0.3598 J-0.9469
G3 X273.7713 Y-13.9092 I0.7024 J-1.7052
G3 X273.1666 Y-14.4562 I1.1738 J-1.9052
G3 X272.7993 Y-15.1842 I1.8957 J-1.4131
G3 X272.6824 Y-15.7156 I3.2332 J-0.9901
G3 X272.641 Y-16.4352 I4.6406 J-0.628
G3 X272.7185 Y-17.383 I7.8689 J0.1664
G2 X272.8127 Y-17.3115 I1.8338 J-2.3188
G2 X272.9085 Y-17.2422 I1.1082 J-1.4307
G2 X273.1046 Y-17.1098 I14.2979 J-20.958
G1 X273.2382 Y-17.026
G2 X273.7913 Y-16.7232 I3.4138 J-5.5799
G2 X273.9538 Y-16.6453 I1.8592 J-3.6686
G2 X275.2957 Y-16.1262 I4.9759 J-10.8701
G2 X275.3392 Y-16.1121 I0.1657 J-0.4361
G2 X275.3834 Y-16.0979 I0.168 J-0.446
G2 X275.4284 Y-16.0835 I0.1705 J-0.4564
G2 X276.3925 Y-15.8001 I7.2584 J-22.9092
G2 X276.9467 Y-15.6508 I9.1141 J-32.7361
G1 X277.2426 Y-15.5729
G1 X277.9184 Y-15.3948
G1 X278.2782 Y-15.2976
G3 X279.0957 Y-15.0605 I-8.1899 J29.7636
G3 X279.5275 Y-14.9205 I-4.2952 J13.9849
G3 X279.9828 Y-14.756 I-3.9142 J11.5482
G1 X280.215 Y-14.6634
G3 X280.452 Y-14.5614 I-2.0327 J5.0477
G3 X280.9459 Y-14.3173 I-2.75 J6.1856
G3 X281.447 Y-14.0076 I-2.7275 J4.9733
G3 X281.9349 Y-13.6064 I-2.4201 J3.4398
G3 X282.3715 Y-13.0843 I-2.2998 J2.3671
G3 X282.7014 Y-12.4232 I-2.4484 J1.6347
G3 X282.8741 Y-11.6363 I-3.2927 J1.1347
G3 X279.8337 Y-12.2641 I39.2908 J-197.9476
G1 X278.8229 Y-12.486
G1 X278.5536 Y-12.5464
G1 X277.9387 Y-12.687
G1 X277.611 Y-12.7635
G3 X276.8257 Y-12.9524 I14.6119 J-62.4695
G0 Z5.0
G0 X278.0139 Y-17.1486
G1 Z0.0
G3 X277.4888 Y-17.3052 I5.3567 J-18.9176
G3 X275.8072 Y-17.8993 I8.5518 J-26.8823
G1 X275.593 Y-17.9831
G1 X275.1377 Y-18.1659
G1 X274.6544 Y-18.3662
G3 X273.5577 Y-18.8383 I28.3204 J-67.2957
G1 X272.3117 Y-19.3899
G3 X272.2204 Y-20.0115 I3.9041 J-0.8909
G3 X272.2007 Y-20.6396 I7.6782 J-0.5553
G3 X272.2927 Y-21.8909 I9.4743 J0.0679
G3 X273.4351 Y-21.4875 I-6.6082 J20.5328
G3 X274.5589 Y-21.0346 I-13.0181 J33.921
G1 X275.3025 Y-20.7192
G1 X275.7269 Y-20.538
G1 X276.2126 Y-20.3322
G1 X276.7695 Y-20.1016
G1 X276.9137 Y-20.0433
G1 X277.0628 Y-19.9837
G1 X277.217 Y-19.923
G2 X277.5472 Y-19.7963 I4.5921 J-11.4698
G1 X277.9012 Y-19.6661
G1 X278.2813 Y-19.5339
G1 X278.4785 Y-19.4688
G1 X278.6829 Y-19.404
G1 X278.8947 Y-19.3399
G2 X279.8753 Y-19.088 I4.1854 J-14.261
G2 X281.0189 Y-18.9019 I2.3695 J-10.9541
G2 X282.3458 Y-18.8539 I0.9887 J-8.9605
G3 X282.494 Y-18.0344 I-58.8513 J11.0679
G2 X282.6527 Y-17.2168 I22.0216 J-3.8503
G1 X282.7062 Y-16.9849
G2 X282.7753 Y-16.7218 I4.93 J-1.1534
G3 X281.0182 Y-16.6208 I-1.3475 J-8.1067
G3 X279.272 Y-16.841 I0.5627 J-11.4952
G3 X278.7804 Y-16.9481 I2.0873 J-10.7588
G3 X278.0139 Y-17.1486 I4.5902 J-19.118
G0 Z5.0
G0 X279.0896 Y-21.2987
G1 Z0.0
G3 X279.0203 Y-21.3168 I6.5269 J-25.181
G3 X276.1807 Y-22.2128 I6.8333 J-26.6031
G1 X275.8103 Y-22.3561
G3 X273.8829 Y-23.2352 I7.1957 J-18.3287
G1 X273.6421 Y-23.3649
G3 X273.3961 Y-23.5033 I4.151 J-7.6631
G3 X272.3117 Y-24.2055 I6.1084 J-10.622
G3 X272.6641 Y-25.77 I4.7383 J0.2456
G3 X273.4878 Y-27.1459 I5.0833 J2.1084
G3 X273.7892 Y-27.4925 I4.5979 J3.6941
G3 X274.6954 Y-28.3106 I5.3153 J4.9771
G3 X276.0664 Y-29.173 I5.4077 J7.0762
G3 X278.0585 Y-29.9599 I5.0954 J9.9842
G3 X280.3613 Y-26.5995 I-7.5781 J7.662
G3 X280.847 Y-25.324 I-12.4891 J5.4865
G1 X280.9571 Y-24.9771
G1 X281.0112 Y-24.7972
G1 X281.1211 Y-24.412
G3 X281.3479 Y-23.5258 I-22.4387 J6.2151
G3 X281.5772 Y-22.5072 I-43.4387 J10.3147
G3 X281.8173 Y-21.3403 I-104.803 J22.168
G1 X281.8774 Y-21.0389
G1 X281.9392 Y-20.7278
G3 X279.0896 Y-21.2987 I3.6774 J-25.7519
G0 Z5.0
G0 X282.8741 Y-29.424
G1 Z0.0
G3 X282.0546 Y-30.4547 I22.3299 J-18.5941
G3 X281.2915 Y-31.5278 I15.6923 J-11.9677
G1 X281.1967 Y-31.6756
G1 X281.1488 Y-31.7525
G1 X281.0492 Y-31.9183
G1 X280.948 Y-32.098
G1 X280.9233 Y-32.1443
G3 X280.7295 Y-32.5834 I2.5901 J-1.4055
G3 X280.6811 Y-32.8371 I0.8087 J-0.2857
G3 X280.861 Y-33.8203 I3.1066 J0.0603
G3 X281.2917 Y-34.7221 I4.4727 J1.5825
G3 X281.6618 Y-35.2756 I6.5922 J4.0081
G3 X281.8928 Y-35.5775 I8.5283 J6.2839
G3 X282.1693 Y-35.9116 I10.4618 J8.3783
G3 X282.9503 Y-36.7575 I12.1143 J10.402
G3 X283.4149 Y-37.2213 I20.9686 J20.5385
G1 X283.6657 Y-37.465
G1 X283.9344 Y-37.7233
G1 X284.2215 Y-37.9975
G2 X284.5272 Y-38.2899 I-32.6951 J-34.4848
G1 X284.8512 Y-38.6032
G1 X285.0171 Y-38.7661
G2 X285.101 Y-38.8492 I-1.5214 J-1.6174
G1 X285.2727 Y-39.0219
G1 X285.4479 Y-39.2021
G2 X285.8121 Y-39.5949 I-12.1104 J-11.5937
G3 X286.3449 Y-38.9096 I-1.6488 J1.8316
G3 X286.5865 Y-38.076 I-2.0443 J1.0444
G3 X286.5859 Y-37.4962 I-3.0374 J0.2868
G3 X286.4442 Y-36.7412 I-4.3921 J-0.434
G3 X286.1065 Y-35.7876 I-7.3692 J-2.0731
G3 X285.8688 Y-35.2649 I-13.8345 J-5.9737
G1 X285.7336 Y-34.9914
G3 X284.9665 Y-33.5938 I-25.7857 J-13.2431
G1 X284.754 Y-33.2276
G3 X284.6998 Y-33.1348 I-2.1856 J-1.2119
G1 X284.2113 Y-32.2928
G1 X283.957 Y-31.8425
G1 X283.8288 Y-31.609
G1 X283.7968 Y-31.5499
G1 X283.7648 Y-31.4903
G2 X283.5007 Y-30.9796 I12.7652 J6.925
G2 X283.2411 Y-30.4261 I9.4161 J4.7548
G1 X283.1798 Y-30.2835
G2 X283.1497 Y-30.2113 I0.756 J0.3568
G2 X282.922 Y-29.5856 I7.0575 J2.9234
G1 X282.8975 Y-29.5053
G1 X282.8741 Y-29.424
G0 Z5.0
G0 X277.7881 Y-36.64
G1 Z0.0
G3 X276.9868 Y-36.0832 I-41.8031 J-59.3111
G3 X276.8363 Y-35.98 I-4.2129 J-5.981
G1 X276.148 Y-35.5096
G1 X275.7812 Y-35.2582
G1 X275.3911 Y-34.9885
G1 X275.1905 Y-34.8483
G1 X274.984 Y-34.7026
G1 X274.5465 Y-34.3878
G1 X274.3573 Y-34.5785
G1 X274.1685 Y-34.7696
G1 X273.7916 Y-35.1526
G1 X273.0372 Y-35.918
G1 X272.5316 Y-36.4255
G2 X271.8507 Y-37.0954 I-56.7953 J57.0442
G1 X271.6674 Y-37.2723
G2 X270.6732 Y-38.1983 I-30.6031 J31.862
G1 X270.4022 Y-38.4388
G2 X269.7706 Y-38.9747 I-13.8964 J15.7393
G1 X269.6044 Y-39.1092
G2 X269.5193 Y-39.1768 I-1.0341 J1.2128
G2 X269.4326 Y-39.245 I-2.4432 J3.0204
G1 X269.252 Y-39.3839
G1 X269.1596 Y-39.4536
G1 X268.967 Y-39.5949
G1 X281.4108
G3 X279.6603 Y-38.037 I-15.0404 J-15.1367
G1 X279.5382 Y-37.9394
G1 X279.4072 Y-37.8362
G3 X279.1059 Y-37.6029 I-16.2983 J-20.743
G1 X278.7582 Y-37.3406
G1 X278.3571 Y-37.046
G1 X278.253 Y-36.9708
G1 X278.1453 Y-36.8934
G3 X277.7881 Y-36.64 I-42.1603 J-59.0577
G0 Z5.0
G0 X272.1181 Y-32.0661
G1 Z0.0
G1 X272.3117 Y-31.8261
G1 X269.636 Y-29.31
G3 X267.6313 Y-31.0878 I10.9643 J-14.383
G3 X265.8803 Y-33.116 I16.1808 J-15.7392
G3 X265.4216 Y-33.7293 I18.1712 J-14.066
G3 X264.2739 Y-35.4171 I27.27 J-19.7793
G3 X262.8719 Y-37.7463 I45.5129 J-28.9812
G1 X262.5141 Y-38.3767
G1 X262.137 Y-39.0513
G3 X264.5844 Y-38.1887 I-3.4613 J13.7229
G3 X266.8517 Y-36.9265 I-7.0771 J15.3804
G3 X268.2539 Y-35.9125 I-11.3988 J17.2387
G3 X269.9872 Y-34.3934 I-14.0167 J17.7424
G3 X272.063 Y-32.1343 I-18.7271 J19.2909
G1 X272.1181 Y-32.0661
G0 Z5.0
G0 X261.6096 Y-23.0706
G1 Z0.0
G3 X261.888 Y-22.696 I-2.5728 J2.2024
G3 X262.3155 Y-21.6643 I-2.8302 J1.7773
G3 X262.4066 Y-21.0689 I-4.1986 J0.9471
G3 X262.4161 Y-20.9159 I-2.1259 J0.2085
G3 X262.4025 Y-20.2595 I-4.9144 J0.2263
G3 X262.3653 Y-19.9224 I-10.2325 J-0.957
G3 X262.3088 Y-19.5771 I-8.9194 J-1.2831
G3 X262.137 Y-18.8539 I-9.242 J-1.8133
G1 X251.5785 Y-23.6658
G1 X254.923 Y-24.6008
G3 X255.4462 Y-24.6737 I1.2718 J7.2102
G1 X255.5213 Y-24.6815
G3 X256.1234 Y-24.7252 I1.0266 J9.9687
G1 X256.2957 Y-24.732
G3 X257.6741 Y-24.6969 I0.3739 J12.4175
G3 X258.5859 Y-24.5771 I-0.8784 J10.2107
G3 X259.7722 Y-24.2648 I-1.2546 J7.1758
G3 X260.4173 Y-23.9866 I-1.8302 J5.1304
G1 X260.5773 Y-23.9007
G3 X261.2597 Y-23.4233 I-2.0374 J3.639
G3 X261.6096 Y-23.0706 I-2.223 J2.5551
G0 Z5.0
G0 X290.4287 Y-22.8855
G1 Z0.0
G3 X290.4803 Y-23.8167 I9.5316 J0.0612
G1 X290.496 Y-23.947
G3 X290.6003 Y-24.537 I5.948 J0.7477
G3 X290.8061 Y-25.1906 I4.1093 J0.9345
G3 X290.9715 Y-25.5183 I2.575 J1.0938
G3 X291.2119 Y-25.8319 I1.5371 J0.9298
G3 X291.5665 Y-26.0792 I0.8002 J0.7692
G3 X292.5676 Y-26.1268 I1.4629 J20.2033
G3 X293.5697 Y-26.1337 I0.6978 J28.9368
G1 X293.856 Y-26.1287
G3 X296.1405 Y-25.9674 I-0.4525 J22.659
G3 X297.6459 Y-25.7089 I-1.8124 J15.0687
G1 X297.7406 Y-25.6872
G1 X297.9353 Y-25.64
G3 X298.814 Y-25.3797 I-2.5544 J10.2363
G3 X299.78 Y-24.9698 I-2.5426 J7.3353
G3 X300.018 Y-24.8397 I-6.6847 J12.5072
G3 X300.5029 Y-24.5206 I-2.7665 J4.7331
G3 X300.7365 Y-24.3317 I-1.8858 J2.5705
G3 X301.1827 Y-23.865 I-2.3981 J2.7392
G3 X301.7776 Y-22.4633 I-2.2443 J1.7796
G3 X301.7859 Y-21.623 I-3.551 J0.4553
G3 X301.6006 Y-20.7278 I-4.7711 J-0.5209
G1 X300.5832 Y-20.4165
G3 X299.5616 Y-20.1197 I-22.2597 J-74.7093
G3 X297.4938 Y-19.6183 I-7.7398 J-27.4064
G1 X297.2151 Y-19.5647
G3 X295.7166 Y-19.3503 I-3.237 J-17.2798
G3 X294.8528 Y-19.2937 I-1.2218 J-12.0432
G3 X293.8628 Y-19.3029 I-0.3954 J-10.7623
G1 X293.6077 Y-19.3198
G3 X292.4489 Y-19.4848 I0.6769 J-8.9092
G3 X291.1637 Y-19.8725 I1.6028 J-7.6359
G3 X291.0423 Y-19.9425 I0.0878 J-0.2925
G3 X290.9511 Y-20.0489 I0.4488 J-0.4768
G3 X290.8203 Y-20.2922 I1.2795 J-0.8447
G3 X290.6524 Y-20.8076 I3.0228 J-1.2701
G3 X290.4771 Y-21.8589 I7.2959 J-1.7571
G1 X290.464 Y-22.0003
G3 X290.4288 Y-22.7534 I10.755 J-0.8795
G3 X290.4285 Y-22.8013 I0.5359 J-0.0274
G3 X290.4287 Y-22.8855 I9.5318 J-0.023
G0 Z5.0
G0 X294.628 Y-9.3492
G1 Z0.0
G3 X294.6917 Y-9.3685 I1.3763 J4.4362
G3 X294.719 Y-9.3767 I0.0723 J0.1913
G3 X294.7473 Y-9.385 I0.073 J0.1956
G3 X295.6651 Y-9.5843 I2.0287 J7.1289
G3 X297.5344 Y-9.6892 I1.5302 J10.5559
G3 X297.6553 Y-9.6855 I-0.032 J2.9683
G3 X298.938 Y-9.5775 I-0.5515 J14.2284
G3 X300.6175 Y-9.2412 I-1.5506 J12.1048
G1 X300.6695 Y-9.2266
G3 X300.6579 Y-8.3131 I-2.9122 J0.42
G3 X300.3485 Y-7.4535 I-2.6019 J-0.4511
G3 X299.9942 Y-6.9561 I-2.5771 J-1.4608
G3 X299.3972 Y-6.4072 I-2.8097 J-2.4566
G3 X298.4771 Y-5.8579 I-3.1904 J-4.2992
G3 X297.1565 Y-5.3741 I-3.3965 J-7.2265
G3 X296.3797 Y-5.1947 I-2.8058 J-10.3784
G3 X294.3144 Y-5.0001 I-2.0721 J-10.9326
G3 X293.578 Y-5.0893 I0.001 J-3.0917
G3 X292.8891 Y-5.3645 I0.6008 J-2.5042
G3 X292.4918 Y-5.6618 I1.0554 J-1.8244
G3 X292.1084 Y-6.2038 I1.1705 J-1.2347
G3 X292.0233 Y-7.0969 I1.3261 J-0.5769
G3 X292.2086 Y-7.5858 I1.7675 J0.3902
G3 X292.5565 Y-8.0688 I2.2889 J1.2819
G3 X293.0493 Y-8.5192 I2.7853 J2.5529
G3 X293.6662 Y-8.9265 I3.3026 J4.331
G1 X293.8316 Y-9.018
G1 X293.8737 Y-9.0403
G3 X294.628 Y-9.3492 I2.1306 J4.1273
G0 Z5.0
G0 X317.123 Y-3.8751
G1 Z0.0
G3 X318.2511 Y-3.9309 I0.7689 J4.1081
G3 X319.3476 Y-3.6601 I-0.3227 J3.6616
G3 X320.0138 Y-3.3058 I-1.5417 J3.7028
G3 X320.7952 Y-2.6763 I-2.9766 J4.4946
G3 X321.6647 Y-1.6725 I-5.6664 J5.7868
G3 X321.6896 Y-1.6388 I-0.236 J0.2006
G3 X321.7146 Y-1.6048 I-0.2387 J0.2012
G3 X321.7397 Y-1.5704 I-0.2413 J0.2019
G3 X321.7647 Y-1.5356 I-0.244 J0.2025
G3 X321.7899 Y-1.5005 I-0.2468 J0.2033
G1 X321.8405 Y-1.4289
G1 X321.8914 Y-1.3559
G1 X321.9424 Y-1.2814
G1 X321.9937 Y-1.2054
G3 X322.438 Y-0.5006 I-11.0962 J7.4876
G3 X322.4919 Y-0.4097 I-3.5847 J2.1848
G3 X322.961 Y0.4272 I-18.6819 J11.022
G3 X323.0771 Y0.6454 I-20.1033 J10.8353
G3 X323.5873 Y1.6428 I-50.6085 J26.5179
G1 X323.852 Y2.1758
G3 X323.9188 Y2.3112 I-3.0879 J1.6094
G1 X324.0566 Y2.5902
G1 X324.3503 Y3.1822
G2 X325.0382 Y4.5125 I35.9556 J-17.7501
G1 X325.1294 Y4.6793
G1 X325.1758 Y4.7631
G2 X325.3704 Y5.1063 I9.3966 J-5.1019
G2 X325.4716 Y5.2791 I4.4337 J-2.48
G1 X325.5761 Y5.4534
G1 X325.6843 Y5.6291
G2 X326.1722 Y6.3587 I12.9418 J-8.1248
G2 X326.7543 Y7.0903 I7.5083 J-5.3777
G1 X322.8698 Y7.6375
G1 X322.6925 Y7.2736
G1 X322.6325 Y7.1528
G1 X322.3886 Y6.6714
G1 X322.2229 Y6.3521
G1 X322.1272 Y6.1701
G1 X321.8691 Y5.6865
G2 X321.8355 Y5.6242 I-0.66 J0.3159
G1 X321.4741 Y4.9619
G1 X321.2656 Y4.5845
G1 X320.706 Y3.58
G1 X320.386 Y3.0062
G3 X320.3455 Y2.9332 I1.043 J-0.6277
G1 X319.9764 Y2.2658
G3 X319.0179 Y0.4718 I60.1943 J-33.3123
G1 X318.7722 Y-0.0117
G3 X318.2329 Y-1.1282 I31.4597 J-15.885
G1 X318.0997 Y-1.4192
G3 X317.8249 Y-2.0442 I27.5872 J-12.4997
G1 X317.7574 Y-2.204
G1 X317.6897 Y-2.3666
G3 X317.123 Y-3.8751 I24.12 J-9.922
G0 Z5.0
G0 X322.695 Y-4.069
G1 Z0.0
G3 X323.3573 Y-4.1158 I4.1184 J53.5626
G1 X324.0199 Y-4.1584
G3 X324.1082 Y-4.1639 I0.1714 J2.0372
G1 X324.5795 Y-4.1931
G1 X325.2079 Y-4.2326
G1 X325.5668 Y-4.2563
G1 X325.977 Y-4.2851
G2 X327.0695 Y-4.3776 I-4.0602 J-54.4618
G1 X327.2103 Y-4.392
G3 X329.6093 Y0.6247 I-132.7578 J66.5695
G1 X329.6837 Y0.788
G1 X330.0218 Y1.5351
G1 X330.9209 Y3.5286
G1 X331.162 Y4.0597
G1 X331.7167 Y5.2717
G1 X332.0148 Y5.9171
G2 X332.0525 Y5.9984 I2.2276 J-0.9836
G1 X332.2084 Y6.3338
G1 X332.0713 Y6.3803
G1 X331.9328 Y6.4224
G3 X331.652 Y6.4925 I-0.8681 J-2.8797
G3 X331.0784 Y6.5674 I-0.7873 J-3.7944
G3 X329.9362 Y6.4038 I-0.1482 J-3.0347
G3 X329.2416 Y6.0661 I1.0936 J-3.1326
G3 X328.4449 Y5.4206 I2.547 J-3.9577
G3 X328.05 Y4.9898 I4.511 J-4.5316
G3 X327.8543 Y4.7482 I5.6487 J-4.7759
G3 X327.4407 Y4.1766 I8.2502 J-6.4047
G1 X327.3401 Y4.0253
G1 X327.2387 Y3.8679
G3 X326.8029 Y3.1408 I12.5917 J-8.041
G1 X326.7499 Y3.0472
G1 X326.6967 Y2.952
G3 X326.2325 Y2.0817 I31.5816 J-17.4037
G1 X326.1169 Y1.8556
G1 X325.8753 Y1.3744
G1 X325.7522 Y1.126
G1 X325.4926 Y0.5984
G1 X325.3591 Y0.3268
G2 X324.7465 Y-0.8958 I-51.208 J24.8937
G1 X324.5836 Y-1.208
G1 X324.4125 Y-1.5276
G1 X324.3688 Y-1.6077
G2 X323.5141 Y-3.0229 I-15.345 J8.3018
G2 X322.9899 Y-3.729 I-8.5581 J5.8056
G1 X322.8461 Y-3.8999
G1 X322.695 Y-4.069
G0 Z5.0
G0 Y-8.6868
G1 Z0.0
G1 X320.8744
G1 X321.4027 Y-11.0928
G3 X323.8392 Y-9.9871 I-13.8801 J33.8252
G3 X326.1895 Y-8.7081 I-18.0849 J36.0313
G3 X326.2259 Y-8.6868 I-0.1459 J0.2914
G1 X322.695
G0 Z5.0
G0 X323.9795 Y-11.7704
G1 Z0.0
G3 X323.6385 Y-11.913 I59.2824 J-142.3082
G1 X323.2504 Y-12.0746
G1 X322.3628 Y-12.4424
G1 X321.8885 Y-12.6362
G2 X320.7991 Y-13.0659 I-25.7526 J63.6892
G2 X319.5365 Y-13.5101 I-8.0745 J20.9365
G1 X320.0252 Y-14.0856
G1 X320.0956 Y-14.1673
G1 X320.2858 Y-14.3831
G1 X320.3969 Y-14.5042
G3 X320.7075 Y-14.8136 I3.7458 J3.4493
G1 X320.7282 Y-14.8324
G3 X321.2056 Y-15.1872 I1.9455 J2.1192
G3 X321.9653 Y-15.437 I0.958 J1.6331
G3 X322.0356 Y-15.4325 I0.0022 J0.5182
G1 X322.1051 Y-15.4216
G3 X322.1513 Y-15.4131 I-0.0492 J0.3966
G3 X322.3348 Y-15.3741 I-0.7854 J4.1412
G3 X322.6985 Y-15.2831 I-1.7966 J7.955
G3 X322.8019 Y-15.255 I-0.7064 J2.8039
G3 X323.6212 Y-15.0062 I-4.9636 J17.8227
G1 X323.8531 Y-14.9282
G3 X325.6672 Y-14.199 I-5.9294 J17.3706
G3 X326.8222 Y-13.5941 I-5.6401 J12.1748
G1 X326.9666 Y-13.5076
G3 X327.6086 Y-13.0829 I-5.8527 J9.5437
G1 X327.7683 Y-12.9647
G3 X328.4571 Y-12.3705 I-4.353 J5.7418
G3 X329.1148 Y-11.5588 I-3.2044 J3.2689
G3 X329.3715 Y-11.0591 I-2.7436 J1.725
G3 X329.5592 Y-9.7549 I-2.4429 J1.0173
G3 X329.0387 Y-9.8888 I3.148 J-13.3144
G1 X328.8664 Y-9.9376
G3 X328.6374 Y-10.0055 I1.794 J-6.4731
G3 X327.7294 Y-10.3019 I7.0845 J-23.2454
G1 X327.6091 Y-10.3438
G3 X326.9703 Y-10.575 I12.0491 J-34.289
G1 X326.6071 Y-10.7118
G3 X325.6435 Y-11.0891 I32.2025 J-83.6638
G1 X325.0953 Y-11.3107
G3 X323.9795 Y-11.7704 I58.1666 J-142.7679
G0 Z5.0
G0 X326.2293 Y-15.8648
G1 Z0.0
G1 X326.1374 Y-15.9153
G2 X324.6928 Y-16.6508 I-15.9216 J29.4846
G1 X324.3027 Y-16.8371
G1 X324.1008 Y-16.932
G2 X321.9387 Y-17.919 I-93.0042 J200.8717
G3 X322.164 Y-18.2838 I3.7807 J2.0832
G1 X322.2469 Y-18.4003
G3 X322.6075 Y-18.8436 I4.9355 J3.6458
G3 X322.7187 Y-18.9633 I10.1539 J9.3234
G3 X323.0365 Y-19.2611 I2.5392 J2.3912
G1 X323.1281 Y-19.3327
G3 X323.3566 Y-19.4698 I0.7036 J0.9132
G3 X323.497 Y-19.5039 I0.1565 J0.3387
G3 X324.8466 Y-19.351 I0.0154 J5.8995
G3 X326.1378 Y-18.9295 I-1.7514 J7.5521
G3 X326.9539 Y-18.5369 I-3.4769 J8.2716
G3 X327.1651 Y-18.4199 I-2.3755 J4.5382
G3 X328.245 Y-17.7229 I-5.6676 J9.9665
G3 X328.3789 Y-17.6248 I-11.3265 J15.5894
G3 X328.9736 Y-17.1557 I-8.8272 J11.8031
G1 X329.1227 Y-17.0292
G3 X330.5859 Y-15.5547 I-8.3317 J9.731
G3 X330.9295 Y-15.1196 I-7.2052 J6.0433
G3 X331.2626 Y-14.6308 I-6.032 J4.4685
G3 X331.552 Y-14.068 I-2.9336 J1.8644
G3 X331.566 Y-14.0308 I-0.5339 J0.2218
G1 X330.0951 Y-13.1071
G2 X328.3338 Y-14.5548 I-11.5707 J12.2828
G2 X326.404 Y-15.7688 I-11.7783 J16.5815
G1 X326.2293 Y-15.8648
G0 Z5.0
G0 X331.3557 Y-22.6995
G1 Z0.0
G2 X331.2613 Y-22.77 I-14.5561 J19.4066
G2 X330.2595 Y-23.464 I-13.6672 J18.6572
G1 X330.1275 Y-23.5495
G1 X329.9906 Y-23.6369
G2 X328.4979 Y-24.5128 I-13.326 J20.9982
G2 X326.4387 Y-25.5507 I-17.9415 J33.0363
G1 X325.8808 Y-25.8092
G1 X325.2833 Y-26.0792
G1 X326.2259 Y-27.0218
G3 X328.1261 Y-26.8175 I0.001 J8.9287
G3 X329.9399 Y-26.2154 I-2.0155 J9.105
G3 X331.0675 Y-25.6202 I-4.1062 J9.1459
G3 X331.1366 Y-25.5779 I-0.5405 J0.9591
G3 X332.5325 Y-24.5654 I-6.2263 J10.0526
G3 X333.2648 Y-23.9066 I-8.7817 J10.4964
G3 X334.9948 Y-21.9468 I-11.9472 J12.2902
G3 X335.8533 Y-20.7278 I-15.7981 J12.0385
G1 X333.9795 Y-20.3325
G2 X331.9848 Y-22.2113 I-13.3662 J12.1925
G2 X331.3557 Y-22.6995 I-15.1852 J18.9184
G0 Z5.0
G0 X335.038 Y-28.9582
G1 Z0.0
G2 X335.0072 Y-28.9763 I-10.8187 J18.3881
G1 X334.5942 Y-29.2178
G1 X334.1197 Y-29.4891
G1 X333.5763 Y-29.7969
G3 X332.9572 Y-30.1515 I16.0508 J-28.7378
G3 X332.6293 Y-30.3446 I10.4202 J-18.0761
G1 X332.461 Y-30.4459
G3 X331.7049 Y-30.9297 I9.4532 J-15.6035
G3 X331.3147 Y-31.2073 I5.7915 J-8.5532
G3 X330.4826 Y-31.9211 I4.2551 J-5.8022
G3 X330.0951 Y-32.362 I3.6039 J-3.5586
G3 X331.624 Y-32.3511 I0.6953 J9.741
G3 X333.1341 Y-32.1133 I-0.9064 J10.6703
G3 X333.5585 Y-32.0082 I-2.6533 J11.6165
G3 X334.669 Y-31.6567 I-3.3629 J12.5558
G3 X336.0962 Y-31.048 I-5.373 J14.5765
G3 X337.8968 Y-30.0363 I-8.2045 J16.7095
G3 X340.1157 Y-28.4185 I-12.1256 J18.9619
G1 X340.3877 Y-28.1914
G1 X340.6651 Y-27.9531
G1 X337.7195 Y-27.0218
G2 X336.5026 Y-28.0132 I-7.9811 J8.5544
G2 X336.4172 Y-28.0738 I-0.9401 J1.2345
G2 X335.038 Y-28.9582 I-12.1978 J17.5037
G0 Z5.0
G0 X339.4591 Y-17.5062
G1 Z0.0
G3 X339.4805 Y-17.5136 I0.1097 J0.2842
G3 X340.7497 Y-17.9079 I3.8781 J10.2438
G3 X341.6216 Y-18.0692 I1.9016 J7.8388
G3 X342.8044 Y-18.1076 I0.7854 J5.9604
G3 X343.4758 Y-18.0088 I-0.2885 J4.2908
G3 X344.2142 Y-17.7602 I-0.8173 J3.6489
G3 X344.9744 Y-17.2817 I-1.4444 J3.1375
G3 X345.6691 Y-16.5105 I-2.409 J2.8688
G3 X345.9535 Y-16.0313 I-3.702 J2.5213
G1 X346.0166 Y-15.9046
G1 X338.263 Y-16.9802
G3 X339.4415 Y-17.4988 I5.9056 J11.8217
G3 X339.4591 Y-17.5062 I0.1273 J0.2768
G0 Z5.0
G0 X342.2082 Y-14.9544
G1 Z0.0
G1 X342.9089 Y-14.9704
G1 X343.1425 Y-14.9754
G1 X344.0769 Y-14.9932
G1 X344.6999 Y-15.002
G3 X345.5306 Y-15.0089 I3.9817 J432.841
G3 X346.0053 Y-15.0099 I0.3014 J30.4701
G3 X347.2711 Y-15.0004 I-0.0484 J90.6641
G1 X347.9944 Y-14.9858
G3 X348.38 Y-14.975 I-0.4244 J21.9329
G3 X350.4352 Y-14.8738 I-1.4359 J50.1214
G1 X350.5656 Y-14.8646
G3 X351.7557 Y-14.7606 I-3.7504 J49.8008
G1 X351.9065 Y-14.7447
G3 X353.2821 Y-14.5641 I-3.3426 J30.7897
G3 X354.0112 Y-14.4369 I-2.7227 J17.7674
G3 X355.6554 Y-14.0308 I-2.7452 J14.6435
G1 X355.2769 Y-14.0095
G1 X354.8987 Y-13.9858
G1 X354.1425 Y-13.9328
G1 X352.631 Y-13.8153
G1 X351.6232 Y-13.7389
G1 X351.493 Y-13.7297
G1 X351.3587 Y-13.7203
G3 X349.9249 Y-13.6396 I-4.2748 J-63.1879
G1 X349.5422 Y-13.626
G1 X349.4449 Y-13.6232
G3 X347.3696 Y-13.6467 I-0.7612 J-24.4143
G3 X346.1877 Y-13.7548 I0.981 J-17.2313
G1 X345.8842 Y-13.7969
G3 X345.2397 Y-13.9085 I1.6332 J-11.3508
G3 X343.7908 Y-14.2877 I2.3298 J-11.8592
G3 X342.2082 Y-14.9544 I3.3185 J-10.0893
G0 Z5.0
G0 X344.5022 Y-18.6514
G1 Z0.0
G3 X344.374 Y-18.7375 I1.1344 J-1.8282
G3 X344.0318 Y-19.0758 I0.9405 J-1.2932
G3 X343.8784 Y-19.3592 I0.9527 J-0.6993
G3 X343.8141 Y-19.7862 I0.9509 J-0.3615
G3 X344.0098 Y-20.3325 I1.0859 J0.0808
G1 X346.412
G1 X344.7927 Y-18.5005
G3 X344.5022 Y-18.6514 I0.8439 J-1.9791
G0 Z5.0
G0 X349.3613 Y-19.7852
G1 Z0.0
G3 X351.4088 Y-19.6515 I-3.8243 J74.275
G3 X353.4533 Y-19.4769 I-11.3501 J144.991
G1 X354.8161 Y-19.3582
G2 X356.635 Y-19.2235 I6.251 J-72.0603
G1 X357.1207 Y-19.1957
G2 X359.7144 Y-19.1367 I2.2119 J-40.1536
G2 X359.7962 Y-19.1377 I0.0297 J-0.8576
G2 X363.2761 Y-19.3899 I-0.3553 J-29.0405
G1 X364.2072 Y-17.919
G3 X363.7927 Y-17.8634 I-1.1304 J-6.8463
G1 X363.6541 Y-17.8475
G3 X363.0993 Y-17.7916 I-3.2004 J-28.9546
G1 X362.729 Y-17.7593
G1 X362.5172 Y-17.7423
G3 X361.9521 Y-17.7019 I-6.9864 J-93.8271
G1 X361.629 Y-17.6819
G1 X361.2596 Y-17.6615
G3 X361.2363 Y-17.6604 I-0.02 J-0.163
G3 X358.2548 Y-17.5993 I-2.4664 J-47.6209
G1 X357.8572 Y-17.6059
G1 X357.4331 Y-17.6172
G1 X357.2143 Y-17.6249
G3 X354.8852 Y-17.7962 I1.1432 J-31.4646
G3 X353.5637 Y-17.9872 I2.2192 J-20.0167
G3 X352.0748 Y-18.3275 I2.4965 J-14.3523
G3 X351.3001 Y-18.5839 I2.8692 J-9.9672
G3 X350.5029 Y-18.9397 I2.3915 J-6.4284
G3 X349.7172 Y-19.4512 I2.2419 J-4.3034
G3 X349.3613 Y-19.7852 I1.951 J-2.4352
G0 Z5.0
G0 X350.304 Y-16.9802
G1 Z0.0
G1 X361.4022 Y-15.9046
G1 X350.304
G1 Y-16.9802
G0 Z5.0
G0 X349.7034 Y-7.1324
G1 Z0.0
G1 X350.1658 Y-6.5224
G1 X350.6335 Y-5.9163
G1 X350.9473 Y-5.514
G1 X352.2077 Y-3.9084
G1 X352.5648 Y-3.4474
G1 X352.9686 Y-2.9171
G3 X353.0718 Y-2.7795 I-2.7924 J2.2028
G3 X353.1241 Y-2.7095 I-1.3411 J1.0556
G3 X353.1771 Y-2.6382 I-1.1515 J0.9117
G3 X354.2702 Y-1.092 I-31.8433 J23.672
G3 X354.5477 Y-0.67 I-19.8705 J13.3645
G1 X354.6883 Y-0.4504
G3 X354.8315 Y-0.2227 I-7.6313 J4.9575
G3 X355.4616 Y0.8342 I-29.4949 J18.3013
G1 X354.4203 Y1.4156
G2 X353.9886 Y0.769 I-14.9352 J9.5018
G2 X353.5307 Y0.1407 I-21.0412 J14.8537
G1 X353.2165 Y-0.2714
G1 X352.7913 Y-0.8161
G1 X352.547 Y-1.1263
G3 X352.4839 Y-1.2063 I1.5811 J-1.3108
G3 X352.3494 Y-1.3772 I14.3827 J-11.4597
G3 X351.6404 Y-2.2942 I39.3016 J-31.1203
G1 X351.4555 Y-2.542
G1 X351.3612 Y-2.6707
G1 X351.1628 Y-2.9472
G3 X350.7282 Y-3.5926 I11.5388 J-8.2393
G3 X350.6215 Y-3.7627 I5.9337 J-3.8378
G3 X350.1744 Y-4.5655 I8.5976 J-5.3141
G3 X350.0731 Y-4.7801 I4.2325 J-2.1294
G3 X349.883 Y-5.2503 I5.6991 J-2.5781
G3 X349.8415 Y-5.3723 I2.213 J-0.8214
G3 X349.7024 Y-5.9061 I4.6815 J-1.5048
G3 X349.6406 Y-6.4954 I3.4349 J-0.658
G3 X349.7034 Y-7.1324 I2.8439 J-0.0412
G0 Z5.0
G0 X353.1859 Y-6.9474
G1 Z0.0
G3 X353.242 Y-7.3604 I2.5418 J0.1351
G2 X353.8579 Y-6.5452 I71.2435 J-53.1886
G1 X354.0654 Y-6.2752
G2 X354.3434 Y-5.9161 I25.2475 J-19.2597
G1 X354.3794 Y-5.8698
G1 X355.5327 Y-4.3915
G1 X355.8595 Y-3.9671
G1 X356.2291 Y-3.4789
G1 X356.4239 Y-3.2168
G1 X356.6295 Y-2.9356
G1 X356.7347 Y-2.7898
G1 X356.8425 Y-2.6387
G1 X357.0699 Y-2.3146
G1 X357.3081 Y-1.9659
G1 X357.557 Y-1.5904
G3 X357.8162 Y-1.1857 I-23.5439 J15.3643
G3 X358.3834 Y-0.2447 I-28.0743 J17.5642
G3 X358.4528 Y-0.1237 I-1.9971 J1.2272
G1 X357.5179 Y0.4122
G2 X356.8331 Y-0.579 I-14.241 J9.1059
G2 X356.5918 Y-0.8999 I-12.2169 J8.9351
G2 X356.2645 Y-1.3237 I-27.9916 J21.283
G1 X356.0757 Y-1.5645
G1 X355.5709 Y-2.2053
G1 X355.2842 Y-2.5729
G3 X354.5429 Y-3.5706 I22.817 J-17.7258
G1 X354.355 Y-3.8438
G3 X353.9506 Y-4.4849 I10.6781 J-7.183
G3 X353.9024 Y-4.5684 I1.0178 J-0.6434
G3 X353.8058 Y-4.7421 I2.8443 J-1.6952
G1 X353.7104 Y-4.924
G3 X353.5247 Y-5.321 I5.0412 J-2.6007
G3 X353.3601 Y-5.7597 I3.9943 J-1.7489
G3 X353.2359 Y-6.2456 I3.8607 J-1.2453
G3 X353.1825 Y-6.7816 I3.1075 J-0.5806
G3 X353.1859 Y-6.9474 I2.5452 J-0.0307
G0 Z5.0
G0 X355.6891 Y-7.323
G1 Z0.0
G3 X355.6554 Y-7.7557 I3.0087 J-0.4515
G3 X356.5335 Y-7.0289 I-5.0291 J6.9696
G1 X356.5889 Y-6.9767
G1 X356.6476 Y-6.9207
G3 X357.5398 Y-5.9796 I-10.7671 J11.1003
G3 X359.111 Y-3.9212 I-15.3916 J13.3771
G3 X359.9971 Y-2.4396 I-12.8509 J8.6917
G3 X360.1979 Y-2.0249 I-8.7829 J4.5086
G3 X360.3781 Y-1.5669 I-4.1332 J1.8905
G3 X360.444 Y-1.3208 I-2.0689 J0.6859
G3 X360.4625 Y-1.1921 I-0.883 J0.1926
G3 X360.4596 Y-1.0587 I-0.729 J0.0511
G3 X359.484 Y-1.9305 I22.4788 J-26.1365
G3 X358.545 Y-2.8418 I21.6894 J-23.2867
G1 X358.2854 Y-3.1108
G3 X357.6168 Y-3.8504 I14.375 J-13.6665
G3 X356.7979 Y-4.898 I10.5919 J-9.1232
G1 X356.7004 Y-5.0393
G3 X356.2873 Y-5.707 I7.2886 J-4.9717
G1 X356.1912 Y-5.8855
G3 X355.8281 Y-6.7409 I4.9969 J-2.626
G3 X355.7057 Y-7.2234 I3.9943 J-1.2696
G3 X355.6891 Y-7.323 I2.992 J-0.5512
G0 Z5.0
G0 X358.4528 Y-7.7557
G1 Z0.0
G3 X359.7674 Y-6.4904 I-9.9532 J11.6565
G3 X360.9397 Y-5.0923 I-13.4444 J12.4634
G3 X362.8693 Y-2.0013 I-15.5733 J11.8693
G3 X362.1516 Y-2.3714 I1.5346 J-3.8567
G3 X361.5028 Y-2.8523 I3.1121 J-4.8763
G3 X360.3932 Y-4.0186 I5.3827 J-6.2318
G3 X358.7949 Y-6.7838 I9.1359 J-7.1254
G3 X358.4864 Y-7.6445 I9.7271 J-3.972
G1 X358.4528 Y-7.7557
G0 Z5.0
G0 X360.6003 Y-7.8621
G1 Z0.0
G1 X361.9723 Y-8.0293
G1 X362.1351 Y-7.8858
G3 X362.146 Y-7.8762 I-0.0437 J0.0606
G3 X362.1576 Y-7.8659 I-0.0454 J0.0633
G1 X362.3426 Y-7.7021
G1 X362.4652 Y-7.592
G3 X362.9453 Y-7.1406 I-10.0709 J11.1929
G3 X362.9602 Y-7.1259 I-0.0995 J0.1157
G3 X362.9754 Y-7.1109 I-0.1014 J0.1175
G3 X362.9907 Y-7.0957 I-0.1035 J0.1194
G1 X363.1293 Y-6.9551
G1 X363.2845 Y-6.7913
G3 X363.678 Y-6.3359 I-6.0528 J5.6275
G1 X363.7769 Y-6.2096
G3 X364.2504 Y-5.4958 I-4.8116 J3.7051
G3 X364.2767 Y-5.4481 I-0.5737 J0.3489
G3 X364.4932 Y-4.9996 I-4.7698 J2.5784
G3 X364.6774 Y-4.4597 I-3.5976 J1.5287
G3 X364.7546 Y-2.9325 I-3.5106 J0.9429
G1 X360.6003 Y-7.8621
G0 Z5.0
G0 X347.1057 Y-0.256
G1 Z0.0
G1 X347.5862 Y0.6056
G1 X347.8419 Y1.0654
G1 X348.4287 Y2.1149
G1 X348.7447 Y2.6729
G1 X348.8254 Y2.8144
G1 X347.7954 Y3.4035
G1 X347.6382 Y3.1575
G1 X347.4791 Y2.9127
G1 X347.1574 Y2.4254
G2 X347.1365 Y2.3939 I-0.2394 J0.1367
G1 X346.4667 Y1.3915
G1 X346.0234 Y0.7212
G1 X345.9063 Y0.5416
G1 X345.6412 Y0.1296
G3 X344.9587 Y-0.9844 I31.987 J-20.3619
G3 X344.8741 Y-1.1302 I2.865 J-1.7603
G3 X344.047 Y-2.7276 I15.5676 J-9.0734
G3 X343.6692 Y-3.685 I9.6092 J-4.3454
G3 X343.5132 Y-4.2122 I7.1007 J-2.3868
G3 X343.3965 Y-4.7882 I5.1748 J-1.3483
G3 X343.3491 Y-5.4164 I3.9981 J-0.6174
G3 X343.4206 Y-6.0909 I3.037 J-0.0192
G3 X345.0828 Y-3.6819 I-30.7845 J23.0181
G1 X345.1335 Y-3.6022
G3 X346.6817 Y-1.0079 I-52.966 J33.3673
G1 X347.1057 Y-0.256
G0 Z5.0
G0 X344.2449 Y1.3792
G1 Z0.0
G3 X344.3001 Y1.4762 I-37.3506 J21.3481
G1 X344.4514 Y1.7457
G3 X345.1127 Y2.9933 I-30.5147 J16.9727
G3 X345.1525 Y3.0728 I-2.1539 J1.1269
G3 X345.4808 Y3.757 I-31.2301 J15.407
G1 X343.6146 Y4.2852
G1 X343.3468 Y3.8142
G2 X343.074 Y3.3461 I-23.0462 J13.1187
G2 X342.5173 Y2.4164 I-114.6795 J68.0343
G1 X341.3883 Y0.5666
G1 X341.0687 Y0.0363
G1 X340.7085 Y-0.5728
G1 X340.6166 Y-0.7306
G1 X340.5224 Y-0.8939
G1 X340.4258 Y-1.0628
G1 X340.2222 Y-1.4246
G1 X340.0091 Y-1.8128
G3 X338.9718 Y-3.9353 I23.1851 J-12.6466
G3 X338.4829 Y-5.1949 I17.0845 J-7.3551
G3 X338.263 Y-5.8818 I15.1917 J-5.2415
G3 X338.6851 Y-5.6881 I-0.6669 J2.01
G3 X339.0704 Y-5.4287 I-2.1061 J3.5434
G3 X339.768 Y-4.8201 I-4.5214 J5.8866
G3 X340.1977 Y-4.3781 I-7.5905 J7.8089
G3 X340.4341 Y-4.1171 I-5.7954 J5.4873
G1 X340.5578 Y-3.976
G3 X341.1936 Y-3.2056 I-17.7931 J15.3316
G3 X341.3574 Y-2.9957 I-29.8353 J23.4626
G1 X341.5299 Y-2.7701
G1 X341.618 Y-2.653
G3 X342.5228 Y-1.3831 I-30.5142 J22.6966
G1 X342.7547 Y-1.0381
G1 X342.998 Y-0.6676
G3 X343.0592 Y-0.5731 I-1.8646 J1.2736
G3 X344.2449 Y1.3792 I-36.1649 J23.3004
G0 Z5.0
G0 X341.0479 Y3.2817
G1 Z0.0
G2 X341.3714 Y3.809 I19.8517 J-11.8137
G1 X341.423 Y3.8893
G2 X341.8889 Y4.5551 I9.0454 J-5.8337
G1 X339.198 Y5.2241
G1 X333.4399 Y-4.9392
G3 X334.4161 Y-5.0005 I0.6727 J2.9122
G3 X335.358 Y-4.7365 I-0.3208 J2.9566
G3 X335.9252 Y-4.413 I-1.6217 J3.5028
G3 X336.5956 Y-3.8642 I-2.908 J4.2365
G3 X337.3621 Y-3.0139 I-5.7293 J5.9348
G3 X337.752 Y-2.4925 I-9.8572 J7.7791
G3 X338.6713 Y-1.0517 I-15.9287 J11.1768
G3 X338.6985 Y-1.0052 I-0.478 J0.3104
G3 X338.7258 Y-0.9583 I-0.4911 J0.317
G1 X338.9545 Y-0.5578
G3 X339.1924 Y-0.1292 I-17.804 J10.1624
G3 X339.2521 Y-0.02 I-1.9118 J1.1162
G1 X339.5035 Y0.4453
G1 X339.6318 Y0.6857
G1 X339.6968 Y0.8078
G1 X340.286 Y1.9161
G1 X340.6044 Y2.5024
G2 X341.0479 Y3.2817 I20.2953 J-11.0344
G0 Z5.0
G0 X337.2735 Y5.0609
G1 Z0.0
G1 X337.3641 Y5.2531
G1 X337.4534 Y5.4444
G1 X334.3825 Y6.159
G2 X333.5272 Y4.1633 I-81.4965 J33.7446
G2 X332.6218 Y2.1899 I-76.9896 J34.1267
G1 X332.356 Y1.6294
G1 X332.287 Y1.4849
G1 X332.1392 Y1.1769
G1 X331.9811 Y0.8488
G1 X331.8117 Y0.499
G1 X331.7241 Y0.3185
G1 X331.5368 Y-0.0662
G1 X330.534 Y-2.1159
G3 X329.2055 Y-4.8528 I499.117 J-243.9523
G1 X329.164 Y-4.9392
G3 X330.0413 Y-4.7462 I-0.1471 J2.7581
G3 X330.8364 Y-4.3282 I-1.5953 J4.0004
G3 X331.3192 Y-3.9746 I-3.3295 J5.0525
G3 X331.9131 Y-3.4456 I-4.9435 J6.1468
G3 X331.9862 Y-3.3736 I-1.6135 J1.713
G3 X332.7225 Y-2.5708 I-8.4111 J8.4535
G3 X333.6074 Y-1.4294 I-14.1005 J11.8459
G1 X333.8292 Y-1.1151
G3 X333.9417 Y-0.9515 I-4.7956 J3.4178
G3 X335.0634 Y0.8271 I-27.1332 J18.3547
G3 X336.3976 Y3.2718 I-40.8176 J23.8639
G1 X336.4777 Y3.4294
G3 X337.1869 Y4.877 I-57.63 J29.1288
G1 X337.2735 Y5.0609
G0 Z5.0
G0 X305.4737 Y-30.9975
G1 Z0.0
G1 X305.1202 Y-31.0849
G1 X303.6606 Y-43.179
G1 X305.0859 Y-42.4037
G1 X305.4737 Y-30.9975
G0 Z5.0
G0 X303.6075 Y-33.3046
G1 Z0.0
G3 X303.3143 Y-33.6977 I3.0733 J-2.5981
G3 X303.0629 Y-34.1189 I4.4835 J-2.9612
G3 X302.6528 Y-35.0085 I6.9035 J-3.7219
G3 X302.4315 Y-35.6227 I9.5532 J-3.7896
G3 X302.1873 Y-36.4573 I12.6868 J-4.1641
G3 X301.6861 Y-39.8786 I15.7171 J-4.0501
G3 X301.6827 Y-39.9885 I1.502 J-0.1008
G3 X301.6981 Y-40.9935 I11.182 J-0.3312
G3 X301.7476 Y-41.5276 I6.9088 J0.3712
G1 X301.752 Y-41.5611
G3 X301.8525 Y-42.1274 I5.5157 J0.6874
G3 X302.0366 Y-42.7151 I3.5687 J0.7954
G3 X302.1798 Y-43.0013 I1.9654 J0.8042
G3 X302.3817 Y-43.2681 I1.2878 J0.7646
G3 X302.6724 Y-43.4755 I0.6704 J0.6324
G1 X303.6075 Y-33.3046
G0 Z5.0
M5
M30
