( Made using CamBam - http://www.cambam.co.uk )
( car2 1/22/2014 9:39:14 AM )
( T0 : 0.0 )
G21 G90 G64 G40
G0 Z5.0
( T0 : 0.0 )
T0 M6
( 410-443 )
G17
M3 S1000
G0 X-342.6172 Y21.9611
G1 F1.0 Z0.0
G2 X-342.8933 Y22.466 I2.4247 J1.654
G2 X-343.0537 Y23.0765 I2.0318 J0.8603
G2 X-342.8151 Y24.1757 I1.7608 J0.1933
G2 X-342.5314 Y24.5507 I1.8218 J-1.0833
G2 X-341.8386 Y25.0744 I2.0168 J-1.948
G2 X-341.1459 Y25.369 I1.8973 J-3.4994
G2 X-340.5094 Y25.5297 I1.6273 J-5.1058
G2 X-340.2264 Y25.5761 I1.594 J-8.8174
G2 X-339.1543 Y25.6439 I1.0019 J-7.3379
G1 X-339.0536 Y25.6426
G2 X-337.5022 Y25.4874 I-0.2343 J-10.1709
G2 X-335.9857 Y25.1249 I-2.2244 J-12.6606
G2 X-334.2768 Y24.4814 I-3.572 J-12.0764
G1 X-334.0833 Y24.3881
G2 X-333.7058 Y24.1898 I-3.1654 J-6.4836
G1 X-333.5241 Y24.0856
G2 X-332.8358 Y23.6226 I-3.4686 J-5.9004
G2 X-332.7583 Y23.5619 I-0.6989 J-0.972
G1 X-332.6078 Y23.4375
G2 X-332.0679 Y22.8922 I-2.7772 J-3.2898
G2 X-331.676 Y22.3001 I-2.3955 J-2.0113
G2 X-331.4615 Y21.6882 I-2.0937 J-1.0774
G2 X-331.588 Y20.5338 I-1.8528 J-0.3811
G2 X-331.8375 Y20.1177 I-1.8405 J0.8208
G2 X-332.4993 Y19.5157 I-2.1017 J1.6461
G2 X-333.1896 Y19.1656 I-2.0054 J3.0981
G2 X-333.8345 Y18.9686 I-1.7662 J4.6286
G2 X-335.0015 Y18.8178 I-1.3826 J6.108
G1 X-335.222 Y18.8126
G2 X-336.0479 Y18.8478 I-0.0576 J8.3551
G2 X-337.2723 Y19.0395 I0.9612 J10.1492
G2 X-338.4676 Y19.3667 I2.4516 J11.3007
G2 X-338.4947 Y19.3756 I0.0479 J0.1912
G1 X-338.7104 Y19.4486
G1 X-338.923 Y19.5239
G2 X-339.7534 Y19.8557 I4.7018 J12.9717
G2 X-340.5336 Y20.2355 I4.451 J10.1346
G2 X-341.2583 Y20.6723 I3.8124 J7.1446
G2 X-341.4254 Y20.7888 I2.6957 J4.0449
G2 X-342.0469 Y21.2997 I3.4988 J4.8894
G2 X-342.5476 Y21.8634 I3.0077 J3.176
G2 X-342.6172 Y21.9611 I2.3551 J1.7517
G0 Z5.0
G0 X-411.6919 Y-18.4543
G1 Z0.0
G2 X-411.6396 Y-18.5496 I-1.7342 J-1.0147
G2 X-411.458 Y-18.9871 I-2.5876 J-1.3304
G2 X-411.3566 Y-19.423 I-2.0513 J-0.7069
G2 X-411.3472 Y-19.8371 I-1.8077 J-0.248
G2 X-411.4238 Y-20.2043 I-1.5664 J0.1351
G2 X-411.5707 Y-20.5047 I-1.2585 J0.4293
G2 X-411.7665 Y-20.7247 I-0.8758 J0.5824
G2 X-412.2366 Y-20.9136 I-0.5096 J0.5886
G2 X-412.6007 Y-20.8347 I-0.022 J0.7776
G2 X-412.8305 Y-20.6801 I0.4372 J0.8979
G2 X-413.0976 Y-20.3643 I0.9757 J1.0963
G2 X-413.2899 Y-19.998 I2.1325 J1.3533
G2 X-413.4517 Y-19.5094 I2.6999 J1.1651
G2 X-413.5158 Y-19.0277 I2.1903 J0.5362
G2 X-413.4719 Y-18.5866 I1.736 J0.05
G2 X-413.3251 Y-18.2189 I1.2739 J-0.2952
G2 X-413.0987 Y-17.9567 I0.8168 J-0.4763
G2 X-412.5378 Y-17.7916 I0.4756 J-0.5803
G2 X-412.1409 Y-17.9461 I-0.1123 J-0.8752
G2 X-411.9044 Y-18.1569 I-0.7699 J-1.1016
G2 X-411.6919 Y-18.4543 I-1.5217 J-1.312
G0 Z5.0
G0 X-415.4177 Y-16.4103
G1 Z0.0
G2 X-415.5607 Y-16.6594 I-6.5465 J3.5915
G1 X-415.6091 Y-16.7413
G1 X-415.706 Y-16.9014
G2 X-415.7536 Y-16.9787 I-1.2035 J0.6889
G1 X-415.9444 Y-17.2808
G1 X-416.3096 Y-17.8437
G1 X-416.3498 Y-17.9053
G1 X-416.5077 Y-18.1486
G1 X-416.6546 Y-18.3777
G3 X-416.9241 Y-18.812 I12.2317 J-7.8922
G3 X-417.15 Y-19.1994 I19.1039 J-11.398
G3 X-417.507 Y-19.9001 I8.6354 J-4.8418
G3 X-417.7245 Y-20.451 I5.4264 J-2.4605
G3 X-417.8441 Y-20.8801 I3.4997 J-1.2064
G3 X-417.9216 Y-21.5437 I2.9857 J-0.685
G3 X-417.8357 Y-22.2063 I2.4172 J-0.0235
G2 X-417.6548 Y-22.1877 I0.793 J-6.8376
G2 X-416.9466 Y-22.1804 I0.3953 J-4.0015
G2 X-416.6387 Y-22.2278 I-0.1691 J-2.1248
G2 X-416.363 Y-22.3164 I-0.2995 J-1.4052
G2 X-415.9337 Y-22.6299 I-0.4423 J-1.0563
G2 X-415.7006 Y-23.0212 I-1.1787 J-0.9672
G2 X-415.6298 Y-23.2077 I-1.7937 J-0.7871
G2 X-415.5731 Y-23.3863 I-2.6353 J-0.9348
G1 X-415.477 Y-23.7252
G1 X-415.4339 Y-23.8741
G1 X-415.3908 Y-24.013
G3 X-415.1828 Y-24.5175 I2.8138 J0.865
G3 X-414.6659 Y-25.1492 I1.7664 J0.9179
G3 X-414.3246 Y-25.3754 I1.3838 J1.7177
G3 X-413.9513 Y-25.5434 I1.2541 J2.287
G2 X-414.4585 Y-25.9066 I-3.284 J4.0501
G2 X-414.98 Y-26.1774 I-1.9143 J3.0495
G2 X-415.5054 Y-26.3401 I-1.0963 J2.6112
G2 X-416.0169 Y-26.3848 I-0.4601 J2.3171
G2 X-416.9391 Y-26.1393 I0.0605 J2.0824
G2 X-417.6155 Y-25.6163 I1.2476 J2.3122
G2 X-418.0894 Y-24.9875 I2.7566 J2.5708
G2 X-418.4193 Y-24.3325 I4.1044 J2.4778
G2 X-418.8015 Y-23.0169 I5.9219 J2.4334
G2 X-418.8702 Y-20.6254 I7.9813 J1.4261
G2 X-418.4608 Y-18.8688 I8.0732 J-0.9554
G2 X-417.8877 Y-17.6392 I6.9105 J-2.4726
G2 X-416.6017 Y-16.0671 I5.6429 J-3.3039
G2 X-414.8901 Y-14.9733 I4.3142 J-4.8653
G2 X-414.9936 Y-15.4587 I-2.5581 J0.2917
G2 X-415.1587 Y-15.8913 I-3.744 J1.1812
G2 X-415.4177 Y-16.4103 I-6.8056 J3.0725
G0 Z5.0
G0 X-418.0552 Y-14.0995
G1 Z0.0
G3 X-418.458 Y-14.5894 I7.6181 J-6.6744
G3 X-420.02 Y-17.3449 I8.885 J-6.8573
G3 X-420.6611 Y-19.6325 I10.6529 J-4.2191
G3 X-420.6971 Y-19.8525 I5.5792 J-1.0243
G3 X-420.7972 Y-20.7103 I12.2465 J-1.8643
G3 X-420.6727 Y-23.7229 I12.6139 J-0.9877
G3 X-420.3547 Y-25.1986 I14.0323 J2.2521
G3 X-419.8881 Y-26.6342 I14.5227 J3.9265
G3 X-419.8738 Y-26.6716 I0.2848 J0.0876
G3 X-419.8594 Y-26.7088 I0.284 J0.0886
G3 X-419.8448 Y-26.7459 I0.2832 J0.0895
G3 X-419.8302 Y-26.7829 I0.2824 J0.0905
G3 X-419.2838 Y-27.9282 I8.449 J3.328
G3 X-418.9706 Y-28.4397 I7.4989 J4.2389
G3 X-418.2569 Y-29.3585 I6.226 J4.0997
G3 X-417.4586 Y-30.1007 I4.7044 J4.2602
G3 X-416.605 Y-30.6508 I3.3126 J4.2022
G3 X-415.731 Y-31.002 I2.2271 J4.2797
G3 X-414.0027 Y-31.1346 I1.176 J3.998
G3 X-412.5995 Y-30.6715 I-0.5751 J4.0999
G3 X-411.5698 Y-29.9231 I-2.3648 J4.3364
G3 X-411.3726 Y-29.7289 I-4.5104 J4.7764
G3 X-410.6967 Y-28.8992 I-4.675 J4.4988
G3 X-410.4433 Y-28.5068 I-6.3534 J4.3815
G3 X-410.0299 Y-27.7358 I-7.2225 J4.3685
G3 X-409.728 Y-27.0331 I-9.2624 J4.3951
G3 X-409.3151 Y-25.7611 I-11.3958 J4.4022
G3 X-408.9206 Y-23.7957 I-15.8298 J4.1996
G3 X-408.8057 Y-22.7997 I-20.0291 J2.8167
G3 X-408.7946 Y-22.6749 I-2.409 J0.2757
G1 X-408.777 Y-22.4563
G1 X-408.7652 Y-22.2922
G1 X-408.7611 Y-22.2306
G3 X-408.7366 Y-21.7996 I-42.162 J2.611
G2 X-409.3206 Y-21.6867 I1.2022 J7.788
G2 X-409.8558 Y-21.5373 I1.3066 J5.7127
G2 X-410.3327 Y-21.3219 I0.7875 J2.3798
G2 X-410.5188 Y-21.184 I0.5363 J0.9181
G2 X-410.6567 Y-21.0199 I0.5156 J0.5731
G2 X-410.7442 Y-20.6408 I0.5203 J0.3198
G2 X-410.6562 Y-20.3057 I1.1228 J-0.1157
G2 X-410.5099 Y-20.0188 I2.2113 J-0.9471
G2 X-410.4306 Y-19.8903 I3.2448 J-1.9131
G2 X-410.3498 Y-19.7683 I1.5981 J-0.9712
G1 X-410.2687 Y-19.6519
G1 X-410.1066 Y-19.4295
G1 X-409.7956 Y-19.0166
G1 X-409.7275 Y-18.9258
G3 X-409.2233 Y-18.2041 I-8.7126 J6.6236
G3 X-408.8992 Y-17.6238 I-4.7951 J3.0585
G3 X-408.8727 Y-17.5671 I-0.5763 J0.3046
G3 X-408.8477 Y-17.5118 I-0.561 J0.2865
G3 X-408.5872 Y-16.6116 I-2.94 J1.3384
G3 X-408.6454 Y-15.6765 I-2.486 J0.3149
G3 X-409.0161 Y-14.8813 I-4.6651 J-1.691
G3 X-409.9225 Y-13.6444 I-6.0719 J-3.4989
G3 X-410.762 Y-12.8505 I-5.5685 J-5.0478
G3 X-411.4716 Y-12.3479 I-4.1363 J-5.0871
G3 X-412.0472 Y-12.0382 I-2.7402 J-4.4031
G3 X-412.9743 Y-11.7186 I-1.9515 J-4.1573
G3 X-413.9513 Y-11.6363 I-0.782 J-3.4399
G3 X-414.5302 Y-11.7175 I0.1435 J-3.1258
G3 X-415.578 Y-12.1087 I1.1173 J-4.5914
G3 X-416.4666 Y-12.6482 I3.0742 J-6.0649
G3 X-417.2242 Y-13.2561 I4.9391 J-6.9321
G3 X-418.0552 Y-14.0995 I6.7871 J-7.5179
G0 Z5.0
G0 X-406.9503 Y-19.4697
G1 Z0.0
G3 X-406.9653 Y-20.1823 I3.2968 J-0.4263
G3 X-406.7632 Y-21.2304 I5.0437 J0.4291
G3 X-406.5812 Y-21.7335 I4.4007 J1.3076
G3 X-406.3307 Y-22.2063 I2.6743 J1.1145
G3 X-405.7994 Y-22.2846 I0.5317 J1.7665
G3 X-405.3496 Y-22.1833 I-0.006 J1.0762
G3 X-405.0421 Y-21.9438 I-0.4277 J0.8664
G3 X-404.8627 Y-21.6617 I-0.9924 J0.829
G3 X-404.7031 Y-21.1046 I-1.8144 J0.8213
G3 X-404.6913 Y-20.2391 I-3.5473 J0.481
G3 X-404.8598 Y-19.3899 I-4.7339 J-0.4979
G3 X-405.0379 Y-19.1058 I-1.4231 J-0.6944
G3 X-405.2479 Y-18.8989 I-0.8813 J-0.6843
G3 X-405.7233 Y-18.7227 I-0.5246 J-0.6857
G3 X-406.095 Y-18.7744 I-0.0526 J-0.9846
G3 X-406.5793 Y-19.0523 I0.4692 J-1.3786
G3 X-406.9503 Y-19.4697 I1.2759 J-1.5073
G0 Z5.0
G0 X-443.7979 Y-6.7668
G1 Z0.0
G3 X-443.7632 Y-6.6635 I-6.7729 J2.3349
G3 X-443.4834 Y-5.688 I-11.9571 J3.957
G3 X-444.1519 Y-5.7419 I-0.1569 J-2.2259
G3 X-444.7011 Y-5.9367 I0.6126 J-2.5991
G3 X-444.8148 Y-5.9944 I0.6252 J-1.3725
G3 X-445.606 Y-6.579 I1.7457 J-3.1903
G3 X-446.4786 Y-7.7709 I3.0631 J-3.158
G3 X-446.7356 Y-8.4761 I2.7792 J-1.4123
G3 X-446.7837 Y-8.8517 I1.7681 J-0.4172
G3 X-446.7735 Y-9.0416 I1.2254 J-0.0291
G3 X-446.7293 Y-9.2266 I0.9417 J0.127
G3 X-446.0414 Y-9.2507 I0.4187 J2.1237
G3 X-445.4741 Y-9.0813 I-0.2452 J1.8569
G3 X-445.0444 Y-8.8045 I-0.878 J1.8349
G3 X-444.7266 Y-8.4938 I-1.7126 J2.0691
G3 X-444.489 Y-8.1875 I-2.732 J2.3646
G3 X-444.1468 Y-7.603 I-3.9117 J2.6826
G3 X-443.7979 Y-6.7668 I-6.424 J3.1711
G0 Z5.0
G0 X-364.6094 Y9.5821
G1 Z0.0
G3 X-364.1396 Y8.6847 I1.8029 J0.3722
G3 X-362.88 Y8.1392 I1.2642 J1.1922
G3 X-361.6198 Y8.684 I-0.0019 J1.7344
G3 X-361.1127 Y9.9599 I-1.3357 J1.2695
G3 X-361.6173 Y11.2415 I-1.858 J0.0087
G3 X-362.88 Y11.7918 I-1.2651 J-1.1791
G3 X-364.1421 Y11.2408 I0.0048 J-1.7318
G3 X-364.6475 Y9.9599 I1.356 J-1.2751
G3 X-364.6094 Y9.5821 I1.8409 J-0.0056
G0 Z5.0
G0 X-360.9797 Y12.9777
G1 Z0.0
G1 X-360.7923 Y13.2548
G1 X-360.4209 Y13.7989
G1 X-360.3757 Y13.8647
G1 X-360.013 Y14.3875
G1 X-359.9688 Y14.4507
G2 X-358.525 Y16.4398 I54.1022 J-37.751
G1 X-358.198 Y16.8687
G2 X-356.8877 Y18.4986 I36.0456 J-27.6343
G2 X-355.6742 Y19.8749 I28.8547 J-24.2189
G2 X-354.5521 Y21.028 I23.7912 J-22.0298
G2 X-352.4296 Y22.8844 I17.2176 J-17.5437
G2 X-350.6825 Y24.0875 I11.4891 J-14.8149
G2 X-349.2777 Y24.8398 I7.5045 J-12.325
G2 X-348.1722 Y25.2968 I5.6449 J-12.0898
G2 X-346.443 Y25.7733 I3.9328 J-10.8964
G2 X-344.6591 Y25.9611 I1.9973 J-10.4042
G3 X-345.1531 Y25.2779 I5.9455 J-4.8197
G3 X-345.5252 Y24.5833 I4.5409 J-2.8795
G3 X-345.758 Y23.8899 I3.6812 J-1.6217
G3 X-345.8429 Y23.2195 I2.9985 J-0.7203
G3 X-345.6113 Y22.0005 I3.0527 J-0.0514
G3 X-345.0704 Y21.0847 I3.5738 J1.4931
G3 X-344.4407 Y20.4092 I4.3674 J3.44
G1 X-344.2901 Y20.2752
G1 X-344.1407 Y20.1496
G3 X-343.5346 Y19.698 I5.0591 J6.1572
G3 X-342.977 Y19.3433 I6.3499 J9.3689
G3 X-341.9583 Y18.7971 I7.2172 J12.2361
G1 X-341.8606 Y18.7501
G1 X-341.7657 Y18.7052
G1 X-341.6734 Y18.6623
G3 X-340.2158 Y18.0636 I8.5065 J18.636
G3 X-339.4712 Y17.8058 I10.5417 J29.2481
G1 X-339.0958 Y17.6863
G3 X-338.7185 Y17.5728 I7.1878 J23.2172
G3 X-336.8189 Y17.0954 I6.667 J22.5092
G3 X-336.7068 Y17.0728 I0.6166 J2.7645
G3 X-336.5951 Y17.0509 I0.5384 J2.4517
G3 X-336.4839 Y17.0298 I0.4787 J2.2167
G3 X-336.0399 Y16.9523 I2.5686 J13.4158
G3 X-334.285 Y16.7678 I2.4485 J14.8477
G1 X-334.0847 Y16.7609
G3 X-332.5053 Y16.8365 I0.3094 J10.0632
G3 X-331.8079 Y16.9626 I-1.0615 J7.8659
G3 X-331.1658 Y17.1485 I-1.3643 J5.912
G3 X-331.0184 Y17.203 I-0.6483 J1.9812
G3 X-330.4572 Y17.4622 I-1.6783 J4.371
G3 X-329.5421 Y18.1621 I-1.6979 J3.168
G3 X-328.7546 Y19.9538 I-2.1614 J2.0189
G3 X-328.7662 Y20.6772 I-3.7843 J0.3009
G3 X-328.8826 Y21.2969 I-4.2057 J-0.4692
G3 X-329.2674 Y22.3273 I-5.6053 J-1.506
G3 X-329.4578 Y22.693 I-7.369 J-3.604
G3 X-330.2682 Y23.8845 I-7.6745 J-4.3493
G3 X-330.7386 Y24.4307 I-7.6373 J-6.1007
G3 X-330.7999 Y24.4968 I-0.7866 J-0.6676
G3 X-331.0182 Y24.7244 I-11.645 J-10.952
G3 X-331.1296 Y24.8361 I-2.335 J-2.2169
G1 X-331.1576 Y24.8638
G1 X-331.2423 Y24.9463
G3 X-332.622 Y25.9611 I-4.4253 J-4.5713
G3 X-336.7083 Y27.9947 I-8.3135 J-11.5829
G3 X-338.637 Y28.4492 I-4.1969 J-13.4894
G3 X-342.3293 Y28.6034 I-2.4908 J-15.3611
G3 X-345.5043 Y28.0629 I1.3308 J-17.4112
G3 X-348.1642 Y27.1469 I5.0567 J-19.0034
G3 X-350.367 Y26.0521 I8.2466 J-19.3563
G3 X-353.8793 Y23.5732 I11.3173 J-19.7624
G3 X-358.1545 Y18.7613 I15.4849 J-18.0631
G3 X-360.9797 Y12.9777 I19.5202 J-13.1171
G0 Z5.0
G0 X-335.6956 Y-29.3065
G1 Z0.0
G3 X-335.8131 Y-29.3881 I0.5394 J-0.902
G3 X-336.0653 Y-29.7206 I0.5923 J-0.7111
G3 X-336.1667 Y-30.063 I1.2567 J-0.5586
G3 X-336.1916 Y-30.3721 I1.8558 J-0.3049
G3 X-336.1457 Y-30.9112 I3.4364 J0.0209
G3 X-335.9536 Y-31.6986 I6.0315 J1.055
G3 X-335.9227 Y-31.7952 I5.0841 J1.5699
G3 X-335.866 Y-31.9632 I5.5177 J1.7688
G1 X-335.8214 Y-32.0885
G1 X-335.7513 Y-32.2753
G1 X-335.6778 Y-32.4608
G3 X-333.1713 Y-36.8456 I17.7735 J7.2512
G3 X-330.5992 Y-39.6305 I16.084 J12.2742
G3 X-325.9092 Y-42.8341 I14.4276 J16.087
G3 X-323.2793 Y-43.9327 I8.7907 J17.347
G3 X-321.9067 Y-44.3229 I5.0884 J15.2885
G3 X-320.5013 Y-44.5701 I2.7349 J11.4328
G1 X-320.0454 Y-44.6167
G1 X-319.9337 Y-44.627
G3 X-319.7119 Y-44.6461 I1.9681 J21.5817
G1 X-319.4932 Y-44.6628
G3 X-319.3859 Y-44.6703 I0.4491 J5.7064
G3 X-319.2796 Y-44.6771 I0.1794 J1.9703
G3 X-318.8589 Y-44.6979 I1.3223 J22.496
G1 X-318.8088 Y-44.6996
G3 X-318.0131 Y-44.7004 I0.4096 J11.405
G3 X-317.2955 Y-44.6361 I-0.2433 J6.7499
G3 X-316.6589 Y-44.4742 I-0.4323 J3.0318
G3 X-316.4011 Y-44.3481 I-0.5878 J1.5284
G3 X-316.192 Y-44.1865 I-0.6584 J1.0684
G3 X-315.9533 Y-43.7717 I-0.6157 J0.6303
G3 X-315.9264 Y-43.3688 I-1.1576 J0.2798
G3 X-315.9901 Y-43.025 I-1.9111 J-0.1763
G3 X-316.2042 Y-42.4544 I-3.459 J-0.9725
G3 X-316.3047 Y-42.2492 I-8.753 J-4.16
G3 X-316.3987 Y-42.073 I-3.1067 J-1.544
G1 X-316.4849 Y-41.9208
G3 X-317.1566 Y-40.8985 I-11.2743 J-6.6755
G1 X-317.2549 Y-40.7634
G3 X-318.0854 Y-39.7436 I-11.2607 J-8.3225
G3 X-318.881 Y-38.9138 I-13.275 J-11.9307
G1 X-319.0622 Y-38.7395
G3 X-320.537 Y-37.4676 I-14.9894 J-15.8891
G3 X-320.6807 Y-37.3549 I-2.6375 J-3.2142
G3 X-320.7505 Y-37.3006 I-1.5565 J-1.9336
G3 X-320.8195 Y-37.2475 I-1.4172 J-1.7674
G3 X-320.8876 Y-37.1954 I-1.3056 J-1.6349
G3 X-321.9787 Y-36.4017 I-19.792 J-26.0641
G3 X-322.8172 Y-35.8353 I-18.1167 J-25.9165
G1 X-323.1351 Y-35.6283
G1 X-323.4148 Y-35.4492
G1 X-323.6603 Y-35.294
G1 X-324.0919 Y-35.0253
G1 X-324.4169 Y-34.8259
G3 X-324.539 Y-34.7515 I-3.8228 J-6.1409
G1 X-324.9673 Y-34.4928
G3 X-325.3967 Y-34.2358 I-14.1228 J-23.1079
G3 X-324.9302 Y-35.1507 I4.0523 J1.4899
G3 X-324.3858 Y-35.8589 I5.5318 J3.6882
G3 X-323.848 Y-36.4241 I7.6987 J6.7872
G3 X-323.3482 Y-36.8885 I8.9425 J9.1235
G3 X-322.8964 Y-37.2786 I12.995 J14.5949
G3 X-322.7963 Y-37.3624 I4.5652 J5.3513
G1 X-322.4053 Y-37.6834
G1 X-321.0235 Y-38.7904
G1 X-320.6812 Y-39.0711
G1 X-320.5537 Y-39.1776
G2 X-320.3323 Y-39.3656 I-5.8004 J-7.0549
G2 X-320.2909 Y-39.4012 I-0.3329 J-0.4283
G2 X-320.2523 Y-39.4347 I-0.3182 J-0.4066
G2 X-320.2161 Y-39.4661 I-0.3046 J-0.3868
G2 X-320.1823 Y-39.4957 I-0.292 J-0.3685
G1 X-319.931 Y-39.7196
G1 X-319.6841 Y-39.9483
G2 X-319.4342 Y-40.1889 I-14.1626 J-14.9641
G1 X-319.3063 Y-40.3162
G2 X-319.2429 Y-40.3804 I-4.6291 J-4.6287
G2 X-318.7558 Y-40.9084 I-9.4433 J-9.2004
G2 X-318.5457 Y-41.1626 I-8.8906 J-7.5642
G2 X-318.3513 Y-41.4213 I-4.2035 J-3.3603
G2 X-318.0242 Y-41.9669 I-3.078 J-2.2165
G2 X-317.9214 Y-42.2298 I-1.7748 J-0.8455
G2 X-317.8729 Y-42.4846 I-1.103 J-0.3419
G2 X-317.8953 Y-42.7173 I-0.7126 J-0.0488
G2 X-318.1493 Y-43.0416 I-0.5354 J0.1577
G2 X-318.3122 Y-43.1206 I-0.5575 J0.9418
G2 X-318.649 Y-43.2005 I-0.536 J1.51
G2 X-319.2927 Y-43.2136 I-0.389 J3.2942
G2 X-319.5725 Y-43.1884 I0.2924 J4.8246
G2 X-320.6086 Y-43.0045 I1.1325 J9.3915
G1 X-320.7047 Y-42.9822
G1 X-320.8903 Y-42.937
G1 X-321.237 Y-42.8462
G1 X-321.388 Y-42.8043
G2 X-322.5105 Y-42.4558 I6.749 J23.7202
G2 X-323.6179 Y-42.0616 I10.4467 J31.0979
G2 X-326.5846 Y-40.6538 I6.7089 J17.9671
G2 X-330.4369 Y-37.6009 I9.0139 J15.3316
G2 X-331.2593 Y-36.6843 I15.4662 J14.7031
G2 X-332.3837 Y-35.2193 I15.5526 J13.1002
G1 X-332.4497 Y-35.1245
G2 X-333.3821 Y-33.6657 I19.6687 J13.5992
G2 X-333.8417 Y-32.7621 I6.3923 J3.8194
G2 X-333.922 Y-32.5546 I3.5554 J1.4959
G2 X-334.0405 Y-32.1473 I2.9422 J1.077
G2 X-334.0848 Y-31.7639 I1.7265 J0.3935
G2 X-334.0293 Y-31.4279 I0.9618 J0.0139
G2 X-333.612 Y-31.0551 I0.5532 J-0.1993
G2 X-333.2082 Y-31.0326 I0.2617 J-1.0627
G2 X-332.627 Y-31.1919 I-0.281 J-2.1652
G2 X-332.0937 Y-31.4725 I-1.429 J-3.3626
G2 X-331.7753 Y-31.6799 I-11.644 J-18.2294
G1 X-331.6351 Y-31.7708
G1 X-331.5027 Y-31.8553
G3 X-330.9943 Y-32.1547 I3.7823 J5.8418
G3 X-330.5898 Y-32.3442 I2.0561 J3.8635
G3 X-330.269 Y-32.448 I0.8386 J2.044
G3 X-329.7652 Y-32.4964 I0.4055 J1.5739
G3 X-329.2773 Y-32.362 I-0.0938 J1.2931
G2 X-329.686 Y-32.0275 I11.9686 J15.0411
G1 X-330.0399 Y-31.7301
G1 X-330.1172 Y-31.6649
G1 X-330.1922 Y-31.6017
G1 X-330.3375 Y-31.4795
G1 X-330.4741 Y-31.3654
G1 X-330.7317 Y-31.1531
G3 X-331.6612 Y-30.4454 I-9.7991 J-11.9052
G3 X-332.1512 Y-30.1267 I-4.5363 J-6.4404
G3 X-332.6638 Y-29.8458 I-3.5346 J-5.8408
G3 X-333.3933 Y-29.5191 I-4.7012 J-9.5211
G3 X-334.079 Y-29.2842 I-2.4906 J-6.1505
G3 X-334.3991 Y-29.2065 I-1.0902 J-3.7938
G3 X-335.023 Y-29.1409 I-0.6196 J-2.8935
G1 X-335.0921 Y-29.1431
G3 X-335.3614 Y-29.1777 I0.0443 J-1.409
G3 X-335.6956 Y-29.3065 I0.2052 J-1.0307
G0 Z5.0
G0 X-24.4045 Y-31.8261
G1 Z0.0
G1 X-13.3024 Y-22.2063
G3 X-13.5437 Y-22.1898 I-0.1804 J-0.8682
G3 X-13.7756 Y-22.2225 I0.091 J-1.4866
G3 X-14.2151 Y-22.352 I0.7064 J-3.2075
G1 X-14.3185 Y-22.3911
G1 X-14.3695 Y-22.4113
G3 X-14.5706 Y-22.4965 I2.4347 J-6.0242
G3 X-14.6196 Y-22.5185 I0.3387 J-0.8211
G3 X-15.3816 Y-22.9078 I4.2553 J-9.2716
G1 X-15.5558 Y-23.007
G3 X-16.8851 Y-23.8567 I10.5692 J-17.9996
G1 X-17.1676 Y-24.0551
G3 X-19.2749 Y-25.7027 I18.2862 J-25.5589
G1 X-19.6549 Y-26.0312
G3 X-21.0335 Y-27.3151 I19.5949 J-22.4217
G1 X-21.2832 Y-27.5656
G1 X-21.3992 Y-27.6841
G1 X-21.6218 Y-27.9157
G3 X-22.4293 Y-28.8099 I17.5742 J-16.6818
G1 X-22.5753 Y-28.9825
G3 X-23.5961 Y-30.3359 I11.9683 J-10.0894
G3 X-24.0381 Y-31.0605 I9.0054 J-5.9906
G3 X-24.4045 Y-31.8261 I5.9047 J-3.2963
G0 Z5.0
G0 X-21.469 Y-33.2888
G1 Z0.0
G3 X-21.5452 Y-33.4452 I8.3357 J-4.1534
G3 X-21.813 Y-34.1002 I5.7514 J-2.7343
G3 X-21.9986 Y-34.7831 I4.4934 J-1.5881
G1 X-13.3024 Y-26.6075
G3 X-13.4694 Y-26.4541 I-0.2752 J-0.132
G3 X-13.6677 Y-26.4186 I-0.1971 J-0.5302
G3 X-13.8608 Y-26.4336 I-0.0087 J-1.1368
G3 X-14.2266 Y-26.5278 I0.3804 J-2.2362
G3 X-14.8946 Y-26.8167 I1.6444 J-4.7184
G1 X-14.9136 Y-26.8264
G3 X-15.5061 Y-27.1593 I4.4408 J-8.5963
G1 X-15.6416 Y-27.2428
G3 X-16.1655 Y-27.5874 I10.1805 J-16.0521
G1 X-16.4061 Y-27.7564
G3 X-19.7686 Y-30.8192 I11.7311 J-16.2558
G3 X-20.1362 Y-31.2592 I10.9096 J-9.4875
G1 X-20.292 Y-31.4561
G3 X-20.8438 Y-32.2188 I9.813 J-7.6804
G3 X-21.469 Y-33.2888 I7.7105 J-5.2233
G0 Z5.0
G0 X-18.7738 Y-35.5729
G1 Z0.0
G3 X-19.4286 Y-36.4488 I6.835 J-5.7927
G3 X-19.4713 Y-36.5155 I1.031 J-0.7057
G3 X-19.6239 Y-36.7703 I3.791 J-2.444
G3 X-19.7299 Y-36.9663 I3.1813 J-1.8477
G3 X-19.9918 Y-37.5804 I4.0249 J-2.0796
G3 X-19.4316 Y-37.2697 I-7.1529 J13.5576
G3 X-18.4174 Y-36.6274 I-8.5524 J14.6259
G3 X-17.5612 Y-36.0199 I-14.4171 J21.2277
G3 X-16.1104 Y-34.8932 I-27.0831 J36.3691
G1 X-15.5766 Y-34.4579
G1 X-15.112 Y-34.0739
G1 X-14.9092 Y-33.9052
G1 X-14.1494 Y-33.2724
G1 X-13.5777 Y-32.7999
G1 X-13.3623 Y-32.6238
G1 X-12.9836 Y-32.3181
G1 X-12.9122 Y-32.2611
G2 X-11.8239 Y-31.4309 I19.0422 J-23.8316
G3 X-12.4935 Y-31.4702 I-0.1763 J-2.7172
G3 X-13.0997 Y-31.6175 I0.961 J-5.2763
G3 X-13.3766 Y-31.7095 I1.1636 J-3.9615
G3 X-14.4125 Y-32.1593 I3.2477 J-8.8983
G3 X-16.1034 Y-33.1798 I6.3027 J-12.3542
G3 X-18.3562 Y-35.1075 I8.5387 J-12.259
G1 X-18.42 Y-35.1755
G3 X-18.6621 Y-35.4437 I11.5207 J-10.6425
G3 X-18.7738 Y-35.5729 I6.7233 J-5.922
G0 Z5.0
G0 X-16.8854 Y-39.0217
G1 Z0.0
G1 X-17.6961 Y-39.4656
G1 X-16.5635 Y-41.0848
G1 X-11.8239 Y-36.2502
G1 X-16.8854 Y-39.0217
G0 Z5.0
G0 X-13.4606 Y-41.7244
G1 Z0.0
G3 X-13.7082 Y-42.0664 I3.9857 J-3.1453
G3 X-14.0605 Y-42.738 I3.213 J-2.1134
G3 X-14.2374 Y-43.4755 I2.3139 J-0.9452
G1 X-13.9785 Y-43.2992
G1 X-13.4946 Y-42.9664
G3 X-11.8223 Y-41.7716 I-34.7599 J50.4211
G1 X-11.7191 Y-41.6951
G1 X-11.6224 Y-41.6232
G3 X-10.9031 Y-41.077 I-29.3883 J39.4548
G3 X-10.1934 Y-40.5184 I-39.7105 J51.1822
G3 X-10.504 Y-40.2795 I-0.7194 J-0.614
G3 X-10.8422 Y-40.1864 I-0.4314 J-0.9061
G3 X-11.1637 Y-40.1915 I-0.1376 J-1.4606
G3 X-11.7376 Y-40.3521 I0.2981 J-2.172
G1 X-11.8564 Y-40.4048
G3 X-12.7003 Y-40.9485 I1.7784 J-3.6877
G3 X-13.4606 Y-41.7244 I3.2254 J-3.9212
G0 Z5.0
G0 X5.7286 Y-31.9827
G1 Z0.0
G3 X6.381 Y-33.2369 I63.8517 J32.4151
G3 X6.491 Y-33.4424 I22.1451 J11.7165
G3 X6.6007 Y-33.6458 I8.209 J4.2958
G3 X10.4383 Y-39.8971 I58.1366 J31.3864
G1 X10.6359 Y-40.1795
G1 X10.8319 Y-40.4564
G1 X11.2225 Y-40.9981
G3 X11.6067 Y-41.5189 I40.2717 J29.3179
G3 X13.1515 Y-43.4942 I45.699 J34.1461
G3 X13.5016 Y-43.9169 I28.3369 J23.1156
G3 X14.9004 Y-45.5189 I37.6461 J31.4579
G3 X14.9788 Y-45.6048 I2.8491 J2.5239
G3 X17.5793 Y-48.2272 I33.9107 J31.0263
G3 X19.6731 Y-50.0426 I27.6889 J29.8196
G1 X20.0796 Y-50.3664
G3 X23.2706 Y-52.603 I21.6038 J27.4267
G3 X24.9584 Y-53.5783 I16.1286 J25.9644
G3 X26.7047 Y-54.4445 I13.6676 J25.3608
G2 X27.025 Y-53.8483 I2.973 J-1.213
G2 X27.7226 Y-53.1168 I2.6566 J-1.8352
G2 X28.1363 Y-52.8258 I3.8211 J-4.9923
G2 X28.5709 Y-52.567 I5.8774 J-9.3737
G1 X28.3466 Y-52.4439
G2 X24.9018 Y-50.2979 I19.4887 J35.1221
G1 X24.5384 Y-50.0435
G1 X24.1832 Y-49.7895
G2 X23.491 Y-49.2799 I33.6391 J46.4099
G1 X23.1592 Y-49.0286
G2 X21.8735 Y-48.0121 I32.3241 J42.2069
G2 X19.5506 Y-46.0016 I34.5075 J42.2175
G2 X15.7421 Y-42.2106 I43.9786 J47.99
G1 X15.4007 Y-41.8401
G1 X15.0724 Y-41.479
G1 X14.7567 Y-41.1271
G2 X13.5537 Y-39.7454 I49.9788 J44.7307
G2 X9.5851 Y-34.711 I68.3528 J57.9641
G2 X5.96 Y-29.424 I85.0475 J62.199
G1 X4.4929
G3 X5.7286 Y-31.9827 I65.0874 J29.8565
G0 Z5.0
G0 X3.6414 Y-27.4282
G1 Z0.0
G3 X3.7852 Y-27.3402 I-0.2942 J0.642
G3 X3.991 Y-27.1141 I-0.56 J0.7167
G3 X4.1881 Y-26.6249 I-1.1964 J0.7662
G3 X4.2293 Y-26.2328 I-2.0812 J0.4172
G3 X4.1591 Y-25.6469 I-2.4174 J0.0074
G3 X3.9608 Y-25.091 I-2.7518 J-0.6684
G3 X3.6432 Y-24.5435 I-3.2046 J-1.4928
G3 X3.2411 Y-24.1103 I-1.7256 J-1.1985
G3 X3.0213 Y-23.9705 I-0.8866 J-1.1514
G3 X2.5567 Y-23.8793 I-0.3871 J-0.7431
G3 X2.1958 Y-24.0257 I0.0855 J-0.7289
G3 X1.9734 Y-24.2691 I0.5605 J-0.7355
G3 X1.7769 Y-24.8011 I1.2059 J-0.7478
G3 X1.7549 Y-25.2241 I1.976 J-0.3146
G3 X1.8707 Y-25.8469 I2.5424 J0.1505
G3 X2.1212 Y-26.4289 I3.0107 J0.9505
G3 X2.4408 Y-26.9214 I3.0427 J1.6247
G3 X2.6219 Y-27.1261 I1.9571 J1.5499
G3 X2.8178 Y-27.2941 I1.093 J1.0753
G3 X3.0248 Y-27.4155 I0.6551 J0.8801
G3 X3.4555 Y-27.4841 I0.3314 J0.6952
G3 X3.6414 Y-27.4282 I-0.1084 J0.6979
G0 Z5.0
G0 X8.2709 Y-25.0972
G1 Z0.0
G3 X8.4591 Y-25.4692 I95.0209 J47.8448
G3 X8.5716 Y-25.6894 I6.515 J3.1901
G3 X9.4861 Y-27.4267 I87.2178 J44.7986
G3 X10.3803 Y-29.0372 I81.8567 J44.3951
G1 X10.4876 Y-29.2248
G1 X10.5946 Y-29.4106
G1 X10.7013 Y-29.5946
G3 X12.4676 Y-32.4727 I61.711 J35.8922
G1 X12.6698 Y-32.7824
G1 X12.8706 Y-33.0861
G3 X14.517 Y-35.4341 I48.854 J32.504
G1 X14.8935 Y-35.9367
G3 X15.6405 Y-36.8975 I40.217 J30.4977
G3 X17.1061 Y-38.6473 I36.7197 J29.2668
G1 X17.4386 Y-39.0203
G1 X17.7649 Y-39.3779
G1 X18.0849 Y-39.7207
G3 X19.3627 Y-41.0133 I27.9264 J26.3307
G1 X19.6505 Y-41.2879
G1 X19.9321 Y-41.551
G1 X20.2075 Y-41.803
G3 X20.2747 Y-41.8636 I1.3474 J1.4248
G3 X22.487 Y-43.6918 I22.1102 J24.504
G3 X24.2515 Y-44.9263 I18.0179 J23.875
G3 X27.0622 Y-46.5166 I14.8275 J22.9267
G1 X27.4266 Y-46.6909
G3 X30.0494 Y-47.7437 I10.4017 J22.1193
G1 X30.0328 Y-47.503
G2 X30.0199 Y-47.0508 I6.6848 J0.4165
G2 X30.226 Y-45.4856 I5.8932 J0.0202
G1 X30.252 Y-45.3904
G1 X30.2773 Y-45.3014
G1 X30.3268 Y-45.1351
G2 X30.4179 Y-44.8456 I7.7264 J-2.2724
G1 X30.5576 Y-44.4123
G1 X30.6258 Y-44.1951
G1 X30.6917 Y-43.9772
G2 X28.8994 Y-43.061 I10.7683 J23.2766
G2 X28.6945 Y-42.9448 I3.666 J6.7042
G2 X27.1026 Y-41.9642 I15.1281 J26.3418
G2 X24.2789 Y-39.8927 I20.0085 J30.2334
G1 X23.9823 Y-39.6507
G2 X21.7226 Y-37.6559 I28.119 J34.1293
G1 X21.4835 Y-37.429
G2 X19.6528 Y-35.5889 I38.2312 J39.8679
G2 X16.6626 Y-32.1713 I42.9217 J40.57
G2 X12.6686 Y-26.6555 I49.5211 J40.0628
G2 X12.5535 Y-26.4764 I7.7838 J5.1287
G2 X10.8504 Y-23.6496 I49.2568 J31.6018
G2 X9.3161 Y-20.7278 I44.6566 J25.315
G1 X6.4997 Y-21.4043
G3 X8.2709 Y-25.0972 I96.792 J44.1519
G0 Z5.0
G0 X12.3892 Y-23.0028
G1 Z0.0
G3 X15.4183 Y-28.0504 I37.4933 J19.0672
G1 X15.5158 Y-28.1894
G3 X18.8938 Y-32.4074 I35.2718 J24.7862
G3 X22.2701 Y-35.7301 I31.5611 J28.6934
G3 X23.8644 Y-37.0594 I25.0669 J28.4455
G3 X27.0342 Y-39.3183 I24.2867 J30.7254
G3 X29.9882 Y-41.0174 I19.5907 J30.6422
G3 X35.5026 Y-43.2781 I15.6948 J30.4284
G3 X44.3042 Y-44.7498 I9.7785 J31.4253
G3 X46.5407 Y-44.7434 I1.0196 J34.4374
G3 X49.8829 Y-44.4628 I-1.2652 J35.1068
G3 X53.1849 Y-43.8747 I-4.937 J37.283
G1 X51.7177 Y-41.997
G1 X50.6343 Y-42.1553
G1 X50.1259 Y-42.2285
G2 X48.151 Y-42.4807 I-9.4144 J65.862
G2 X44.6718 Y-42.7137 I-4.284 J37.8755
G1 X44.3444 Y-42.7178
G2 X44.1857 Y-42.7186 I-0.1136 J7.1402
G2 X41.6898 Y-42.6144 I-0.0988 J27.5662
G2 X39.8302 Y-42.376 I2.2089 J24.604
G2 X37.0956 Y-41.7221 I3.407 J20.2934
G2 X34.4849 Y-40.678 I5.4403 J17.3899
G1 X34.6105 Y-40.4756
G2 X35.6853 Y-38.9199 I17.4276 J-10.8914
G2 X36.8389 Y-37.5771 I11.6958 J-8.8816
G1 X36.9842 Y-37.4303
G1 X37.1304 Y-37.2872
G2 X38.3773 Y-36.251 I7.4261 J-7.6679
G2 X39.6754 Y-35.4889 I4.9728 J-6.9838
G2 X42.3569 Y-34.7402 I3.5324 J-7.4754
G2 X42.6572 Y-34.7129 I1.0781 J-10.1905
G2 X43.8427 Y-34.6935 I0.7738 J-11.0414
G2 X44.1199 Y-34.7072 I-0.4088 J-11.0796
G2 X45.2065 Y-34.8169 I-0.9634 J-14.9799
G2 X46.2164 Y-34.9852 I-3.0354 J-21.3202
G2 X48.0889 Y-35.4122 I-6.4716 J-32.7057
G1 X48.4966 Y-35.5175
G1 X49.2853 Y-35.7275
G1 X49.6551 Y-35.8273
G1 X49.8343 Y-35.8757
G1 X50.5402 Y-36.0649
G1 X50.8718 Y-36.1523
G1 X51.1935 Y-36.2355
G3 X52.4455 Y-36.5381 I9.4041 J36.1657
G3 X53.551 Y-36.765 I5.7106 J25.0093
G3 X55.5092 Y-37.0322 I3.603 J19.0957
G3 X56.9923 Y-37.0856 I1.3032 J15.5703
G3 X59.2066 Y-36.8656 I-0.1563 J12.8223
G3 X60.29 Y-36.6072 I-2.163 J11.471
G3 X60.5567 Y-36.5271 I-1.9803 J7.074
G3 X60.9533 Y-36.3954 I-2.3826 J7.8371
G1 X61.1497 Y-36.3245
G1 X61.345 Y-36.2502
G1 Y-35.1784
G1 X60.767 Y-35.1639
G1 X60.2069 Y-35.1461
G1 X59.6644 Y-35.1251
G2 X57.5637 Y-35.0033 I2.851 J67.3482
G2 X56.6455 Y-34.9267 I4.1281 J55.016
G2 X56.5379 Y-34.9167 I0.0984 J1.6386
G2 X56.4312 Y-34.9065 I0.1009 J1.6243
G2 X56.3254 Y-34.8962 I0.1035 J1.6105
G2 X56.2203 Y-34.8857 I0.106 J1.5971
G2 X52.9029 Y-34.4246 I4.1766 J42.2126
G2 X50.4475 Y-33.882 I5.7093 J31.6628
G2 X50.3335 Y-33.8517 I0.3791 J1.6578
G2 X49.4402 Y-33.597 I7.0186 J26.306
G2 X47.8998 Y-33.0774 I7.6576 J25.2435
G2 X45.6632 Y-32.1068 I8.1842 J21.9209
G2 X44.5886 Y-31.5301 I8.9532 J17.9757
G2 X43.5498 Y-30.8911 I10.2379 J17.805
G1 X43.3114 Y-30.9361
G3 X41.4493 Y-31.367 I4.9813 J-25.7693
G1 X41.2471 Y-31.4226
G3 X38.1393 Y-32.5345 I6.0102 J-21.6972
G3 X35.9417 Y-33.7004 I7.2014 J-16.2286
G1 X35.7444 Y-33.8264
G3 X34.9991 Y-34.3434 I7.0194 J-10.9153
G3 X33.7824 Y-35.3634 I7.5176 J-10.2029
G3 X32.243 Y-37.179 I7.4069 J-7.8405
G3 X31.1744 Y-39.306 I7.8574 J-5.2797
G1 X30.8219 Y-39.1217
G2 X30.134 Y-38.7476 I12.1438 J23.1516
G2 X27.5489 Y-37.1616 I17.7387 J31.8132
G2 X25.3984 Y-35.6102 I21.6808 J32.3187
G1 X24.942 Y-35.2525
G2 X24.0717 Y-34.5422 I35.8552 J44.822
G1 X23.67 Y-34.2019
G2 X20.6823 Y-31.4251 I34.8673 J40.5115
G2 X18.5693 Y-29.2136 I47.5259 J47.5245
G1 X18.4725 Y-29.1079
G1 X18.3774 Y-29.0035
G1 X18.284 Y-28.9007
G2 X16.8332 Y-27.263 I75.2471 J68.1201
G1 X16.2982 Y-26.641
G1 X15.8335 Y-26.0938
G2 X12.6494 Y-22.2063 I150.4575 J126.4853
G1 X12.254 Y-22.7346
G3 X12.3892 Y-23.0028 I37.6285 J18.7989
G0 Z5.0
G0 X8.9094 Y-14.5743
G1 Z0.0
G1 X8.9528 Y-14.4964
G1 X9.1356 Y-14.2158
G1 X9.2022 Y-14.1082
G3 X9.3067 Y-13.9126 I-2.608 J1.5195
G3 X9.4112 Y-13.5962 I-1.1064 J0.5408
G3 X9.4035 Y-13.263 I-0.7698 J0.1488
G3 X9.253 Y-12.9827 I-1.8272 J-0.8006
G3 X9.0755 Y-12.7639 I-1.1011 J-0.7116
G3 X8.6565 Y-12.5076 I-0.7027 J-0.6782
G3 X8.2913 Y-12.4853 I-0.2328 J-0.8117
G3 X7.7998 Y-12.7114 I0.1917 J-1.0644
G3 X7.4309 Y-13.1071 I1.1646 J-1.4552
G1 X8.9094 Y-14.5743
G0 Z5.0
G0 X9.0586 Y0.8157
G1 Z0.0
G3 X9.8707 Y0.8224 I0.219 J22.5825
G3 X9.9752 Y0.825 I0.0026 J2.0282
G3 X12.1899 Y0.9515 I-1.1919 J40.305
G1 X12.2596 Y0.9573
G1 X12.8529 Y1.0096
G1 X13.1588 Y1.0385
G1 X13.8103 Y1.1032
G1 X14.5042 Y1.1747
G1 X15.2437 Y1.2494
G1 X15.6255 Y1.2851
G1 X16.0198 Y1.3175
G1 X16.2202 Y1.3313
G1 X16.3213 Y1.3373
G1 X16.3721 Y1.34
G1 X16.4231 Y1.3425
G1 X16.6302 Y1.3501
G2 X17.0582 Y1.3434 I0.1387 J-4.8471
G3 X17.0771 Y2.1704 I-5.6904 J0.544
G3 X17.0534 Y2.4452 I-3.4197 J-0.1574
G3 X16.9927 Y2.8082 I-4.5127 J-0.5674
G3 X16.8483 Y3.2775 I-2.7904 J-0.6018
G3 X16.5037 Y3.8371 I-1.7792 J-0.7099
G3 X15.7305 Y4.2805 I-1.0664 J-0.9636
G3 X15.2111 Y4.3194 I-0.402 J-1.8798
G2 X14.4879 Y4.1077 I-4.8023 J15.061
G2 X14.3837 Y4.0806 I-0.4836 J1.6458
G2 X13.5439 Y3.8898 I-3.9746 J15.5501
G2 X11.8428 Y3.6249 I-4.1509 J21.0656
G2 X10.7006 Y3.5124 I-3.3236 J27.8734
G2 X10.6279 Y3.5065 I-0.1262 J1.1068
G2 X10.5541 Y3.5006 I-0.1262 J1.1246
G2 X10.4791 Y3.4948 I-0.1263 J1.1432
G2 X10.4029 Y3.489 I-0.1264 J1.1627
G2 X10.3255 Y3.4833 I-0.1266 J1.1832
G2 X10.2468 Y3.4776 I-0.1268 J1.2048
G2 X10.1669 Y3.4719 I-0.1271 J1.2275
G2 X10.0857 Y3.4663 I-0.1275 J1.2514
G2 X10.0032 Y3.4607 I-0.1279 J1.2767
G2 X9.9194 Y3.4552 I-0.1284 J1.3035
G2 X9.8342 Y3.4497 I-0.129 J1.3318
G2 X9.7477 Y3.4442 I-0.1298 J1.3619
G1 X8.957 Y3.3986
G1 X8.0534 Y3.3521
G1 X7.0211 Y3.2978
G1 X6.4708 Y3.265
G1 X5.8843 Y3.2249
G3 X4.5463 Y3.1028 I2.2767 J-32.3539
G3 X3.8352 Y3.0143 I1.9992 J-18.9572
G3 X3.0799 Y2.8967 I2.7044 J-19.8526
G1 X2.8887 Y2.8625
G3 X1.1597 Y2.453 I2.8565 J-15.9162
G3 X1.0525 Y2.4207 I0.6076 J-2.2128
G3 X0.6123 Y2.2784 I5.8874 J-18.9594
G1 X1.6612 Y-0.5228
G3 X2.2426 Y-0.3802 I-0.4726 J3.1839
G1 X2.4311 Y-0.3141
G1 X2.6813 Y-0.2231
G2 X3.022 Y-0.1237 I0.9062 J-2.4724
G2 X2.8092 Y0.347 I2.4469 J1.3893
G2 X2.711 Y0.8542 I1.8116 J0.6139
G2 X3.0219 Y1.832 I1.4182 J0.0874
G2 X3.5541 Y2.2784 I1.4517 J-1.1901
G3 X4.1558 Y1.8206 I2.3947 J2.5232
G3 X4.8308 Y1.4797 I2.5521 J4.2148
G1 X5.032 Y1.4006
G3 X5.5797 Y1.2233 I2.3326 J6.2696
G3 X6.3264 Y1.0501 I2.2404 J7.9645
G3 X7.3353 Y0.9054 I2.3242 J12.6158
G3 X7.915 Y0.8568 I1.9672 J19.9771
G1 X8.2245 Y0.8392
G3 X9.0586 Y0.8157 I1.0532 J22.559
G0 Z5.0
G0 X11.8976 Y10.9058
G1 Z0.0
G3 X12.2233 Y10.8697 I0.2718 J0.966
G3 X12.6494 Y10.9708 I-0.0749 J1.2642
G2 X12.0692 Y13.3956 I14.0785 J4.6501
G2 X11.979 Y14.2228 I11.8618 J1.713
G2 X11.9844 Y15.3329 I6.9392 J0.5211
G2 X12.0198 Y15.6274 I5.549 J-0.5166
G1 X12.0452 Y15.7784
G2 X12.0602 Y15.8548 I0.8696 J-0.1312
G2 X12.755 Y17.1545 I2.5259 J-0.5147
G2 X14.0586 Y17.8424 I1.729 J-1.6974
G2 X15.0515 Y17.7819 I0.3681 J-2.1357
G2 X16.2632 Y17.1519 I-0.8921 J-3.1964
G2 X17.0921 Y16.0666 I-1.9489 J-2.3478
G2 X17.3515 Y15.1894 I-2.9519 J-1.3499
G2 X17.3366 Y13.9765 I-3.7619 J-0.5601
G2 X16.798 Y12.4743 I-4.6479 J0.8186
G2 X16.294 Y11.7207 I-4.9047 J2.7351
G2 X15.5988 Y10.9708 I-5.1568 J4.0834
G1 X20.4106 Y11.9134
G2 X19.8561 Y12.5384 I1.092 J1.5274
G2 X19.5722 Y13.3242 I2.382 J1.3048
G2 X19.532 Y13.5599 I4.2504 J0.8452
G2 X19.4951 Y14.1932 I4.3587 J0.5714
G2 X20.0737 Y16.5809 I5.7711 J-0.1345
G2 X20.4266 Y17.1905 I4.4069 J-2.1441
G2 X20.9502 Y17.8008 I2.969 J-2.0175
G2 X22.155 Y17.728 I0.3867 J-3.6068
G2 X23.262 Y17.247 I-0.8144 J-3.3882
G2 X23.5441 Y17.0462 I-2.2983 J-3.5274
G2 X24.216 Y16.4186 I-3.1165 J-4.01
G2 X24.295 Y16.33 I-1.3521 J-1.2851
G2 X24.5912 Y15.8691 I-13.6109 J-9.0737
G2 X24.8477 Y15.3851 I-4.3123 J-2.5951
G2 X25.0869 Y14.3169 I-2.3574 J-1.0889
G2 X24.9996 Y13.5874 I-3.1072 J0.0018
G2 X24.6794 Y12.6664 I-4.989 J1.2182
G2 X24.435 Y12.168 I-9.3862 J4.295
G1 X24.3669 Y12.0421
G1 X24.295 Y11.9134
G1 X25.2261
G3 X25.5577 Y12.3404 I-1.6593 J1.6311
G3 X25.6475 Y12.4969 I-1.8519 J1.1666
G3 X25.7536 Y12.7129 I-2.7354 J1.4766
G3 X26.0485 Y13.6241 I-4.3102 J1.8984
G3 X26.1529 Y14.2536 I-5.7162 J1.2717
G3 X26.1936 Y15.1008 I-6.2027 J0.7222
G3 X26.0626 Y16.2209 I-5.3801 J-0.0613
G3 X25.9829 Y16.5116 I-2.8435 J-0.6232
G3 X25.6937 Y17.1396 I-2.4088 J-0.729
G1 X25.955 Y17.1212
G1 X26.0421 Y17.1147
G1 X26.3904 Y17.0875
G1 X26.49 Y17.0794
G1 X26.7553 Y17.058
G1 X27.1092 Y17.03
G3 X28.527 Y16.9561 I1.9041 J22.8846
G1 X28.7164 Y16.9545
G1 X28.9184 Y16.956
G3 X29.3798 Y16.9728 I-0.052 J7.7716
G3 X29.4988 Y16.9805 I-0.0444 J1.6039
G3 X29.5592 Y16.985 I-0.0443 J1.0039
G3 X30.8363 Y17.1853 I-0.5513 J7.6854
G3 X32.4514 Y17.8008 I-1.6801 J6.8356
G1 Y19.1387
G3 X32.4479 Y19.5312 I-2.4573 J0.1738
G3 X32.3735 Y19.9166 I-1.9604 J-0.1782
G3 X31.9314 Y20.5613 I-1.2391 J-0.3758
G3 X31.4717 Y20.8183 I-1.1164 J-1.4571
G3 X30.8057 Y21.0049 I-1.3896 J-3.6774
G3 X30.6311 Y21.0237 I-0.3511 J-2.447
G3 X30.4556 Y21.0335 I-0.3415 J-4.5388
G1 X30.1045 Y21.0455
G1 X29.8704 Y21.0511
G3 X29.5581 Y21.0574 I-0.3842 J-11.3386
G1 X28.3097 Y21.0808
G1 X27.4775 Y21.1009
G1 X27.002 Y21.1152
G2 X26.8792 Y21.1193 I0.0368 J2.9486
G1 X26.7526 Y21.1237
G1 X26.1738 Y21.1463
G1 X26.0244 Y21.1529
G2 X24.4324 Y21.2445 I2.7581 J61.7837
G2 X24.3314 Y21.2519 I0.1098 J2.2021
G1 X24.1229 Y21.2678
G2 X21.9059 Y21.5076 I2.6206 J34.5875
G2 X21.3183 Y21.6008 I4.3522 J29.3474
G2 X20.6949 Y21.7199 I3.6792 J20.9491
G1 X20.375 Y21.7913
G2 X19.6993 Y21.9727 I2.7819 J11.7064
G2 X18.9967 Y22.2288 I1.7986 J6.0256
G1 X19.3962 Y25.3108
G1 X19.5303 Y26.338
G1 X19.7117 Y27.7073
G2 X19.7354 Y27.884 I5.6841 J-0.6731
G2 X19.7599 Y28.0664 I6.0345 J-0.7201
G2 X19.7854 Y28.2546 I6.4429 J-0.7755
G2 X19.8118 Y28.4489 I6.9283 J-0.842
G2 X19.8392 Y28.6495 I7.519 J-0.9236
G2 X19.8675 Y28.8564 I8.2611 J-1.027
G2 X20.1802 Y31.0627 I177.4731 J-24.0246
G1 X20.2672 Y31.6505
G1 X20.3621 Y32.2771
G1 X20.4657 Y32.9452
G1 X20.5203 Y33.2898
G1 X20.5774 Y33.6455
G1 X20.6372 Y34.0125
G1 X20.7681 Y34.7949
G2 X21.5529 Y38.9521 I109.3838 J-18.4963
G1 X21.6084 Y39.2149
G1 X21.6656 Y39.4818
G2 X22.2281 Y41.9129 I87.7811 J-19.03
G1 X22.305 Y42.2203
G1 X22.3844 Y42.5323
G1 X22.4665 Y42.8489
G1 X22.5514 Y43.1701
G1 X22.6392 Y43.496
G1 X22.8256 Y44.1675
G2 X23.7727 Y47.2099 I59.1621 J-16.7479
G1 X23.8379 Y47.3998
G1 X23.9044 Y47.5909
G1 X23.9721 Y47.7833
G2 X25.3478 Y51.2517 I45.2523 J-15.9418
G2 X27.3526 Y55.2333 I43.3436 J-19.3279
G2 X29.7059 Y59.0192 I45.4754 J-25.6438
G2 X35.3093 Y65.9424 I45.4971 J-31.0939
G2 X39.6378 Y70.0115 I38.8774 J-37.02
G2 X42.3071 Y72.111 I34.4297 J-41.0252
G1 X42.6558 Y72.3649
G1 X43.0122 Y72.6198
G2 X46.3711 Y74.802 I28.9729 J-40.92
G2 X50.4183 Y76.9437 I23.8539 J-40.1814
G1 X50.9469 Y77.1867
G2 X55.9166 Y79.0833 I18.2703 J-40.4156
G2 X69.9691 Y80.9624 I12.4363 J-39.5193
G3 X70.2401 Y80.963 I0.1294 J2.5724
G3 X70.5084 Y81.0002 I-0.022 J1.145
G3 X70.5774 Y81.0375 I-0.0369 J0.1508
G3 X70.578 Y81.088 I-0.0269 J0.0256
G3 X70.5199 Y81.1333 I-0.14 J-0.1197
G3 X70.4388 Y81.1697 I-0.2097 J-0.3584
G3 X70.26 Y81.2237 I-0.5248 J-1.4156
G3 X69.9691 Y81.2816 I-0.7836 J-3.1752
G3 X61.0631 Y81.7289 I-6.5531 J-41.5919
G3 X52.2591 Y80.3124 I2.35 J-42.6738
G3 X46.6434 Y78.3423 I10.6827 J-39.4381
G1 X46.4716 Y78.2668
G3 X43.3998 Y76.7399 I15.1515 J-34.3354
G1 X43.2111 Y76.6343
G1 X43.0215 Y76.5269
G3 X40.3304 Y74.7844 I28.0952 J-46.3417
G1 X39.9544 Y74.523
G1 X39.7546 Y74.3822
G3 X38.7003 Y73.6167 I28.3386 J-40.1354
G3 X34.6781 Y70.3054 I31.7053 J-42.6109
G1 X34.5559 Y70.1939
G3 X27.5211 Y62.3015 I35.1137 J-38.3792
G3 X23.7701 Y56.3263 I43.6576 J-31.5719
G3 X21.9801 Y52.7123 I48.8013 J-26.4217
G3 X21.8759 Y52.4805 I12.2241 J-5.6329
G3 X21.772 Y52.2465 I11.1646 J-5.0988
G3 X20.0518 Y47.8937 I54.1669 J-23.923
G3 X18.4951 Y42.7794 I61.102 J-21.3925
G1 X18.3276 Y42.1213
G3 X17.1005 Y36.0439 I67.212 J-16.7335
G3 X17.0855 Y35.9479 I2.9971 J-0.5175
G3 X17.0706 Y35.8518 I3.001 J-0.5141
G3 X16.3176 Y28.7891 I76.1038 J-11.6857
G3 X16.2677 Y27.8884 I45.634 J-2.9796
G3 X16.196 Y26.0283 I77.0174 J-3.8991
G3 X16.1802 Y22.0615 I85.9982 J-2.3259
G2 X13.1585 Y21.3756 I-12.0798 J46.2161
G2 X13.0603 Y21.3567 I-0.3961 J1.7958
G2 X12.0105 Y21.1697 I-7.5704 J39.4659
G2 X11.4084 Y21.0759 I-3.7213 J21.907
G1 X11.0866 Y21.0303
G2 X9.3622 Y20.8529 I-3.3798 J24.386
G1 X9.1388 Y20.8402
G2 X8.6617 Y20.8234 I-0.6002 J10.2564
G2 X7.57 Y20.8549 I-0.2282 J11.0139
G2 X6.9913 Y20.9312 I0.5205 J6.1835
G2 X6.3867 Y21.0904 I0.6544 J3.7141
G2 X6.0895 Y21.2214 I0.7716 J2.1524
G2 X5.8073 Y21.41 I0.7864 J1.482
G2 X5.4278 Y22.0882 I0.6596 J0.8144
G3 X5.3735 Y22.447 I-3.2048 J-0.3012
G1 X5.3462 Y22.5648
G3 X5.1822 Y23.0199 I-2.2097 J-0.5393
G3 X4.5599 Y23.7555 I-1.7027 J-0.8094
G3 X3.9795 Y24.0423 I-1.2571 J-1.8132
G3 X3.6218 Y24.1368 I-0.9319 J-2.8046
G3 X2.655 Y24.2136 I-0.8361 J-4.398
G3 X2.1071 Y24.1803 I0.1784 J-7.4667
G3 X1.9666 Y24.1652 I0.2143 J-2.6554
G1 X1.8223 Y24.1473
G3 X1.1765 Y24.0403 I1.5083 J-11.1025
G1 X1.0116 Y24.0068
G3 X0.2755 Y23.8327 I2.6063 J-12.6629
G3 X-0.1106 Y23.7279 I4.4487 J-17.1618
G1 X-0.3084 Y23.6714
G3 X-0.7255 Y23.5476 I7.2777 J-25.2706
G1 X-0.7305 Y23.4027
G1 X-0.7341 Y23.2578
G1 X-0.7369 Y22.9679
G1 X-0.7354 Y22.7746
G3 X-0.6974 Y22.0024 I12.5705 J0.2309
G3 X-0.688 Y21.8996 I1.2598 J0.063
G3 X-0.618 Y21.3541 I10.4366 J1.0623
G3 X-0.4626 Y20.6373 I6.2771 J0.9854
G1 X-0.407 Y20.4496
G3 X0.0147 Y19.4935 I4.2798 J1.3167
G3 X0.9585 Y18.4559 I2.9775 J1.7602
G3 X1.662 Y18.0541 I2.2697 J3.1574
G3 X2.5407 Y17.7569 I2.1642 J4.9505
G3 X3.5778 Y17.5658 I2.1232 J8.6133
G3 X4.7634 Y17.4495 I2.6087 J20.503
G3 X5.069 Y17.4267 I1.1312 J13.0925
G1 X5.7158 Y17.378
G1 X6.048 Y17.3497
G1 X6.1316 Y17.3419
G1 X6.4749 Y17.3064
G1 X6.6486 Y17.2857
G2 X7.0047 Y17.2362 I-1.1968 J-9.9158
G2 X7.7501 Y17.0899 I-1.1425 J-7.7889
G2 X8.5163 Y16.8475 I-1.3856 J-5.7116
G2 X9.2744 Y16.4543 I-1.4843 J-3.7894
G2 X9.9661 Y15.8548 I-1.9834 J-2.9871
G3 X10.1496 Y14.4106 I15.9287 J1.2912
G3 X10.4729 Y12.9912 I12.3178 J2.0584
G3 X10.6011 Y12.5951 I8.3012 J2.4681
G3 X10.6377 Y12.4941 I2.8313 J0.9679
G3 X10.8274 Y12.0407 I5.2081 J1.914
G3 X10.9471 Y11.8073 I3.4638 J1.6272
G3 X11.2903 Y11.3126 I2.4226 J1.3146
G3 X11.5281 Y11.0925 I1.2733 J1.1369
G3 X11.8375 Y10.9248 I0.6821 J0.8895
G3 X11.8976 Y10.9058 I0.332 J0.947
G0 Z5.0
G0 X24.6978 Y-11.6363
G1 Z0.0
G3 X25.4682 Y-14.6651 I14.8422 J2.1628
G3 X25.9892 Y-15.9229 I14.6232 J5.3195
G1 X26.1255 Y-16.2109
G3 X27.3675 Y-18.3883 I17.3193 J8.4358
G3 X28.6582 Y-20.1567 I19.5025 J12.8786
G3 X29.9099 Y-21.6048 I20.4198 J16.3867
G1 X30.0527 Y-21.7578
G1 X30.1943 Y-21.9075
G3 X32.5431 Y-24.1435 I25.1355 J24.0521
G3 X34.4231 Y-25.6857 I28.7459 J33.1257
G3 X35.884 Y-26.7774 I35.6367 J46.1655
G1 X36.162 Y-26.9765
G3 X36.4237 Y-27.1616 I15.4932 J21.6266
G3 X36.67 Y-27.3338 I9.6214 J13.4945
G3 X38.5425 Y-28.5882 I34.7314 J49.8201
G3 X39.4933 Y-29.193 I82.4982 J128.6447
G1 X39.7323 Y-29.3422
G1 X39.912 Y-29.4535
G1 X40.4522 Y-29.785
G1 X41.1476 Y-29.0249
G2 X36.2897 Y-25.4354 I35.6135 J53.2808
G1 X35.8518 Y-25.075
G2 X34.1877 Y-23.6397 I36.0535 J43.4844
G2 X31.4143 Y-20.9744 I36.1935 J40.4377
G2 X30.4267 Y-19.9217 I29.2919 J28.469
G2 X30.3206 Y-19.8047 I2.5431 J2.4124
G2 X29.4997 Y-18.8705 I34.6951 J31.3155
G1 X29.149 Y-18.4545
G1 X28.8251 Y-18.0603
G2 X26.5694 Y-14.9716 I28.0631 J22.8626
G1 X26.3119 Y-14.5684
G2 X24.6978 Y-11.6363 I23.4056 J14.7943
G0 Z5.0
G0 X54.0464 Y-22.7673
G1 Z0.0
G3 X54.0172 Y-23.4229 I0.9814 J-0.3722
G3 X54.2767 Y-23.9193 I1.369 J0.3998
G3 X54.6198 Y-24.2585 I1.6487 J1.3239
G3 X54.7893 Y-24.3827 I1.2958 J1.5911
G3 X55.4864 Y-24.7446 I1.9946 J2.9903
G3 X56.619 Y-25.0579 I2.1107 J5.4255
G3 X57.2011 Y-25.1396 I1.4787 J8.4264
G1 X57.2378 Y-25.1433
G3 X57.7875 Y-25.1823 I0.8612 J8.2546
G3 X58.582 Y-25.1451 I0.188 J4.4905
G3 X59.2863 Y-24.9625 I-0.4382 J3.1388
G3 X59.8532 Y-24.6416 I-0.7986 J2.0719
G3 X60.2355 Y-24.2173 I-1.0015 J1.2868
G3 X60.4113 Y-23.7576 I-1.1134 J0.6893
G3 X60.2736 Y-22.9361 I-1.2662 J0.21
G3 X59.8909 Y-22.4554 I-1.5343 J-0.8288
G3 X59.52 Y-22.1848 I-1.5325 J-1.711
G3 X59.2146 Y-22.0262 I-1.4078 J-2.3375
G3 X58.7306 Y-21.8486 I-1.4916 J-3.3171
G3 X58.2285 Y-21.7312 I-1.3491 J-4.6382
G3 X57.0747 Y-21.5968 I-1.6048 J-8.7532
G3 X55.9868 Y-21.6359 I-0.3214 J-6.2056
G3 X55.4778 Y-21.7331 I0.4786 J-3.8865
G3 X55.008 Y-21.8905 I0.7802 J-3.1103
G3 X54.9549 Y-21.9137 I0.2074 J-0.5454
G3 X54.5568 Y-22.1406 I0.9838 J-2.1886
G3 X54.2483 Y-22.4252 I0.9369 J-1.3251
G3 X54.053 Y-22.7503 I0.9035 J-0.7642
G3 X54.0464 Y-22.7673 I0.9748 J-0.3892
G0 Z5.0
G0 X64.2907 Y-35.7142
G1 Z0.0
G2 X63.6443 Y-36.7033 I-3.2171 J1.3969
G2 X62.8727 Y-37.3704 I-3.5154 J3.2861
G1 X62.827 Y-37.4022
G2 X62.0705 Y-37.8548 I-4.1995 J6.161
G2 X61.899 Y-37.9429 I-2.0414 J3.7635
G2 X61.2218 Y-38.2571 I-5.8719 J11.7678
G2 X61.0715 Y-38.3213 I-1.4445 J3.1722
G2 X59.8946 Y-38.7886 I-13.4329 J32.1202
G1 X59.6726 Y-38.8739
G1 X59.4646 Y-38.9542
G3 X59.4158 Y-38.9731 I0.1822 J-0.5418
G3 X59.3678 Y-38.9918 I0.1753 J-0.5213
G1 X58.991 Y-39.1409
G1 X58.6629 Y-39.276
G3 X58.0955 Y-39.5286 I4.6117 J-11.1225
G3 X57.8859 Y-39.6306 I2.4601 J-5.3208
G1 X57.7949 Y-39.6768
G1 X57.71 Y-39.721
G3 X57.0931 Y-40.0866 I3.268 J-6.2174
G3 X56.5294 Y-40.5299 I2.3305 J-3.5439
G1 X56.8529 Y-40.4735
G3 X59.3943 Y-39.9945 I-15.5539 J89.5213
G3 X61.6054 Y-39.4973 I-11.9103 J58.1207
G3 X62.566 Y-39.2474 I-13.0556 J52.1576
G1 X63.0143 Y-39.1222
G1 X63.4472 Y-38.9957
G3 X63.8651 Y-38.868 I-11.1012 J37.0751
G3 X63.966 Y-38.8363 I-0.7792 J2.6573
G3 X64.0661 Y-38.8045 I-0.8389 J2.8157
G3 X64.1654 Y-38.7727 I-0.9122 J3.0131
G3 X67.252 Y-37.5878 I-8.8117 J27.5674
G3 X71.5409 Y-35.1055 I-10.152 J22.4867
G3 X72.5275 Y-34.3533 I-16.3005 J22.403
G3 X75.256 Y-31.8261 I-16.8876 J20.969
G3 X73.8144 Y-32.0724 I1.1205 J-10.8994
G3 X73.7367 Y-32.091 I0.2062 J-1.0339
G3 X73.6598 Y-32.1099 I0.2202 J-1.0622
G3 X73.0534 Y-32.2759 I3.9388 J-15.5711
G3 X71.9375 Y-32.6534 I4.9572 J-16.4936
G3 X70.9812 Y-33.0374 I7.9215 J-21.1127
G3 X70.5674 Y-33.2166 I8.003 J-19.0494
G3 X70.3742 Y-33.3023 I3.2054 J-7.4839
G3 X70.1874 Y-33.3862 I2.475 J-5.7571
G3 X70.0067 Y-33.4683 I2.0335 J-4.7179
G3 X69.8319 Y-33.5483 I1.7358 J-4.0215
G1 X68.4808 Y-34.1756
G1 X67.9725 Y-34.4079
G2 X67.9167 Y-34.4331 I-0.5188 J1.0768
G2 X67.8618 Y-34.4577 I-0.5092 J1.0603
G2 X67.8077 Y-34.482 I-0.5 J1.0447
G2 X67.7544 Y-34.5057 I-0.4912 J1.0299
G2 X66.0537 Y-35.1991 I-10.4694 J23.2474
G2 X64.2907 Y-35.7142 I-4.7627 J13.0244
G0 Z5.0
G0 X92.6561 Y-51.0885
G1 Z0.0
G3 X93.5505 Y-53.1059 I16.7435 J6.2166
G3 X93.9571 Y-53.8286 I12.2972 J6.442
G3 X95.7319 Y-56.1174 I10.3445 J6.1892
G3 X96.8151 Y-57.0819 I8.2673 J8.194
G3 X97.3966 Y-57.5157 I8.0546 J10.1913
G3 X98.0 Y-57.9185 I10.5091 J15.0871
G3 X97.6329 Y-56.8745 I-7.6054 J-2.0874
G3 X97.209 Y-56.0055 I-9.3791 J-4.0373
G3 X96.3024 Y-54.5784 I-11.8046 J-6.4976
G3 X94.6401 Y-52.6654 I-11.8096 J-8.5832
G1 X94.4096 Y-52.4475
G3 X93.5636 Y-51.7284 I-9.0431 J-9.7819
G3 X92.6561 Y-51.0885 I-6.8032 J-8.6854
G0 Z5.0
G0 X96.172 Y-49.2104
G1 Z0.0
G3 X96.4037 Y-49.6228 I9.7913 J5.2302
G3 X97.4789 Y-51.2021 I14.0955 J8.4407
G3 X99.3591 Y-53.3736 I18.7262 J14.3148
G3 X99.8795 Y-53.8822 I11.8831 J11.6383
G3 X100.2878 Y-54.2498 I7.493 J7.9116
G3 X100.4466 Y-54.3839 I5.6464 J6.5245
G3 X100.5885 Y-54.4988 I2.559 J3.0152
G3 X101.1131 Y-54.8693 I3.3031 J4.1203
G3 X101.1494 Y-54.8906 I0.3339 J0.5277
G3 X101.4361 Y-55.0242 I0.7563 J1.2491
G3 X101.6015 Y-55.0514 I0.1631 J0.4739
G3 X101.6858 Y-55.0302 I-0.0098 J0.2168
G3 X101.7475 Y-54.9691 I-0.0713 J0.1337
G1 X95.594 Y-47.2192
G3 X95.5876 Y-47.5447 I1.5668 J-0.1938
G3 X95.7141 Y-48.1547 I2.8592 J0.275
G3 X95.9209 Y-48.6971 I5.3313 J1.7223
G3 X96.0357 Y-48.9435 I11.1231 J5.0284
G3 X96.1548 Y-49.178 I35.8847 J18.0757
G3 X96.172 Y-49.2104 I9.8086 J5.1978
G0 Z5.0
G0 X91.7122 Y-55.507
G1 Z0.0
G3 X91.3385 Y-55.2602 I-3.9737 J-5.6103
G3 X90.7747 Y-54.9691 I-2.3528 J-3.8661
G3 X90.9687 Y-55.3569 I31.6462 J15.5884
G3 X91.3443 Y-56.0786 I34.2017 J17.344
G1 X91.5157 Y-56.3911
G3 X92.2112 Y-57.5327 I13.8015 J7.6252
G3 X92.8035 Y-58.3436 I10.3678 J6.9516
G3 X93.8355 Y-59.4408 I7.0022 J5.5521
G3 X95.058 Y-60.3206 I4.6444 J5.1642
G3 X94.7938 Y-59.4799 I-5.8623 J-1.3805
G3 X94.478 Y-58.7772 I-6.7159 J-2.5961
G3 X92.9265 Y-56.5812 I-8.6003 J-4.4304
G3 X91.9305 Y-55.6684 I-6.1224 J-5.6804
G3 X91.8632 Y-55.617 I-0.6774 J-0.8168
G3 X91.7122 Y-55.507 I-4.1247 J-5.5003
G0 Z5.0
G0 X88.3687 Y-57.9185
G1 Z0.0
G3 X88.3828 Y-58.1297 I2.2129 J0.0419
G3 X88.4083 Y-58.3332 I2.9311 J0.2633
G1 X88.412 Y-58.3578
G1 X88.4159 Y-58.3822
G1 X88.4514 Y-58.5761
G3 X88.6499 Y-59.3136 I6.2556 J1.2885
G3 X89.8564 Y-61.7005 I8.7123 J2.9052
G3 X90.2889 Y-62.2437 I5.1368 J3.6465
G3 X90.4696 Y-62.4354 I2.6194 J2.2877
G3 X90.814 Y-62.7441 I2.4426 J2.3796
G3 X91.1017 Y-62.9428 I1.5526 J1.9393
G3 X91.587 Y-63.1447 I0.8923 J1.4607
G3 X92.1126 Y-63.137 I0.248 J1.0134
G1 X88.3687 Y-57.9185
G0 Z5.0
G0 X86.8087 Y-63.2015
G1 Z0.0
G3 X86.3657 Y-63.137 I-0.4465 J-1.5122
G1 X88.7678 Y-66.474
G1 X89.5583 Y-65.5239
G2 X89.1921 Y-65.1778 I6.3589 J7.0947
G1 X89.1142 Y-65.0994
G1 X88.9646 Y-64.9461
G1 X88.4084 Y-64.3649
G3 X87.9746 Y-63.9399 I-7.044 J-6.755
G3 X87.6252 Y-63.644 I-3.769 J-4.0973
G3 X87.3422 Y-63.4471 I-2.4771 J-3.2571
G3 X86.8759 Y-63.223 I-1.1984 J-1.8968
G3 X86.8087 Y-63.2015 I-0.5137 J-1.4907
G0 Z5.0
G0 X84.7199 Y-65.7594
G1 Z0.0
G1 X83.9521 Y-66.474
G1 X85.423 Y-68.4885
G3 X85.5733 Y-67.7586 I-2.17 J0.8273
G3 X85.5226 Y-67.2032 I-2.1946 J0.0797
G3 X85.4689 Y-67.0012 I-2.7767 J-0.6301
G3 X85.1609 Y-66.3402 I-2.7842 J-0.8953
G3 X84.7199 Y-65.7594 I-3.4921 J-2.1939
G0 Z5.0
G0 X29.4939 Y41.4347
G1 Z0.0
G3 X30.0494 Y41.8713 I-0.8546 J1.6588
G3 X28.7593 Y42.4402 I-1.9256 J-2.6192
G3 X28.3827 Y42.4681 I-0.3123 J-1.6595
G3 X28.1001 Y42.4264 I0.0279 J-1.1655
G3 X27.7214 Y42.2289 I0.2494 J-0.9401
G3 X27.4611 Y41.8903 I0.712 J-0.8167
G3 X27.6734 Y41.5645 I0.7802 J0.2765
G3 X27.9478 Y41.3763 I0.754 J0.8056
G3 X28.5055 Y41.2323 I0.6513 J1.3697
G3 X29.4939 Y41.4347 I0.1338 J1.8612
G0 Z5.0
G0 X28.6642 Y44.8374
G1 Z0.0
G1 X31.9156 Y45.6302
G1 X29.502 Y46.1585
G1 X28.5176 Y44.8017
G1 X28.6642 Y44.8374
G0 Z5.0
G0 X89.4527 Y76.9422
G1 Z0.0
G3 X89.6353 Y76.6365 I3.001 J1.585
G3 X90.0707 Y76.1414 I2.0959 J1.4043
G3 X90.5614 Y75.8223 I1.3451 J1.5313
G3 X91.0548 Y75.6832 I0.6805 J1.4703
G3 X91.9127 Y75.8664 I0.1644 J1.3307
G3 X92.3709 Y76.3217 I-0.7596 J1.2228
G3 X92.5751 Y76.7574 I-1.5233 J0.9796
G3 X92.6984 Y77.4658 I-2.511 J0.8018
G3 X92.6636 Y78.184 I-4.0005 J0.1659
G3 X92.5847 Y78.5588 I-2.5833 J-0.3481
G3 X92.2485 Y79.1927 I-1.7077 J-0.4995
G3 X91.758 Y79.5797 I-1.181 J-0.9926
G3 X91.2375 Y79.7433 I-0.782 J-1.578
G3 X90.291 Y79.649 I-0.2815 J-1.9727
G3 X89.6675 Y79.284 I0.6201 J-1.7742
G3 X89.1527 Y78.3447 I1.032 J-1.1764
G3 X89.1542 Y77.8045 I1.7759 J-0.2652
G3 X89.2961 Y77.2832 I2.2779 J0.3402
G3 X89.4527 Y76.9422 I3.1576 J1.244
G0 Z5.0
M5
M30
