( Made using CamBam - http://www.cambam.co.uk )
( car2 1/22/2014 9:34:55 AM )
( T0 : 0.0 )
G21 G90 G64 G40
G0 Z5.0
( T0 : 0.0 )
T0 M6
( 201-230 )
G17
M3 S1000
G0 X-166.8695 Y-44.4104
G1 F1.0 Z0.0
G3 X-169.0075 Y-48.159 I24.6552 J-16.5456
G3 X-170.5722 Y-52.1807 I26.4311 J-12.5992
G3 X-171.286 Y-54.9691 I30.1365 J-9.2003
G3 X-170.9403 Y-55.0429 I1.4106 J5.7559
G1 X-170.8243 Y-55.064
G3 X-170.3572 Y-55.128 I1.1153 J6.4031
G3 X-169.415 Y-55.138 I0.5233 J4.9437
G3 X-168.7944 Y-55.0345 I-0.3777 J4.1805
G3 X-168.0097 Y-54.7341 I-0.8316 J3.3464
G3 X-167.1129 Y-54.0589 I-1.741 J3.2459
G3 X-166.6947 Y-53.5704 I-3.212 J3.173
G3 X-166.2929 Y-52.9575 I-4.8005 J3.5852
G3 X-165.9134 Y-52.2164 I-7.0611 J4.0833
G3 X-165.555 Y-51.3441 I-10.8299 J4.9593
G3 X-165.2095 Y-50.3372 I-20.232 J7.5062
G1 X-165.0417 Y-49.7987
G3 X-165.0211 Y-49.7307 I-0.7159 J0.2546
G3 X-165.0004 Y-49.6622 I-0.7452 J0.2628
G1 X-164.9159 Y-49.3804
G1 X-164.5393 Y-48.113
G1 X-164.4398 Y-47.788
G1 X-164.3348 Y-47.4547
G1 X-164.2231 Y-47.1132
G1 X-164.1032 Y-46.7638
G1 X-163.9733 Y-46.4068
G1 X-163.9394 Y-46.3173
G2 X-163.7941 Y-45.9517 I10.6594 J-4.0245
G1 X-163.7165 Y-45.7679
G2 X-163.5469 Y-45.394 I6.9034 J-2.9054
G2 X-163.1343 Y-44.6272 I7.6556 J-3.6242
G2 X-162.5937 Y-43.8747 I5.0058 J-3.0261
G1 X-166.8695 Y-44.4104
G0 Z5.0
G0 X-161.7812 Y-46.5715
G1 Z0.0
G3 X-162.1755 Y-47.6072 I13.4873 J-5.7282
G1 X-162.2689 Y-47.8907
G3 X-162.707 Y-49.4148 I28.3567 J-8.9755
G3 X-162.7589 Y-49.6127 I5.4623 J-1.5379
G1 X-162.991 Y-50.5166
G1 X-163.1152 Y-50.998
G1 X-163.2513 Y-51.51
G2 X-163.2868 Y-51.6398 I-3.8739 J0.9908
G2 X-163.6411 Y-52.8151 I-22.3016 J6.0812
G2 X-163.8632 Y-53.4307 I-15.182 J5.131
G1 X-163.9248 Y-53.5851
G1 X-163.9898 Y-53.7409
G2 X-164.3002 Y-54.3914 I-7.0406 J2.9605
G3 X-164.2283 Y-54.3874 I-0.0334 J1.244
G1 X-164.1563 Y-54.3832
G1 X-164.0122 Y-54.3746
G3 X-163.9162 Y-54.3687 I-0.1919 J3.8941
G1 X-163.7882 Y-54.3606
G1 X-163.2764 Y-54.3261
G1 X-162.9353 Y-54.3012
G1 X-162.8912 Y-54.2978
G1 X-162.69 Y-54.2823
G3 X-161.0831 Y-54.1335 I-4.0048 J52.0129
G1 X-161.0321 Y-54.1279
G3 X-159.9485 Y-53.984 I-2.2706 J21.245
G3 X-159.3354 Y-53.8634 I-1.2558 J8.0053
G1 X-159.2585 Y-53.8435
G3 X-159.1015 Y-53.796 I-0.3485 J1.435
G3 X-158.9449 Y-53.7299 I-0.3822 J1.1246
G3 X-158.16 Y-53.0994 I-1.3871 J2.5303
G3 X-157.5999 Y-52.2629 I-3.0108 J2.6217
G3 X-157.3309 Y-51.6484 I-5.7553 J2.8858
G3 X-157.0637 Y-50.7987 I-8.0788 J3.0073
G3 X-156.8124 Y-49.6458 I-14.9821 J3.8698
G3 X-156.5714 Y-48.1036 I-36.2751 J6.4575
G1 X-156.448 Y-47.2235
G1 X-156.3794 Y-46.7553
G2 X-156.2003 Y-45.6926 I29.2613 J-4.3868
G2 X-155.9186 Y-44.4968 I12.525 J-2.3189
G2 X-155.8736 Y-44.3473 I2.9604 J-0.8095
G1 X-155.8252 Y-44.1964
G2 X-155.5817 Y-43.5651 I6.5284 J-2.1553
G2 X-155.5462 Y-43.4875 I1.4384 J-0.6127
G2 X-155.1859 Y-42.8522 I3.8142 J-1.7431
G3 X-156.7161 Y-43.0805 I6.4598 J-48.5412
G3 X-158.2367 Y-43.3659 I4.8338 J-29.9403
G3 X-158.6675 Y-43.4654 I2.2047 J-10.5333
G3 X-159.1551 Y-43.598 I2.874 J-11.5319
G3 X-159.4111 Y-43.6829 I1.3227 J-4.4122
G1 X-159.5408 Y-43.7336
G3 X-159.8038 Y-43.8747 I0.4541 J-1.1621
G3 X-160.7142 Y-44.7496 I2.9475 J-3.9778
G3 X-161.4105 Y-45.803 I5.2208 J-4.2082
G3 X-161.7767 Y-46.5609 I7.7437 J-4.2082
G3 X-161.7812 Y-46.5715 I13.4828 J-5.7388
G0 Z5.0
G0 X-154.2627 Y-47.9533
G1 Z0.0
G1 X-154.345 Y-48.4012
G1 X-154.4098 Y-48.7521
G1 X-154.4432 Y-48.9299
G2 X-154.5137 Y-49.2946 I-14.1334 J2.5432
G1 X-154.5899 Y-49.6684
G1 X-154.6305 Y-49.8573
G2 X-154.8213 Y-50.6498 I-18.7186 J4.0884
G1 X-154.8761 Y-50.849
G1 X-154.9349 Y-51.0497
G2 X-155.0676 Y-51.4585 I-10.4681 J3.171
G2 X-155.1417 Y-51.6633 I-6.506 J2.2408
G1 X-155.2223 Y-51.8687
G2 X-155.6361 Y-52.7063 I-5.8704 J2.3792
G2 X-155.9042 Y-53.1066 I-4.2258 J2.5406
G1 X-150.6705 Y-52.7722
G3 X-149.8991 Y-50.9883 I-19.5372 J9.5078
G3 X-149.6758 Y-50.3799 I-16.8596 J6.5322
G1 X-149.5549 Y-50.03
G1 X-149.422 Y-49.6283
G3 X-149.0912 Y-48.5495 I-35.3187 J11.4207
G3 X-148.6868 Y-47.1008 I-70.1797 J20.3681
G1 X-148.1667 Y-45.1648
G1 X-148.0243 Y-44.6497
G1 X-147.8682 Y-44.1014
G1 X-147.8278 Y-43.9623
G2 X-147.4389 Y-42.6971 I39.9547 J-11.5887
G2 X-147.426 Y-42.6576 I0.4331 J-0.1188
G1 X-147.3185 Y-42.332
G1 X-147.2043 Y-41.997
G1 X-147.3444 Y-41.9669
G1 X-147.4848 Y-41.9384
G3 X-147.7667 Y-41.8863 I-2.5554 J-13.0281
G1 X-147.9553 Y-41.8554
G1 X-148.0057 Y-41.8477
G1 X-148.2751 Y-41.811
G3 X-149.3601 Y-41.7478 I-1.002 J-7.8529
G3 X-150.0833 Y-41.8008 I0.0974 J-6.2865
G3 X-151.0235 Y-42.0325 I0.584 J-4.3936
G3 X-152.1409 Y-42.6918 I1.2304 J-3.3617
G3 X-152.6541 Y-43.2353 I2.6531 J-3.0195
G3 X-153.1168 Y-43.9554 I3.9137 J-3.0233
G3 X-153.2168 Y-44.1525 I5.5087 J-2.919
G3 X-153.592 Y-45.0853 I7.2482 J-3.4571
G3 X-153.749 Y-45.596 I8.6033 J-2.9237
G3 X-154.033 Y-46.7687 I16.5639 J-4.6329
G3 X-154.1585 Y-47.3952 I63.3836 J-13.0236
G1 X-154.2194 Y-47.718
G1 X-154.2627 Y-47.9533
G0 Z5.0
G0 X-146.7341 Y-49.8754
G1 Z0.0
G2 X-147.1667 Y-51.3886 I-26.7866 J6.8385
G1 X-147.2445 Y-51.6253
G2 X-147.611 Y-52.6125 I-14.3845 J4.778
G3 X-146.3662 Y-52.6538 I1.0644 J13.3171
G3 X-145.1242 Y-52.561 I-0.1396 J10.2303
G1 X-144.9599 Y-52.5358
G3 X-144.0957 Y-52.3383 I-1.0126 J6.4214
G1 X-144.0418 Y-52.3218
G3 X-142.9396 Y-51.8402 I-1.5071 J4.9507
G3 X-141.7195 Y-50.7876 I-2.2694 J3.8641
G3 X-141.2028 Y-50.0177 I-4.1281 J3.3286
G3 X-140.7615 Y-49.0546 I-6.4602 J3.5427
G3 X-140.5774 Y-48.5211 I-8.2301 J3.139
G3 X-140.2477 Y-47.2848 I-14.8969 J4.6348
G3 X-140.1037 Y-46.6211 I-20.3637 J4.7668
G1 X-139.9613 Y-45.9154
G3 X-139.9436 Y-45.8264 I-1.3571 J0.3159
G2 X-139.9258 Y-45.7369 I1.5251 J-0.2566
G1 X-139.7721 Y-44.9789
G1 X-139.6885 Y-44.59
G2 X-139.4922 Y-43.7716 I21.4393 J-4.7096
G1 X-139.465 Y-43.6692
G2 X-139.4078 Y-43.4621 I7.4056 J-1.9355
G1 X-139.3467 Y-43.253
G2 X-139.046 Y-42.3818 I9.848 J-2.9109
G2 X-138.633 Y-41.4968 I7.1583 J-2.8017
G1 X-138.5728 Y-41.3895
G2 X-137.9759 Y-40.5299 I5.0509 J-2.8698
G1 X-138.2971 Y-40.4697
G3 X-138.4045 Y-40.4512 I-0.4805 J-2.4756
G3 X-138.5479 Y-40.428 I-0.8666 J-4.89
G3 X-139.1237 Y-40.3515 I-2.0452 J-13.2015
G3 X-140.2839 Y-40.295 I-1.0238 J-9.0823
G3 X-140.4388 Y-40.2992 I0.0152 J-3.4168
G3 X-141.2617 Y-40.3794 I0.2071 J-6.3852
G1 X-141.3135 Y-40.3882
G3 X-142.392 Y-40.6961 I0.8474 J-5.0111
G3 X-143.6568 Y-41.5068 I1.6294 J-3.9338
G3 X-144.2346 Y-42.1499 I3.3005 J-3.5464
G3 X-144.7612 Y-42.9868 I4.8711 J-3.649
G3 X-144.9921 Y-43.4607 I8.2127 J-4.2962
G3 X-145.4205 Y-44.578 I10.5265 J-4.6764
G3 X-145.7963 Y-45.8776 I19.4416 J-6.3264
G1 X-145.8813 Y-46.2152
G1 X-145.9655 Y-46.5634
G3 X-146.0495 Y-46.9222 I42.7497 J-10.197
G1 X-146.4142 Y-48.5359
G2 X-146.6135 Y-49.3867 I-49.7272 J11.1978
G2 X-146.6395 Y-49.4936 I-1.6028 J0.3338
G2 X-146.7341 Y-49.8754 I-26.8812 J6.4568
G0 Z5.0
G0 X-139.4468 Y-52.0235
G1 Z0.0
G3 X-138.2149 Y-52.1177 I1.2603 J8.379
G3 X-136.9861 Y-51.991 I0.0156 J5.8705
G3 X-134.8142 Y-50.834 I-0.8964 J4.2997
G3 X-134.3378 Y-50.3044 I-3.4921 J3.6199
G1 X-134.2264 Y-50.1581
G3 X-133.7715 Y-49.4536 I-5.5117 J4.0578
G3 X-133.3448 Y-48.6002 I-8.9288 J4.9976
G3 X-132.947 Y-47.5937 I-13.4005 J5.8775
G3 X-132.5696 Y-46.4291 I-23.5124 J8.2642
G3 X-132.3885 Y-45.8057 I-37.5828 J11.2542
G1 X-132.2043 Y-45.1428
G1 X-132.0122 Y-44.4398
G1 X-131.9128 Y-44.0783
G1 X-131.809 Y-43.707
G1 X-131.7556 Y-43.5189
G1 X-131.6431 Y-43.1328
G1 X-131.5231 Y-42.7369
G1 X-131.394 Y-42.3316
G1 X-131.3258 Y-42.1268
G1 X-131.2545 Y-41.92
G2 X-130.9245 Y-41.0537 I16.3083 J-5.7163
G2 X-130.8322 Y-40.8374 I8.7614 J-3.6095
G2 X-130.3918 Y-39.9423 I9.6927 J-4.2132
G2 X-129.8156 Y-39.0513 I6.5938 J-3.6324
G1 X-129.9639 Y-39.02
G1 X-130.1125 Y-38.9908
G1 X-130.2119 Y-38.9725
G3 X-130.3447 Y-38.9496 I-0.4637 J-2.2919
G3 X-130.8784 Y-38.8768 I-1.4126 J-8.3684
G3 X-131.2363 Y-38.8468 I-0.6348 J-5.4283
G1 X-131.4414 Y-38.8371
G1 X-131.676 Y-38.8332
G3 X-132.3008 Y-38.8638 I-0.0237 J-5.9116
G3 X-133.1222 Y-39.0121 I0.4674 J-4.937
G3 X-134.1553 Y-39.431 I1.1599 J-4.3443
G3 X-135.3131 Y-40.3699 I2.2492 J-3.9569
G3 X-135.8346 Y-41.047 I4.5338 J-4.0311
G3 X-136.3187 Y-41.8923 I6.4296 J-4.2433
G3 X-136.7568 Y-42.9081 I9.5892 J-4.7376
G3 X-137.151 Y-44.0963 I15.2971 J-5.7348
G1 X-137.2398 Y-44.4061
G3 X-137.5986 Y-45.8129 I35.3948 J-9.7756
G1 X-137.6835 Y-46.1765
G3 X-137.7046 Y-46.2681 I3.1975 J-0.7845
G1 X-137.7905 Y-46.645
G1 X-137.9707 Y-47.4424
G2 X-138.1657 Y-48.2844 I-79.3039 J17.9294
G1 X-138.2708 Y-48.7159
G2 X-138.5118 Y-49.6234 I-27.1893 J6.7356
G2 X-138.81 Y-50.5703 I-15.4695 J4.3508
G2 X-138.8519 Y-50.688 I-2.0089 J0.6478
G1 X-138.9404 Y-50.9255
G2 X-139.382 Y-51.9047 I-8.658 J3.3155
G1 X-139.4468 Y-52.0235
G0 Z5.0
G0 X-131.2371 Y-51.2482
G1 Z0.0
G3 X-129.9777 Y-51.4685 I2.1222 J8.4196
G3 X-128.6992 Y-51.4541 I0.574 J5.7992
G3 X-126.3711 Y-50.4229 I-0.5104 J4.2957
G3 X-125.848 Y-49.9023 I-3.4388 J3.979
G3 X-125.3362 Y-49.2334 I-4.9643 J4.3281
G3 X-124.8475 Y-48.4091 I-7.3714 J4.9274
G3 X-124.735 Y-48.1891 I-4.8578 J2.6245
G3 X-124.2789 Y-47.1665 I-11.9741 J5.9532
G3 X-124.0657 Y-46.6118 I-12.7268 J5.2086
G3 X-123.6345 Y-45.3421 I-24.7532 J9.1147
G1 X-123.5834 Y-45.1799
G1 X-123.48 Y-44.8457
G1 X-123.4284 Y-44.6759
G3 X-123.4025 Y-44.5904 I-0.9297 J0.3277
G3 X-123.3766 Y-44.5042 I-0.9702 J0.339
G1 X-122.9182 Y-42.9532
G2 X-122.379 Y-41.2189 I53.6749 J-15.7365
G2 X-122.0591 Y-40.3126 I28.6777 J-9.6148
G1 X-121.972 Y-40.085
G1 X-121.8808 Y-39.8554
G1 X-121.7851 Y-39.6239
G2 X-121.3346 Y-38.6619 I11.98 J-5.0233
G2 X-120.7545 Y-37.6944 I7.7542 J-3.9915
G3 X-123.7587 Y-37.6507 I-1.7083 J-14.1523
G3 X-124.7529 Y-37.7847 I1.0637 J-11.6478
G3 X-126.0508 Y-38.1105 I1.6043 J-9.1388
G3 X-126.7631 Y-38.392 I2.4238 J-7.1768
G3 X-127.5275 Y-38.8233 I2.2974 J-4.9643
G2 X-127.947 Y-39.9858 I-41.7777 J14.4165
G2 X-128.3895 Y-41.1398 I-87.8434 J33.0254
G1 X-128.4495 Y-41.2933
G1 X-128.5136 Y-41.457
G1 X-128.5821 Y-41.6316
G1 X-128.6552 Y-41.8177
G1 X-128.8225 Y-42.2432
G1 X-129.2656 Y-43.3788
G1 X-129.5138 Y-44.0297
G1 X-129.6438 Y-44.3777
G3 X-129.9328 Y-45.1762 I52.7269 J-19.5346
G3 X-130.6199 Y-47.3342 I31.9163 J-11.35
G3 X-130.9292 Y-48.5916 I21.6698 J-5.9973
G1 X-130.9625 Y-48.7527
G3 X-131.0868 Y-49.4437 I19.5439 J-3.8713
G1 X-131.1002 Y-49.5312
G3 X-131.2366 Y-51.146 I11.582 J-1.7911
G1 X-131.2371 Y-51.2482
G0 Z5.0
G0 X-122.5942 Y-50.1573
G1 Z0.0
G3 X-122.5228 Y-50.1544 I-0.0218 J1.4167
G1 X-122.4513 Y-50.1511
G1 X-122.3085 Y-50.1438
G3 X-122.2132 Y-50.1385 I-0.1802 J4.0755
G1 X-122.0863 Y-50.1309
G3 X-121.579 Y-50.0947 I-3.1426 J47.668
G1 X-121.2413 Y-50.0657
G1 X-121.1976 Y-50.0617
G1 X-121.1526 Y-50.0574
G3 X-119.719 Y-49.8767 I-2.1331 J22.6942
G3 X-118.7742 Y-49.6875 I-1.9227 J12.0556
G3 X-118.2445 Y-49.5356 I-1.5678 J6.4692
G3 X-117.9688 Y-49.4329 I-1.3403 J4.0199
G3 X-117.6852 Y-49.2968 I-1.0449 J2.5409
G3 X-117.4099 Y-49.1006 I-0.6458 J1.1973
G3 X-116.9808 Y-48.6482 I-3.7909 J4.0252
G3 X-116.5972 Y-48.1565 I-4.9131 J4.2287
G3 X-115.941 Y-47.0975 I-8.4122 J5.9454
G3 X-115.9221 Y-47.0627 I-0.2587 J0.1626
G3 X-115.9031 Y-47.0272 I-0.2623 J0.1638
G3 X-115.5211 Y-46.2602 I-14.6912 J7.7939
G3 X-115.0689 Y-45.2125 I-21.4407 J9.8767
G3 X-115.0554 Y-45.1791 I-0.3496 J0.1601
G3 X-115.0419 Y-45.1455 I-0.3534 J0.1612
G3 X-115.0284 Y-45.1115 I-0.3572 J0.1624
G3 X-115.0148 Y-45.0773 I-0.3611 J0.1636
G3 X-114.959 Y-44.9359 I-2.461 J1.0521
G3 X-114.9022 Y-44.7898 I-2.9933 J1.2472
G3 X-114.8443 Y-44.6386 I-4.105 J1.659
G3 X-114.262 Y-43.017 I-52.3491 J19.7134
G3 X-114.2444 Y-42.9656 I-0.8799 J0.3311
G1 X-113.9254 Y-42.0269
G1 X-113.756 Y-41.5262
G1 X-113.6682 Y-41.268
G2 X-113.4792 Y-40.7179 I31.17 J-10.4057
G1 X-113.2731 Y-40.1331
G2 X-112.7724 Y-38.8084 I33.9358 J-12.0694
G2 X-112.4792 Y-38.1124 I24.0492 J-9.7239
G2 X-112.1369 Y-37.3831 I16.2824 J-7.1963
G2 X-111.7268 Y-36.6273 I12.2911 J-6.1801
G2 X-111.492 Y-36.2502 I7.2728 J-4.2671
G3 X-112.69 Y-36.0975 I-1.9723 J-10.6914
G3 X-113.8976 Y-36.0983 I-0.598 J-8.1794
G3 X-114.6958 Y-36.2083 I0.5363 J-6.8429
G1 X-114.7976 Y-36.2298
G3 X-115.8533 Y-36.5736 I1.237 J-5.591
G3 X-117.1105 Y-37.3607 I2.1217 J-4.7866
G3 X-117.7201 Y-37.9539 I3.8477 J-4.5641
G3 X-118.3158 Y-38.7216 I5.7181 J-5.0521
G3 X-118.8801 Y-39.6742 I7.9244 J-5.3368
G3 X-119.4057 Y-40.8171 I11.8022 J-6.1209
G3 X-119.8976 Y-42.1539 I19.4826 J-7.9266
G3 X-120.1286 Y-42.8735 I36.2941 J-12.0525
G1 X-120.2421 Y-43.2455
G1 X-120.2985 Y-43.4346
G3 X-120.7882 Y-45.1432 I109.8872 J-32.4233
G1 X-121.0475 Y-46.0477
G2 X-121.6887 Y-48.0628 I-34.9137 J9.9998
G2 X-121.7338 Y-48.1881 I-2.3858 J0.7873
G2 X-121.7799 Y-48.3139 I-3.1978 J1.1006
G1 X-121.876 Y-48.5683
G2 X-122.3273 Y-49.6278 I-14.0525 J5.3606
G2 X-122.5942 Y-50.1573 I-12.3929 J5.913
G0 Z5.0
G0 X-113.495 Y-49.1463
G1 Z0.0
G3 X-112.4378 Y-49.3836 I2.7632 J9.8361
G3 X-111.3585 Y-49.4793 I1.1589 J6.9366
G3 X-110.6365 Y-49.4387 I0.0667 J5.2632
G3 X-109.6955 Y-49.2232 I-0.591 J4.7419
G3 X-108.5528 Y-48.6239 I-1.379 J4.0182
G3 X-107.9912 Y-48.1411 I-2.746 J3.762
G3 X-107.7218 Y-47.8518 I-4.1584 J4.1432
G3 X-107.1803 Y-47.1308 I-5.0619 J4.3655
G3 X-106.9292 Y-46.7214 I-6.9059 J4.5177
G3 X-106.4366 Y-45.7486 I-9.4115 J5.3772
G3 X-105.978 Y-44.6029 I-15.2108 J6.7525
G3 X-105.5446 Y-43.2804 I-24.7904 J8.8567
G1 X-105.4941 Y-43.1114
G1 X-105.3925 Y-42.7629
G1 X-105.342 Y-42.5859
G1 X-105.2914 Y-42.4063
G1 X-105.1892 Y-42.0364
G1 X-104.9782 Y-41.2526
G1 X-104.8712 Y-40.8494
G1 X-104.7613 Y-40.4349
G2 X-104.5258 Y-39.5595 I66.0241 J-17.2919
G2 X-103.9485 Y-37.6109 I39.661 J-10.6911
G2 X-103.9083 Y-37.4894 I2.2067 J-0.6629
G2 X-103.5405 Y-36.4712 I17.4636 J-5.7332
G2 X-103.0803 Y-35.4211 I12.3375 J-4.7805
G2 X-102.4789 Y-34.3628 I8.5872 J-4.1796
G2 X-102.3929 Y-34.2358 I2.1411 J-1.3571
G1 X-108.4932 Y-35.2734
G1 X-108.5369 Y-35.4207
G1 X-108.5813 Y-35.5679
G1 X-108.6723 Y-35.8614
G1 X-108.7346 Y-36.0567
G1 X-108.8194 Y-36.3165
G2 X-109.1772 Y-37.349 I-32.8708 J10.8122
G2 X-109.2269 Y-37.486 I-3.9551 J1.3588
G2 X-109.2805 Y-37.632 I-3.5606 J1.2232
G2 X-109.3381 Y-37.7875 I-3.2892 J1.1304
G2 X-110.3121 Y-40.2543 I-75.3974 J28.3463
G2 X-110.3441 Y-40.3322 I-1.1976 J0.4459
G2 X-110.3766 Y-40.4114 I-1.1961 J0.4452
G1 X-110.6748 Y-41.1344
G1 X-111.0154 Y-41.9606
G1 X-111.4006 Y-42.9065
G3 X-112.3723 Y-45.4505 I60.8028 J-24.6812
G1 X-112.43 Y-45.6135
G3 X-113.495 Y-49.1463 I35.7571 J-12.7073
G0 Z5.0
G0 X-104.2667 Y-48.2911
G1 Z0.0
G3 X-102.9567 Y-48.4314 I1.8261 J10.8666
G3 X-101.6401 Y-48.3807 I0.3522 J7.9717
G1 X-101.466 Y-48.3558
G3 X-101.071 Y-48.2808 I-1.0353 J6.5286
G3 X-100.8625 Y-48.2299 I-3.4699 J14.6572
G3 X-99.7935 Y-47.8199 I-1.3469 J5.111
G3 X-98.5605 Y-46.9132 I-2.2914 J4.4077
G3 X-97.9882 Y-46.2474 I-4.3542 J4.3211
G3 X-97.4498 Y-45.4019 I-5.7331 J4.2449
G1 X-97.3287 Y-45.1733
G3 X-96.8534 Y-44.0976 I-9.2819 J4.7433
G1 X-96.7483 Y-43.8132
G3 X-96.3391 Y-42.5029 I-17.125 J6.066
G3 X-96.1566 Y-41.7979 I-28.2143 J7.6804
G1 X-96.0696 Y-41.4334
G3 X-95.8967 Y-40.6582 I-28.0092 J6.6527
G3 X-95.7257 Y-39.8349 I-124.7847 J26.343
G1 X-95.5513 Y-38.9622
G1 X-95.5073 Y-38.7409
G1 X-95.3182 Y-37.8056
G2 X-95.217 Y-37.3257 I23.2531 J-4.654
G1 X-95.1083 Y-36.8334
G1 X-94.9898 Y-36.3289
G2 X-94.9587 Y-36.2022 I2.6806 J-0.5906
G2 X-94.6692 Y-35.1371 I20.1991 J-4.9197
G1 X-94.6491 Y-35.0708
G1 X-94.6287 Y-35.0043
G2 X-94.2377 Y-33.8944 I12.7257 J-3.8594
G2 X-93.6967 Y-32.7687 I8.5703 J-3.4258
G3 X-94.6869 Y-32.7196 I-1.0597 J-11.3604
G3 X-94.7531 Y-32.7194 I-0.0345 J-0.672
G3 X-94.9043 Y-32.7207 I-0.0547 J-2.4218
G3 X-96.1086 Y-32.8222 I0.0989 J-8.3725
G3 X-96.8962 Y-32.9954 I1.0407 J-6.6089
G3 X-99.5945 Y-34.7298 I1.4196 J-5.1748
G3 X-100.1416 Y-35.4821 I4.9391 J-4.1666
G3 X-100.3918 Y-35.9105 I5.7263 J-3.631
G3 X-100.6301 Y-36.3824 I9.5923 J-5.1422
G3 X-101.0816 Y-37.4965 I11.0724 J-5.1349
G3 X-101.4794 Y-38.8004 I17.9839 J-6.1997
G3 X-101.8383 Y-40.2988 I28.8912 J-7.7123
G1 X-101.8796 Y-40.4898
G1 X-101.9627 Y-40.8833
G1 X-102.1336 Y-41.7182
G1 X-102.1766 Y-41.93
G1 X-102.3607 Y-42.8264
G1 X-102.4086 Y-43.0534
G2 X-102.6229 Y-44.0119 I-35.3469 J7.3989
G2 X-102.8802 Y-45.019 I-30.2766 J7.1991
G2 X-103.0302 Y-45.5322 I-15.2618 J4.1824
G2 X-103.4026 Y-46.6016 I-13.8386 J4.2198
G2 X-103.6309 Y-47.138 I-12.0178 J4.797
G1 X-103.6616 Y-47.2045
G2 X-104.2667 Y-48.2911 I-7.6135 J3.5277
G0 Z5.0
G0 X-95.6731 Y-47.2079
G1 Z0.0
G3 X-94.2038 Y-47.2061 I0.7115 J19.1973
G3 X-93.7145 Y-47.1835 I-0.7565 J21.663
G1 X-93.6513 Y-47.1798
G3 X-93.3629 Y-47.1614 I-1.0442 J18.617
G3 X-92.595 Y-47.098 I-2.2924 J32.4435
G3 X-91.574 Y-46.9847 I-2.9453 J31.2044
G3 X-90.9921 Y-46.9071 I-3.0358 J24.9804
G1 X-90.6822 Y-46.8624
G3 X-90.352 Y-46.8126 I-1.5967 J11.7139
G1 X-86.0724 Y-30.8911
G3 X-87.2281 Y-30.853 I-0.8502 J-8.2486
G3 X-88.3741 Y-31.008 I0.2358 J-6.0579
G3 X-89.108 Y-31.2484 I1.0264 J-4.3741
G3 X-90.0037 Y-31.7592 I1.6872 J-3.9993
G3 X-90.9739 Y-32.7355 I2.8742 J-3.8264
G3 X-91.1854 Y-33.0369 I5.6837 J-4.2131
G3 X-91.6013 Y-33.7658 I5.6961 J-3.7334
G3 X-91.7897 Y-34.1711 I8.7191 J-4.3005
G3 X-91.8792 Y-34.3835 I4.9407 J-2.2046
G3 X-92.0538 Y-34.8416 I10.5405 J-4.2808
G3 X-92.3854 Y-35.9022 I14.2963 J-5.0519
G3 X-92.5334 Y-36.4733 I24.2885 J-6.5992
G3 X-92.6037 Y-36.7687 I14.9895 J-3.7259
G1 X-92.6727 Y-37.0736
G3 X-92.8093 Y-37.7224 I36.8087 J-8.0873
G1 X-92.8755 Y-38.057
G1 X-92.9082 Y-38.2268
G1 X-92.941 Y-38.3992
G1 X-93.0758 Y-39.1303
G3 X-93.0924 Y-39.2224 I1.0801 J-0.2431
G2 X-93.3947 Y-40.879 I-236.7274 J42.341
G1 X-93.4768 Y-41.3042
G1 X-93.5197 Y-41.5195
G2 X-93.6112 Y-41.9617 I-17.8041 J3.4541
G2 X-93.8241 Y-42.894 I-27.3408 J5.7555
G1 X-93.8833 Y-43.1291
G1 X-93.9458 Y-43.3669
G2 X-94.2441 Y-44.3658 I-15.5293 J4.0943
G2 X-94.3298 Y-44.616 I-7.0371 J2.2704
G1 X-94.4215 Y-44.868
G2 X-94.8734 Y-45.9139 I-10.9127 J4.0948
G2 X-95.4903 Y-46.9591 I-7.0996 J3.486
G2 X-95.6731 Y-47.2079 I-5.2518 J3.6672
G0 Z5.0
G0 X-88.0906 Y-46.4857
G1 Z0.0
G3 X-85.8417 Y-46.2577 I-3.8202 J48.898
G1 X-85.5216 Y-46.2153
G1 X-85.351 Y-46.1912
G3 X-85.263 Y-46.1784 I-0.1747 J1.5063
G1 X-84.8614 Y-46.1157
G3 X-83.7984 Y-45.9042 I-2.5326 J15.5051
G3 X-83.6627 Y-45.8701 I-0.6033 J2.6846
G1 X-78.3149 Y-29.424
G3 X-78.9227 Y-29.4456 I-0.0658 J-6.7166
G3 X-79.1246 Y-29.4643 I0.1921 J-3.1627
G3 X-79.9232 Y-29.6036 I0.6585 J-6.1347
G3 X-81.4187 Y-30.2218 I1.2165 J-5.0616
G3 X-82.2799 Y-30.8768 I2.9353 J-4.7525
G3 X-83.2171 Y-31.9699 I4.5769 J-4.8726
G1 X-83.3215 Y-32.124
G3 X-83.7549 Y-32.8529 I8.167 J-5.3499
G1 X-83.8054 Y-32.948
G3 X-84.2239 Y-33.8341 I10.3878 J-5.4486
G1 X-84.2723 Y-33.9488
G1 X-84.3205 Y-34.0656
G3 X-84.3324 Y-34.095 I0.2996 J-0.1388
G3 X-84.3443 Y-34.1246 I0.3012 J-0.1388
G3 X-84.3562 Y-34.1542 I0.3028 J-0.1388
G3 X-84.3681 Y-34.184 I0.3044 J-0.1387
G3 X-84.38 Y-34.214 I0.3061 J-0.1387
G3 X-84.3919 Y-34.244 I0.3077 J-0.1387
G3 X-84.4037 Y-34.2743 I0.3094 J-0.1387
G3 X-84.4155 Y-34.3046 I0.3111 J-0.1388
G3 X-84.8086 Y-35.4192 I19.3691 J-7.4572
G3 X-84.854 Y-35.5621 I4.2005 J-1.4144
G3 X-85.2316 Y-36.868 I29.3631 J-9.1968
G3 X-85.4126 Y-37.5669 I29.295 J-7.9615
G1 X-85.457 Y-37.7446
G1 X-85.5468 Y-38.111
G1 X-85.6374 Y-38.4888
G3 X-85.7292 Y-38.8783 I17.3611 J-4.2985
G2 X-86.139 Y-40.6411 I-420.9575 J96.9324
G1 X-86.2467 Y-41.0944
G1 X-86.3602 Y-41.5606
G1 X-86.4808 Y-42.0398
G1 X-86.6101 Y-42.532
G1 X-86.6437 Y-42.6557
G2 X-86.948 Y-43.7007 I-24.4883 J6.5642
G2 X-87.322 Y-44.795 I-21.6037 J6.7737
G1 X-87.3477 Y-44.8629
G1 X-87.3738 Y-44.9309
G1 X-87.4829 Y-45.2057
G2 X-88.0146 Y-46.3464 I-11.0127 J4.439
G2 X-88.0906 Y-46.4857 I-2.9819 J1.5374
G0 Z5.0
G0 X-81.0781 Y-45.9232
G1 Z0.0
G1 X-79.34 Y-45.6951
G3 X-77.6031 Y-45.4584 I-12.8615 J100.8861
G1 X-77.3719 Y-45.4242
G1 X-76.844 Y-45.3417
G1 X-76.3877 Y-43.9941
G1 X-76.323 Y-43.8014
G1 X-75.8091 Y-42.2588
G1 X-75.6634 Y-41.8176
G1 X-75.2769 Y-40.6405
G1 X-74.7658 Y-39.0697
G1 X-74.4755 Y-38.1716
G1 X-73.7063 Y-35.7749
G1 X-72.688 Y-32.577
G1 X-72.4171 Y-31.724
G1 X-71.7982 Y-29.7743
G1 X-71.0896 Y-27.5463
G3 X-73.3308 Y-28.3198 I0.6264 J-5.4486
G3 X-73.9821 Y-28.7771 I3.2345 J-5.2991
G3 X-74.7575 Y-29.4988 I4.713 J-5.8409
G3 X-75.1549 Y-29.9552 I6.0444 J-5.6656
G3 X-75.5717 Y-30.5055 I7.166 J-5.8599
G3 X-76.5169 Y-32.0715 I11.0543 J-7.7401
G3 X-76.9716 Y-33.009 I18.9937 J-9.7925
G1 X-77.081 Y-33.2545
G1 X-77.1906 Y-33.509
G1 X-77.3006 Y-33.7728
G1 X-77.3553 Y-33.9071
G1 X-77.41 Y-34.0439
G3 X-77.5207 Y-34.3269 I49.5845 J-19.5518
G3 X-77.7465 Y-34.9327 I65.5414 J-24.7736
G3 X-77.9739 Y-35.582 I36.1296 J-13.0182
G1 X-78.0866 Y-35.9184
G1 X-78.1998 Y-36.266
G3 X-78.2279 Y-36.3538 I1.2535 J-0.4496
G3 X-78.256 Y-36.4423 I1.3137 J-0.4663
G3 X-78.2841 Y-36.5315 I1.3826 J-0.4856
G3 X-78.3124 Y-36.6214 I1.463 J-0.5084
G3 X-78.8001 Y-38.2634 I68.8676 J-21.3486
G1 X-78.9197 Y-38.6884
G1 X-78.9797 Y-38.9043
G1 X-79.2309 Y-39.8239
G1 X-79.7948 Y-41.9155
G2 X-79.9433 Y-42.4537 I-27.9716 J7.4286
G1 X-79.9622 Y-42.5213
G1 X-80.0393 Y-42.7951
G1 X-80.202 Y-43.3586
G1 X-80.287 Y-43.6441
G2 X-80.3751 Y-43.9332 I-21.6688 J6.4497
G1 X-80.4204 Y-44.0786
G1 X-80.4666 Y-44.2249
G2 X-80.5626 Y-44.5213 I-13.7203 J4.281
G2 X-80.6122 Y-44.6702 I-3.8711 J1.2058
G2 X-81.0781 Y-45.9232 I-17.9737 J5.9702
G0 Z5.0
G0 X-73.6589 Y-45.0338
G1 Z0.0
G1 X-69.3032 Y-44.1444
G1 X-63.3284 Y-25.5434
G1 X-68.6799 Y-27.0218
G1 X-68.8502 Y-27.618
G3 X-68.8616 Y-27.6578 I0.5758 J-0.1858
G1 X-68.9221 Y-27.8699
G1 X-69.0027 Y-28.1527
G3 X-69.0242 Y-28.2282 I0.8318 J-0.2777
G1 X-69.3671 Y-29.435
G1 X-70.0489 Y-31.8497
G1 X-70.5006 Y-33.4603
G1 X-70.7576 Y-34.381
G3 X-72.7825 Y-41.7549 I864.1913 J-241.2733
G1 X-73.0475 Y-42.7394
G1 X-73.1838 Y-43.2477
G1 X-73.4731 Y-44.3325
G1 X-73.6216 Y-44.8926
G3 X-73.6589 Y-45.0338 I4.0074 J-1.1355
G0 Z5.0
G0 X-66.81 Y-43.8747
G1 Z0.0
G3 X-65.8787 Y-43.7625 I-0.6788 J9.5567
G3 X-65.7463 Y-43.7406 I-0.3237 J2.3673
G1 X-65.3945 Y-43.6778
G1 X-65.1939 Y-43.6394
G3 X-64.965 Y-43.5935 I-0.9787 J5.4706
G3 X-64.9059 Y-43.5813 I-0.0899 J0.5842
G1 X-64.6366 Y-43.5238
G1 X-64.3296 Y-43.4548
G3 X-63.9799 Y-43.3711 I-2.2574 J10.2138
G3 X-63.5819 Y-43.2686 I-2.7179 J11.3769
G1 X-63.4795 Y-43.2408
G3 X-63.2618 Y-43.1789 I-2.6389 J9.703
G3 X-62.7697 Y-43.0194 I-2.2482 J7.7749
G1 X-62.2112 Y-41.1781
G1 X-61.6505 Y-39.3375
G1 X-61.2755 Y-38.1108
G1 X-60.7742 Y-36.4756
G1 X-60.1037 Y-34.2959
G1 X-59.2063 Y-31.3908
G2 X-59.1493 Y-31.2063 I8.6343 J-2.5711
G1 X-58.9056 Y-30.4195
G1 X-57.6039 Y-26.2237
G2 X-57.5834 Y-26.1579 I1.2713 J-0.3587
G1 X-56.8358 Y-23.751
G1 X-56.6429 Y-23.1299
G1 X-56.9876 Y-23.2737
G3 X-57.0368 Y-23.2946 I0.209 J-0.5621
G1 X-57.4291 Y-23.4629
G1 X-58.2108 Y-23.8068
G1 X-58.7311 Y-24.038
G1 X-59.4258 Y-24.3439
G1 X-59.6116 Y-24.4242
G1 X-59.8102 Y-24.5091
G2 X-60.88 Y-24.9354 I-8.1247 J18.8313
G1 X-61.1699 Y-25.0369
G1 X-61.3207 Y-25.0861
G1 X-61.3976 Y-25.1101
G1 X-61.7163 Y-26.1456
G2 X-61.8237 Y-26.4905 I-28.9196 J8.8198
G2 X-61.8376 Y-26.535 I-0.7199 J0.2005
G1 X-61.9012 Y-26.7384
G2 X-62.4153 Y-28.3633 I-175.4852 J54.6166
G1 X-63.4536 Y-31.6101
G1 X-63.7487 Y-32.5382
G1 X-63.9051 Y-33.0336
G1 X-64.2595 Y-34.1666
G3 X-65.1712 Y-37.1986 I147.5337 J-46.0162
G1 X-65.284 Y-37.5913
G1 X-65.399 Y-37.9971
G3 X-65.903 Y-39.858 I98.4092 J-27.6469
G1 X-65.9333 Y-39.9756
G1 X-66.0569 Y-40.4617
G1 X-66.1809 Y-40.9643
G1 X-66.3049 Y-41.4841
G3 X-66.81 Y-43.8747 I51.3502 J-12.0969
G0 Z5.0
G0 X-74.2281 Y-18.3396
G1 Z0.0
G3 X-69.7879 Y-17.0226 I-114.9434 J395.6662
G3 X-65.7912 Y-15.7904 I-105.3949 J348.9439
G1 X-64.7864 Y-15.473
G1 X-64.5348 Y-15.393
G1 X-64.2827 Y-15.3127
G1 X-64.0303 Y-15.2321
G1 X-63.7773 Y-15.1511
G1 X-63.524 Y-15.0698
G1 X-63.2702 Y-14.9881
G1 X-63.016 Y-14.9061
G1 X-62.7614 Y-14.8237
G1 X-62.5063 Y-14.741
G3 X-61.9943 Y-14.5743 I-14.9036 J46.6408
G1 X-61.3429 Y-14.3576
G1 X-60.693 Y-14.1363
G1 X-60.2611 Y-13.9847
G3 X-58.5519 Y-13.3285 I-11.3814 J32.2003
G3 X-58.0713 Y-13.1217 I-8.4985 J20.4159
G3 X-57.5278 Y-12.8723 I-9.1376 J20.6251
G3 X-57.2409 Y-12.7329 I-4.9511 J10.5607
G3 X-55.7551 Y-11.9038 I-7.2886 J14.8062
G3 X-53.9492 Y-10.526 I-6.4558 J10.3343
G3 X-53.7371 Y-10.323 I-4.6003 J5.0176
G3 X-51.8854 Y-7.7861 I-6.6398 J6.7909
G3 X-51.2328 Y-6.0998 I-8.9018 J4.4143
G3 X-51.0077 Y-5.1594 I-9.7768 J2.8368
G3 X-50.7772 Y-2.9607 I-12.9043 J2.4647
G3 X-50.7914 Y-1.7817 I-18.0989 J0.3708
G3 X-50.8923 Y-0.5304 I-20.3847 J-1.0129
G2 X-52.8264 Y-1.5713 I-35.479 J63.6071
G1 X-53.4771 Y-1.9069
G2 X-53.5185 Y-1.928 I-0.248 J0.4348
G1 X-53.8976 Y-2.1203
G2 X-53.9459 Y-2.1446 I-0.2698 J0.4754
G2 X-57.0562 Y-3.6464 I-47.7083 J94.8344
G2 X-57.1056 Y-3.6693 I-0.2771 J0.5328
G1 X-58.0097 Y-4.0839
G2 X-60.4355 Y-5.1565 I-52.0821 J114.5131
G1 X-60.7499 Y-5.2916
G1 X-61.4217 Y-5.5775
G1 X-62.1397 Y-5.8791
G2 X-62.5108 Y-6.0334 I-9.5948 J22.5521
G1 X-62.6995 Y-6.1115
G2 X-66.7444 Y-7.7254 I-75.3863 J183.0667
G1 X-67.2689 Y-7.927
G1 X-68.3896 Y-8.3525
G1 X-69.5875 Y-8.7997
G1 X-70.8679 Y-9.2693
G1 X-71.5298 Y-9.5089
G1 X-72.2138 Y-9.7542
G1 X-72.9205 Y-10.0054
G2 X-76.1598 Y-11.1285 I-89.4137 J252.667
G1 X-76.9979 Y-11.4119
G1 X-77.8639 Y-11.7019
G1 X-78.7588 Y-11.9985
G1 X-79.6834 Y-12.3018
G1 X-80.6389 Y-12.612
G1 X-81.6261 Y-12.9292
G2 X-86.1502 Y-14.3412 I-113.5595 J355.8792
G1 X-86.726 Y-14.5164
G1 X-87.3112 Y-14.6933
G1 X-87.906 Y-14.8721
G2 X-89.1348 Y-15.2383 I-40.4485 J133.4855
G2 X-94.7656 Y-16.8634 I-131.8399 J446.248
G1 X-96.2221 Y-17.2704
G1 X-97.7271 Y-17.6855
G2 X-113.851 Y-21.8171 I-136.9905 J501.0893
G2 X-118.1712 Y-22.8351 I-160.7118 J672.3393
G2 X-141.3191 Y-27.7286 I-140.7347 J608.5296
G1 X-142.7947 Y-28.0101
G2 X-174.4012 Y-33.1981 I-119.9568 J631.9415
G2 X-192.5659 Y-35.4231 I-79.3952 J572.9016
G2 X-197.2645 Y-35.9004 I-49.2911 J461.9057
G1 X-198.449 Y-36.0139
G1 X-199.6432 Y-36.1256
G2 X-209.843 Y-36.9586 I-45.3619 J492.5333
G2 X-215.1141 Y-37.2993 I-27.854 J390.081
G1 X-215.4443 Y-37.3184
G1 X-215.7752 Y-37.3374
G2 X-216.4396 Y-37.3746 I-4.3678 J71.99
G1 X-217.779 Y-37.4464
G2 X-229.2181 Y-37.8681 I-19.3351 J369.1421
G1 X-229.3971 Y-37.8718
G1 X-229.5763 Y-37.8754
G1 X-230.2959 Y-37.8888
G1 X-231.7464 Y-37.9111
G1 X-233.2085 Y-37.927
G2 X-239.2465 Y-37.9177 I-2.5425 J309.5716
G2 X-240.0042 Y-37.9076 I0.9364 J98.0891
G2 X-246.2605 Y-37.7394 I3.8898 J261.1511
G1 X-246.6521 Y-37.7236
G1 X-247.0445 Y-37.707
G1 X-247.8322 Y-37.6718
G1 X-248.6229 Y-37.6337
G1 X-249.4167 Y-37.5927
G1 X-250.2134 Y-37.5485
G2 X-256.7873 Y-37.0627 I10.5876 J188.0054
G1 X-256.9927 Y-37.0438
G1 X-257.1982 Y-37.0246
G1 X-257.404 Y-37.0051
G1 X-257.6099 Y-36.9854
G1 X-257.816 Y-36.9654
G1 X-258.0223 Y-36.9452
G1 X-258.2288 Y-36.9246
G1 X-258.4354 Y-36.9038
G1 X-258.6422 Y-36.8827
G1 X-259.4723 Y-36.7954
G1 X-260.3054 Y-36.7035
G2 X-261.1413 Y-36.6067 I18.4848 J163.2946
G1 X-261.3504 Y-36.5818
G1 X-261.5597 Y-36.5565
G2 X-264.9571 Y-36.1033 I15.9633 J132.6271
G2 X-268.3971 Y-35.5532 I17.7966 J122.3131
G1 X-268.8269 Y-35.4773
G1 X-269.2573 Y-35.3996
G2 X-269.6881 Y-35.3201 I8.752 J48.6509
G1 X-270.5524 Y-35.1553
G1 X-271.4189 Y-34.9827
G2 X-274.926 Y-34.2005 I19.8129 J97.0928
G1 X-275.3631 Y-34.0928
G2 X-276.2392 Y-33.8695 I13.4821 J54.7263
G2 X-279.7758 Y-32.8561 I18.4716 J71.1371
G1 X-280.2476 Y-32.7038
G1 X-280.7176 Y-32.546
G1 X-281.0304 Y-32.4388
G1 X-281.4467 Y-32.2943
G2 X-282.0009 Y-32.0992 I21.1478 J60.9721
G1 X-282.7389 Y-31.8362
G2 X-283.7217 Y-31.4821 I71.3412 J199.538
G2 X-283.7527 Y-31.4709 I0.0644 J0.2263
G1 X-285.0719 Y-30.9911
G1 X-285.1557 Y-30.9605
G1 X-290.511 Y-28.9967
G1 X-292.0415 Y-28.4366
G1 X-293.7915 Y-27.7987
G1 X-294.7253 Y-27.4599
G1 X-296.8612 Y-26.6899
G3 X-297.1327 Y-26.5926 I-3.9672 J-10.6431
G3 X-302.9369 Y-24.5567 I-141.3079 J-393.5699
G1 X-303.6883 Y-24.3012
G3 X-307.1345 Y-23.1659 I-68.4716 J-202.0427
G3 X-308.9823 Y-22.5912 I-36.1266 J-112.9006
G1 X-309.4531 Y-22.4501
G1 X-309.9322 Y-22.3093
G1 X-310.4197 Y-22.1692
G3 X-312.5129 Y-21.6171 I-14.0548 J-49.0444
G1 X-312.7785 Y-21.555
G1 X-313.0467 Y-21.4949
G3 X-313.594 Y-21.382 I-7.5742 J-35.3251
G3 X-314.1535 Y-21.2845 I-2.5524 J-12.9886
G1 X-314.2946 Y-21.2637
G3 X-307.5007 Y-25.8198 I70.269 J97.4395
G3 X-305.1674 Y-27.2317 I59.4036 J95.533
G3 X-305.0933 Y-27.2753 I1.2093 J1.9707
G3 X-305.0186 Y-27.3192 I1.2088 J1.9726
G1 X-304.3802 Y-27.691
G3 X-293.8512 Y-33.0525 I55.6571 J96.2818
G3 X-286.5412 Y-35.9927 I45.9971 J103.8014
G3 X-286.4831 Y-36.0137 I0.4572 J1.1719
G3 X-284.4967 Y-36.712 I33.5584 J92.2926
G3 X-273.7167 Y-39.8407 I39.6196 J116.3756
G3 X-273.6312 Y-39.8613 I0.3607 J1.3043
G3 X-267.3493 Y-41.22 I31.8512 J132.065
G3 X-267.2504 Y-41.2389 I0.3151 J1.3771
G3 X-267.1513 Y-41.2579 I0.3144 J1.3783
G3 X-267.052 Y-41.2767 I0.3137 J1.3794
G3 X-263.6572 Y-41.8791 I27.268 J143.8211
G3 X-255.8554 Y-42.9657 I25.7047 J156.0064
G3 X-251.6765 Y-43.3916 I20.0195 J175.6898
G3 X-249.5163 Y-43.5725 I17.0247 J190.3738
G1 X-248.9716 Y-43.614
G3 X-244.3216 Y-43.9044 I13.6972 J181.9466
G1 X-243.1397 Y-43.9606
G3 X-238.0963 Y-44.1243 I9.1394 J203.6962
G3 X-237.7797 Y-44.1307 I0.4439 J14.294
G3 X-237.4618 Y-44.1366 I0.4133 J13.7151
G1 X-236.1705 Y-44.1559
G3 X-224.3788 Y-44.0095 I2.8015 J249.3846
G1 X-223.6365 Y-43.9822
G1 X-222.8884 Y-43.9526
G1 X-222.1345 Y-43.9207
G1 X-221.3749 Y-43.8866
G1 X-220.6095 Y-43.8501
G1 X-219.8383 Y-43.8113
G1 X-219.0611 Y-43.7702
G3 X-212.4389 Y-43.3382 I-16.867 J309.5634
G1 X-211.6053 Y-43.2739
G1 X-210.7655 Y-43.207
G1 X-209.9194 Y-43.1375
G1 X-209.0668 Y-43.0652
G1 X-208.2077 Y-42.9902
G1 X-207.3422 Y-42.9125
G1 X-206.4701 Y-42.832
G3 X-204.6992 Y-42.6618 I-113.9893 J1195.634
G3 X-197.1601 Y-41.842 I-37.1076 J376.3306
G3 X-197.1012 Y-41.835 I-0.1106 J1.1842
G3 X-197.0423 Y-41.828 I-0.1108 J1.1846
G3 X-196.9833 Y-41.821 I-0.1111 J1.1851
G3 X-196.9244 Y-41.814 I-0.1113 J1.1856
G3 X-196.8654 Y-41.8069 I-0.1115 J1.186
G1 X-196.0274 Y-41.7065
G3 X-195.9716 Y-41.6998 I-0.0957 J1.0309
G3 X-195.6736 Y-41.6639 I-4.363 J37.4614
G3 X-195.5941 Y-41.6543 I-0.1089 J1.2362
G1 X-194.3231 Y-41.5
G1 X-191.7817 Y-41.1861
G3 X-191.4429 Y-41.1438 I-2.4546 J21.0101
G1 X-190.6685 Y-41.0465
G1 X-188.6041 Y-40.7841
G1 X-185.8524 Y-40.4274
G1 X-185.1187 Y-40.331
G3 X-173.3906 Y-38.7143 I-133.629 J1012.757
G1 X-172.6346 Y-38.6053
G1 X-171.8543 Y-38.4921
G1 X-171.0489 Y-38.3746
G1 X-169.3311 Y-38.1219
G1 X-167.4993 Y-37.849
G3 X-138.2656 Y-33.0094 I-141.2845 J944.1497
G3 X-118.8722 Y-29.2466 I-148.6942 J818.2184
G1 X-117.6441 Y-28.9915
G1 X-116.397 Y-28.7304
G1 X-115.1305 Y-28.4629
G1 X-113.8444 Y-28.1888
G3 X-102.1097 Y-25.5713 I-143.5104 J671.0049
G1 X-101.7423 Y-25.4858
G1 X-101.3735 Y-25.3997
G1 X-101.0033 Y-25.3131
G1 X-99.4997 Y-24.9587
G1 X-97.9732 Y-24.5949
G1 X-97.5901 Y-24.503
G1 X-97.2057 Y-24.4104
G1 X-96.8198 Y-24.3173
G1 X-96.4324 Y-24.2235
G3 X-93.2361 Y-23.4392 I-147.2957 J607.1541
G1 X-92.4315 Y-23.2387
G1 X-91.6208 Y-23.0354
G1 X-89.9746 Y-22.6188
G1 X-89.1454 Y-22.4069
G1 X-88.3101 Y-22.192
G3 X-81.1967 Y-20.3024 I-129.8136 J503.017
G1 X-79.3946 Y-19.8058
G1 X-77.5659 Y-19.294
G3 X-74.2281 Y-18.3396 I-111.6055 J396.6207
G0 Z5.0
G0 X-278.7078 Y-51.0885
G1 Z0.0
G1 X-280.5778 Y-50.6932
G3 X-280.9758 Y-50.889 I0.925 J-2.3828
G3 X-281.3266 Y-51.1605 I0.8618 J-1.4756
G3 X-281.5011 Y-51.4012 I0.6997 J-0.6912
G3 X-281.5748 Y-51.7961 I0.6239 J-0.3208
G3 X-281.5166 Y-52.0235 I0.7829 J0.0794
G3 X-281.0833 Y-52.405 I1.0389 J0.7431
G3 X-280.5197 Y-52.5305 I0.5169 J0.9927
G3 X-280.1387 Y-52.4646 I-0.0466 J1.4028
G3 X-279.6772 Y-52.2474 I-0.5637 J1.797
G3 X-279.1706 Y-51.8153 I-1.3786 J2.129
G3 X-278.7078 Y-51.0885 I-1.8933 J1.7163
G0 Z5.0
G0 X-318.1714 Y-16.4519
G1 Z0.0
G1 X-318.0858 Y-16.146
G1 X-318.058 Y-16.0438
G1 X-318.0216 Y-15.9073
G3 X-317.974 Y-15.7251 I-4.3223 J1.2261
G1 X-317.9123 Y-15.4818
G1 X-317.833 Y-15.1566
G1 X-317.7892 Y-14.9703
G1 X-317.6772 Y-14.4727
G3 X-317.6485 Y-14.3397 I-2.1247 J0.5279
G3 X-317.5035 Y-13.6289 I-29.7135 J6.4344
G3 X-317.4947 Y-13.5837 I-0.445 J0.1099
G1 X-317.4167 Y-13.1699
G1 X-317.3325 Y-12.6961
G3 X-317.2424 Y-12.1535 I-22.9724 J4.0963
G1 X-317.1968 Y-11.8637
G1 X-317.1501 Y-11.5543
G1 X-317.1024 Y-11.224
G3 X-316.8827 Y-9.458 I-51.7083 J7.3306
G3 X-316.6737 Y-7.0947 I-65.6605 J6.999
G3 X-316.6635 Y-6.9444 I-4.3077 J0.3679
G3 X-316.5314 Y-3.7342 I-64.3754 J4.2568
G3 X-316.6253 Y0.5475 I-55.1397 J0.9325
G3 X-316.8511 Y2.9852 I-41.0985 J-2.5774
G3 X-317.0422 Y4.2774 I-27.3313 J-3.3821
G1 X-317.0492 Y4.3177
G1 X-317.0562 Y4.3581
G3 X-317.1829 Y5.0233 I-27.4948 J-4.8924
G3 X-317.5324 Y6.4266 I-16.4735 J-3.3573
G3 X-317.7704 Y7.1353 I-9.7776 J-2.8896
G3 X-318.0781 Y7.8456 I-6.6167 J-2.4446
G3 X-318.4971 Y8.5325 I-3.9329 J-1.9278
G3 X-318.7696 Y8.8427 I-2.4448 J-1.8726
G3 X-319.1064 Y9.1046 I-1.3446 J-1.3815
G2 X-319.6963 Y6.6336 I-15.9017 J2.4901
G2 X-320.637 Y4.2737 I-18.1104 J5.852
G2 X-321.4264 Y2.7749 I-20.1822 J9.6729
G2 X-321.4804 Y2.6819 I-1.2091 J0.6391
G2 X-321.5078 Y2.635 I-0.8529 J0.4673
G2 X-321.5355 Y2.5879 I-0.8558 J0.4714
G2 X-322.8128 Y0.6404 I-21.0947 J12.4428
G2 X-323.6182 Y-0.4188 I-21.9521 J15.8565
G2 X-324.5961 Y-1.5822 I-22.6777 J18.0687
G2 X-327.4496 Y-4.4465 I-26.1311 J23.1794
G2 X-331.6832 Y-7.7557 I-27.0897 J30.2935
G3 X-329.8895 Y-9.5491 I44.4316 J42.6454
G1 X-329.7673 Y-9.6659
G3 X-327.755 Y-11.4742 I30.6558 J32.0909
G3 X-326.346 Y-12.6006 I22.3939 J26.5664
G3 X-326.2544 Y-12.6696 I2.1582 J2.7706
G3 X-326.1612 Y-12.7392 I2.5183 J3.2729
G3 X-325.9679 Y-12.8819 I5.2181 J6.8672
G3 X-323.8302 Y-14.2959 I15.2678 J20.7588
G3 X-322.5426 Y-14.9962 I11.4054 J19.437
G3 X-321.0089 Y-15.6737 I7.9072 J15.8269
G3 X-320.1646 Y-15.9712 I5.4394 J14.0896
G3 X-318.1714 Y-16.4519 I4.2511 J13.253
G0 Z5.0
G0 X-330.3864 Y-0.3532
G1 Z0.0
G3 X-329.4472 Y0.5812 I-3.0018 J3.9562
G3 X-328.9366 Y1.3644 I-4.8607 J3.7272
G3 X-328.9081 Y1.4165 I-0.6536 J0.3916
G3 X-328.3911 Y2.5674 I-8.3009 J4.42
G3 X-328.3631 Y2.6425 I-0.7537 J0.3238
G3 X-328.3351 Y2.719 I-0.7765 J0.3274
G3 X-328.0987 Y3.4221 I-13.3712 J4.8872
G1 X-327.9831 Y3.7998
G1 X-327.8646 Y4.2033
G1 X-327.5991 Y5.1222
G2 X-327.2705 Y6.159 I21.0308 J-6.0956
G3 X-328.9836 Y5.1248 I1.1327 J-3.812
G3 X-329.4199 Y4.6121 I3.1885 J-3.1553
G3 X-329.6375 Y4.295 I4.7292 J-3.4791
G3 X-330.122 Y3.3957 I5.9529 J-3.7871
G3 X-330.6147 Y2.1362 I12.2729 J-5.527
G1 X-330.7285 Y1.7944
G1 X-330.8452 Y1.4292
G1 X-330.9665 Y1.0396
G2 X-331.0949 Y0.6248 I-25.2454 J7.5911
G1 X-331.2342 Y0.1842
G1 X-331.3082 Y-0.0422
G2 X-331.6832 Y-1.0587 I-14.477 J4.7634
G3 X-331.4426 Y-0.9621 I-1.201 J3.3414
G1 X-331.3634 Y-0.9275
G1 X-331.2587 Y-0.8793
G3 X-331.1993 Y-0.8508 I-0.2802 J0.6589
G1 X-331.0429 Y-0.7711
G3 X-330.4477 Y-0.399 I-2.4188 J4.5313
G3 X-330.3864 Y-0.3532 I-2.9405 J4.002
G0 Z5.0
G0 X-333.0311 Y0.4894
G1 Z0.0
G1 X-332.9843 Y0.6361
G1 X-332.8862 Y0.9628
G1 X-332.6749 Y1.7034
G1 X-332.6483 Y1.7974
G2 X-332.3975 Y2.6421 I27.7615 J-7.7808
G1 X-332.3272 Y2.8577
G2 X-331.9485 Y3.8094 I7.8224 J-2.5608
G2 X-331.6832 Y4.2852 I3.8466 J-1.833
G3 X-332.2121 Y4.2873 I-0.2779 J-3.3824
G3 X-332.7338 Y4.2005 I0.2271 J-2.9765
G3 X-333.6779 Y3.7319 I0.6748 J-2.5447
G3 X-334.1838 Y3.2408 I2.0807 J-2.6492
G3 X-334.7057 Y2.4661 I3.6889 J-3.0483
G3 X-335.2121 Y1.3467 I7.7098 J-4.1622
G3 X-335.4437 Y0.6899 I12.0508 J-4.6177
G1 X-335.5569 Y0.3378
G1 X-335.6725 Y-0.0374
G1 X-335.7013 Y-0.1328
G1 X-335.96 Y-0.9958
G2 X-336.2766 Y-1.964 I-17.4636 J5.174
G2 X-336.4751 Y-2.4672 I-7.7162 J2.7541
G1 X-336.4887 Y-2.4984
G1 X-336.5026 Y-2.5295
G3 X-335.9517 Y-2.5501 I0.4044 J3.4391
G3 X-335.4052 Y-2.4778 I-0.1297 J3.0822
G3 X-334.4208 Y-1.99 I-0.5343 J2.3152
G3 X-333.92 Y-1.4499 I-1.9331 J2.2949
G3 X-333.4385 Y-0.6029 I-3.9086 J2.782
G3 X-333.2289 Y-0.0907 I-6.4784 J2.9499
G1 X-333.1801 Y0.0433
G3 X-333.0819 Y0.3298 I-6.0843 J2.2451
G1 X-333.0311 Y0.4894
G0 Z5.0
G0 X-336.6793 Y1.8879
G1 Z0.0
G1 X-335.9629 Y3.757
G3 X-336.5568 Y3.8041 I-0.5537 J-3.2096
G3 X-337.1483 Y3.732 I0.009 J-2.5366
G3 X-338.1973 Y3.1794 I0.5757 J-2.3646
G3 X-338.7223 Y2.584 I2.2883 J-2.5472
G3 X-339.2279 Y1.6669 I4.4192 J-3.0339
G3 X-339.4465 Y1.1142 I6.7855 J-3.0035
G1 X-339.4968 Y0.9696
G3 X-339.7002 Y0.3076 I10.2841 J-3.5224
G1 X-339.7951 Y-0.0473
G3 X-339.9873 Y-0.8538 I26.8475 J-6.8233
G1 X-340.1889 Y-1.7668
G1 X-340.2426 Y-2.0013
G1 X-338.3726 Y-2.5295
G1 X-336.6793 Y1.8879
G0 Z5.0
G0 X-340.4442 Y2.8688
G1 Z0.0
G3 X-340.2578 Y4.0724 I-5.8348 J1.5202
G3 X-341.5105 Y3.8336 I-0.0268 J-3.2651
G3 X-342.562 Y3.1121 I1.1709 J-2.8334
G3 X-343.0716 Y2.428 I2.5045 J-2.3975
G3 X-343.4872 Y1.3758 I3.4507 J-1.971
G3 X-343.5645 Y-0.1161 I3.9201 J-0.9511
G1 X-342.2494 Y-1.0587
G2 X-342.1096 Y-0.7651 I7.2723 J-3.283
G1 X-341.9642 Y-0.4742
G2 X-341.663 Y0.1022 I54.939 J-28.3474
G2 X-341.5757 Y0.2662 I4.0846 J-2.0678
G1 X-341.344 Y0.7042
G1 X-341.214 Y0.9557
G3 X-340.8867 Y1.6361 I-11.4179 J5.9111
G3 X-340.5276 Y2.5773 I-7.9949 J3.59
G1 X-340.4903 Y2.7018
G3 X-340.4442 Y2.8688 I-5.7887 J1.6871
G0 Z5.0
G0 X-344.2007 Y3.8703
G1 Z0.0
G3 X-344.1232 Y4.2852 I-2.6903 J0.7173
G1 X-345.902 Y3.6771
G3 X-345.6916 Y2.8501 I1.7651 J0.0087
G3 X-345.0582 Y2.2784 I1.1029 J0.5852
G3 X-344.8808 Y2.4903 I-1.4027 J1.3546
G1 X-344.8266 Y2.5649
G3 X-344.6277 Y2.8748 I-4.3939 J3.0391
G3 X-344.5756 Y2.9662 I-1.8518 J1.1162
G3 X-344.24 Y3.7364 I-3.788 J2.1087
G3 X-344.2007 Y3.8703 I-2.651 J0.8511
G0 Z5.0
G0 X-325.9607 Y4.9147
G1 Z0.0
G3 X-325.9452 Y4.8077 I0.6221 J0.0356
G3 X-325.9049 Y4.726 I0.197 J0.0465
G3 X-325.7958 Y4.6958 I0.0791 J0.0735
G3 X-324.9646 Y5.7519 I-12.13 J10.4016
G3 X-324.2429 Y6.8858 I-9.5502 J6.875
G3 X-323.8508 Y7.6921 I-7.3745 J4.0849
G3 X-323.4882 Y8.8326 I-5.966 J2.5244
G3 X-323.3899 Y9.5113 I-4.634 J1.0179
G3 X-323.7747 Y9.254 I0.9675 J-1.8634
G3 X-324.1087 Y8.9336 I2.0325 J-2.4533
G3 X-324.6697 Y8.2018 I4.2598 J-3.8466
G1 X-324.7364 Y8.0985
G3 X-325.6066 Y6.3515 I8.4431 J-5.2958
G3 X-325.7894 Y5.8244 I9.3724 J-3.5453
G3 X-325.87 Y5.538 I3.7027 J-1.1962
G1 X-325.9051 Y5.3884
G3 X-325.9565 Y5.0643 I2.8041 J-0.6106
G1 X-325.961 Y4.9809
G3 X-325.9607 Y4.9147 I0.6224 J-0.0306
G0 Z5.0
G0 X-401.5113 Y-13.5101
G1 Z0.0
G3 X-401.6222 Y-13.6965 I0.9208 J-0.6739
G3 X-401.7043 Y-13.8973 I1.3107 J-0.6531
G3 X-401.8169 Y-14.315 I2.8432 J-0.9906
G3 X-401.8688 Y-14.5984 I3.9486 J-0.8695
G1 X-401.893 Y-14.7611
G3 X-401.9439 Y-15.1959 I8.1625 J-1.1766
G1 X-401.9667 Y-15.4449
G1 X-401.9888 Y-15.7295
G1 X-402.0106 Y-16.0547
G1 X-402.0328 Y-16.4261
G1 X-402.044 Y-16.6242
G1 X-402.0697 Y-17.0766
G1 X-402.1022 Y-17.5929
G1 X-402.1223 Y-17.868
G1 X-402.1469 Y-18.1612
G2 X-402.2211 Y-18.8292 I-17.0363 J1.5529
G1 X-402.2457 Y-19.0009
G1 X-402.2594 Y-19.0879
G1 X-402.2666 Y-19.1318
G2 X-402.4469 Y-19.9241 I-5.8639 J0.918
G2 X-402.6013 Y-20.3305 I-3.0386 J0.9219
G2 X-402.8492 Y-20.7278 I-1.6627 J0.7612
G2 X-403.3507 Y-20.1932 I1.6016 J2.0053
G2 X-403.6784 Y-19.5374 I2.2171 J1.5175
G2 X-403.8024 Y-19.0643 I3.1744 J1.0849
G1 X-403.8249 Y-18.9358
G2 X-403.8887 Y-18.2465 I5.1941 J0.8282
G2 X-403.8936 Y-18.0621 I10.783 J0.3779
G2 X-403.8759 Y-17.0873 I17.7035 J0.1658
G1 X-403.8576 Y-16.533
G1 X-403.8529 Y-16.2379
G3 X-403.8731 Y-15.5667 I-8.9284 J0.0665
G3 X-403.9919 Y-14.8099 I-4.3267 J-0.2918
G3 X-404.1208 Y-14.4209 I-2.7279 J-0.688
G3 X-404.3239 Y-14.0308 I-2.362 J-0.9812
G1 X-406.3307 Y-15.9046
G3 X-406.3996 Y-15.7859 I-2.4082 J-1.3202
G1 X-406.4227 Y-15.7464
G1 X-406.4536 Y-15.6937
G1 X-406.5777 Y-15.4835
G1 X-406.6611 Y-15.3437
G1 X-406.7732 Y-15.1579
G3 X-406.8377 Y-15.052 I-1.7602 J-1.0
G1 X-407.0115 Y-14.7707
G3 X-407.7354 Y-13.664 I-25.3075 J-15.7631
G1 X-407.8359 Y-13.519
G3 X-408.3904 Y-12.7593 I-17.7903 J-12.4032
G1 X-408.5441 Y-12.5612
G3 X-409.4154 Y-11.5458 I-11.2187 J-8.744
G1 X-409.5349 Y-11.4211
G1 X-409.6603 Y-11.2944
G3 X-410.2614 Y-10.7431 I-6.6297 J-6.6261
G3 X-411.0125 Y-10.1882 I-4.7466 J-5.6388
G3 X-411.9665 Y-9.6997 I-2.8623 J-4.4138
G3 X-413.1722 Y-9.4212 I-1.5441 J-3.9357
G3 X-414.6053 Y-9.5482 I-0.3283 J-4.4455
G3 X-415.3425 Y-9.7878 I1.4093 J-5.5889
G3 X-416.094 Y-10.1405 I2.5165 J-6.3397
G3 X-416.1169 Y-10.1528 I0.0739 J-0.1645
G3 X-416.1399 Y-10.1653 I0.0745 J-0.1645
G3 X-416.8991 Y-10.6273 I4.6458 J-8.4881
G3 X-417.2747 Y-10.8895 I12.5204 J-18.3372
G3 X-417.2979 Y-10.9065 I0.1048 J-0.1685
G3 X-417.3212 Y-10.9235 I0.1054 J-0.1686
G3 X-417.3445 Y-10.9405 I0.106 J-0.1688
G3 X-417.3677 Y-10.9577 I0.1066 J-0.1689
G3 X-417.391 Y-10.9749 I0.1073 J-0.1691
G3 X-418.666 Y-12.024 I9.9454 J-13.3868
G3 X-419.8204 Y-13.2044 I10.1881 J-11.1182
G1 X-419.8902 Y-13.285
G1 X-419.9615 Y-13.3688
G3 X-420.6803 Y-14.2963 I10.2493 J-8.6852
G3 X-422.6649 Y-18.5286 I10.7062 J-7.6018
G3 X-423.1165 Y-21.6223 I13.2536 J-3.5143
G3 X-422.6497 Y-25.7549 I14.4881 J-0.4562
G3 X-421.8433 Y-27.9956 I12.6698 J3.2943
G3 X-421.2385 Y-29.115 I9.862 J4.6052
G3 X-421.0633 Y-29.3869 I10.6355 J6.6611
G3 X-420.1998 Y-30.4692 I6.5143 J4.3118
G3 X-419.1885 Y-31.4332 I11.1975 J10.7335
G3 X-418.0852 Y-32.2905 I7.8751 J8.9968
G3 X-417.2899 Y-32.7764 I5.0024 J7.2934
G3 X-416.8122 Y-33.0129 I3.1095 J5.6826
G3 X-415.4561 Y-33.4446 I2.4434 J5.3284
G3 X-415.0791 Y-33.4987 I0.8677 J4.7138
G3 X-413.0523 Y-33.2468 I0.4732 J4.4731
G3 X-411.9975 Y-32.7141 I-1.8011 J4.8768
G3 X-410.9449 Y-31.8656 I-3.7774 J5.7628
G3 X-409.9339 Y-30.7097 I-7.0734 J7.2068
G3 X-408.9807 Y-29.2632 I-11.7916 J8.8076
G3 X-408.0896 Y-27.5381 I-18.12 J10.4535
G3 X-407.2619 Y-25.5434 I-27.2555 J12.4782
G3 X-406.5453 Y-25.7782 I1.0284 J1.9282
G3 X-405.7912 Y-25.776 I0.3693 J2.7348
G3 X-405.2982 Y-25.6784 I-0.6504 J4.5771
G3 X-404.6615 Y-25.4808 I-1.9544 J7.4227
G1 X-404.3048 Y-25.3503
G1 X-403.8998 Y-25.1982
G2 X-403.6834 Y-25.1195 I2.5506 J-6.6753
G1 X-403.4512 Y-25.0403
G2 X-403.3919 Y-25.0212 I0.2714 J-0.7445
G2 X-402.8419 Y-24.8813 I1.3154 J-4.0203
G2 X-402.5409 Y-24.8452 I0.4849 J-2.7658
G2 X-402.2163 Y-24.8542 I0.107 J-1.9919
G2 X-401.5113 Y-25.1444 I-0.1549 J-1.3781
G1 X-401.688 Y-26.4704
G1 X-401.8698 Y-27.7958
G1 X-401.9962 Y-28.6785
G2 X-402.1745 Y-29.8542 I-68.3062 J9.7592
G2 X-402.4362 Y-31.4179 I-77.2785 J12.1264
G2 X-402.8448 Y-33.4922 I-57.5778 J10.2665
G1 X-402.8737 Y-33.6233
G2 X-403.5949 Y-36.3953 I-35.8117 J7.8376
G1 X-403.705 Y-36.7482
G2 X-403.9555 Y-37.4962 I-26.6111 J8.493
G2 X-404.6152 Y-39.1754 I-23.5913 J8.2988
G2 X-405.0221 Y-40.0481 I-20.4738 J9.0148
G2 X-406.1141 Y-41.9628 I-16.7656 J8.2931
G2 X-406.692 Y-42.6744 I-4.6924 J3.2205
G2 X-407.3874 Y-43.2716 I-3.177 J2.9956
G2 X-407.9266 Y-43.5625 I-1.5848 J2.2929
G2 X-408.2635 Y-43.6635 I-0.705 J1.7396
G2 X-408.668 Y-43.6887 I-0.2932 J1.4487
G2 X-409.1216 Y-43.5554 I0.0923 J1.1531
G2 X-409.5445 Y-43.1925 I0.667 J1.2054
G2 X-409.7117 Y-42.9414 I1.374 J1.0957
G2 X-409.8512 Y-42.6504 I2.3416 J1.3018
G1 X-409.8812 Y-42.5741
G2 X-410.0729 Y-41.8677 I3.9844 J1.4609
G2 X-410.1315 Y-41.4877 I5.7986 J1.088
G1 X-410.1949 Y-40.9946
G3 X-410.2698 Y-40.5032 I-14.6342 J-1.9792
G3 X-410.3333 Y-40.1778 I-9.1204 J-1.6091
G3 X-410.4454 Y-39.7502 I-5.0555 J-1.0969
G3 X-410.673 Y-39.2055 I-2.7635 J-0.8348
G3 X-410.8623 Y-38.9243 I-1.6651 J-0.917
G3 X-411.1463 Y-38.6561 I-1.1245 J-0.9062
G3 X-411.6605 Y-40.1889 I12.0667 J-4.9002
G3 X-412.0043 Y-41.7686 I15.6258 J-4.2281
G3 X-412.1331 Y-42.8391 I11.5211 J-1.9294
G3 X-412.1523 Y-43.4554 I6.8403 J-0.5208
G3 X-412.1333 Y-43.7841 I3.794 J0.0533
G3 X-412.1095 Y-43.9527 I1.5212 J0.1289
G3 X-412.0672 Y-44.1239 I1.0773 J0.1754
G3 X-411.984 Y-44.289 I0.5318 J0.1647
G3 X-411.9065 Y-44.3497 I0.1645 J0.1303
G3 X-411.6753 Y-44.4327 I1.5216 J3.8728
G1 X-411.4413 Y-44.507
G3 X-410.9681 Y-44.6381 I2.7529 J9.0209
G1 X-410.6506 Y-44.7179
G1 X-410.469 Y-44.7625
G2 X-409.9852 Y-44.8837 I-20.0183 J-80.8954
G2 X-409.3486 Y-45.0758 I-1.6686 J-6.6797
G2 X-409.1834 Y-45.1407 I-1.3379 J-3.6511
G2 X-408.8264 Y-45.3363 I-0.6476 J-1.6049
G2 X-408.6675 Y-45.4881 I-0.4495 J-0.6297
G2 X-408.5667 Y-45.7095 I-0.3982 J-0.315
G2 X-408.5922 Y-45.9897 I-0.5635 J-0.09
G2 X-408.7366 Y-46.2766 I-1.0655 J0.3564
G1 X-409.01 Y-46.6614
G1 X-409.2888 Y-47.0421
G2 X-409.4777 Y-47.2937 I-8.519 J6.2009
G1 X-409.7334 Y-47.6262
G2 X-410.8001 Y-48.9212 I-22.8592 J17.7429
G2 X-413.1482 Y-51.3167 I-21.0351 J18.2696
G1 X-413.3096 Y-51.4611
G2 X-413.6581 Y-51.7644 I-9.1349 J10.1441
G2 X-414.4756 Y-52.433 I-14.1901 J16.5138
G2 X-416.7964 Y-54.0275 I-13.6716 J17.413
G2 X-420.1929 Y-55.633 I-9.835 J16.411
G2 X-422.2619 Y-56.2247 I-5.8792 J16.6439
G2 X-428.0028 Y-56.4477 I-3.4937 J15.9377
G3 X-427.6389 Y-55.9983 I-4.489 J4.0078
G1 X-427.5261 Y-55.842
G3 X-427.1255 Y-55.1834 I-4.8052 J3.3741
G3 X-427.1031 Y-55.1389 I-0.4571 J0.2577
G3 X-427.0572 Y-55.0431 I-3.031 J1.5118
G3 X-426.8656 Y-54.5098 I-2.7216 J1.2791
G3 X-426.8157 Y-54.1884 I-1.8116 J0.4458
G3 X-426.8474 Y-53.8145 I-1.2459 J0.0827
G3 X-427.0472 Y-53.4224 I-0.9286 J-0.2263
G3 X-427.4631 Y-53.1066 I-0.9706 J-0.8464
G3 X-427.8875 Y-52.9334 I-1.19 J-2.3082
G3 X-428.3382 Y-52.8497 I-0.5546 J-1.7316
G3 X-429.219 Y-53.0866 I-0.0935 J-1.4082
G3 X-429.6657 Y-53.5095 I1.0806 J-1.5889
G3 X-429.8628 Y-53.7996 I2.2313 J-1.728
G3 X-430.2314 Y-54.6316 I3.6869 J-2.1313
G3 X-430.4961 Y-55.7635 I6.7945 J-2.1858
G2 X-431.7787 Y-55.4446 I0.8754 J6.2603
G2 X-432.9824 Y-54.8987 I2.9043 J8.0033
G2 X-433.7357 Y-54.4415 I5.2197 J9.4485
G1 X-433.9301 Y-54.3093
G2 X-434.9217 Y-53.5464 I7.9387 J11.3431
G2 X-435.4569 Y-53.0728 I13.3384 J15.6148
G2 X-436.7822 Y-51.7119 I12.9171 J13.9054
G1 X-436.9437 Y-51.5274
G2 X-438.5404 Y-49.4713 I19.2219 J16.5748
G2 X-438.7317 Y-49.1951 I10.9533 J7.7914
G1 X-438.9258 Y-48.9079
G2 X-440.7915 Y-45.7409 I27.6752 J18.4367
G2 X-440.8447 Y-45.638 I1.5219 J0.8533
G2 X-440.8981 Y-45.5342 I1.5864 J0.8807
G2 X-442.8529 Y-40.9901 I33.0285 J16.901
G2 X-443.0597 Y-40.3861 I24.6429 J8.7715
G2 X-443.8535 Y-37.5855 I30.5832 J10.1816
G2 X-444.0142 Y-36.8517 I26.3294 J6.1493
G2 X-444.2854 Y-35.2734 I22.4234 J4.6659
G2 X-443.3268 Y-35.4757 I-0.1197 J-2.9393
G2 X-442.5049 Y-36.0088 I-1.0002 J-2.4424
G2 X-442.0706 Y-36.4983 I-2.6645 J-2.8013
G2 X-441.5926 Y-37.2207 I-6.6668 J-4.9298
G1 X-441.4746 Y-37.4187
G1 X-441.2069 Y-37.8691
G1 X-441.06 Y-38.1059
G3 X-440.6969 Y-38.6246 I5.6098 J3.5397
G3 X-440.2031 Y-39.1504 I3.0097 J2.3321
G3 X-439.504 Y-39.5949 I1.7995 J2.058
G1 X-439.1402 Y-39.03
G3 X-438.7935 Y-38.4546 I-8.2862 J5.3849
G3 X-438.705 Y-38.2841 I-3.0723 J1.7037
G3 X-438.5209 Y-37.8055 I-2.1698 J1.109
G3 X-438.4826 Y-37.5129 I-1.0484 J0.2859
G3 X-438.5652 Y-37.1776 I-0.7063 J0.0039
G3 X-439.6259 Y-35.9582 I-6.4826 J-4.568
G3 X-440.9029 Y-34.9676 I-5.8639 J-6.2408
G3 X-441.8401 Y-34.435 I-5.7218 J-8.9774
G1 X-441.9647 Y-34.3731
G1 X-442.0941 Y-34.3107
G1 X-442.2285 Y-34.2479
G3 X-443.6953 Y-33.6676 I-6.3466 J-13.898
G1 X-443.7902 Y-33.6354
G1 X-443.8868 Y-33.6032
G1 X-443.985 Y-33.571
G1 X-444.4052 Y-33.4384
G3 X-444.8555 Y-33.3046 I-4.591 J-14.6232
G1 X-444.8921 Y-32.1796
G1 X-444.9055 Y-31.8046
G1 X-444.959 Y-30.3048
G1 X-444.9908 Y-29.3048
G1 X-445.0062 Y-28.7334
G1 X-445.0204 Y-28.0802
G1 X-445.0262 Y-27.7318
G1 X-445.0344 Y-26.9354
G2 X-445.0349 Y-26.8342 I1.4032 J0.0572
G2 X-445.0352 Y-26.7314 I1.4633 J0.0562
G2 X-445.0354 Y-26.6269 I1.53 J0.0551
G2 X-445.0355 Y-26.5208 I1.605 J0.0537
G2 X-445.028 Y-25.5513 I101.088 J-0.2983
G2 X-444.9211 Y-22.9678 I45.9273 J-0.605
G1 X-444.9092 Y-22.804
G1 X-444.8962 Y-22.6376
G1 X-444.8824 Y-22.4687
G1 X-444.8674 Y-22.2972
G1 X-444.8514 Y-22.1231
G1 X-444.8153 Y-21.7638
G1 X-444.7739 Y-21.3933
G1 X-444.7627 Y-21.3
G1 X-444.7512 Y-21.206
G1 X-444.7392 Y-21.1113
G1 X-444.6865 Y-20.7208
G1 X-444.6261 Y-20.3185
G1 X-444.6099 Y-20.2173
G2 X-444.5757 Y-20.0118 I5.5073 J-0.8119
G2 X-444.1728 Y-18.1492 I20.309 J-3.4174
G2 X-444.1087 Y-17.9157 I7.5197 J-1.9412
G2 X-443.796 Y-16.93 I13.917 J-3.8717
G2 X-443.3846 Y-15.9046 I12.2424 J-4.3167
G2 X-442.9925 Y-16.1023 I-0.383 J-1.2471
G2 X-442.7158 Y-16.4432 I-0.5572 J-0.7352
G2 X-442.6266 Y-16.7239 I-1.0666 J-0.4931
G2 X-442.5954 Y-17.1119 I-1.9674 J-0.3537
G2 X-442.6311 Y-17.6193 I-4.6011 J0.0685
G2 X-442.7178 Y-18.2725 I-31.0725 J3.7922
G3 X-442.7953 Y-19.1223 I8.0625 J-1.1638
G3 X-442.7825 Y-19.6054 I3.9808 J-0.1365
G3 X-442.6868 Y-20.1466 I3.2198 J0.2904
G3 X-442.4458 Y-20.7278 I2.4251 J0.665
G3 X-441.8249 Y-20.7943 I1.2645 J8.8788
G3 X-441.6171 Y-20.8071 I0.324 J3.5736
G3 X-440.7846 Y-20.8002 I0.3572 J7.2145
G3 X-440.2334 Y-20.7324 I-0.3631 J5.223
G3 X-439.9228 Y-20.6656 I-0.8607 J4.7608
G3 X-439.1286 Y-20.3688 I-0.897 J3.6102
G3 X-438.2267 Y-19.6788 I-1.4766 J2.8646
G3 X-437.8312 Y-19.1588 I-2.7263 J2.4841
G3 X-437.4856 Y-18.4964 I-3.979 J2.4973
G3 X-437.203 Y-17.6945 I-6.0041 J2.5666
G1 X-437.1738 Y-17.5905
G1 X-437.1454 Y-17.4847
G1 X-437.1179 Y-17.3769
G3 X-436.9162 Y-16.3914 I-12.1089 J2.992
G3 X-436.756 Y-15.2699 I-28.443 J4.634
G2 X-436.5555 Y-13.9641 I19.1686 J-2.2753
G2 X-436.4697 Y-13.532 I13.3796 J-2.4307
G2 X-436.0295 Y-11.8267 I19.4491 J-4.1111
G2 X-434.6621 Y-8.5843 I16.4251 J-5.0173
G2 X-433.3697 Y-6.6223 I12.8125 J-7.0334
G2 X-432.4855 Y-5.6092 I9.4301 J-7.3383
G2 X-431.3356 Y-4.5861 I7.6087 J-7.3941
G2 X-430.6579 Y-4.1193 I5.1321 J-6.7241
G2 X-429.8821 Y-3.7025 I3.892 J-6.315
G2 X-428.9927 Y-3.3836 I2.312 J-5.0474
G2 X-428.5112 Y-3.2878 I1.0932 J-4.2387
G2 X-428.0015 Y-3.2535 I0.488 J-3.4459
G2 X-427.4695 Y-3.304 I-0.0017 J-2.8445
G2 X-426.931 Y-3.4684 I-0.5094 J-2.634
G1 X-428.0028 Y-1.4615
G3 X-429.0203 Y-1.7074 I2.1705 J-11.2093
G3 X-429.354 Y-1.8094 I1.9435 J-6.9538
G3 X-430.6521 Y-2.3212 I3.2382 J-10.1152
G3 X-432.9918 Y-3.8321 I4.4829 J-9.5093
G3 X-434.3031 Y-5.1509 I7.3887 J-8.658
G3 X-435.7178 Y-7.1815 I10.3877 J-8.7448
G3 X-436.0345 Y-7.7609 I11.0178 J-6.4003
G3 X-436.6717 Y-9.1254 I15.3165 J-7.9831
G1 X-436.8181 Y-9.4853
G3 X-437.4011 Y-11.1566 I20.9021 J-8.2297
G1 X-437.4336 Y-11.2633
G3 X-437.6909 Y-12.1775 I24.0489 J-7.2613
G3 X-438.1617 Y-14.2854 I30.8237 J-7.9922
G1 X-438.1866 Y-14.4192
G3 X-438.5517 Y-16.8645 I36.9877 J-6.7732
G3 X-438.5563 Y-16.903 I0.376 J-0.0636
G3 X-438.5607 Y-16.9416 I0.3767 J-0.0634
G3 X-438.5652 Y-16.9802 I0.3774 J-0.0631
G2 X-438.9079 Y-16.9353 I0.0274 J1.5405
G2 X-439.2392 Y-16.8371 I0.6142 J2.6779
G1 X-439.3318 Y-16.8028
G2 X-440.0361 Y-16.4519 I1.4794 J3.8524
G2 X-439.6498 Y-12.7892 I24.9806 J-0.7834
G2 X-438.7489 Y-9.2182 I26.62 J-4.8165
G2 X-435.5631 Y-2.5974 I26.1099 J-8.4867
G2 X-435.0059 Y-1.788 I25.8429 J-17.1951
G2 X-433.6186 Y-0.022 I20.1476 J-14.3985
G2 X-432.8151 Y0.8667 I16.3434 J-13.9694
G2 X-430.8159 Y2.7388 I16.6506 J-15.7772
G2 X-428.2689 Y4.5628 I13.7213 J-16.4705
G2 X-425.0572 Y6.159 I10.6911 J-17.4813
G3 X-430.5083 Y4.2134 I2.6287 J-15.9738
G3 X-432.1319 Y3.1544 I8.7075 J-15.1241
G3 X-433.0052 Y2.4726 I10.392 J-14.21
G3 X-435.1341 Y0.4317 I13.464 J-16.1761
G3 X-436.2254 Y-0.8518 I17.5024 J-15.9859
G3 X-437.3693 Y-2.3973 I21.5008 J-17.1109
G3 X-437.648 Y-2.8077 I23.3352 J-16.1487
G3 X-438.842 Y-4.7301 I30.5347 J-20.2962
G3 X-438.8775 Y-4.7916 I1.2535 J-0.765
G3 X-440.1005 Y-7.074 I37.99 J-21.8243
G3 X-440.1731 Y-7.2201 I3.4802 J-1.8213
G3 X-440.7726 Y-8.4737 I39.7892 J-19.7988
G1 X-440.9196 Y-8.7944
G1 X-441.0669 Y-9.1211
G1 X-441.2144 Y-9.4536
G1 X-441.3622 Y-9.7923
G3 X-442.6235 Y-12.9105 I69.054 J-29.7459
G1 X-442.6985 Y-13.1087
G1 X-442.7735 Y-13.3086
G3 X-442.8487 Y-13.5101 I14.2334 J-5.4241
G2 X-443.2516 Y-12.106 I5.1415 J2.2353
G2 X-443.2721 Y-10.6453 I5.6619 J0.8099
G2 X-443.0986 Y-9.6863 I6.9237 J-0.7574
G2 X-442.7065 Y-8.4516 I10.7495 J-2.7346
G2 X-442.4295 Y-7.7666 I16.5055 J-6.2738
G2 X-442.3926 Y-7.6804 I1.3136 J-0.5123
G2 X-442.3547 Y-7.593 I1.4307 J-0.5681
G1 X-442.1901 Y-7.222
G1 X-442.1037 Y-7.0312
G2 X-441.9177 Y-6.626 I30.4695 J-13.7425
G1 X-441.719 Y-6.1948
G1 X-441.5101 Y-5.7344
G1 X-441.4047 Y-5.496
G1 X-441.2985 Y-5.249
G1 X-441.2722 Y-5.1865
G3 X-441.2195 Y-5.0595 I-2.2505 J1.008
G3 X-441.167 Y-4.93 I-3.6606 J1.5609
G1 X-441.0623 Y-4.6617
G3 X-440.8594 Y-4.0823 I-8.9216 J3.449
G1 X-440.8133 Y-3.9335
G3 X-440.6475 Y-3.2899 I-8.0307 J2.4116
G3 X-440.5401 Y-2.5884 I-6.5387 J1.3606
G3 X-440.5271 Y-1.8288 I-5.2468 J0.4693
G3 X-440.9787 Y-0.1237 I-4.4926 J-0.2774
G3 X-442.9738 Y-1.1798 I5.6243 J-13.0376
G3 X-444.7925 Y-2.5171 I8.637 J-13.6512
G3 X-447.8123 Y-5.8571 I10.9159 J-12.9049
G3 X-447.8927 Y-5.9758 I2.131 J-1.5289
G3 X-449.3324 Y-8.6701 I12.4884 J-8.4049
G3 X-449.6175 Y-9.4349 I11.0341 J-4.5489
G3 X-450.0892 Y-11.2409 I12.4546 J-4.2175
G3 X-449.7314 Y-11.5886 I8.7505 J8.6471
G3 X-449.3637 Y-11.9257 I17.2088 J18.4048
G3 X-448.6031 Y-12.5713 I16.2771 J18.4074
G1 Y-35.7142
G2 X-450.029 Y-32.215 I13.6819 J7.6155
G2 X-450.6099 Y-28.4814 I16.3119 J4.45
G1 X-451.0979 Y-28.5202
G2 X-451.2606 Y-28.5336 I-0.433 J4.2478
G2 X-451.9117 Y-28.5809 I-2.01 J23.1888
G2 X-453.217 Y-28.5934 I-0.7624 J11.4113
G2 X-454.0821 Y-28.4893 I0.3145 J6.256
G1 X-454.1364 Y-28.4782
G2 X-454.3666 Y-28.4241 I1.1363 J5.3496
G2 X-454.8796 Y-28.2512 I0.981 J3.7577
G2 X-455.4255 Y-27.9531 I1.1964 J2.8401
G1 Y-38.6561
G3 X-453.2098 Y-38.3576 I-1.0948 J16.4984
G3 X-452.4819 Y-38.1957 I-3.1941 J16.0826
G3 X-451.5209 Y-37.9411 I-5.0902 J21.1558
G3 X-451.2663 Y-37.8672 I-2.1054 J7.7258
G1 X-451.1352 Y-37.8282
G1 X-450.9999 Y-37.7875
G1 X-450.7119 Y-37.6991
G1 X-450.4053 Y-37.6028
G1 X-450.2472 Y-37.5526
G1 X-449.5257 Y-37.3206
G2 X-449.1408 Y-37.1973 I9.0914 J-27.7034
G1 X-448.7297 Y-37.0677
G2 X-448.6778 Y-37.0516 I0.3195 J-0.9376
G2 X-448.6254 Y-37.0355 I0.3082 J-0.9043
G2 X-447.6653 Y-36.754 I8.5389 J-27.3491
G2 X-447.6045 Y-36.7374 I0.1995 J-0.61
G1 X-447.353 Y-36.6704
G1 X-447.0926 Y-36.6043
G2 X-445.8912 Y-36.349 I4.3249 J-17.3951
G1 X-445.5785 Y-36.2972
G1 X-445.2546 Y-36.2502
G2 X-445.8438 Y-37.1408 I-3.5222 J1.6899
G2 X-446.6366 Y-37.8562 I-3.6646 J3.2645
G2 X-447.2359 Y-38.2406 I-3.8104 J5.2813
G1 X-447.3161 Y-38.2855
G2 X-448.1975 Y-38.7066 I-4.058 J7.3609
G2 X-449.4196 Y-39.1397 I-5.0728 J12.3734
G2 X-451.0821 Y-39.5705 I-6.6538 J22.2553
G2 X-451.1886 Y-39.5942 I-0.5594 J2.2633
G2 X-452.161 Y-39.7972 I-9.6353 J43.7136
G1 X-452.4123 Y-39.8469
G1 X-452.6717 Y-39.8973
G1 X-453.8533 Y-40.1253
G1 X-454.1577 Y-40.1857
G1 X-454.3121 Y-40.217
G1 X-454.6303 Y-40.2833
G1 X-454.6702 Y-40.2918
G1 X-454.8322 Y-40.3269
G1 X-454.9964 Y-40.3634
G1 X-455.3343 Y-40.4425
G1 X-453.8786 Y-45.3607
G3 X-452.574 Y-45.2672 I-0.0415 J9.725
G3 X-451.2894 Y-45.0211 I-1.7683 J12.7039
G3 X-450.4456 Y-44.8017 I-4.6517 J19.6254
G1 X-449.9666 Y-44.6651
G1 X-448.6932 Y-44.2916
G1 X-448.5285 Y-44.2449
G1 X-448.3582 Y-44.1976
G2 X-447.5758 Y-43.9974 I7.1864 J-26.4595
G1 X-447.4758 Y-43.9745
G1 X-447.3741 Y-43.9518
G1 X-447.1637 Y-43.9074
G2 X-446.1921 Y-43.7536 I2.08 J-9.994
G2 X-445.0666 Y-43.7083 I0.8721 J-7.6595
G2 X-443.7837 Y-43.8747 I-0.2194 J-6.7201
G2 X-448.0602 Y-46.1422 I-18.6497 J30.0056
G2 X-452.6151 Y-47.7805 I-13.1226 J29.3343
G2 X-452.917 Y-47.8616 I-8.5902 J31.3697
G1 X-450.8151 Y-52.6923
G3 X-447.5437 Y-51.3784 I-15.1142 J42.3606
G3 X-447.0862 Y-51.1675 I-11.6947 J25.9752
G1 X-446.8436 Y-51.052
G3 X-446.586 Y-50.9262 I-4.3379 J9.2098
G1 X-446.3129 Y-50.7889
G3 X-446.0236 Y-50.6384 I-14.2338 J27.712
G1 X-445.8751 Y-50.5589
G3 X-445.2069 Y-50.177 I-8.1174 J14.9791
G3 X-444.8596 Y-49.9579 I-6.9693 J11.432
G3 X-444.1072 Y-49.3948 I-3.611 J5.6097
G1 X-444.0186 Y-49.3146
G3 X-443.9311 Y-49.2302 I-0.9605 J1.0842
G3 X-443.6009 Y-48.8264 I-1.5675 J1.6185
G3 X-443.4834 Y-48.5799 I-0.9869 J0.6215
G1 X-443.3547 Y-48.8447
G1 X-443.2324 Y-49.1126
G1 X-442.9959 Y-49.6519
G3 X-442.4458 Y-50.6932 I8.0558 J3.5892
G2 X-443.2532 Y-51.3371 I-5.2248 J5.723
G2 X-444.129 Y-51.8843 I-6.1304 J8.8385
G1 X-444.3879 Y-52.0258
G2 X-445.0918 Y-52.377 I-6.6004 J12.3456
G2 X-445.2822 Y-52.4651 I-2.7267 J5.6414
G2 X-445.4862 Y-52.5569 I-4.6311 J10.0246
G1 X-445.7049 Y-52.6525
G2 X-446.2077 Y-52.8632 I-8.1437 J18.7274
G2 X-447.5607 Y-53.39 I-21.8885 J54.223
G1 X-447.923 Y-53.5263
G1 X-448.75 Y-53.8393
G1 X-448.9629 Y-53.9215
G3 X-449.9296 Y-54.3116 I10.0148 J-26.2067
G1 X-449.575 Y-54.9033
G1 X-449.2188 Y-55.4942
G3 X-448.9797 Y-55.8871 I100.1681 J60.7073
G1 X-448.6577 Y-56.409
G1 X-448.4717 Y-56.706
G1 X-448.2571 Y-57.0441
G3 X-447.6719 Y-57.9375 I31.2882 J19.8568
G3 X-445.1602 Y-57.6102 I0.002 J9.7846
G3 X-444.3501 Y-57.3655 I-3.2016 J12.0663
G3 X-443.2973 Y-56.9615 I-5.0494 J14.7318
G3 X-441.9291 Y-56.3434 I-14.9572 J34.9284
G1 X-441.5666 Y-56.1738
G1 X-441.1793 Y-55.9949
G1 X-440.9787 Y-55.904
G2 X-441.5636 Y-55.1583 I5.8285 J5.1737
G1 X-441.7423 Y-54.8976
G2 X-442.4151 Y-53.8284 I20.6638 J13.7488
G1 X-442.8487 Y-53.1066
G2 X-442.5863 Y-52.7521 I3.7807 J-2.5232
G2 X-442.2771 Y-52.4374 I1.7265 J-1.3873
G2 X-442.027 Y-52.2806 I0.6772 J-0.8026
G2 X-441.6311 Y-52.2294 I0.2788 J-0.5995
G2 X-441.4104 Y-52.31 I-0.1385 J-0.722
G2 X-441.1912 Y-52.4685 I-0.5217 J-0.9519
G2 X-440.9825 Y-52.6923 I-1.1812 J-1.3106
G2 X-440.7203 Y-53.0256 I-13.1475 J-10.6141
G1 X-440.4615 Y-53.3615
G3 X-439.9273 Y-54.02 I10.2529 J7.7713
G3 X-439.7641 Y-54.1993 I3.3172 J2.8547
G3 X-439.285 Y-54.6341 I2.7701 J2.5712
G3 X-438.9704 Y-54.8309 I1.3405 J1.7931
G3 X-438.5652 Y-54.9691 I0.6841 J1.3429
G2 X-438.3866 Y-54.3843 I1.1886 J-0.0434
G2 X-437.9237 Y-53.9847 I0.9353 J-0.6155
G2 X-437.5351 Y-53.8574 I0.6711 J-1.3923
G2 X-436.9992 Y-53.8229 I0.4005 J-2.0421
G2 X-436.3141 Y-53.9617 I-0.1204 J-2.3542
G2 X-435.9574 Y-54.1347 I-0.6276 J-1.7485
G2 X-435.6272 Y-54.4445 I-0.5589 J-0.9264
G2 X-435.4566 Y-54.8727 I-1.0711 J-0.6747
G2 X-435.5051 Y-55.3311 I-0.7805 J-0.1491
G2 X-435.6665 Y-55.5959 I-0.995 J0.4245
G2 X-435.9522 Y-55.887 I-1.9294 J1.6082
G3 X-436.1243 Y-56.0402 I9.61 J-10.9683
G3 X-436.3033 Y-56.2283 I0.88 J-1.0166
G3 X-436.3667 Y-56.3523 I0.3249 J-0.2443
G3 X-436.3477 Y-56.5104 I0.2079 J-0.0552
G3 X-436.2201 Y-56.6528 I0.3968 J0.2273
G3 X-433.0316 Y-58.2354 I10.7788 J17.7128
G3 X-429.6139 Y-59.231 I7.14 J18.1473
G3 X-422.5228 Y-59.2825 I3.6842 J19.0545
G3 X-417.9797 Y-57.926 I-3.6812 J20.6151
G3 X-415.5538 Y-56.7154 I-9.0738 J21.2197
G3 X-414.3235 Y-55.9559 I-12.1564 J21.0668
G3 X-411.6993 Y-53.96 I-13.7256 J20.7694
G3 X-409.0423 Y-51.304 I-18.0364 J20.6998
G3 X-406.4709 Y-47.8888 I-22.6812 J19.7529
G1 X-406.3252 Y-47.6621
G3 X-404.0091 Y-43.3532 I-28.4511 J18.0702
G3 X-402.1174 Y-38.1425 I-34.9757 J15.646
G3 X-400.8455 Y-32.0081 I-42.4212 J11.9946
G1 X-400.794 Y-31.6168
G1 X-400.7455 Y-31.2224
G3 X-400.4614 Y-27.8648 I-48.7259 J5.8136
G3 X-400.3971 Y-24.297 I-53.6466 J2.7505
G1 X-400.4054 Y-23.8479
G3 X-400.6128 Y-20.0514 I-60.4148 J-1.3966
G3 X-400.8107 Y-18.1071 I-57.347 J-4.855
G3 X-400.8698 Y-17.6187 I-22.3879 J-2.4619
G3 X-401.5113 Y-13.5101 I-67.9978 J-8.5127
G0 Z5.0
G0 X-408.7584 Y-0.7597
G1 Z0.0
G3 X-407.6648 Y-0.1237 I-31.7077 J55.7858
G1 X-408.7366 Y0.9405
G1 X-417.2998 Y-4.4109
G3 X-417.2176 Y-4.5346 I0.8442 J0.4719
G3 X-417.1251 Y-4.6509 I1.9112 J1.4248
G2 X-416.9528 Y-4.8927 I-1.2976 J-1.1068
G2 X-416.8798 Y-5.0775 I-0.539 J-0.32
G2 X-416.8931 Y-5.346 I-0.4879 J-0.1104
G1 X-416.832 Y-5.3102
G2 X-416.8116 Y-5.2982 I0.0986 J-0.1448
G2 X-416.7844 Y-5.2823 I0.1162 J-0.1672
G1 X-416.6756 Y-5.2187
G1 X-416.4577 Y-5.0918
G1 X-416.0212 Y-4.8396
G1 X-415.1456 Y-4.3396
G1 X-414.5605 Y-4.0088
G1 X-414.2257 Y-3.8204
G1 X-413.8429 Y-3.6056
G1 X-413.6386 Y-3.4912
G1 X-413.1715 Y-3.23
G1 X-412.9222 Y-3.0909
G1 X-411.5924 Y-2.3501
G1 X-409.8205 Y-1.3604
G1 X-408.8109 Y-0.7894
G3 X-408.7584 Y-0.7597 I-31.6552 J55.8156
G0 Z5.0
G0 X-413.5522 Y6.159
G1 Z0.0
G1 X-415.426 Y7.0903
G2 X-416.5426 Y6.402 I-9.3658 J13.9436
G1 X-416.9238 Y6.1878
G1 X-417.4356 Y5.9085
G1 X-418.1206 Y5.541
G1 X-418.5117 Y5.3304
G3 X-419.5455 Y4.7529 I16.6903 J-31.0958
G3 X-420.1252 Y4.4037 I10.2717 J-17.7042
G3 X-420.771 Y3.9778 I7.1819 J-11.593
G3 X-421.4764 Y3.4438 I5.8272 J-8.4303
G3 X-421.8324 Y3.1332 I5.5679 J-6.741
G3 X-422.5691 Y2.34 I4.4473 J-4.869
G3 X-423.2141 Y1.2737 I3.9162 J-3.0975
G3 X-423.5825 Y-0.1237 I4.1838 J-1.85
G2 X-421.9966 Y1.1353 I15.9114 J-18.4132
G2 X-420.3201 Y2.2707 I17.4278 J-23.9299
G2 X-419.168 Y2.9743 I22.1755 J-35.0101
G1 X-418.8576 Y3.1565
G1 X-418.5252 Y3.3488
G1 X-418.1696 Y3.552
G1 X-417.7892 Y3.7667
G1 X-417.5925 Y3.8769
G1 X-416.6918 Y4.3772
G1 X-415.6619 Y4.9476
G1 X-415.114 Y5.2541
G3 X-413.8703 Y5.9696 I-35.0985 J62.4511
G1 X-413.5522 Y6.159
G0 Z5.0
G0 X-416.8931 Y7.6375
G1 Z0.0
G1 X-419.2838 Y8.4282
G1 X-418.3678 Y7.0903
G1 X-416.8931 Y7.6375
G0 Z5.0
G0 X-450.0132 Y-14.6389
G1 Z0.0
G2 X-450.3358 Y-14.4229 I0.8122 J1.5626
G2 X-450.6263 Y-14.1652 I4.153 J4.9728
G1 X-450.8151 Y-13.9885
G3 X-451.0713 Y-13.758 I-4.2132 J-4.427
G3 X-451.2225 Y-13.632 I-3.1279 J-3.5975
G3 X-452.5939 Y-12.8602 I-2.9485 J-3.6351
G3 X-453.0966 Y-13.2072 I0.6017 J-1.409
G3 X-453.4348 Y-13.7159 I1.343 J-1.2597
G3 X-453.5769 Y-14.0973 I2.7704 J-1.25
G3 X-453.6997 Y-14.6221 I5.2482 J-1.5043
G3 X-453.7496 Y-14.9247 I5.3862 J-1.0444
G1 X-453.7988 Y-15.2699
G3 X-453.2903 Y-16.1068 I16.4482 J9.4192
G3 X-452.7154 Y-16.8994 I7.8097 J5.0603
G1 X-452.6752 Y-16.9482
G3 X-452.2175 Y-17.4435 I4.4554 J3.6576
G3 X-451.5146 Y-18.006 I3.2825 J3.3812
G3 X-450.4161 Y-18.5005 I2.148 J3.3051
G1 X-450.394 Y-18.2748
G3 X-450.3871 Y-18.1994 I-0.9133 J0.1221
G1 X-450.3611 Y-17.8981
G1 X-450.3449 Y-17.697
G1 X-450.2845 Y-16.8927
G1 X-450.242 Y-16.3567
G2 X-450.1716 Y-15.6433 I19.4278 J-1.5568
G2 X-450.0256 Y-14.6984 I10.7358 J-1.1754
G2 X-450.0132 Y-14.6389 I0.6486 J-0.1043
G0 Z5.0
G0 X-453.8336 Y-18.363
G1 Z0.0
G3 X-453.9332 Y-18.2613 I-22.6419 J-22.0715
G3 X-454.3535 Y-17.8391 I-14.2404 J-13.7564
G3 X-454.584 Y-17.6205 I-7.8325 J-8.0294
G1 X-454.7055 Y-17.5104
G1 X-454.768 Y-17.4553
G1 X-455.3343 Y-25.1101
G3 X-455.2206 Y-25.7436 I1.38 J-0.0794
G3 X-454.8208 Y-26.2481 I1.2631 J0.5905
G3 X-454.4604 Y-26.4817 I1.255 J1.541
G3 X-453.9367 Y-26.6958 I1.5926 J3.1481
G3 X-453.2172 Y-26.869 I1.6873 J5.428
G3 X-452.2608 Y-26.983 I1.5733 J9.1338
G3 X-451.009 Y-27.0218 I1.1937 J18.296
G1 X-450.6099 Y-20.7278
G2 X-451.5599 Y-20.3257 I1.2133 J4.1894
G2 X-452.4081 Y-19.7387 I2.9372 J5.1508
G2 X-452.9228 Y-19.2829 I5.2846 J6.4863
G2 X-453.5701 Y-18.6366 I16.8293 J17.5013
G3 X-453.8336 Y-18.363 I-22.9053 J-21.798
G0 Z5.0
G0 X-440.0361 Y-57.3825
G1 Z0.0
G2 X-440.5398 Y-57.8225 I-3.5053 J3.5045
G2 X-441.091 Y-58.2012 I-3.731 J4.8399
G2 X-442.2819 Y-58.8052 I-4.5387 J7.4724
G2 X-443.1149 Y-59.1186 I-4.3458 J10.2881
G2 X-444.2512 Y-59.4535 I-5.4885 J16.5267
G2 X-445.7905 Y-59.7922 I-5.5207 J21.4233
G3 X-444.8065 Y-60.8965 I12.6609 J10.2903
G3 X-443.7101 Y-61.8893 I8.1932 J7.9465
G3 X-443.5539 Y-62.0098 I2.1758 J2.6602
G1 X-443.3843 Y-62.1345
G3 X-443.1999 Y-62.2628 I2.9948 J4.1057
G3 X-442.1522 Y-62.8451 I3.72 J5.4602
G3 X-441.5046 Y-63.0746 I2.0271 J4.6899
G1 X-441.4201 Y-63.0969
G3 X-440.6274 Y-63.2165 I0.9859 J3.8476
G3 X-439.7067 Y-63.1414 I0.1682 J3.6197
G3 X-438.7046 Y-62.7751 I-0.8376 J3.8452
G3 X-437.6964 Y-62.0748 I-2.4447 J4.5954
G1 X-437.58 Y-61.9707
G3 X-436.6268 Y-60.9211 I-5.592 J6.036
G1 X-440.0361 Y-57.3825
G0 Z5.0
M5
M30
