( Made using CamBam - http://www.cambam.co.uk )
( car2 1/22/2014 9:38:58 AM )
( T0 : 0.0 )
G21 G90 G64 G40
G0 Z5.0
( T0 : 0.0 )
T0 M6
( 381-410 )
G17
M3 S1000
G0 X36.3321 Y41.343
G1 F1.0 Z0.0
G1 X36.4929 Y41.3179
G2 X36.5159 Y41.3142 I-0.0146 J-0.1641
G1 X36.6996 Y41.2838
G1 X36.822 Y41.263
G1 X36.985 Y41.2345
G1 X37.6363 Y41.1168
G1 X37.7231 Y41.101
G3 X39.1156 Y40.8673 I6.6642 J35.4356
G3 X40.0504 Y40.7554 I2.3439 J15.6289
G1 X40.3007 Y40.7351
G3 X41.6407 Y40.7248 I0.7447 J9.6552
G3 X42.4023 Y40.8185 I-0.4087 J6.46
G3 X43.2519 Y41.0479 I-0.9102 J5.0602
G3 X44.1562 Y41.5039 I-1.4746 J4.0487
G3 X45.0283 Y42.2856 I-2.2908 J3.4332
G2 X44.5427 Y42.3627 I3.0687 J20.8816
G1 X44.058 Y42.4443
G1 X43.7348 Y42.4991
G1 X43.5502 Y42.5303
G1 X43.339 Y42.5655
G1 X42.7754 Y42.6558
G1 X42.4528 Y42.7042
G1 X42.0836 Y42.7556
G1 X41.6608 Y42.8082
G1 X41.4349 Y42.8331
G3 X40.9176 Y42.8802 I-3.0947 J-31.1526
G3 X39.5323 Y42.9135 I-0.9777 J-11.8184
G3 X39.1631 Y42.8909 I0.305 J-8.0201
G3 X39.0694 Y42.8824 I0.0648 J-1.2351
G3 X38.8766 Y42.861 I0.408 J-4.5469
G3 X38.0056 Y42.6804 I0.6542 J-5.3452
G3 X37.5595 Y42.5125 I1.079 J-3.5437
G3 X37.1137 Y42.2606 I1.2601 J-2.7507
G3 X36.3321 Y41.343 I1.2922 J-1.8922
G0 Z5.0
G0 X37.2671 Y44.6876
G1 Z0.0
G2 X37.8427 Y44.6392 I-1.1093 J-16.6517
G2 X37.9248 Y44.631 I-0.1755 J-2.1639
G2 X38.0187 Y44.6212 I-0.2191 J-2.5603
G2 X38.1258 Y44.6096 I-0.2932 J-3.2089
G2 X38.4114 Y44.5766 I-1.1458 J-11.1573
G1 X38.7916 Y44.5286
G1 X39.2979 Y44.4595
G1 X39.587 Y44.4186
G1 X39.7413 Y44.3965
G1 X40.5637 Y44.2804
G3 X40.7832 Y44.251 I1.09 J7.3033
G1 X41.2856 Y44.1886
G3 X42.6312 Y44.0791 I2.1162 J17.6815
G3 X43.4033 Y44.0764 I0.4246 J10.839
G1 X43.6024 Y44.0854
G3 X44.509 Y44.1902 I-0.4196 J7.606
G1 X44.623 Y44.2119
G3 X45.644 Y44.5127 I-1.1376 J5.7436
G3 X45.8068 Y44.6304 I-0.4606 J0.8082
G1 X45.8568 Y44.6749
G3 X46.0457 Y44.8645 I-3.4803 J3.6559
G3 X46.1649 Y44.9971 I-1.8503 J1.7847
G3 X46.3185 Y45.1782 I-4.2736 J3.7782
G3 X46.4042 Y45.2835 I-1.6668 J1.4444
G3 X47.0537 Y46.1494 I-15.954 J12.6443
G1 X47.2314 Y46.4026
G1 X47.4304 Y46.6944
G1 X47.2812 Y46.7019
G1 X47.2314 Y46.7049
G2 X47.0326 Y46.7193 I0.3292 J5.9207
G1 X46.9002 Y46.7308
G1 X46.7238 Y46.7478
G1 X46.6231 Y46.7585
G2 X45.8194 Y46.8587 I4.4019 J38.5619
G1 X44.2163 Y47.0877
G1 X43.7579 Y47.1496
G3 X42.5317 Y47.285 I-3.9736 J-30.3735
G3 X42.3729 Y47.2979 I-0.4445 J-4.4707
G1 X42.034 Y47.3209
G1 X41.9478 Y47.3257
G3 X41.159 Y47.3443 I-0.6845 J-12.3182
G3 X40.2578 Y47.2922 I0.0488 J-8.6801
G3 X39.2436 Y47.0834 I0.5647 J-5.3079
G3 X38.7283 Y46.875 I1.009 J-3.2375
G3 X38.2237 Y46.5522 I1.1974 J-2.4273
G3 X37.7763 Y46.0794 I1.4825 J-1.8509
G3 X37.4456 Y45.4476 I2.193 J-1.5505
G3 X37.2671 Y44.6876 I3.1767 J-1.1471
G0 Z5.0
G0 X33.161 Y45.9971
G1 Z0.0
G1 X33.1938 Y46.1
G2 X33.4492 Y46.8148 I10.7047 J-3.4211
G1 X33.5208 Y46.9937
G2 X34.3252 Y48.5682 I9.5665 J-3.8948
G3 X33.3235 Y48.6975 I-3.1146 J-20.1915
G1 X32.3185 Y48.7988
G2 X32.1845 Y48.8133 I0.2295 J2.7403
G2 X31.4731 Y48.9134 I1.0006 J9.6909
G2 X31.072 Y49.0024 I0.7404 J4.2875
G2 X30.6268 Y49.1543 I0.7469 J2.9169
G2 X29.6427 Y49.9594 I0.8433 J2.0348
G2 X30.325 Y50.4458 I2.0355 J-2.1336
G2 X31.1239 Y50.6989 I1.1821 J-2.3441
G2 X31.6824 Y50.7353 I0.5052 J-3.4445
G2 X32.4225 Y50.6729 I-0.0999 J-5.6098
G2 X32.6182 Y50.6439 I-0.4535 J-3.7343
G1 X33.0625 Y50.5711
G1 X33.1189 Y50.5619
G3 X33.3592 Y50.5242 I1.6297 J9.6091
G1 X33.4834 Y50.5066
G3 X33.7486 Y50.476 I0.8211 J5.9547
G3 X34.3563 Y50.4672 I0.3529 J3.3683
G3 X34.6774 Y50.518 I-0.149 J1.9821
G3 X35.3564 Y50.8459 I-0.386 J1.6659
G3 X35.6505 Y51.1326 I-1.3042 J1.6323
G3 X35.9072 Y51.494 I-2.1509 J1.7995
G3 X36.1261 Y51.9164 I-3.7689 J2.2218
G3 X36.3116 Y52.3884 I-5.2612 J2.3393
G3 X36.3321 Y52.4489 I-0.8002 J0.3056
G1 X30.0494 Y52.8441
G3 X29.162 Y51.2316 I84.0219 J-47.2881
G1 X29.0378 Y50.9999
G1 X28.7107 Y50.3796
G1 X28.5267 Y50.0237
G3 X27.1561 Y47.1263 I40.4402 J-20.9025
G1 X26.9903 Y46.7324
G3 X26.1919 Y44.5968 I28.9308 J-12.0329
G3 X26.0066 Y44.0175 I36.2741 J-11.9201
G3 X25.2521 Y40.8618 I23.4967 J-7.286
G1 X25.2187 Y40.6583
G3 X24.9601 Y36.2651 I21.7103 J-3.4822
G3 X25.0236 Y35.2998 I19.86 J0.8212
G3 X25.1485 Y34.3404 I12.0919 J1.0863
G3 X25.2791 Y33.7086 I8.8178 J1.4938
G3 X25.5403 Y32.8883 I5.6425 J1.3452
G3 X25.7542 Y32.4442 I3.5971 J1.4586
G3 X26.0844 Y31.9841 I2.2315 J1.2532
G3 X26.6147 Y31.5946 I1.1862 J1.0588
G3 X27.3952 Y31.492 I0.5716 J1.3285
G3 X27.8162 Y31.5967 I-0.2615 J1.9509
G3 X28.2426 Y31.7933 I-0.9711 J2.6669
G3 X28.6638 Y32.0679 I-2.0951 J3.6734
G3 X29.4844 Y32.8228 I-3.4825 J4.6091
G3 X30.2292 Y33.7937 I-5.8369 J5.2485
G3 X30.8589 Y34.9879 I-6.1165 J3.9882
G3 X31.2458 Y36.0907 I-11.0589 J4.4997
G3 X31.5431 Y37.2211 I-15.0401 J4.5593
G1 X31.615 Y37.5472
G1 X31.6913 Y37.9211
G3 X31.8702 Y38.9227 I-30.487 J5.9622
G3 X32.0723 Y40.2635 I-49.8339 J8.1981
G1 X32.1798 Y41.0307
G2 X32.1934 Y41.1282 I2.7922 J-0.3404
G1 X32.3205 Y42.0182
G1 X32.3547 Y42.2477
G1 X32.3909 Y42.4844
G1 X32.4719 Y42.9887
G2 X32.684 Y44.1367 I31.0948 J-5.1539
G1 X32.7144 Y44.2818
G1 X32.7462 Y44.4291
G1 X32.7796 Y44.5785
G2 X33.1398 Y45.9306 I17.5563 J-3.9536
G1 X33.161 Y45.9971
G0 Z5.0
G0 X38.7342 Y49.0966
G1 Z0.0
G1 X49.2357 Y48.1121
G3 X49.5897 Y48.4649 I-11.3385 J11.731
G3 X49.9225 Y48.8377 I-5.6445 J5.3737
G1 X50.0118 Y48.949
G3 X50.0584 Y49.0093 I-0.5785 J0.4947
G3 X50.6953 Y50.0467 I-5.049 J3.8142
G1 X38.7342 Y50.0392
G1 Y49.0966
G0 Z5.0
G0 X40.608 Y51.9129
G1 Z0.0
G1 X50.2468 Y51.5063
G3 X49.9309 Y51.9126 I-2.3116 J-1.4715
G3 X49.5488 Y52.2573 I-2.341 J-2.2109
G3 X48.6662 Y52.7789 I-2.734 J-3.6188
G3 X48.0303 Y53.0281 I-2.7564 J-6.0968
G3 X47.1559 Y53.2699 I-2.7365 J-8.1949
G3 X45.9696 Y53.473 I-2.6234 J-11.7567
G3 X44.3796 Y53.5915 I-2.0105 J-16.2482
G3 X43.471 Y53.599 I-0.6094 J-18.7958
G1 X43.2368 Y53.5947
G3 X40.7641 Y53.405 I0.5994 J-24.0181
G1 X40.608 Y53.3839
G1 Y51.9129
G0 Z5.0
G0 X37.2964 Y54.9401
G1 Z0.0
G1 X38.1982 Y55.9266
G2 X37.7118 Y56.0008 I6.2211 J42.3855
G1 X37.2264 Y56.0817
G3 X36.2536 Y56.2315 I-4.9816 J-29.1013
G3 X35.6017 Y56.3059 I-2.0403 J-14.9841
G3 X34.7277 Y56.3508 I-0.9342 J-9.6657
G3 X33.5628 Y56.2605 I-0.0881 J-6.4221
G3 X32.9134 Y56.0956 I0.8412 J-4.6739
G3 X32.2151 Y55.7701 I1.0989 J-3.2697
G3 X31.5334 Y55.1968 I1.6002 J-2.5948
G3 X30.9806 Y54.3226 I2.5703 J-2.2372
G1 X36.5792 Y54.1555
G1 X37.2964 Y54.9401
G0 Z5.0
G0 X37.7382 Y57.3788
G1 Z0.0
G1 X38.2857 Y57.2796
G3 X38.5824 Y57.2547 I0.2959 J1.7444
G3 X38.8782 Y57.288 I-0.0013 J1.3414
G3 X39.4008 Y57.5676 I-0.2691 J1.1313
G3 X39.6586 Y57.8696 I-1.2149 J1.2981
G3 X39.9104 Y58.3278 I-2.6047 J1.7296
G3 X40.1512 Y58.9656 I-5.6086 J2.4822
G1 X40.2051 Y59.1382
G2 X39.3637 Y59.3226 I5.1674 J25.5972
G1 X38.5247 Y59.5171
G1 X38.4126 Y59.5422
G1 X38.1561 Y59.598
G1 X38.0191 Y59.6268
G1 X37.7052 Y59.6892
G3 X36.8625 Y59.8243 I-2.5663 J-13.3038
G3 X36.377 Y59.8724 I-1.1471 J-9.1114
G3 X35.8192 Y59.889 I-0.4729 J-6.521
G3 X35.1822 Y59.8355 I0.0433 J-4.3316
G3 X34.4767 Y59.6272 I0.4055 J-2.6729
G3 X33.796 Y59.0994 I0.7467 J-1.666
G3 X33.5519 Y58.6941 I1.4825 J-1.1688
G3 X33.394 Y58.2032 I2.2808 J-1.0046
G1 X34.8979 Y57.9144
G3 X36.4023 Y57.6283 I41.7732 J215.5306
G1 X37.4057 Y57.4401
G1 X37.6734 Y57.3906
G1 X37.7382 Y57.3788
G0 Z5.0
G0 X38.2373 Y61.2234
G1 Z0.0
G1 X40.5395 Y60.9246
G1 X41.9839 Y62.2283
G1 X36.659 Y62.7794
G1 X35.7962 Y61.5403
G1 X38.2373 Y61.2234
G0 Z5.0
G0 X30.51 Y68.219
G1 Z0.0
G2 X31.5089 Y69.2939 I41.9525 J-37.98
G3 X30.4221 Y68.9857 I1.6993 J-8.0616
G3 X29.3783 Y68.5539 I4.3348 J-11.956
G3 X28.7022 Y68.2224 I7.1177 J-15.3709
G1 X28.3211 Y68.0227
G1 X27.889 Y67.7884
G3 X27.6596 Y67.6616 I20.2827 J-36.9622
G1 X26.4404 Y66.9805
G1 X26.1138 Y66.8018
G1 X25.7636 Y66.6148
G1 X25.3871 Y66.4208
G2 X24.5111 Y66.0094 I-6.9504 J13.6597
G2 X23.474 Y65.6224 I-4.0842 J9.3616
G2 X22.3937 Y65.4049 I-1.554 J4.9268
G2 X21.2925 Y65.4493 I-0.3845 J4.1392
G2 X20.5848 Y65.6547 I0.6481 J3.5549
G2 X18.677 Y67.8246 I1.2055 J2.9835
G2 X18.8181 Y69.8032 I2.975 J0.7822
G2 X19.4091 Y71.0037 I9.8627 J-4.1099
G2 X20.1274 Y72.1325 I12.0464 J-6.8723
G1 X20.231 Y72.2779
G1 X20.3432 Y72.4316
G1 X20.4648 Y72.5941
G2 X21.142 Y73.4384 I14.2652 J-10.7497
G2 X22.1023 Y74.5142 I21.565 J-18.2819
G1 X22.2297 Y74.6498
G2 X23.6165 Y76.0662 I48.105 J-45.7102
G2 X23.6607 Y76.1103 I0.685 J-0.643
G1 X24.4698 Y76.9145
G3 X24.5814 Y77.0339 I-1.1892 J1.2233
G3 X24.6822 Y77.1623 I-1.8628 J1.5659
G3 X24.7399 Y77.2548 I-0.6836 J0.4903
G3 X24.7922 Y77.3906 I-0.3794 J0.2243
G3 X24.7892 Y77.4756 I-0.1582 J0.0368
G3 X24.6971 Y77.5402 I-0.0945 J-0.0367
G3 X24.6296 Y77.5373 I-0.0208 J-0.3007
G3 X24.4784 Y77.4871 I0.1172 J-0.6061
G3 X24.3425 Y77.4119 I0.819 J-1.6408
G3 X24.0821 Y77.2148 I1.3633 J-2.0713
G3 X15.1508 Y67.6622 I39.4688 J-45.8534
G3 X8.4643 Y56.4233 I49.1373 J-36.8428
G3 X5.381 Y48.2593 I57.0432 J-26.2076
G3 X3.0449 Y36.8709 I62.1825 J-18.689
G3 X2.6229 Y30.237 I66.6143 J-7.5684
G3 X3.6456 Y30.1286 I1.0002 J4.5564
G3 X4.6685 Y30.2367 I-0.0592 J5.4499
G3 X4.803 Y30.264 I-0.6831 J3.7104
G3 X5.5125 Y30.4395 I-2.3343 J10.9605
G1 X5.9149 Y30.5502
G2 X6.0187 Y30.5786 I0.5222 J-1.7064
G1 X6.2405 Y30.6377
G1 X6.4779 Y30.6972
G2 X7.0248 Y30.8106 I1.7543 J-7.0884
G2 X7.3197 Y30.8531 I0.8344 J-4.7413
G2 X8.9094 Y30.7806 I0.5851 J-4.6359
G2 X10.0936 Y30.0238 I-1.7352 J-4.0198
G2 X10.418 Y29.6829 I-2.2393 J-2.4563
G2 X10.7484 Y29.1482 I-1.7939 J-1.478
G2 X10.887 Y28.3139 I-1.5364 J-0.6838
G2 X10.7756 Y27.8349 I-1.8872 J0.1864
G2 X11.4581 Y27.9147 I5.4047 J-43.3026
G1 X12.1405 Y27.9965
G1 X12.5947 Y28.0566
G3 X13.1984 Y28.1501 I-2.0171 J15.0223
G3 X13.9943 Y28.3243 I-1.2608 J7.666
G1 X14.019 Y28.3315
G1 X14.1202 Y28.3632
G1 X14.2541 Y29.3527
G1 X14.3003 Y29.6824
G2 X14.3633 Y30.1218 I26.5896 J-3.5853
G1 X14.4495 Y30.7072
G1 X14.5001 Y31.0416
G1 X14.5589 Y31.4237
G2 X14.6276 Y31.86 I26.8432 J-4.0033
G1 X14.7081 Y32.3583
G1 X14.8026 Y32.9274
G2 X15.6657 Y37.4609 I108.6177 J-18.3288
G1 X15.7961 Y38.0623
G1 X15.9393 Y38.7028
G2 X16.781 Y42.101 I84.5691 J-19.1426
G1 X16.8995 Y42.5369
G1 X17.0243 Y42.9862
G1 X17.1558 Y43.4492
G2 X18.7359 Y48.3345 I72.1391 J-20.6338
G2 X19.7933 Y51.0721 I60.9542 J-21.9716
G2 X23.2114 Y58.1134 I57.4163 J-23.5218
G2 X24.2749 Y59.9114 I49.2335 J-27.9078
G1 X24.5553 Y60.3619
G2 X30.51 Y68.219 I47.9072 J-30.1229
G0 Z5.0
G0 X21.9607 Y77.893
G1 Z0.0
G2 X24.8927 Y80.3173 I38.3431 J-43.3875
G2 X31.6672 Y84.7797 I33.0228 J-42.7593
G2 X35.5416 Y86.7206 I24.9993 J-45.0656
G3 X35.6079 Y86.7513 I-0.3716 J0.8916
G1 X35.6741 Y86.7824
G1 X35.8057 Y86.8464
G3 X36.0637 Y86.9843 I-1.5065 J3.1276
G3 X36.2251 Y87.094 I-0.6923 J1.1929
G3 X36.2595 Y87.1336 I-0.081 J0.1051
G3 X36.2444 Y87.1649 I-0.0162 J0.0115
G3 X36.1842 Y87.1674 I-0.0378 J-0.185
G1 X36.153 Y87.1639
G1 X36.1152 Y87.1578
G3 X35.9932 Y87.1304 I0.3211 J-1.7139
G1 X35.9096 Y87.1075
G3 X35.8061 Y87.0765 I1.2946 J-4.5036
G1 X35.7005 Y87.0424
G1 X35.5802 Y87.0014
G1 X35.3819 Y86.9296
G3 X27.3383 Y83.1581 I17.0002 J-46.7202
G3 X20.1038 Y78.0019 I24.7521 J-42.3824
G3 X15.8394 Y73.8858 I33.1215 J-38.5816
G3 X15.5849 Y73.6082 I10.0043 J-9.4251
G3 X10.6413 Y67.2906 I40.4926 J-36.7792
G3 X9.4801 Y65.4923 I52.415 J-35.1194
G1 X9.1957 Y65.0289
G3 X6.7933 Y60.6821 I52.3966 J-31.7956
G3 X6.7236 Y60.5426 I2.7143 J-1.444
G3 X6.654 Y60.4025 I2.7186 J-1.438
G3 X4.3447 Y55.1745 I58.6507 J-29.0319
G1 X4.0836 Y54.4971
G1 X3.8259 Y53.8064
G3 X1.8067 Y47.3871 I67.0887 J-24.6293
G3 X0.2139 Y39.8785 I76.0951 J-20.0653
G3 X-0.7255 Y31.1797 I82.9989 J-13.364
G1 X0.2093
G2 X0.4396 Y34.93 I59.053 J-1.7435
G2 X0.9007 Y38.659 I62.6928 J-5.8591
G2 X1.3307 Y41.1269 I65.0202 J-10.0567
G2 X3.972 Y50.7824 I66.0529 J-12.8803
G2 X6.5059 Y56.959 I64.2525 J-22.751
G2 X10.7946 Y64.7551 I61.495 J-28.7511
G2 X12.1092 Y66.7323 I56.3103 J-36.0156
G2 X15.3789 Y71.0627 I52.1077 J-35.9445
G2 X19.5583 Y75.6452 I47.0646 J-38.7278
G2 X21.9607 Y77.893 I40.7455 J-41.1396
G0 Z5.0
G0 X60.8168 Y70.7724
G1 Z0.0
G1 X61.6188 Y70.7311
G1 X62.4206 Y70.6843
G1 X62.955 Y70.6507
G1 X63.2603 Y70.6308
G2 X63.4232 Y70.62 I-0.1381 J-3.3221
G1 X63.5969 Y70.6084
G1 X64.523 Y70.5447
G1 X64.6425 Y70.5363
G1 X65.917 Y70.4457
G1 X67.6164 Y70.3274
G1 X68.0698 Y70.2978
G3 X69.1064 Y70.2366 I4.2036 J62.3596
G2 X69.8487 Y70.9672 I5.9753 J-5.3286
G2 X70.693 Y71.5771 I3.7913 J-4.3588
G2 X71.3178 Y71.8824 I2.1834 J-3.676
G2 X72.2159 Y72.1187 I1.4433 J-3.6618
G2 X73.4562 Y72.1023 I0.5637 J-4.2972
G2 X74.1504 Y71.9531 I-0.8343 J-5.5711
G2 X74.9188 Y71.7019 I-2.219 J-8.0874
G2 X75.3192 Y71.5447 I-3.9156 J-10.5595
G2 X76.2129 Y71.1548 I-8.4961 J-20.6963
G1 X76.6838 Y70.9398
G3 X77.7532 Y70.4659 I18.3191 J39.8979
G3 X78.9913 Y70.0079 I5.5183 J13.0144
G3 X80.4492 Y69.6867 I2.4855 J7.8111
G3 X81.2429 Y69.6377 I0.8138 J6.7286
G3 X83.0398 Y69.8985 I0.002 J6.3065
G3 X83.9521 Y70.2366 I-1.9222 J6.5874
G3 X81.7399 Y71.4977 I-8.774 J-12.8204
G3 X80.962 Y71.839 I-7.322 J-15.6285
G3 X77.7225 Y72.8465 I-7.569 J-18.6265
G3 X75.4934 Y73.2309 I-5.2196 J-23.6086
G3 X75.4226 Y73.2396 I-0.2144 J-1.4534
G3 X72.3923 Y73.4275 I-3.1284 J-25.9319
G3 X68.3614 Y73.1511 I-0.129 J-27.6538
G3 X66.0922 Y72.7268 I3.6821 J-25.9708
G3 X64.9004 Y72.4176 I5.6593 J-24.2642
G3 X62.2508 Y71.4734 I5.8861 J-20.7075
G3 X60.8996 Y70.8175 I7.272 J-16.7024
G1 X60.8168 Y70.7724
G0 Z5.0
G0 X69.7139 Y59.8852
G1 Z0.0
G3 X69.5459 Y59.7214 I0.8498 J-1.0399
G3 X69.2653 Y59.1809 I1.0865 J-0.907
G3 X69.2018 Y58.7792 I1.7128 J-0.4766
G3 X69.6264 Y57.2917 I2.5022 J-0.0901
G3 X69.92 Y56.9549 I1.5133 J1.0229
G3 X70.3646 Y56.6971 I0.8144 J0.8921
G3 X70.9801 Y56.7247 I0.2689 J0.8778
G3 X71.078 Y57.2315 I-3.5036 J0.9397
G3 X71.1136 Y57.7463 I-4.9207 J0.5989
G3 X71.0217 Y58.7724 I-4.9051 J0.0778
G3 X70.8249 Y59.4315 I-3.3496 J-0.6413
G3 X70.7463 Y59.5977 I-2.1027 J-0.8918
G3 X70.4968 Y59.9399 I-1.1286 J-0.5611
G3 X70.3021 Y60.0652 I-0.4344 J-0.4607
G3 X70.0375 Y60.0809 I-0.1567 J-0.406
G3 X69.7139 Y59.8852 I0.5262 J-1.2356
G0 Z5.0
G0 X72.4146 Y59.9005
G1 Z0.0
G3 X72.4163 Y59.7937 I5.3014 J0.0301
G3 X72.491 Y58.9924 I5.1698 J0.0781
G1 X72.5121 Y58.887
G3 X72.5383 Y58.7754 I1.1852 J0.2196
G3 X72.7652 Y58.2064 I2.0329 J0.4808
G3 X72.9886 Y57.9317 I1.0155 J0.5975
G3 X73.3505 Y57.7292 I0.6226 J0.6884
G3 X73.8421 Y57.7015 I0.3107 J1.1392
G3 X74.1744 Y58.1611 I-2.6382 J2.2575
G3 X74.2647 Y58.3275 I-1.6846 J1.0216
G3 X74.471 Y59.054 I-1.8453 J0.9167
G3 X74.473 Y59.5591 I-2.8325 J0.2636
G3 X74.3855 Y60.2229 I-7.0366 J-0.5902
G1 X74.3171 Y60.5977
G1 X72.4509
G3 X72.4212 Y60.1963 I6.1199 J-0.6551
G3 X72.4146 Y59.9005 I5.2948 J-0.2657
G0 Z5.0
G0 X75.6234 Y59.5532
G1 Z0.0
G1 X75.4498 Y57.9486
G1 X76.974 Y57.6255
G2 X77.0512 Y58.0658 I9.8971 J-1.5082
G3 X77.1327 Y58.5053 I-15.5622 J3.115
G3 X77.2489 Y59.3916 I-8.0542 J1.507
G1 X77.2553 Y59.5107
G3 X77.2222 Y60.1468 I-3.0027 J0.1625
G3 X77.1226 Y60.4993 I-1.6903 J-0.2871
G3 X76.887 Y60.8537 I-0.9963 J-0.4068
G3 X76.4439 Y61.1001 I-0.697 J-0.732
G3 X76.1703 Y61.1475 I-0.3664 J-1.3002
G3 X76.1353 Y61.1502 I-0.0356 J-0.2422
G3 X75.8337 Y61.148 I-0.1348 J-2.2397
G3 X75.7957 Y61.145 I0.0051 J-0.3106
G1 X75.6234 Y59.5532
G0 Z5.0
G0 X78.7337
G1 Z0.0
G1 Y59.1382
G3 X78.7454 Y58.5883 I10.3368 J-0.0544
G3 X78.8208 Y58.0435 I3.0776 J0.148
G3 X78.9382 Y57.6951 I1.9578 J0.466
G3 X79.2055 Y57.2821 I1.4505 J0.6458
G3 X79.7273 Y56.8797 I1.3967 J1.2716
G3 X80.0716 Y56.7247 I1.3069 J2.4436
G1 X80.0959 Y56.8399
G1 X80.1198 Y56.9552
G3 X80.1659 Y57.1861 I-31.865 J6.4818
G3 X80.1718 Y57.217 I-0.2394 J0.0623
G3 X80.1782 Y57.25 I-0.256 J0.0661
G3 X80.1848 Y57.2851 I-0.2751 J0.0704
G3 X80.2192 Y57.4727 I-7.2956 J1.4325
G1 X80.2613 Y57.7232
G3 X80.3692 Y58.7338 I-8.465 J1.4145
G3 X80.3477 Y59.4119 I-4.1451 J0.208
G3 X80.272 Y59.7933 I-2.284 J-0.2549
G3 X80.0864 Y60.2016 I-1.3453 J-0.3651
G3 X79.6815 Y60.5441 I-0.7947 J-0.529
G3 X79.399 Y60.6259 I-0.4633 J-1.0715
G3 X79.0781 Y60.6412 I-0.2328 J-1.5101
G3 X78.7337 Y60.5977 I0.1184 J-2.3252
G1 Y59.5532
G0 Z5.0
G0 X81.541 Y59.4432
G1 Z0.0
G1 X81.5381 Y59.3686
G1 X81.5252 Y59.0631
G3 X81.5084 Y58.4518 I24.8032 J-0.989
G3 X81.5123 Y58.044 I7.8871 J-0.129
G1 X81.5229 Y57.8113
G3 X81.5447 Y57.5457 I4.7926 J0.2601
G3 X81.6715 Y56.8462 I4.193 J0.3987
G3 X81.8045 Y56.4612 I2.9564 J0.806
G3 X82.4592 Y55.5821 I2.0481 J0.8422
G3 X83.0096 Y55.2576 I1.4472 J1.8253
G1 X83.0394 Y55.7809
G1 X83.0698 Y56.3042
G3 X83.0898 Y57.3523 I-12.3893 J0.7606
G3 X83.0253 Y58.0488 I-5.5271 J-0.1602
G3 X82.9343 Y58.439 I-3.0142 J-0.4972
G3 X82.7548 Y58.8628 I-2.1383 J-0.6557
G3 X82.4193 Y59.2772 I-1.3932 J-0.785
G3 X81.8767 Y59.5869 I-1.0826 J-1.2666
G3 X81.5501 Y59.6742 I-0.6948 J-1.9461
G1 X81.541 Y59.4432
G0 Z5.0
G0 X84.4882 Y57.2644
G1 Z0.0
G1 Y55.2576
G3 X84.8145 Y55.2994 I-0.1396 J2.3833
G3 X85.1296 Y55.3939 I-0.2777 J1.4991
G3 X85.3166 Y55.5101 I-0.2963 J0.6855
G3 X85.4649 Y55.7703 I-0.2825 J0.3335
G3 X85.4635 Y55.9477 I-0.5126 J0.0846
G3 X85.4068 Y56.1431 I-0.9363 J-0.166
G3 X85.362 Y56.2413 I-0.9278 J-0.3642
G3 X85.2389 Y56.4489 I-1.8198 J-0.9382
G3 X85.0781 Y56.664 I-2.9305 J-2.0235
G3 X84.6402 Y57.1268 I-3.7228 J-3.0837
G1 X84.6108 Y57.1542
G3 X84.5503 Y57.2093 I-0.7411 J-0.7527
G1 X84.4882 Y57.2644
G0 Z5.0
G0 X87.3637 Y60.9625
G1 Z0.0
G1 X87.8328 Y60.5977
G1 X88.5094 Y62.9466
G1 X85.423 Y62.4715
G1 X87.3637 Y60.9625
G0 Z5.0
G0 X87.2145 Y64.4402
G1 Z0.0
G1 X87.6525 Y64.459
G1 X88.1922 Y64.4788
G2 X88.7678 Y64.4897 I0.5885 J-15.7556
G1 Y65.9569
G1 X79.6763 Y65.4209
G3 X80.8736 Y64.8947 I3.1896 J5.6325
G3 X82.1438 Y64.5831 I2.8341 J8.8085
G3 X83.0075 Y64.4647 I2.1465 J12.4411
G3 X83.5037 Y64.4219 I1.4594 J14.0216
G3 X83.6319 Y64.4133 I0.203 J2.0872
G3 X83.9056 Y64.3984 I0.4964 J6.5555
G3 X85.3642 Y64.378 I1.0567 J23.4875
G3 X86.1966 Y64.3988 I-0.3867 J32.211
G3 X86.6402 Y64.4156 I-0.563 J20.7665
G1 X87.2145 Y64.4402
G0 Z5.0
G0 X87.014 Y67.8177
G1 Z0.0
G1 X87.2969 Y67.8345
G3 X86.2218 Y68.4261 I-2.8898 J-3.9786
G3 X85.04 Y68.7574 I-2.2469 J-5.7425
G3 X84.2287 Y68.8627 I-1.4405 J-7.9153
G1 X84.0111 Y68.8788
G3 X83.5134 Y68.9003 I-0.6539 J-9.3811
G3 X82.19 Y68.8826 I-0.384 J-20.8207
G1 X82.0194 Y68.8751
G1 X81.6561 Y68.8567
G1 X81.4686 Y68.8463
G1 X80.6138 Y68.7962
G2 X80.1583 Y68.7713 I-3.5782 J61.2845
G1 X79.6727 Y68.7495
G1 X79.4221 Y68.741
G2 X78.2783 Y68.7393 I-0.5978 J18.0536
G2 X77.6694 Y68.7732 I0.2688 J10.3116
G1 X78.2054 Y67.2947
G1 X87.014 Y67.8177
G0 Z5.0
G0 X91.7058 Y62.0763
G1 Z0.0
G3 X91.5422 Y61.3807 I2.5174 J-0.9589
G3 X91.6119 Y60.6694 I1.7818 J-0.1845
G3 X91.8315 Y60.2425 I1.3735 J0.4365
G3 X92.319 Y59.8237 I1.2432 J0.954
G3 X92.6561 Y59.6742 I1.089 J2.0002
G3 X92.772 Y59.8588 I-0.5305 J0.462
G3 X92.8396 Y60.066 I-0.9212 J0.4152
G3 X92.8719 Y60.4976 I-1.6757 J0.3421
G3 X92.664 Y61.3231 I-2.2288 J-0.1222
G3 X92.3414 Y61.7904 I-1.4927 J-0.6854
G3 X92.0768 Y61.9836 I-0.7619 J-0.7657
G3 X91.7058 Y62.0763 I-0.3837 J-0.747
G0 Z5.0
G0 X93.5909 Y58.2032
G1 Z0.0
G1 X92.8323 Y57.6094
G1 X92.724 Y57.5245
G1 X91.8579 Y56.8447
G1 X91.281 Y56.3908
G1 X91.1272 Y56.2697
G1 X90.3075 Y55.6232
G1 X89.2163 Y54.7591
G1 X88.5939 Y54.2638
G1 X87.8842 Y53.6959
G1 X87.5066 Y53.3917
G3 X86.6486 Y52.6904 I35.7535 J-44.6183
G3 X86.1997 Y52.3059 I12.3128 J-14.827
G1 X86.1452 Y52.2551
G3 X85.6253 Y51.5867 I2.0609 J-2.1396
G3 X85.3629 Y50.7817 I1.868 J-1.0542
G3 X85.3671 Y50.2145 I2.4197 J-0.2659
G3 X85.5458 Y49.4832 I3.4473 J0.4548
G3 X85.7049 Y49.0849 I6.1473 J2.2252
G1 X85.8006 Y48.878
G3 X86.0372 Y48.4182 I12.8021 J6.2974
G1 X86.1704 Y48.1781
G1 X86.3153 Y47.9251
G1 X86.6476 Y47.356
G1 X86.8219 Y47.0531
G1 X87.0017 Y46.7288
G2 X87.1831 Y46.3797 I-8.7991 J-4.7926
G2 X87.2712 Y46.1974 I-8.8068 J-4.3697
G1 X87.3574 Y46.0074
G2 X87.6631 Y45.1125 I-4.7611 J-2.1265
G1 X87.6762 Y45.0543
G2 X87.7485 Y44.5505 I-3.2615 J-0.7251
G2 X87.5819 Y43.3863 I-2.7864 J-0.1952
G2 X87.2969 Y42.8139 I-2.8454 J1.0593
G2 X86.3286 Y43.3211 I1.2926 J3.6453
G2 X85.5115 Y44.0473 I3.1304 J4.3457
G2 X85.0428 Y44.6051 I5.4646 J5.067
G1 X84.9262 Y44.7605
G2 X84.8054 Y44.9287 I8.3539 J6.1306
G2 X84.2106 Y45.8547 I11.7483 J8.1999
G2 X84.1384 Y45.9771 I2.0048 J1.2648
G1 X83.9872 Y46.2393
G1 X83.9104 Y46.3752
G3 X82.6356 Y48.3008 I-13.2586 J-7.3921
G3 X81.0592 Y49.9884 I-10.2474 J-7.9925
G1 X80.9471 Y50.0869
G3 X79.6744 Y51.0419 I-7.4366 J-8.5848
G3 X77.7755 Y51.9907 I-5.3382 J-8.309
G3 X74.9936 Y52.5399 I-3.1206 J-8.4865
G3 X73.3676 Y52.4586 I-0.3506 J-9.2831
G3 X71.5523 Y52.046 I1.4653 J-10.6464
G3 X69.5903 Y51.2349 I3.9795 J-12.4059
G3 X69.1064 Y50.9779 I5.8785 J-11.6519
G3 X66.6717 Y49.467 I7.2023 J-14.3227
G3 X64.5306 Y47.5626 I10.6668 J-14.1486
G3 X63.2789 Y46.1187 I13.5391 J-13.0014
G3 X63.1277 Y45.9238 I5.5846 J-4.4877
G3 X61.6623 Y43.7427 I16.9466 J-12.969
G3 X60.12 Y40.6033 I20.6119 J-12.0748
G3 X58.7912 Y36.1455 I22.9822 J-9.2775
G3 X58.4269 Y33.512 I22.5926 J-4.467
G3 X58.4033 Y33.1751 I8.8835 J-0.7909
G1 X59.4789
G2 X59.76 Y34.4467 I32.4761 J-6.512
G1 X59.8656 Y34.8679
G2 X60.3497 Y36.5355 I27.4266 J-7.0576
G2 X61.6301 Y39.7619 I24.4726 J-7.8448
G2 X62.0781 Y40.6478 I22.7674 J-10.9578
G2 X62.1378 Y40.7588 I2.5792 J-1.314
G2 X63.5691 Y43.0353 I17.7309 J-9.5603
G2 X64.5334 Y44.234 I13.3066 J-9.7162
G2 X65.7815 Y45.4761 I10.2096 J-9.0113
G2 X67.4179 Y46.6587 I7.0153 J-7.9836
G2 X68.3848 Y47.1442 I4.2821 J-7.3225
G2 X68.9081 Y47.3441 I2.7361 J-6.3793
G2 X70.0759 Y47.6329 I2.2009 J-6.3936
G2 X72.8838 Y47.4105 I0.942 J-5.9416
G2 X74.2838 Y46.7615 I-2.0933 J-6.351
G2 X74.9482 Y46.3068 I-3.806 J-6.2732
G2 X76.2387 Y45.0564 I-4.6729 J-6.1142
G2 X77.2166 Y43.5488 I-6.5917 J-5.3469
G2 X77.6994 Y42.4519 I-9.8112 J-4.9728
G2 X77.7261 Y42.3805 I-0.6876 J-0.2971
G2 X77.9492 Y41.7218 I-13.341 J-4.8867
G2 X78.3967 Y39.9284 I-17.1541 J-5.2332
G2 X78.582 Y38.8902 I-25.2965 J-5.0494
G1 X78.6239 Y38.6215
G1 X78.6651 Y38.344
G2 X78.8329 Y37.0757 I-60.2408 J-8.6178
G2 X78.8427 Y36.9956 I-1.2044 J-0.1879
G2 X78.8825 Y36.6655 I-25.15 J-3.1971
G1 X79.0599 Y35.1607
G1 X79.1596 Y34.36
G3 X79.277 Y33.5087 I58.5123 J7.6361
G1 X79.3094 Y33.2929
G3 X79.4625 Y32.3761 I25.1875 J3.7355
G3 X79.9427 Y30.3116 I19.9589 J3.5537
G3 X80.3031 Y29.2397 I13.377 J3.9013
G1 X80.3549 Y29.1069
G3 X80.8633 Y28.0004 I10.786 J4.2862
G3 X81.5501 Y26.8923 I8.5288 J4.5191
G3 X82.9002 Y27.2495 I-1.0243 J6.603
G3 X84.1348 Y27.9022 I-2.1451 J5.5519
G3 X84.8671 Y28.4786 I-4.2556 J6.1594
G3 X85.7493 Y29.3493 I-8.7625 J9.7607
G1 X85.9735 Y29.592
G1 X86.2099 Y29.8529
G1 X86.7459 Y30.4503
G1 X86.8142 Y30.526
G2 X88.0659 Y30.2776 I-4.9317 J-28.1368
G2 X89.2993 Y29.9499 I-3.2491 J-14.7122
G2 X90.1001 Y29.6616 I-3.0775 J-9.8044
G2 X91.1153 Y29.152 I-2.7345 J-6.7141
G2 X92.3023 Y28.205 I-3.0775 J-5.0752
G2 X92.8675 Y27.5423 I-5.2071 J-5.0126
G2 X93.1361 Y27.1629 I-7.8156 J-5.8187
G2 X93.6785 Y26.2501 I-8.9457 J-5.9323
G2 X92.9759 Y25.5345 I-5.3467 J4.5463
G2 X92.1784 Y24.9265 I-4.2719 J4.7768
G2 X91.5847 Y24.6169 I-2.0644 J3.2345
G2 X91.2175 Y24.5043 I-0.8689 J2.1784
G2 X90.7747 Y24.4827 I-0.2855 J1.2985
G3 X89.8542 Y24.6218 I-1.1017 J-4.1743
G3 X88.9298 Y24.5116 I-0.1346 J-2.8043
G3 X88.3648 Y24.2464 I0.619 J-2.0533
G3 X87.7771 Y23.6516 I1.156 J-1.73
G3 X87.5516 Y23.2268 I2.0753 J-1.3736
G3 X87.3862 Y22.7041 I3.1733 J-1.2918
G3 X87.2969 Y22.0882 I3.8258 J-0.869
G1 X96.529
G2 X96.9768 Y22.0683 I-0.0616 J-6.4415
G1 X97.1253 Y22.0525
G2 X97.7077 Y21.9201 I-0.3213 J-2.7598
G2 X98.0634 Y21.7377 I-0.475 J-1.3646
G2 X98.4094 Y21.3242 I-0.5915 J-0.8464
G2 X98.5031 Y21.0246 I-1.1324 J-0.5184
G2 X98.5332 Y20.6666 I-1.788 J-0.3308
G2 X98.5262 Y20.4756 I-3.0419 J0.0159
G2 X98.5181 Y20.3776 I-1.0781 J0.0401
G2 X98.4545 Y19.9392 I-5.2139 J0.5327
G2 X98.3513 Y19.4536 I-11.3592 J2.1603
G1 X98.2902 Y19.1993
G1 X98.258 Y19.069
G1 X98.1157 Y18.4938
G1 X98.0805 Y18.3463
G1 X98.0455 Y18.1951
G1 X98.0112 Y18.0401
G3 X97.9449 Y17.7141 I24.3415 J-5.1169
G3 X97.8377 Y16.9876 I8.2819 J-1.5933
G3 X97.8128 Y16.1713 I5.2609 J-0.5694
G3 X97.9575 Y15.2649 I4.0814 J0.1868
G3 X98.3952 Y14.3156 I3.266 J0.9304
G3 X99.2187 Y16.6239 I-16.4844 J7.1816
G3 X99.7634 Y19.0135 I-22.6465 J6.419
G3 X99.7768 Y19.0902 I-1.0724 J0.2282
G3 X99.7903 Y19.1681 I-1.0881 J0.2285
G3 X99.8038 Y19.2473 I-1.1044 J0.2287
G3 X99.8173 Y19.3278 I-1.1211 J0.229
G3 X100.0545 Y21.0515 I-32.2009 J5.3101
G3 X100.2469 Y23.3619 I-41.2308 J4.5969
G1 X100.2793 Y23.9793
G1 X100.3067 Y24.638
G1 X100.3182 Y24.978
G1 X100.3376 Y25.7035
G1 X100.3513 Y26.4772
G1 X100.3598 Y27.3024
G1 X100.3635 Y28.1824
G1 X100.3637 Y28.2933
G1 X100.364 Y28.7509
G1 X95.594 Y28.3632
G3 X94.2388 Y29.5565 I-13.5323 J-14.0031
G3 X92.7683 Y30.6045 I-10.03 J-12.5181
G3 X92.3257 Y30.8704 I-6.736 J-10.7069
G3 X91.0962 Y31.4897 I-5.8882 J-10.1606
G3 X89.351 Y32.0635 I-3.9126 J-8.9595
G3 X86.9016 Y32.2438 I-1.8159 J-7.9426
G3 X86.4975 Y32.9093 I-8.14 J-4.4864
G3 X86.0106 Y33.5169 I-3.4881 J-2.297
G3 X85.6014 Y33.8391 I-1.3882 J-1.342
G3 X85.3229 Y33.9523 I-0.5853 J-1.0406
G3 X84.9731 Y33.97 I-0.2199 J-0.8806
G3 X84.5856 Y33.8308 I0.1801 J-1.1104
G3 X84.2068 Y33.5438 I0.9844 J-1.6923
G2 X83.6971 Y33.147 I-2.4504 J2.6219
G2 X83.1107 Y32.8763 I-1.273 J1.9871
G2 X81.8298 Y32.9579 I-0.534 J1.7099
G2 X81.1291 Y33.4724 I0.9367 J2.0099
G2 X80.8236 Y33.8639 I2.0898 J1.9459
G2 X80.3305 Y35.0475 I3.116 J1.9927
G2 X80.2654 Y36.668 I4.3181 J0.9849
G2 X80.4498 Y37.5338 I6.5332 J-0.939
G2 X80.7655 Y38.3607 I4.675 J-1.311
G2 X81.0719 Y38.8662 I2.9144 J-1.4213
G2 X81.2922 Y39.1235 I1.6894 J-1.2233
G2 X81.5933 Y39.3697 I1.3023 J-1.2857
G2 X82.0064 Y39.5485 I0.7223 J-1.1018
G2 X82.5348 Y39.5557 I0.2806 J-1.1986
G2 X83.1083 Y39.3172 I-0.3679 J-1.6932
G3 X83.7957 Y39.0255 I1.2884 J2.0808
G3 X84.5367 Y38.9326 I0.7485 J2.9677
G3 X85.0339 Y38.9595 I0.0409 J3.8564
G3 X85.6851 Y39.0764 I-0.6005 J5.2191
G3 X85.768 Y39.0969 I-0.2949 J1.3678
G3 X86.6299 Y39.374 I-1.9583 J7.5701
G3 X87.7234 Y39.8634 I-4.0405 J10.4944
G3 X89.0985 Y40.6464 I-8.0326 J15.7048
G3 X89.852 Y41.1395 I-14.6033 J23.1427
G3 X90.6882 Y41.7315 I-17.8077 J26.0357
G3 X92.8056 Y43.4125 I-22.5427 J30.569
G3 X95.4382 Y45.8241 I-32.2044 J37.7993
G3 X95.9462 Y46.4826 I-2.1274 J2.1662
G3 X96.2317 Y47.2638 I-2.315 J1.2889
G3 X96.2884 Y47.8165 I-2.8496 J0.5714
G3 X96.2306 Y48.5524 I-4.1984 J0.0408
G3 X95.9931 Y49.4994 I-6.3068 J-1.0784
G3 X94.7095 Y49.1885 I0.4083 J-4.4911
G3 X93.5602 Y48.5378 I1.9614 J-4.8045
G3 X92.8871 Y47.9696 I4.5317 J-6.0502
G3 X92.0892 Y47.1134 I7.6411 J-7.9219
G1 X91.8908 Y46.8727
G1 X91.6844 Y46.6123
G1 X91.469 Y46.3314
G1 X91.4149 Y46.2596
G1 X91.1863 Y45.9524
G1 X90.6704 Y45.2493
G1 X90.3923 Y44.8774
G1 X90.2464 Y44.6876
G1 X90.1564 Y44.8031
G1 X90.0675 Y44.9195
G1 X89.8931 Y45.1548
G1 X89.7796 Y45.3138
G1 X89.7497 Y45.3565
G1 X89.5935 Y45.586
G2 X89.0297 Y46.543 I8.3827 J5.5828
G2 X88.7274 Y47.2193 I6.2515 J3.2008
G2 X88.5909 Y47.6205 I4.8563 J1.8752
G2 X88.4071 Y48.7375 I4.0259 J1.236
G2 X88.7158 Y50.2283 I3.3763 J0.0784
G2 X89.1674 Y50.9843 I3.7092 J-1.7033
G2 X89.8332 Y51.7381 I5.081 J-3.8168
G2 X90.2259 Y52.1014 I6.2195 J-6.3289
G1 X90.4348 Y52.281
G2 X91.4075 Y53.054 I19.1003 J-23.0365
G1 X91.9275 Y53.4561
G3 X92.4679 Y53.8929 I-15.2229 J19.386
G1 X92.5012 Y53.9211
G1 X92.5345 Y53.9495
G3 X92.8038 Y54.1875 I-4.5371 J5.4044
G3 X92.8702 Y54.249 I-0.7274 J0.8515
G3 X92.9363 Y54.3116 I-0.9336 J1.0515
G3 X93.0679 Y54.441 I-3.2733 J3.4609
G1 X93.1976 Y54.576
G3 X93.6874 Y55.1986 I-3.1536 J2.9847
G3 X93.7398 Y55.2837 I-3.2999 J2.0876
G3 X94.0569 Y56.0782 I-2.2445 J1.3565
G3 X94.0603 Y57.017 I-2.3336 J0.4779
G3 X93.9279 Y57.4948 I-3.0441 J-0.5861
G3 X93.8334 Y57.7305 I-3.6136 J-1.3127
G3 X93.5909 Y58.2032 I-3.939 J-1.7216
G0 Z5.0
G0 X100.288 Y41.8903
G1 Z0.0
G2 X100.076 Y41.7391 I-1.5411 J1.9374
G2 X99.8532 Y41.6046 I-3.1446 J4.9564
G2 X99.3923 Y41.3635 I-5.0441 J9.0791
G2 X99.0788 Y41.2156 I-5.5265 J11.3105
G1 X98.8981 Y41.1342
G2 X97.4333 Y40.5359 I-12.861 J29.393
G1 X97.0106 Y40.3757
G2 X96.5264 Y40.1963 I-28.8944 J77.2315
G1 X96.2676 Y40.1018
G1 X95.9914 Y40.0018
G1 X95.3595 Y39.7754
G1 X95.2792 Y39.7468
G1 X94.5453 Y39.4851
G1 X94.5223 Y39.4768
G1 X99.8737 Y38.4049
G2 X98.9144 Y38.134 I-2.3881 J6.621
G2 X98.8829 Y38.1272 I-0.0633 J0.2197
G1 X98.7387 Y38.0979
G2 X98.5736 Y38.0668 I-0.6977 J3.2521
G1 X98.4853 Y38.0512
G2 X97.0638 Y37.8716 I-3.0253 J18.2299
G1 X96.656 Y37.8364
G2 X96.1896 Y37.8007 I-2.6813 J31.9587
G2 X96.1303 Y37.7964 I-0.076 J0.6372
G2 X96.0701 Y37.792 I-0.078 J0.663
G1 X95.8133 Y37.7739
G1 X95.2265 Y37.733
G1 X94.5565 Y37.6827
G1 X94.1995 Y37.6523
G1 X94.1089 Y37.644
G3 X93.9218 Y37.6261 I0.3478 J-4.6131
G1 X93.5233 Y37.5834
G3 X93.0993 Y37.5298 I2.2105 J-19.1999
G1 X92.8809 Y37.4982
G1 X92.6561 Y37.4623
G2 X94.3036 Y37.0989 I-7.9444 J-39.9314
G1 X94.5373 Y37.04
G2 X94.5976 Y37.0245 I-0.3043 J-1.3023
G2 X94.8724 Y36.9513 I-1.7126 J-6.9849
G2 X95.1853 Y36.8633 I-2.8558 J-10.7482
G2 X96.0114 Y36.6013 I-4.0774 J-14.2934
G2 X97.0849 Y36.1724 I-3.7147 J-10.8542
G2 X97.6743 Y35.8728 I-3.469 J-7.5558
G2 X98.3127 Y35.4665 I-2.9204 J-5.2923
G1 X98.4687 Y35.3486
G2 X99.1168 Y34.7281 I-2.5776 J-3.3408
G2 X99.6535 Y33.84 I-2.4781 J-2.1037
G2 X99.8737 Y32.6467 I-2.9397 J-1.1595
G1 X100.6908 Y32.7798
G3 X100.8873 Y34.1797 I-13.153 J2.5602
G3 X100.959 Y35.5916 I-17.8441 J1.6135
G3 X100.9536 Y36.5339 I-25.4935 J0.325
G3 X100.9502 Y36.6555 I-2.6414 J-0.0129
G3 X100.9461 Y36.781 I-6.282 J-0.1434
G3 X100.5182 Y40.7674 I-28.3448 J-1.0262
G3 X100.288 Y41.8903 I-25.013 J-4.5432
G0 Z5.0
G0 X93.5909 Y17.8008
G1 Z0.0
G1 X92.6561
G2 X92.6134 Y16.1106 I-55.8804 J0.5631
G2 X92.6113 Y16.0561 I-0.5568 J-0.0051
G2 X92.609 Y15.9998 I-0.5718 J-0.005
G2 X92.6066 Y15.9416 I-0.5874 J-0.0048
G1 X92.5782 Y15.3223
G1 X92.5341 Y14.4968
G2 X92.5213 Y14.2767 I-12.0129 J0.5872
G1 X92.4908 Y13.7738
G1 X92.4542 Y13.1991
G1 X92.4341 Y12.8926
G1 X92.3242 Y11.2585
G3 X92.188 Y9.079 I224.8083 J-15.1368
G3 X92.158 Y8.4975 I31.1361 J-1.9013
G1 X92.1441 Y8.1973
G3 X92.1001 Y6.824 I46.9655 J-2.1931
G1 X92.0993 Y6.7808
G1 X92.0986 Y6.7375
G1 X92.0949 Y6.3802
G1 X92.0951 Y6.0112
G3 X92.1126 Y5.2241 I25.0103 J0.1623
G1 X93.1843
G3 X93.6524 Y7.9662 I-43.2658 J8.7967
G3 X93.9261 Y10.7346 I-37.5065 J5.1058
G1 X93.9364 Y10.9139
G1 X93.9461 Y11.099
G1 X93.9633 Y11.4939
G3 X93.5909 Y17.8008 I-32.3659 J1.2536
G0 Z5.0
G0 X90.9304 Y17.4588
G1 Z0.0
G3 X90.4221 Y17.2526 I2.6931 J-7.3673
G3 X89.9252 Y17.0199 I5.1363 J-11.6133
G1 X89.5956 Y16.8614
G2 X89.4059 Y16.7736 I-3.5478 J7.4158
G1 X89.3037 Y16.729
G1 X89.2605 Y15.5481
G1 X89.2578 Y15.4693
G1 X89.216 Y14.2093
G1 X89.2052 Y13.8493
G1 X89.1796 Y12.8892
G1 X89.1737 Y12.633
G1 X89.162 Y12.0477
G1 X89.1594 Y11.8966
G1 X89.15 Y11.206
G3 X89.1499 Y9.3642 I71.4558 J-0.9269
G1 X89.153 Y9.1266
G1 X89.1624 Y8.6197
G3 X89.2873 Y5.9184 I52.0441 J1.0521
G3 X89.6903 Y2.3343 I44.7099 J3.2125
G3 X89.6989 Y2.2784 I0.5999 J0.0639
G3 X89.8933 Y2.7875 I-6.6759 J2.8416
G1 X89.9502 Y2.9599
G3 X90.1438 Y3.66 I-8.4138 J2.7036
G3 X90.2473 Y4.1331 I-9.9536 J2.4265
G3 X90.3597 Y4.7688 I-11.8357 J2.4206
G1 X90.4128 Y5.1338
G1 X90.4383 Y5.3289
G3 X90.5456 Y6.3717 I-28.0099 J3.4083
G3 X90.6325 Y7.7656 I-41.5323 J3.2889
G3 X90.6624 Y8.5628 I-54.3105 J2.4349
G3 X90.6639 Y8.6131 I-0.4983 J0.0403
G3 X90.6654 Y8.6638 I-0.5036 J0.0403
G3 X90.6669 Y8.7149 I-0.5091 J0.0402
G3 X90.6683 Y8.7663 I-0.5147 J0.0402
G3 X90.6697 Y8.8182 I-0.5205 J0.0402
G3 X90.6711 Y8.8705 I-0.5264 J0.0402
G3 X90.6725 Y8.9232 I-0.5324 J0.0402
G1 X90.6828 Y9.3724
G1 X90.6914 Y9.8515
G1 X90.7054 Y10.9461
G1 X90.7112 Y11.5297
G1 X90.7262 Y12.863
G1 X90.7379 Y13.5738
G1 X90.7555 Y14.3317
G2 X90.8265 Y16.0623 I61.0607 J-1.6398
G1 X90.8543 Y16.5084
G2 X90.9304 Y17.4588 I35.186 J-2.3413
G0 Z5.0
G0 X87.2969 Y4.6958
G1 Z0.0
G1 X85.5295 Y4.5551
G2 X85.5291 Y4.4744 I-0.8471 J-0.0366
G2 X85.5281 Y4.3935 I-1.5261 J-0.021
G1 X85.5243 Y4.232
G2 X85.5114 Y3.9092 I-37.6107 J1.3385
G1 X85.4758 Y3.264
G1 X85.4541 Y2.8338
G1 X85.4496 Y2.719
G1 X85.443 Y2.4565
G3 X85.4423 Y2.3887 I1.6178 J-0.0508
G1 X85.4425 Y2.2442
G3 X85.4539 Y1.9139 I5.395 J0.0211
G3 X85.4683 Y1.7382 I3.3302 J0.1832
G3 X85.533 Y1.3397 I3.3968 J0.3472
G3 X85.6949 Y0.9045 I1.5989 J0.3473
G3 X86.0788 Y0.5149 I0.8574 J0.4608
G3 X86.3657 Y0.4122 I0.478 J0.8834
G3 X86.8798 Y0.5644 I-0.067 J1.1705
G3 X87.2693 Y0.9326 I-0.6326 J1.0594
G3 X87.4408 Y1.2467 I-1.4982 J1.022
G3 X87.5837 Y1.6965 I-2.2162 J0.9514
G3 X87.669 Y2.3093 I-3.7858 J0.8393
G3 X87.6593 Y3.116 I-5.3847 J0.3387
G3 X87.4835 Y4.1513 I-5.8795 J-0.4659
G3 X87.4034 Y4.4187 I-3.3024 J-0.8433
G3 X87.2969 Y4.6958 I-2.9844 J-0.9876
G0 Z5.0
G0 X93.1843 Y-2.9325
G1 Z0.0
G2 X91.9712 Y-4.5332 I-17.4161 J11.9398
G2 X90.619 Y-6.0184 I-18.5567 J15.5369
G2 X89.6535 Y-6.9463 I-17.8936 J17.6512
G2 X88.2991 Y-8.1092 I-20.7469 J22.7928
G2 X86.3932 Y-9.5331 I-20.5808 J25.5595
G2 X83.7085 Y-11.2184 I-20.4304 J29.5655
G2 X83.6216 Y-11.2677 I-0.8131 J1.3322
G2 X83.2615 Y-11.4687 I-8.6002 J14.9792
G2 X79.3039 Y-13.3721 I-19.2666 J34.995
G2 X73.7597 Y-15.2249 I-15.5626 J37.3471
G2 X70.4898 Y-15.9089 I-9.372 J36.6458
G1 X70.0706 Y-15.9744
G2 X66.2083 Y-16.3233 I-4.7983 J31.5603
G2 X65.2068 Y-16.333 I-0.7259 J23.1982
G2 X64.698 Y-16.3239 I0.4454 J39.2141
G2 X62.5308 Y-16.1698 I0.5992 J23.735
G2 X60.2429 Y-15.7722 I2.3162 J20.1112
G1 X60.172 Y-15.7554
G1 X60.1011 Y-15.7383
G2 X57.7238 Y-14.9716 I3.8068 J15.8727
G2 X55.3515 Y-13.7101 I5.0003 J12.2649
G2 X54.2414 Y-12.8602 I6.6618 J9.8507
G2 X54.184 Y-12.551 I5.2257 J1.1301
G2 X54.1426 Y-12.2391 I4.1061 J0.7042
G2 X54.1229 Y-11.6105 I4.0353 J0.4409
G1 X54.1283 Y-11.5267
G2 X54.1976 Y-11.0842 I2.5833 J-0.1781
G2 X54.4207 Y-10.5284 I1.9804 J-0.4723
G2 X54.9653 Y-9.9369 I1.6921 J-1.0113
G2 X55.3619 Y-9.6987 I1.6882 J-2.362
G2 X55.8488 Y-9.4979 I1.7416 J-3.5324
G2 X56.4212 Y-9.3305 I2.2479 J-6.6221
G2 X56.5703 Y-9.2941 I0.6557 J-2.3607
G2 X57.2457 Y-9.1471 I6.7056 J-29.2016
G2 X57.3315 Y-9.1294 I0.371 J-1.5788
G1 X57.5079 Y-9.0928
G3 X58.2934 Y-8.9127 I-3.3471 J16.3952
G3 X58.7016 Y-8.7931 I-1.4564 J5.7288
G1 X58.8036 Y-8.7585
G1 X58.9063 Y-8.7213
G3 X59.3286 Y-8.5352 I-1.307 J3.5378
G3 X59.7423 Y-8.2728 I-1.2778 J2.4719
G3 X60.4101 Y-7.3604 I-1.2195 J1.5931
G1 X60.1346 Y-7.3589
G1 X59.8592 Y-7.3548
G2 X59.8225 Y-7.354 I-0.011 J0.3743
G1 X59.235 Y-7.3382
G1 X58.0604 Y-7.2949
G3 X57.9846 Y-7.2921 I-0.0807 J-1.1694
G1 X57.6381 Y-7.2802
G3 X57.4532 Y-7.2745 I-0.26 J-5.4446
G3 X56.4674 Y-7.2574 I-1.1999 J-40.616
G3 X55.1529 Y-7.2936 I-0.1406 J-18.7726
G3 X54.8031 Y-7.3203 I0.8237 J-13.0652
G1 X54.6229 Y-7.3377
G3 X53.8028 Y-7.4538 I1.1922 J-11.3767
G3 X53.5929 Y-7.495 I0.5666 J-3.4454
G3 X52.6489 Y-7.7557 I1.4008 J-6.9109
G1 X52.9492 Y-8.5045
G2 X53.2428 Y-9.1061 I-3.9296 J-2.2907
G2 X53.4192 Y-9.7519 I-2.494 J-1.0282
G2 X53.4196 Y-10.2001 I-1.6966 J-0.2255
G2 X53.1966 Y-10.7606 I-1.2539 J0.1741
G2 X52.962 Y-11.0199 I-1.2777 J0.9209
G2 X52.6372 Y-11.2535 I-1.2903 J1.4506
G2 X52.2305 Y-11.455 I-1.6365 J2.792
G2 X51.7486 Y-11.6269 I-2.1222 J5.1896
G2 X51.7177 Y-11.6363 I-0.0862 J0.2277
G2 X50.4971 Y-10.9177 I15.3704 J27.5059
G2 X49.3062 Y-10.151 I17.9218 J29.1444
G2 X47.0158 Y-8.4848 I22.0329 J32.6941
G2 X42.8382 Y-4.6654 I23.2124 J29.5842
G1 X42.5893 Y-4.3977
G2 X40.1145 Y-1.3864 I25.3182 J23.3303
G2 X37.4119 Y3.0532 I24.6181 J18.0283
G1 X37.2671 Y3.3502
G1 X36.9991 Y3.2857
G1 X36.7313 Y3.22
G1 X36.1965 Y3.0854
G1 X35.8405 Y2.9935
G1 X35.7456 Y2.9686
G1 X35.6445 Y2.942
G1 X35.1056 Y2.7981
G3 X32.9579 Y2.1949 I31.811 J-117.4019
G1 X31.5296 Y1.7803
G2 X29.624 Y1.2323 I-57.2127 J195.3734
G1 X29.1147 Y1.0898
G1 X28.5709 Y0.9405
G3 X30.2165 Y-2.6483 I56.0424 J23.5258
G3 X32.1079 Y-6.1138 I47.1325 J23.4761
G3 X33.5166 Y-8.3377 I42.3719 J25.2812
G3 X35.5815 Y-11.1761 I38.8398 J26.0854
G3 X38.6448 Y-14.7139 I39.3503 J30.9764
G3 X39.0631 Y-15.1497 I57.7416 J55.0022
G3 X39.9709 Y-16.0642 I42.0208 J40.8078
G3 X42.1164 Y-18.0809 I43.0429 J43.6433
G3 X43.2949 Y-19.1184 I61.5257 J68.6974
G3 X43.3322 Y-19.1506 I0.5213 J0.5671
G1 X43.9499 Y-19.6775
G3 X45.2831 Y-20.7824 I63.8121 J75.6365
G1 X45.9785 Y-21.3435
G2 X46.7839 Y-22.0036 I-32.581 J-40.5743
G2 X47.5696 Y-22.6871 I-22.2794 J-26.4029
G2 X48.076 Y-23.162 I-13.3075 J-14.7017
G2 X48.3567 Y-23.4425 I-17.3258 J-17.6127
G1 X48.503 Y-23.5953
G2 X48.8272 Y-23.9546 I-6.174 J-5.8961
G1 X48.9928 Y-24.1525
G1 X49.0759 Y-24.2565
G1 X49.1599 Y-24.3655
G2 X49.5145 Y-24.8854 I-5.2434 J-3.9571
G1 X49.5349 Y-24.9195
G2 X49.6161 Y-25.0619 I-2.6562 J-1.6099
G1 X49.6946 Y-25.212
G2 X49.8401 Y-25.5434 I-3.372 J-1.6781
G3 X51.7989 Y-26.1215 I7.1942 J20.7689
G3 X53.8001 Y-26.5289 I6.1033 J24.8627
G3 X55.1486 Y-26.7173 I4.3616 J26.3023
G1 X55.5096 Y-26.7572
G3 X57.4402 Y-26.9017 I3.5412 J34.3489
G3 X65.1482 Y-26.4655 I1.6944 J38.3859
G3 X67.3164 Y-26.0424 I-5.1311 J32.0577
G1 X67.5892 Y-25.9769
G3 X67.6576 Y-25.9599 I-0.1307 J0.6744
G1 X67.9348 Y-25.889
G3 X69.1064 Y-25.5434 I-4.4759 J17.3319
G1 X69.0482 Y-25.508
G1 X68.9886 Y-25.4751
G3 X68.8661 Y-25.4159 I-0.6882 J-1.2684
G3 X68.6113 Y-25.3207 I-0.8905 J-1.9945
G3 X68.0829 Y-25.1963 I-1.2226 J-4.0087
G3 X68.0115 Y-25.1843 I-0.4162 J-2.2531
G3 X67.8479 Y-25.1596 I-1.4077 J-8.7651
G1 X67.6606 Y-25.1351
G1 X67.4462 Y-25.1106
G1 X66.8752 Y-25.0514
G1 X66.5496 Y-25.0132
G2 X66.1795 Y-24.9565 I1.2136 J9.1542
G1 X66.1328 Y-24.9478
G2 X65.7103 Y-24.8448 I0.6193 J3.4583
G2 X65.4917 Y-24.7665 I0.8295 J2.6608
G2 X65.0333 Y-24.4901 I0.6062 J1.5236
G2 X64.6865 Y-23.9599 I0.7844 J0.8917
G2 X64.6171 Y-23.6178 I1.602 J0.503
G2 X64.6145 Y-23.2391 I2.4011 J0.2055
G2 X64.6691 Y-22.8358 I2.9971 J-0.1999
G1 X64.6898 Y-22.7346
G1 X64.9427 Y-22.6247
G1 X65.1959 Y-22.5155
G1 X65.7029 Y-22.2987
G1 X66.7195 Y-21.8707
G2 X66.7852 Y-21.8433 I0.4561 J-1.0013
G2 X66.853 Y-21.8151 I0.4655 J-1.0219
G2 X66.923 Y-21.7859 I0.4753 J-1.0432
G1 X67.6703 Y-21.4766
G1 X68.0977 Y-21.3007
G1 X69.2382 Y-20.8336
G1 X69.5424 Y-20.7092
G1 X69.867 Y-20.5765
G1 X70.2131 Y-20.4349
G3 X72.0569 Y-19.6747 I-209.8662 J511.6035
G3 X74.5036 Y-18.6333 I-52.0909 J125.7841
G3 X77.7255 Y-17.1528 I-35.5577 J81.6296
G3 X78.5729 Y-16.7332 I-27.6059 J56.8108
G3 X79.4697 Y-16.2715 I-24.4806 J48.6505
G3 X80.4171 Y-15.7613 I-21.5397 J41.1326
G1 X80.6561 Y-15.6285
G1 X80.8982 Y-15.4924
G3 X83.0716 Y-14.1789 I-20.8114 J36.8925
G1 X83.3418 Y-14.0026
G1 X83.6148 Y-13.8212
G1 X83.8905 Y-13.6345
G3 X85.047 Y-12.8087 I-17.5493 J25.801
G1 X85.3351 Y-12.5913
G3 X85.9224 Y-12.1321 I-14.7733 J19.498
G3 X88.4554 Y-9.8448 I-17.3762 J21.7898
G3 X90.9623 Y-6.8399 I-17.3575 J17.0286
G3 X93.1843 Y-2.9325 I-19.066 J13.4279
G0 Z5.0
G0 X87.2969 Y-13.1071
G1 Z0.0
G2 X85.767 Y-14.4063 I-11.7564 J12.2944
G2 X84.1176 Y-15.5502 I-15.4978 J20.5847
G1 X83.8914 Y-15.6933
G2 X82.6663 Y-16.4252 I-18.749 J29.9932
G2 X82.5062 Y-16.5161 I-3.1681 J5.3911
G2 X80.7761 Y-17.444 I-22.1912 J39.3006
G1 X80.3087 Y-17.68
G1 X79.8081 Y-17.9272
G1 X79.2718 Y-18.186
G1 X78.9941 Y-18.3178
G1 X78.4001 Y-18.595
G2 X75.2037 Y-20.0029 I-45.1857 J98.2568
G1 X74.3452 Y-20.3637
G1 X73.9015 Y-20.5483
G1 X73.443 Y-20.7378
G1 X72.4643 Y-21.1396
G1 X72.3408 Y-21.19
G1 X70.0854 Y-22.1098
G1 X68.8842 Y-22.6038
G1 X68.2654 Y-22.8613
G1 X67.6278 Y-23.1299
G3 X69.6496 Y-23.2681 I2.029 J14.8268
G3 X71.6727 Y-23.1499 I-0.0096 J17.5457
G3 X73.0084 Y-22.9457 I-2.1791 J18.7231
G3 X74.7617 Y-22.5346 I-4.1166 J21.4992
G3 X81.2745 Y-19.5627 I-6.434 J22.7219
G1 X81.369 Y-19.5004
G3 X83.038 Y-18.2795 I-12.0163 J18.1772
G1 X83.2413 Y-18.1131
G3 X84.9898 Y-16.4678 I-11.9217 J14.4211
G3 X85.8237 Y-15.4939 I-10.6671 J9.9788
G3 X86.2201 Y-14.9634 I-9.7547 J7.7026
G3 X86.9712 Y-13.7633 I-9.594 J6.8389
G3 X87.2969 Y-13.1071 I-9.2823 J5.0173
G0 Z5.0
G0 X58.9316 Y14.8514
G1 Z0.0
G1 Y15.7865
G1 X42.0865 Y14.3156
G1 X41.4175 Y16.0943
G2 X41.9024 Y16.5607 I3.7149 J-3.3761
G2 X42.4423 Y16.9621 I4.0972 J-4.9475
G2 X43.6148 Y17.6169 I5.2377 J-8.0022
G2 X43.9634 Y17.7775 I4.888 J-10.1468
G1 X44.1509 Y17.8596
G1 X44.3519 Y17.9447
G2 X45.4352 Y18.3642 I8.8587 J-21.2663
G2 X46.0601 Y18.5864 I57.7685 J-161.4698
G1 X46.7765 Y18.8323
G3 X48.681 Y19.4889 I-32.9282 J98.5887
G1 X49.1849 Y19.6745
G3 X50.3219 Y20.134 I-8.5884 J22.8891
G1 X50.6108 Y20.2633
G1 X50.9064 Y20.4025
G3 X52.2098 Y21.1337 I-4.976 J10.3977
G3 X52.8547 Y21.6055 I-4.0647 J6.2323
G3 X53.4802 Y22.1896 I-3.9719 J4.8804
G1 X53.5529 Y22.2695
G3 X54.5537 Y24.012 I-3.4969 J3.1671
G3 X54.7616 Y25.0895 I-4.8707 J1.4986
G3 X54.7442 Y26.2798 I-6.2302 J0.5043
G3 X54.6557 Y26.8923 I-7.9675 J-0.8388
G1 X39.6768 Y21.5408
G2 X39.1516 Y21.6684 I0.089 J1.5113
G2 X38.7056 Y21.9736 I0.6532 J1.433
G2 X38.4674 Y22.2445 I1.443 J1.5083
G2 X38.2052 Y22.6438 I3.4321 J2.5403
G2 X38.0709 Y22.8802 I10.7736 J6.2753
G1 X37.9212 Y23.1505
G3 X37.7422 Y23.4525 I-4.5518 J-2.4927
G3 X37.668 Y23.5186 I-0.1679 J-0.1138
G3 X37.5745 Y23.5526 I-0.1742 J-0.3342
G3 X37.3797 Y23.5648 I-0.1469 J-0.7853
G3 X37.0059 Y23.4989 I0.1165 J-1.7548
G3 X36.3155 Y23.2386 I1.2012 J-4.231
G3 X35.0869 Y22.4825 I2.7652 J-5.87
G3 X34.3952 Y21.8191 I2.7399 J-3.549
G1 X34.3183 Y21.7218
G3 X34.0293 Y21.2331 I1.8261 J-1.4096
G3 X33.9393 Y20.9409 I1.4356 J-0.6024
G3 X33.9223 Y20.6096 I1.1378 J-0.2244
G2 X34.0986 Y18.9447 I-53.5452 J-6.5115
G3 X34.2605 Y17.2783 I165.5467 J15.2458
G1 X34.3119 Y16.8027
G1 X34.3757 Y16.2597
G3 X34.5838 Y14.8168 I36.7858 J4.5688
G3 X34.6157 Y14.6313 I4.5708 J0.6907
G3 X35.0543 Y12.6723 I19.7392 J3.3905
G1 X35.0894 Y12.5496
G3 X35.4599 Y11.4433 I14.1862 J4.1362
G3 X35.6991 Y10.8681 I11.2801 J4.3524
G1 X35.7649 Y10.7242
G3 X36.4761 Y9.4602 I8.2742 J3.8237
G3 X37.557 Y8.1898 I6.0444 J4.0477
G3 X39.1409 Y7.0903 I4.649 J5.0061
G3 X39.2809 Y7.1256 I-0.7927 J3.4403
G3 X39.4191 Y7.1675 I-0.3556 J1.4221
G1 X39.51 Y7.1995
G3 X39.8558 Y7.3684 I-0.5967 J1.6608
G3 X40.3539 Y7.952 I-0.6288 J1.041
G3 X40.4644 Y8.4582 I-1.5936 J0.613
G1 X40.4685 Y8.5252
G3 X40.4717 Y8.6679 I-1.9536 J0.115
G3 X40.4574 Y8.9909 I-4.6862 J-0.045
G3 X40.4188 Y9.3541 I-6.0559 J-0.4612
G1 X40.3932 Y9.546
G1 X40.3329 Y9.9768
G2 X40.2757 Y10.4614 I9.9636 J1.4204
G2 X40.249 Y11.0082 I6.267 J0.5808
G1 X40.2519 Y11.149
G2 X40.3358 Y11.7787 I3.3544 J-0.1265
G2 X40.608 Y12.4494 I2.3647 J-0.5691
G1 X58.9316 Y14.8514
G0 Z5.0
G0 X50.855 Y32.3844
G1 Z0.0
G1 X51.178 Y39.4768
G3 X50.8609 Y39.0696 I2.469 J-2.2496
G3 X50.6001 Y38.6242 I3.3873 J-2.2828
G3 X50.2166 Y37.6684 I5.115 J-2.607
G3 X49.8845 Y35.6473 I7.5242 J-2.2741
G3 X49.9691 Y34.2843 I6.998 J-0.25
G3 X50.0417 Y33.9268 I5.5366 J0.9383
G3 X50.3141 Y33.1371 I3.9013 J0.9042
G3 X50.5374 Y32.7485 I2.4579 J1.1533
G3 X50.855 Y32.3844 I1.8026 J1.2521
G0 Z5.0
M5
M30
