( Made using CamBam - http://www.cambam.co.uk )
( car2 1/22/2014 9:37:34 AM )
( T0 : 0.0 )
G21 G90 G64 G40
G0 Z5.0
( T0 : 0.0 )
T0 M6
( 231-280 )
G17
M3 S1000
G0 X-412.0813 Y-5.8818
G1 F1.0 Z0.0
G3 X-411.5237 Y-5.7523 I-0.195 J2.1049
G3 X-411.0148 Y-5.4902 I-0.8923 J2.3574
G3 X-410.2352 Y-4.6636 I-1.3837 J2.0859
G3 X-409.9765 Y-3.9467 I-1.828 J1.0649
G3 X-410.0745 Y-2.9325 I-1.9968 J0.3189
G1 X-415.426 Y-6.2771
G1 X-412.0813 Y-5.8818
G0 Z5.0
G0 X-414.9007 Y-1.1746
G1 Z0.0
G1 X-409.1357 Y2.2784
G3 X-410.464 Y2.319 I-0.8256 J-5.2525
G3 X-411.7679 Y2.0627 I0.6456 J-6.7289
G3 X-412.1299 Y1.947 I2.1446 J-7.3331
G1 X-412.3209 Y1.879
G3 X-413.3127 Y1.455 I4.0851 J-10.9275
G3 X-414.5738 Y0.7729 I7.7024 J-15.7494
G1 X-414.9008 Y0.5755
G3 X-415.6365 Y0.108 I16.0326 J-26.0413
G3 X-416.4627 Y-0.4446 I33.2912 J-50.6765
G1 X-416.8998 Y-0.7434
G1 X-417.125 Y-0.898
G2 X-418.1546 Y-1.5985 I-66.2435 J96.2652
G1 X-418.4224 Y-1.7758
G1 X-418.4901 Y-1.8201
G2 X-418.7707 Y-2.0013 I-7.0612 J10.6307
G1 X-417.8357 Y-2.9325
G1 X-414.9007 Y-1.1746
G0 Z5.0
G0 X-416.2043 Y0.9672
G1 Z0.0
G3 X-415.924 Y1.1399 I-16.1411 J26.5185
G3 X-415.1263 Y1.6524 I-30.1073 J47.7373
G3 X-414.2291 Y2.2569 I-24.2961 J37.0279
G3 X-414.1158 Y2.3347 I-1.3513 J2.0886
G1 X-413.6341 Y2.6678
G1 X-413.3859 Y2.8401
G1 X-412.8564 Y3.2067
G1 X-412.5822 Y3.3944
G1 X-412.5477 Y3.4179
G2 X-412.262 Y3.6099 I14.5955 J-21.4036
G1 X-411.9649 Y3.8043
G2 X-411.3163 Y4.1953 I6.0053 J-9.2288
G2 X-411.1463 Y4.2852 I17.2911 J-32.4702
G1 X-412.4804 Y5.2241
G1 X-422.1154 Y-1.0587
G3 X-420.9604 Y-1.0105 I0.3523 J5.4209
G3 X-419.8326 Y-0.7564 I-1.1661 J7.8065
G3 X-419.1037 Y-0.5065 I-2.7009 J9.0634
G1 X-418.9125 Y-0.4313
G3 X-417.9148 Y0.0173 I-5.3889 J13.318
G3 X-416.6348 Y0.7099 I-9.2549 J18.6335
G3 X-416.2043 Y0.9672 I-15.7107 J26.7758
G0 Z5.0
G0 X-422.7577 Y-5.6007
G1 Z0.0
G1 X-424.2856 Y-4.8785
G1 X-423.5825 Y-11.6363
G1 X-422.7577 Y-5.6007
G0 Z5.0
G0 X-428.4019 Y-7.3604
G1 Z0.0
G3 X-428.7454 Y-7.0797 I-0.6897 J-0.4935
G3 X-429.1839 Y-7.0133 I-0.3495 J-0.8264
G3 X-429.4741 Y-7.071 I0.1097 J-1.3112
G3 X-429.8313 Y-7.2255 I0.5255 J-1.7045
G3 X-430.2477 Y-7.5163 I1.2447 J-2.2257
G3 X-430.6922 Y-8.0039 I1.7293 J-2.0227
G3 X-430.8763 Y-8.3297 I1.5824 J-1.1092
G3 X-430.979 Y-8.7444 I1.0385 J-0.4773
G3 X-430.8078 Y-9.2266 I0.6476 J-0.0416
G1 X-428.4019 Y-7.3604
G0 Z5.0
G0 Y-9.2266
G1 Z0.0
G3 X-428.9418 Y-9.5347 I3.2612 J-6.3418
G3 X-429.4582 Y-9.8806 I5.1903 J-8.3064
G3 X-430.4372 Y-10.6454 I7.7822 J-10.9714
G3 X-431.0449 Y-11.2082 I7.3794 J-8.5784
G3 X-431.3663 Y-11.556 I4.1433 J-4.1513
G3 X-431.686 Y-11.994 I2.3797 J-2.0721
G3 X-431.8028 Y-12.2613 I0.974 J-0.5847
G3 X-431.818 Y-12.4144 I0.4435 J-0.1216
G3 X-431.7466 Y-12.5713 I0.2455 J0.0172
G1 X-431.2673 Y-12.3269
G1 X-431.1077 Y-12.2451
G1 X-430.8955 Y-12.1348
G3 X-430.0631 Y-11.664 I-6.0469 J11.6621
G3 X-429.8339 Y-11.5149 I-3.543 J5.6979
G3 X-429.2594 Y-11.0652 I-2.7452 J4.0991
G3 X-428.9701 Y-10.7637 I-2.4083 J2.6008
G3 X-428.6955 Y-10.3705 I-2.0593 J1.7308
G3 X-428.4844 Y-9.8599 I-1.87 J1.0719
G3 X-428.4019 Y-9.2266 I-2.3016 J0.6218
G0 Z5.0
G0 Y-12.1646
G1 Z0.0
G2 X-428.8317 Y-12.3754 I-11.5742 J23.0474
G2 X-428.8606 Y-12.3893 I-0.1137 J0.1997
G1 X-429.3216 Y-12.6091
G1 X-429.4534 Y-12.672
G1 X-429.8037 Y-12.8415
G3 X-429.8488 Y-12.8637 I0.2039 J-0.4715
G3 X-429.8953 Y-12.8867 I0.2181 J-0.5
G1 X-430.1071 Y-12.993
G3 X-430.3476 Y-13.1176 I97.6264 J-188.6693
G1 X-430.6197 Y-13.2652
G3 X-431.3246 Y-13.6951 I4.489 J-8.1519
G3 X-432.182 Y-14.3883 I3.2766 J-4.9295
G3 X-432.5962 Y-14.8662 I2.7314 J-2.7858
G3 X-433.2213 Y-16.4519 I2.5947 J-1.939
G2 X-432.7858 Y-16.0016 I3.4079 J-2.8602
G1 X-432.6291 Y-15.8634
G2 X-432.5865 Y-15.8275 I0.4768 J-0.5215
G2 X-431.872 Y-15.2962 I5.3586 J-6.4603
G2 X-431.7732 Y-15.2303 I1.0694 J-1.4965
G2 X-431.239 Y-14.8909 I16.6088 J-25.5535
G3 X-430.5211 Y-14.449 I-151.7211 J247.2927
G1 X-430.3314 Y-14.3287
G1 X-430.1308 Y-14.1975
G3 X-429.6841 Y-13.8805 I-5.5656 J8.3175
G3 X-429.2075 Y-13.4738 I-3.3788 J4.4417
G3 X-428.7447 Y-12.9233 I-2.318 J2.4185
G3 X-428.4019 Y-12.1646 I-2.0889 J1.4005
G0 Z5.0
G0 X-428.0028 Y-14.5743
G1 Z0.0
G1 X-428.1214 Y-14.6614
G1 X-428.2418 Y-14.7462
G1 X-428.3229 Y-14.8016
G1 X-428.4319 Y-14.8739
G1 X-428.5787 Y-14.9684
G1 X-428.7763 Y-15.091
G2 X-429.5798 Y-15.5597 I-16.3743 J27.1532
G1 X-430.119 Y-15.8658
G1 X-430.426 Y-16.0427
G1 X-430.7743 Y-16.2493
G3 X-430.8636 Y-16.3036 I1.3533 J-2.3261
G3 X-431.2676 Y-16.5586 I5.7853 J-9.6132
G3 X-431.4795 Y-16.7 I3.3933 J-5.3141
G3 X-431.9516 Y-17.0415 I5.4509 J-8.0326
G3 X-432.4615 Y-17.4705 I4.7598 J-6.1746
G3 X-432.9856 Y-18.0254 I3.9601 J-4.2657
G3 X-433.4264 Y-18.7345 I2.6898 J-2.1637
G3 X-433.7188 Y-19.5166 I4.5571 J-2.1491
G1 X-433.7486 Y-19.6238
G1 X-433.7783 Y-19.7388
G3 X-433.9923 Y-21.6145 I7.4744 J-1.803
G3 X-433.8806 Y-22.8674 I7.3766 J0.0265
G3 X-433.7094 Y-23.5662 I5.7892 J1.0483
G1 X-433.6953 Y-23.6093
G3 X-433.5567 Y-23.971 I4.3353 J1.4545
G1 X-433.5155 Y-24.0606
G3 X-433.3067 Y-24.4267 I2.7313 J1.3153
G3 X-433.0086 Y-24.7695 I1.485 J0.9902
G3 X-432.5772 Y-25.0198 I0.7992 J0.8803
G3 X-432.007 Y-25.0438 I0.3302 J1.0598
G3 X-431.7123 Y-24.9506 I-0.3088 J1.4884
G3 X-431.1156 Y-24.5818 I-1.0508 J2.3672
G3 X-430.4246 Y-23.9774 I-9.6627 J11.7452
G1 X-430.3281 Y-23.8885
G1 X-430.0716 Y-23.6507
G1 X-429.729 Y-23.3342
G1 X-429.5318 Y-23.155
G2 X-428.9956 Y-22.6887 I14.1733 J-15.7542
G2 X-428.925 Y-22.6302 I2.1458 J-2.5193
G2 X-428.1422 Y-22.0431 I6.387 J-7.6995
G2 X-427.6649 Y-21.7508 I3.7227 J-5.5441
G2 X-427.0858 Y-21.476 I2.3647 J-4.2357
G2 X-426.3781 Y-21.2741 I1.3994 J-3.564
G2 X-425.5283 Y-21.2494 I0.508 J-2.8506
G2 X-424.5805 Y-21.5328 I-0.384 J-3.0106
G2 X-424.1184 Y-21.7996 I-1.5508 J-3.2201
G1 X-424.1167 Y-21.5776
G1 X-424.1114 Y-21.3556
G1 X-424.1083 Y-21.2075
G3 X-424.129 Y-20.6157 I-4.5349 J0.1372
G1 X-424.1338 Y-20.5777
G3 X-424.2317 Y-20.1809 I-1.7172 J-0.2132
G3 X-424.553 Y-19.7328 I-0.995 J-0.3742
G3 X-424.827 Y-19.5648 I-0.8211 J-1.0318
G3 X-425.1779 Y-19.4498 I-0.6876 J-1.5059
G3 X-425.5931 Y-19.3899 I-0.5852 J-2.5852
G2 X-425.4032 Y-18.8666 I2.1816 J-0.4958
G2 X-425.105 Y-18.3965 I2.5855 J-1.3104
G2 X-424.8684 Y-18.1106 I3.0141 J-2.2527
G2 X-424.5264 Y-17.7547 I6.1683 J-5.587
G1 X-424.3229 Y-17.5599
G2 X-424.2698 Y-17.5103 I0.7621 J-0.7613
G1 X-424.0262 Y-17.2853
G1 X-423.8961 Y-17.1655
G3 X-423.7581 Y-17.0372 I-18.8643 J20.4269
G3 X-423.6125 Y-16.8989 I-2.8752 J3.1726
G1 X-423.46 Y-16.7487
G1 X-423.3828 Y-16.6697
G3 X-423.2228 Y-16.4969 I-3.2992 J3.2155
G1 X-423.1834 Y-16.4519
G1 X-426.931 Y-18.3256
G2 X-427.072 Y-18.1206 I1.8743 J1.4402
G2 X-427.173 Y-17.8933 I0.8445 J0.5114
G2 X-427.101 Y-17.4031 I0.5278 J0.1729
G2 X-426.869 Y-17.158 I0.9282 J-0.6464
G2 X-426.7164 Y-17.043 I2.5401 J-3.2104
G2 X-426.676 Y-17.015 I0.2937 J-0.3806
G1 X-426.4918 Y-16.8942
G1 X-426.2836 Y-16.7635
G1 X-426.0537 Y-16.6158
G3 X-425.5129 Y-16.1919 I-1.9593 J3.0571
G3 X-425.2611 Y-15.8983 I-1.5064 J1.5466
G3 X-425.0572 Y-15.5093 I-1.3264 J0.9433
G3 X-425.9303 Y-15.6509 I0.251 J-4.3131
G3 X-426.7582 Y-15.9626 I1.3061 J-4.724
G3 X-427.2766 Y-16.244 I2.887 J-5.9355
G3 X-427.9289 Y-16.681 I4.1838 J-6.9516
G3 X-428.751 Y-17.3237 I11.1889 J-15.1588
G1 X-428.966 Y-17.5001
G1 X-429.4573 Y-17.9013
G1 X-429.5202 Y-17.9517
G2 X-430.104 Y-18.3977 I-8.4131 J10.4089
G2 X-430.8078 Y-18.8539 I-4.4731 J6.1291
G2 X-430.8923 Y-18.2948 I1.2948 J0.4817
G2 X-430.7413 Y-17.7499 I1.4382 J-0.1053
G2 X-430.5437 Y-17.4284 I1.8252 J-0.9003
G2 X-430.2157 Y-17.0527 I2.573 J-1.9154
G2 X-430.0088 Y-16.8588 I3.6312 J-3.6687
G2 X-429.4271 Y-16.3954 I4.9175 J-5.5751
G1 X-429.3496 Y-16.3391
G2 X-428.9938 Y-16.0898 I8.769 J-12.1374
G2 X-428.5856 Y-15.8146 I11.5983 J-16.7567
G1 X-428.1224 Y-15.5035
G1 X-427.8782 Y-15.3352
G1 X-427.6219 Y-15.1516
G3 X-427.4919 Y-15.0543 I-1.9702 J2.7685
G3 X-426.931 Y-14.5743 I-3.5155 J4.6758
G1 X-428.0028
G0 Z5.0
G0 X-425.8972 Y-24.9504
G1 Z0.0
G3 X-426.0972 Y-25.1784 I0.9026 J-0.9939
G3 X-426.2485 Y-25.4412 I1.3604 J-0.9582
G3 X-426.4464 Y-26.0114 I2.7423 J-1.2708
G3 X-426.4842 Y-26.1797 I2.0527 J-0.5498
G3 X-426.555 Y-26.6326 I4.3075 J-0.905
G3 X-426.5956 Y-27.2401 I6.9373 J-0.7691
G3 X-426.5967 Y-27.5875 I5.4202 J-0.1908
G1 X-426.5915 Y-27.7725
G3 X-426.566 Y-28.1937 I7.3781 J0.2356
G3 X-426.4137 Y-29.3024 I10.2394 J0.8416
G3 X-426.0286 Y-30.7356 I9.8945 J1.8904
G3 X-425.7035 Y-31.5181 I7.5809 J2.691
G3 X-425.2088 Y-32.3508 I4.9632 J2.3849
G3 X-424.874 Y-32.7469 I2.8518 J2.0711
G3 X-424.4453 Y-33.1031 I1.8826 J1.8297
G1 X-425.8972 Y-24.9504
G0 Z5.0
G0 X-428.7212 Y-25.9994
G1 Z0.0
G1 X-429.3711 Y-32.9359
G1 X-427.9192 Y-32.7763
G1 X-428.7212 Y-25.9994
G0 Z5.0
G0 X-435.2281 Y-27.9531
G1 Z0.0
G1 X-438.0293 Y-29.0249
G2 X-438.2938 Y-27.7201 I7.6484 J2.2293
G2 X-438.3516 Y-26.39 I10.5837 J1.1268
G2 X-438.3483 Y-26.2124 I3.7684 J0.019
G1 X-438.3472 Y-26.1673
G1 X-438.3459 Y-26.1214
G1 X-438.3428 Y-26.0269
G1 X-438.3347 Y-25.8253
G2 X-438.261 Y-24.753 I29.4575 J-1.486
G1 X-438.2345 Y-24.4677
G1 X-441.3816 Y-25.8398
G1 X-441.5687 Y-25.387
G1 X-441.7593 Y-24.9357
G1 X-442.1426 Y-24.034
G2 X-442.8487 Y-22.2063 I32.9531 J13.7812
G3 X-443.2149 Y-23.8081 I5.9438 J-2.2016
G3 X-443.1324 Y-25.4492 I5.9443 J-0.5237
G3 X-442.8408 Y-26.5068 I6.4932 J1.221
G3 X-442.6049 Y-27.0875 I6.6189 J2.3513
G3 X-442.2853 Y-27.7277 I7.5845 J3.3855
G3 X-441.8678 Y-28.4288 I11.1042 J6.138
G3 X-441.6265 Y-28.7904 I10.0231 J6.4287
G3 X-441.0377 Y-29.5864 I14.6103 J10.1908
G1 X-440.8785 Y-29.786
G1 X-440.7117 Y-29.9897
G3 X-439.9238 Y-30.8919 I19.6191 J16.3386
G3 X-438.9864 Y-31.879 I25.5888 J23.3615
G3 X-438.9263 Y-31.9401 I0.692 J0.6201
G3 X-438.8656 Y-32.0017 I0.707 J0.6366
G3 X-438.8043 Y-32.0636 I0.7231 J0.6543
G3 X-438.7425 Y-32.1258 I0.7404 J0.6731
G1 X-438.2137 Y-32.6519
G3 X-437.0 Y-33.833 I172.9658 J176.5041
G2 X-435.6272 Y-35.1784 I-84.8728 J-87.9835
G2 X-435.3214 Y-35.6835 I-4.2406 J-2.9123
G2 X-435.0866 Y-36.2252 I-3.5771 J-1.8725
G2 X-434.9045 Y-37.3891 I-3.0981 J-1.0809
G2 X-435.0144 Y-38.1698 I-3.7144 J0.1248
G2 X-435.3755 Y-39.1529 I-5.1714 J1.3419
G2 X-435.6491 Y-39.6831 I-8.7466 J4.1778
G1 X-435.8066 Y-39.9587
G1 X-435.98 Y-40.2483
G1 X-436.071 Y-40.3966
G1 X-436.4884 Y-41.0659
G1 X-436.707 Y-41.4232
G3 X-436.8171 Y-41.6088 I4.73 J-2.9292
G1 X-436.9277 Y-41.8015
G3 X-437.3754 Y-42.704 I7.4754 J-4.2707
G3 X-437.4699 Y-42.9459 I6.0542 J-2.5045
G3 X-437.6302 Y-43.4755 I4.2234 J-1.5672
G3 X-436.5106 Y-44.8837 I85.1618 J66.5521
G3 X-435.3375 Y-46.2477 I24.9643 J20.2865
G3 X-435.2988 Y-46.2897 I0.4434 J0.3689
G3 X-434.4471 Y-47.1615 I13.3896 J12.2289
G1 X-434.2105 Y-47.3843
G3 X-432.864 Y-48.4777 I8.7098 J9.3501
G3 X-432.021 Y-49.0025 I5.0121 J7.1112
G1 X-431.9098 Y-49.0622
G3 X-430.8457 Y-49.516 I3.2088 J6.0498
G3 X-429.5393 Y-49.773 I1.6867 J5.1231
G3 X-428.0028 Y-49.6289 I0.3239 J4.8081
G2 X-430.4768 Y-47.7346 I31.0711 J43.1423
G2 X-430.8212 Y-47.4525 I59.65 J73.1579
G2 X-431.0038 Y-47.3007 I6.2176 J7.6648
G2 X-431.1977 Y-47.1377 I4.3361 J5.3552
G2 X-432.2137 Y-46.2476 I20.7799 J24.7439
G2 X-433.4996 Y-44.9861 I14.9477 J16.524
G2 X-433.6565 Y-44.8145 I17.9421 J16.5612
G2 X-434.3273 Y-43.9886 I6.7801 J6.1924
G2 X-434.5159 Y-43.6465 I1.6915 J1.1553
G2 X-434.6412 Y-43.2765 I2.2446 J0.9666
G2 X-434.7172 Y-42.5019 I2.3573 J0.6222
G2 X-434.6024 Y-41.9936 I1.6346 J-0.1021
G2 X-434.4507 Y-41.7338 I1.0913 J-0.4631
G2 X-434.1883 Y-41.5032 I0.761 J-0.6012
G2 X-433.804 Y-41.3656 I0.5572 J-0.9506
G2 X-433.3334 Y-41.3554 I0.2717 J-1.6854
G2 X-432.8146 Y-41.461 I-0.3637 J-3.1147
G3 X-432.7466 Y-39.6363 I-9.7943 J1.2788
G3 X-432.9885 Y-37.8265 I-12.1433 J-0.7024
G3 X-433.28 Y-36.6446 I-16.7493 J-3.5034
G3 X-433.7666 Y-35.0985 I-28.7945 J-8.2125
G1 X-433.9065 Y-34.6897
G1 X-434.2293 Y-33.7574
G2 X-434.5843 Y-32.6886 I40.3536 J13.998
G2 X-434.7584 Y-32.114 I24.8957 J7.8541
G1 X-434.8001 Y-31.9673
G1 X-434.8414 Y-31.818
G2 X-435.1481 Y-30.4361 I13.1482 J3.6436
G2 X-435.2447 Y-29.6865 I10.2226 J1.6982
G2 X-435.2281 Y-27.9531 I8.3155 J0.7871
G0 Z5.0
G0 X-428.4019 Y-40.5299
G1 Z0.0
G1 X-426.0606 Y-43.3463
G2 X-425.7584 Y-44.0464 I-1.9598 J-1.2612
G2 X-425.7238 Y-44.2995 I-1.2457 J-0.2993
G2 X-425.7766 Y-44.638 I-0.8257 J-0.0445
G2 X-426.0833 Y-44.9901 I-0.6648 J0.2694
G2 X-426.3319 Y-45.1006 I-0.5505 J0.9035
G2 X-426.6323 Y-45.1678 I-0.5979 J1.969
G2 X-426.7942 Y-45.1859 I-0.3621 J2.5035
G3 X-426.9975 Y-45.2263 I0.078 J-0.9241
G3 X-427.1899 Y-45.303 I0.4388 J-1.381
G3 X-427.5299 Y-45.537 I0.6084 J-1.2476
G3 X-427.8967 Y-46.265 I0.7693 J-0.844
G3 X-427.8356 Y-46.8126 I1.4121 J-0.1197
G1 X-427.7038 Y-47.0485
G3 X-427.5695 Y-47.283 I4.9293 J2.667
G3 X-427.551 Y-47.3141 I0.2652 J0.1364
G1 X-427.4501 Y-47.4775
G3 X-427.3896 Y-47.5692 I6.6909 J4.3419
G1 X-427.3564 Y-47.6175
G3 X-427.165 Y-47.8645 I2.1797 J1.4921
G3 X-426.8572 Y-48.1467 I1.2772 J1.0839
G3 X-426.3248 Y-48.3333 I0.5774 J0.7943
G3 X-425.996 Y-48.2911 I0.033 J1.0442
G2 X-425.7592 Y-47.5309 I3.1603 J-0.5672
G2 X-425.3069 Y-46.8759 I2.0761 J-0.9499
G2 X-424.8766 Y-46.5599 I1.2914 J-1.3078
G2 X-424.1882 Y-46.3678 I0.802 J-1.5444
G2 X-423.7772 Y-46.3811 I0.1425 J-1.946
G2 X-423.3202 Y-46.4857 I-0.3319 J-2.5025
G1 X-422.9828 Y-46.595
G1 X-422.6449 Y-46.7031
G3 X-421.9656 Y-46.9078 I8.2894 J26.2734
G1 X-421.7701 Y-46.9611
G3 X-421.2434 Y-47.0833 I2.2843 J8.6454
G1 X-421.2096 Y-47.0898
G3 X-420.4814 Y-47.1738 I0.9155 J4.7381
G3 X-420.0617 Y-47.1588 I0.0918 J3.2996
G3 X-418.9852 Y-46.8244 I-0.3002 J2.8663
G3 X-418.4397 Y-46.4719 I-1.9013 J3.5405
G3 X-417.8788 Y-45.9871 I-3.9339 J5.118
G1 X-417.7428 Y-45.8526
G1 X-417.6055 Y-45.711
G1 X-417.467 Y-45.5621
G3 X-416.8412 Y-44.676 I-3.392 J3.0597
G3 X-416.4022 Y-43.6839 I-5.8152 J3.1658
G3 X-416.1877 Y-42.9933 I-7.8964 J2.8318
G3 X-415.9705 Y-42.0558 I-12.9086 J3.4846
G3 X-415.8716 Y-41.5153 I-15.9239 J3.1926
G3 X-415.8483 Y-41.3755 I-3.8734 J0.7182
G1 X-415.8009 Y-41.077
G1 X-415.7893 Y-41.001
G1 X-415.7414 Y-40.6774
G1 X-415.7175 Y-40.5102
G1 X-415.6096 Y-39.747
G2 X-415.4699 Y-38.8787 I19.2556 J-2.652
G2 X-415.426 Y-38.6561 I10.871 J-2.0289
G1 X-421.1766 Y-46.2766
G2 X-421.5659 Y-45.345 I2.4659 J1.5778
G2 X-421.6117 Y-44.3363 I3.0044 J0.6417
G2 X-421.4803 Y-43.6754 I4.1564 J-0.4826
G2 X-421.1779 Y-42.8349 I6.0902 J-1.7169
G1 X-421.0807 Y-42.6178
G2 X-420.5022 Y-41.5047 I14.7615 J-6.9653
G2 X-420.4227 Y-41.3639 I6.8036 J-3.7495
G2 X-420.0565 Y-40.727 I46.9967 J-26.5987
G1 X-419.8617 Y-40.3883
G1 X-419.6575 Y-40.0266
G1 X-419.6064 Y-39.9343
G1 X-419.5023 Y-39.7433
G1 X-419.3973 Y-39.5454
G3 X-418.9613 Y-38.6246 I-10.5404 J5.555
G3 X-418.7707 Y-38.1164 I-7.0254 J2.9246
G3 X-418.5467 Y-37.7504 I-2.6898 J1.8979
G3 X-418.3767 Y-37.3563 I-2.3036 J1.2273
G3 X-418.3256 Y-36.5016 I-1.4979 J0.5184
G3 X-418.5281 Y-35.9621 I-2.2211 J-0.5262
G3 X-418.6859 Y-35.6741 I-5.0205 J-2.5638
G1 X-418.8731 Y-35.3522
G2 X-419.0706 Y-34.9797 I4.7727 J2.7685
G2 X-419.2447 Y-34.5348 I2.6748 J1.3031
G1 X-419.2615 Y-34.4765
G2 X-419.3489 Y-33.9321 I2.3237 J0.6524
G2 X-419.3066 Y-33.3046 I2.8979 J0.1198
G3 X-420.3452 Y-33.9039 I2.0541 J-4.759
G3 X-421.2536 Y-34.6865 I4.9333 J-6.6453
G3 X-421.8038 Y-35.2661 I9.3249 J-9.4016
G3 X-422.4928 Y-36.0764 I16.9408 J-15.1049
G1 X-422.6714 Y-36.2966
G1 X-423.0757 Y-36.8023
G1 X-423.5376 Y-37.3793
G1 X-423.787 Y-37.6843
G2 X-424.3737 Y-38.3663 I-13.9171 J11.3787
G2 X-424.7012 Y-38.7168 I-9.4739 J8.5255
G2 X-425.0661 Y-39.0755 I-7.555 J7.32
G1 X-425.1134 Y-39.1194
G2 X-426.0436 Y-39.8468 I-4.5994 J4.9227
G2 X-426.3057 Y-40.0038 I-3.1963 J5.0385
G2 X-426.8988 Y-40.2811 I-2.1927 J3.9177
G2 X-428.4019 Y-40.5299 I-1.3679 J3.599
G0 Z5.0
G0 X-407.8779 Y-34.6503
G1 Z0.0
G3 X-407.7543 Y-34.976 I2.0026 J0.5737
G3 X-407.2757 Y-35.6216 I1.9978 J0.9809
G3 X-407.1188 Y-35.7602 I1.3518 J1.3728
G3 X-406.7525 Y-36.0205 I2.2373 J2.7595
G3 X-406.3307 Y-36.2502 I2.1705 J3.4834
G3 X-406.1044 Y-35.798 I-5.6903 J3.1299
G3 X-405.9049 Y-35.3334 I-10.386 J4.7336
G3 X-405.5571 Y-34.3842 I-16.1501 J6.4566
G1 X-405.4669 Y-34.1098
G3 X-404.8494 Y-31.8859 I-28.7302 J9.1745
G3 X-404.8155 Y-31.7408 I-4.0583 J1.0273
G3 X-404.7458 Y-31.4309 I-16.5274 J3.878
G3 X-404.7057 Y-31.163 I-1.7334 J0.3964
G3 X-404.7175 Y-30.8924 I-1.1909 J0.0836
G3 X-404.9734 Y-30.4178 I-0.8115 J-0.1313
G3 X-405.2758 Y-30.2158 I-0.8446 J-0.9376
G3 X-405.7258 Y-30.0596 I-0.9892 J-2.122
G3 X-406.3307 Y-29.9599 I-1.0191 J-4.3
G2 X-406.3683 Y-30.031 I-0.7949 J0.3749
G2 X-406.4062 Y-30.102 I-1.1982 J0.5937
G1 X-406.4826 Y-30.2437
G1 X-406.637 Y-30.5262
G1 X-406.7404 Y-30.7143
G1 X-406.8777 Y-30.9654
G3 X-407.3997 Y-31.9841 I16.1104 J-8.8981
G3 X-407.6935 Y-32.6887 I7.1982 J-3.4146
G3 X-407.826 Y-33.1049 I5.014 J-1.8249
G1 X-407.8544 Y-33.214
G3 X-407.9455 Y-33.7222 I3.4062 J-0.8729
G3 X-407.9447 Y-34.3155 I2.6024 J-0.2933
G3 X-407.8779 Y-34.6503 I2.0694 J0.2389
G0 Z5.0
G0 X-385.9927 Y-48.6863
G1 Z0.0
G1 X-384.6928 Y-49.7164
G1 X-383.583 Y-47.7437
G1 X-385.9927 Y-48.6863
G0 Z5.0
G0 X-386.6115 Y-52.5109
G1 Z0.0
G3 X-387.2126 Y-52.5196 I-0.2761 J-1.7065
G3 X-387.7732 Y-52.736 I0.2869 J-1.5771
G3 X-388.0363 Y-52.9613 I0.6285 J-1.0002
G3 X-388.2186 Y-53.3216 I0.6024 J-0.5311
G3 X-388.1507 Y-53.808 I0.7505 J-0.1432
G3 X-388.0033 Y-54.038 I1.0323 J0.4994
G1 X-385.5898 Y-53.1066
G3 X-386.3187 Y-52.585 I-1.2691 J-1.0033
G3 X-386.6115 Y-52.5109 I-0.5689 J-1.6324
G0 Z5.0
G0 X-382.6518 Y-52.0235
G1 Z0.0
G1 X-380.9832 Y-52.4529
G3 X-380.3271 Y-52.3721 I0.149 J1.4945
G3 X-379.8013 Y-51.9713 I-0.3891 J1.0558
G3 X-379.6162 Y-51.566 I-0.9868 J0.6957
G3 X-379.5834 Y-50.9782 I-1.5953 J0.3837
G3 X-379.797 Y-50.2461 I-2.435 J-0.3132
G3 X-379.8392 Y-50.1573 I-0.8178 J-0.3343
G1 X-382.6518 Y-52.0235
G0 Z5.0
G0 X-380.7438 Y-56.8086
G1 Z0.0
G1 X-381.1809 Y-58.8535
G1 X-378.7711 Y-57.9185
G1 X-380.7438 Y-56.8086
G0 Z5.0
G0 X-388.057 Y-57.9938
G1 Z0.0
G1 X-388.1591 Y-57.3636
G1 X-389.6072 Y-57.2077
G1 X-389.8771 Y-58.3251
G1 X-388.0033
G1 X-388.057 Y-57.9938
G0 Z5.0
G0 X-375.0274 Y-69.9594
G1 Z0.0
G1 X-374.2526 Y-69.9679
G1 X-374.1419 Y-69.969
G3 X-373.2562 Y-69.9761 I1.2315 J97.8809
G3 X-371.485 Y-69.9825 I1.8898 J281.2529
G1 X-370.3041 Y-69.9804
G3 X-368.7297 Y-69.9693 I-3.4553 J601.8231
G1 X-368.5265 Y-69.9672
G3 X-362.0278 Y-69.8011 I-2.1991 J213.2634
G3 X-361.1618 Y-69.7636 I-3.1139 J82.0107
G3 X-360.2383 Y-69.7194 I-3.6946 J86.8979
G1 X-359.2534 Y-69.6674
G3 X-354.006 Y-69.3035 I-10.6222 J191.2003
G3 X-347.0284 Y-68.5968 I-16.2983 J195.7093
G3 X-346.13 Y-68.4885 I-12.3037 J105.8706
G3 X-346.3131 Y-68.414 I-0.6359 J-1.3001
G3 X-346.376 Y-68.3942 I-0.2841 J-0.7938
G3 X-346.4122 Y-68.3837 I-0.1122 J-0.3194
G3 X-346.7053 Y-68.3152 I-0.8633 J-3.0323
G3 X-347.2994 Y-68.2254 I-1.5002 J-7.9133
G3 X-347.3791 Y-68.2163 I-0.1871 J-1.284
G3 X-348.6539 Y-68.1201 I-2.2357 J-21.1383
G1 X-349.0187 Y-68.1039
G3 X-351.9326 Y-68.0593 I-2.5573 J-71.9683
G1 X-352.3211 Y-68.0606
G1 X-353.2088 Y-68.0675
G1 X-354.2231 Y-68.0809
G3 X-355.3819 Y-68.1016 I8.0904 J-485.3597
G1 X-355.9999 Y-68.1144
G1 X-357.4119 Y-68.1471
G1 X-359.0252 Y-68.1877
G1 X-360.8687 Y-68.2342
G1 X-361.8519 Y-68.2572
G1 X-362.3594 Y-68.268
G3 X-364.5273 Y-68.326 I6.0203 J-265.4723
G1 X-365.2499 Y-68.3422
G1 X-365.3432 Y-68.3437
G1 X-365.7696 Y-68.3475
G2 X-366.9065 Y-68.3198 I-0.1438 J17.4099
G2 X-367.2091 Y-68.2965 I0.2823 J5.6422
G2 X-367.8959 Y-68.1955 I0.4704 J5.5859
G2 X-368.254 Y-68.0975 I0.7726 J3.5265
G2 X-368.617 Y-67.9329 I0.5603 J1.7183
G2 X-368.9432 Y-67.6453 I0.5545 J0.9576
G2 X-369.1213 Y-67.1844 I0.7651 J0.5605
G2 X-369.1266 Y-66.9176 I1.4959 J0.1633
G2 X-369.0852 Y-66.6365 I2.3567 J-0.2036
G2 X-369.0059 Y-66.3471 I3.0544 J-0.6813
G2 X-368.7589 Y-65.7471 I4.2883 J-1.4147
G2 X-368.4292 Y-65.1361 I6.9045 J-3.331
G2 X-368.0592 Y-64.5669 I7.309 J-4.346
G2 X-368.0329 Y-64.5299 I0.37 J-0.2357
G2 X-367.5906 Y-63.9564 I7.6361 J-5.4308
G2 X-366.6159 Y-62.8863 I12.2339 J-10.1652
G1 X-366.323 Y-62.5944
G1 X-366.165 Y-62.4404
G1 X-365.9954 Y-62.2773
G1 X-365.6049 Y-61.9079
G1 X-365.1559 Y-61.4889
G1 X-364.6435 Y-61.0095
G1 X-364.5121 Y-60.8849
G1 X-364.377 Y-60.7558
G1 X-364.0914 Y-60.4776
G1 X-363.9458 Y-60.3323
G3 X-363.3041 Y-59.6449 I-10.6259 J10.5632
G3 X-362.9865 Y-59.2564 I-7.3603 J6.3419
G3 X-363.8809 Y-59.3101 I0.0146 J-7.7225
G3 X-364.7607 Y-59.4798 I0.8035 J-6.5336
G3 X-366.4061 Y-60.1801 I1.6356 J-6.1258
G3 X-367.3763 Y-60.876 I3.9526 J-6.5343
G3 X-368.5074 Y-61.9892 I6.913 J-8.1552
G3 X-368.5405 Y-62.0268 I0.3565 J-0.3481
G3 X-369.1229 Y-62.7288 I11.5045 J-10.137
G3 X-369.1584 Y-62.7741 I0.4173 J-0.3641
G3 X-369.1941 Y-62.8197 I0.4217 J-0.3658
G3 X-369.2299 Y-62.8659 I0.4262 J-0.3677
G3 X-369.2658 Y-62.9125 I0.4308 J-0.3696
G3 X-369.9017 Y-63.7742 I26.9133 J-20.5256
G3 X-369.9409 Y-63.8292 I0.5422 J-0.4273
G3 X-369.9802 Y-63.8847 I0.5504 J-0.4321
G1 X-370.3121 Y-64.3588
G3 X-370.3537 Y-64.4187 I0.6426 J-0.4896
G1 X-370.7057 Y-64.9298
G1 X-371.08 Y-65.4738
G1 X-371.4818 Y-66.05
G1 X-371.6917 Y-66.3451
G2 X-371.745 Y-66.4192 I-1.8391 J1.2667
G2 X-371.7989 Y-66.4937 I-1.9994 J1.3887
G2 X-371.9088 Y-66.6446 I-3.3052 J2.2936
G2 X-372.0213 Y-66.7971 I-4.4367 J3.1549
G2 X-372.1365 Y-66.9512 I-8.8459 J6.4914
G2 X-372.6395 Y-67.5972 I-16.2925 J12.1675
G2 X-373.2028 Y-68.2622 I-12.9951 J10.436
G2 X-374.6269 Y-69.6456 I-9.6687 J8.5282
G2 X-374.8236 Y-69.8037 I-23.8666 J29.5029
G1 X-375.0274 Y-69.9594
G0 Z5.0
G0 X-363.3856 Y-65.1438
G1 Z0.0
G3 X-362.2923 Y-65.3937 I3.0019 J10.6191
G3 X-361.18 Y-65.5367 I2.0796 J11.7784
G3 X-358.9398 Y-65.5492 I1.2039 J15.0394
G1 X-358.6418 Y-65.5271
G3 X-357.0611 Y-65.3306 I-1.7461 J20.5042
G3 X-354.9854 Y-64.8946 I-3.9362 J23.8973
G3 X-352.2835 Y-64.0796 I-8.3669 J32.6231
G1 X-358.5738 Y-59.7922
G1 X-363.3856 Y-65.1438
G0 Z5.0
G0 X-364.5496 Y-56.41
G1 Z0.0
G1 X-364.2434 Y-56.3673
G3 X-363.6346 Y-56.2598 I-2.0015 J13.1225
G3 X-362.4506 Y-55.904 I-1.3194 J6.5386
G1 X-363.9177 Y-54.038
G3 X-364.4559 Y-54.5773 I1.0331 J-1.569
G3 X-364.7644 Y-55.2741 I1.9758 J-1.2914
G3 X-364.8553 Y-55.7739 I3.2296 J-0.8454
G3 X-364.8565 Y-56.4477 I3.5028 J-0.3432
G1 X-364.5496 Y-56.41
G0 Z5.0
G0 X-359.6292 Y-51.7447
G1 Z0.0
G1 X-359.5262 Y-51.8533
G3 X-357.2249 Y-54.1722 I53.1453 J50.4421
G3 X-355.9556 Y-55.3664 I47.3047 J49.0067
G3 X-352.9339 Y-57.9644 I41.4585 J45.1631
G3 X-351.2497 Y-59.2627 I33.0366 J41.1155
G3 X-349.3944 Y-60.5696 I30.0171 J40.6421
G1 X-348.9134 Y-60.8875
G1 X-348.4207 Y-61.2042
G1 X-347.9159 Y-61.5194
G3 X-343.0959 Y-64.064 I21.1667 J34.2571
G3 X-342.9392 Y-64.1329 I2.5579 J5.6099
G3 X-342.7815 Y-64.2013 I2.3519 J5.2056
G3 X-338.3077 Y-65.9479 I27.879 J64.8079
G3 X-333.7345 Y-67.4147 I27.7786 J78.7442
G3 X-330.6454 Y-68.2569 I28.2528 J97.5367
G3 X-326.4895 Y-69.2315 I28.4642 J112.0284
G3 X-326.424 Y-69.2456 I0.3069 J1.2716
G1 X-325.883 Y-69.3601
G1 X-325.324 Y-69.4758
G3 X-319.334 Y-70.5566 I27.0831 J132.9527
G3 X-318.5579 Y-70.6772 I83.6931 J536.0332
G3 X-315.0032 Y-71.1789 I26.6828 J176.2166
G1 X-314.0843 Y-71.2958
G3 X-309.8769 Y-71.7698 I23.1971 J187.0188
G1 X-309.3419 Y-71.8232
G3 X-308.2371 Y-71.929 I9.2932 J91.2149
G3 X-305.8785 Y-72.135 I16.7667 J178.3646
G3 X-305.7305 Y-72.1471 I0.3361 J3.2119
G3 X-305.5818 Y-72.1591 I0.3363 J3.2379
G3 X-305.4325 Y-72.1711 I0.3366 J3.2645
G3 X-305.2826 Y-72.183 I0.3368 J3.2916
G3 X-305.1322 Y-72.1948 I0.337 J3.3192
G3 X-304.5208 Y-72.2419 I3.3462 J39.4523
G1 X-303.2584 Y-72.3339
G1 X-301.9549 Y-72.4218
G1 X-301.2926 Y-72.4638
G1 X-299.9252 Y-72.5448
G3 X-293.6718 Y-72.8268 I16.4971 J296.3617
G1 X-292.8773 Y-72.853
G1 X-292.0703 Y-72.8775
G1 X-291.2503 Y-72.9004
G1 X-290.4174 Y-72.9215
G3 X-286.8638 Y-72.9889 I7.4616 J299.6501
G1 X-286.4161 Y-72.9949
G1 X-285.9648 Y-73.0004
G1 X-285.048 Y-73.01
G3 X-276.67 Y-73.0058 I3.9559 J468.1069
G1 X-275.6062 Y-72.9948
G1 X-274.5256 Y-72.9814
G1 X-273.4279 Y-72.9657
G3 X-263.4004 Y-72.7411 I-12.6932 J790.4639
G1 X-260.8136 Y-72.6651
G1 X-260.1618 Y-72.6452
G1 X-258.8376 Y-72.604
G1 X-256.1045 Y-72.5166
G1 X-250.276 Y-72.3283
G1 X-247.268 Y-72.2369
G1 X-246.51 Y-72.2151
G1 X-246.1295 Y-72.2045
G1 X-245.7476 Y-72.194
G1 X-244.1957 Y-72.1535
G1 X-244.0985 Y-72.1511
G1 X-242.5204 Y-72.1145
G1 X-241.5493 Y-72.0929
G1 X-240.5781 Y-72.0708
G1 X-238.6358 Y-72.0251
G1 X-234.7514 Y-71.9284
G1 X-232.1618 Y-71.8604
G1 X-228.7092 Y-71.7659
G1 X-224.1059 Y-71.6334
G1 X-221.4756 Y-71.5547
G1 X-221.1416 Y-71.5446
G3 X-199.767 Y-70.8295 I-109.1495 J3582.4865
G1 X-196.9173 Y-70.7249
G1 X-196.1936 Y-70.698
G1 X-193.1059 Y-70.5816
G1 X-189.8124 Y-70.4547
G1 X-188.1125 Y-70.388
G1 X-184.4864 Y-70.2433
G1 X-180.6186 Y-70.085
G3 X-180.4975 Y-70.08 I-0.0475 J2.6076
G3 X-180.3761 Y-70.075 I-0.0478 J2.617
G3 X-180.2545 Y-70.0699 I-0.0482 J2.6265
G1 X-178.2466 Y-69.9859
G1 X-173.963 Y-69.803
G1 X-169.3943 Y-69.6021
G1 X-164.5213 Y-69.381
G3 X-153.3842 Y-68.848 I-142.1042 J3085.9945
G1 X-150.5105 Y-68.7039
G1 X-149.7864 Y-68.6671
G3 X-136.548 Y-67.9602 I-149.8086 J2929.8226
G1 X-133.1322 Y-67.7664
G1 X-129.6066 Y-67.5609
G1 X-125.9676 Y-67.3427
G1 X-122.2115 Y-67.1107
G1 X-120.3039 Y-66.99
G1 X-118.3661 Y-66.8654
G1 X-117.3896 Y-66.8017
G1 X-115.4058 Y-66.6708
G1 X-113.3906 Y-66.5353
G1 X-112.3752 Y-66.4661
G1 X-110.3122 Y-66.3234
G1 X-109.2726 Y-66.2504
G1 X-107.1606 Y-66.0998
G1 X-106.0964 Y-66.0227
G1 X-103.9344 Y-65.8634
G1 X-101.7384 Y-65.6978
G1 X-99.5078 Y-65.5256
G1 X-99.3682 Y-65.5146
G1 X-98.2431 Y-65.4259
G1 X-97.1093 Y-65.3354
G1 X-94.806 Y-65.1476
G1 X-92.4666 Y-64.9513
G1 X-90.0907 Y-64.7458
G1 X-88.8935 Y-64.6398
G1 X-88.2926 Y-64.5859
G1 X-85.8514 Y-64.3621
G1 X-84.6215 Y-64.2462
G3 X-82.1232 Y-64.004 I-47.9137 J507.0919
G1 X-81.4963 Y-63.9416
G1 X-80.867 Y-63.8784
G1 X-79.5988 Y-63.7488
G1 X-78.3208 Y-63.6153
G1 X-77.0331 Y-63.4776
G1 X-76.7106 Y-63.4426
G1 X-75.4107 Y-63.2991
G1 X-75.0851 Y-63.2626
G1 X-73.7729 Y-63.1129
G1 X-72.4508 Y-62.9578
G1 X-71.1189 Y-62.7967
G1 X-69.7771 Y-62.6292
G1 X-68.4255 Y-62.4547
G1 X-68.3409 Y-62.4436
G3 X-62.7669 Y-61.6444 I-30.7991 J234.6462
G3 X-59.9449 Y-61.1752 I-27.0189 J171.2433
G1 X-59.2382 Y-61.0484
G1 X-58.5294 Y-60.9167
G1 X-58.1746 Y-60.8489
G3 X-55.3495 Y-60.1978 I-7.3184 J38.2109
G3 X-52.5837 Y-59.3291 I-9.1182 J33.8667
G3 X-50.7875 Y-58.6145 I-10.1111 J28.0301
G1 X-50.675 Y-58.5652
G3 X-48.3326 Y-57.3941 I-10.8627 J24.6545
G3 X-45.43 Y-55.4503 I-10.9388 J19.4739
G3 X-44.7128 Y-54.8539 I-11.5923 J14.6696
G3 X-43.1853 Y-53.3637 I-12.2876 J14.1231
G3 X-40.0776 Y-48.586 I-12.7656 J11.7033
G3 X-39.0489 Y-45.4747 I-16.8349 J7.2914
G3 X-38.6082 Y-42.8507 I-20.5579 J4.8017
G3 X-38.4717 Y-40.1934 I-24.9234 J2.613
G1 X-38.4721 Y-40.0217
G1 X-38.4736 Y-39.8444
G3 X-38.4938 Y-39.0344 I-43.1418 J-0.6721
G3 X-38.6451 Y-36.88 I-33.8039 J-1.2909
G1 X-38.659 Y-36.7435
G3 X-38.8073 Y-35.4988 I-38.5797 J-3.9643
G1 X-38.8513 Y-35.1784
G2 X-40.83 Y-15.2373 I249.0126 J34.7773
G2 X-41.2076 Y4.7982 I246.3891 J14.6649
G2 X-41.2004 Y5.1138 I21.885 J-0.3406
G2 X-41.1928 Y5.4318 I23.2965 J-0.4024
G2 X-40.4647 Y18.9851 I232.7013 J-5.7043
G2 X-39.6854 Y26.7029 I215.087 J-17.8206
G2 X-38.4543 Y35.4826 I210.9636 J-25.105
G2 X-37.6431 Y40.1413 I202.3758 J-32.8389
G2 X-37.4194 Y41.3213 I146.6754 J-27.1905
G1 X-37.1848 Y42.5187
G1 X-36.9387 Y43.7335
G1 X-36.8117 Y44.345
G2 X-34.1276 Y55.4481 I177.9054 J-37.1323
G1 X-34.032 Y55.7936
G2 X-31.7189 Y62.7042 I67.7224 J-18.8246
G2 X-31.6765 Y62.812 I3.1528 J-1.1783
G2 X-28.6257 Y69.5573 I70.8304 J-27.9732
G2 X-28.5725 Y69.6611 I3.0299 J-1.4863
G2 X-27.5738 Y71.5454 I71.0853 J-36.4694
G2 X-26.3725 Y73.6658 I66.489 J-36.2698
G2 X-22.8744 Y79.1402 I74.1245 J-43.5093
G1 X-22.3934 Y79.827
G2 X-22.2712 Y79.9993 I4.4773 J-3.0463
G2 X-22.1475 Y80.1727 I4.5117 J-3.0858
G2 X-22.0225 Y80.3472 I4.547 J-3.1263
G2 X-21.8961 Y80.5227 I4.5831 J-3.1678
G2 X-21.7683 Y80.6993 I4.6202 J-3.2103
G2 X-21.639 Y80.8769 I4.6582 J-3.2541
G2 X-21.5082 Y81.0557 I4.6973 J-3.299
G2 X-21.4424 Y81.1453 I3.3294 J-2.3761
G2 X-21.3762 Y81.2352 I3.3437 J-2.3927
G2 X-21.3097 Y81.3253 I3.3582 J-2.4095
G2 X-21.2428 Y81.4157 I3.3729 J-2.4266
G2 X-21.1755 Y81.5064 I3.3878 J-2.4439
G2 X-21.1078 Y81.5973 I3.4029 J-2.4614
G2 X-19.9356 Y83.1359 I82.1053 J-61.3402
G2 X-13.1584 Y90.9016 I73.5299 J-57.3297
G2 X-12.9313 Y91.1339 I14.8313 J-14.2746
G2 X-2.5515 Y100.2839 I68.2094 J-66.9144
G1 X-2.2037 Y100.5471
G2 X4.3617 Y105.0681 I56.4076 J-74.8875
G1 X4.788 Y105.3338
G2 X6.5633 Y106.4057 I42.845 J-68.9534
G2 X10.4305 Y108.5533 I43.9676 J-74.6183
G1 X10.9252 Y108.81
G1 X11.4254 Y109.0654
G2 X18.3123 Y112.1789 I39.1232 J-77.3651
G2 X25.437 Y114.7009 I34.5373 J-86.2435
G2 X40.1827 Y117.9643 I27.2918 J-88.3735
G2 X50.2262 Y118.7581 I11.9396 J-87.1283
G2 X52.9143 Y118.7729 I1.7852 J-80.0106
G2 X59.0515 Y118.4842 I-0.8581 J-83.6156
G2 X62.3114 Y118.1431 I-6.8719 J-81.4161
G2 X65.7707 Y117.6332 I-10.5085 J-83.2944
G2 X73.5726 Y115.8954 I-12.9292 J-76.4273
G2 X82.219 Y112.9346 I-20.5238 J-74.0413
G2 X86.7944 Y110.9329 I-41.7186 J-101.5875
G1 X87.4401 Y110.6293
G1 X88.1754 Y110.2766
G2 X93.9376 Y107.2206 I-37.7529 J-78.1452
G1 X94.1166 Y107.1163
G1 X94.2982 Y107.01
G2 X94.672 Y106.7889 I-11.4573 J-19.8011
G1 X95.0567 Y106.5585
G2 X99.0715 Y103.9593 I-37.6589 J-62.5701
G2 X104.1297 Y100.0747 I-38.0485 J-54.7787
G1 X104.2827 Y99.9444
G2 X110.4092 Y93.9476 I-40.7866 J-47.7961
G2 X113.5313 Y90.1673 I-48.2507 J-43.029
G2 X116.7583 Y85.586 I-56.2641 J-43.059
G2 X120.0308 Y80.0834 I-71.2983 J-46.1277
G2 X120.8105 Y78.6266 I-90.4967 J-49.368
G1 X121.0031 Y78.2574
G1 X121.1956 Y77.8846
G1 X121.5821 Y77.1249
G2 X123.164 Y73.8527 I-101.9445 J-51.2998
G2 X124.7431 Y70.3154 I-122.2922 J-56.7151
G1 X125.1283 Y69.4104
G1 X125.5136 Y68.4887
G2 X127.0937 Y64.535 I-163.9288 J-67.8058
G1 X127.4803 Y63.5255
G2 X128.2615 Y61.4363 I-201.2973 J-76.4583
G2 X129.8603 Y56.9622 I-243.2297 J-89.441
G2 X129.8847 Y56.892 I-0.9804 J-0.3799
G2 X130.6457 Y54.6792 I-545.3934 J-188.8143
G2 X130.696 Y54.5315 I-6.7008 J-2.362
G2 X130.7495 Y54.374 I-6.958 J-2.452
G2 X130.8065 Y54.2059 I-7.2286 J-2.5465
G2 X130.8673 Y54.0265 I-7.5142 J-2.6462
G2 X130.9321 Y53.8352 I-7.816 J-2.7513
G2 X131.001 Y53.6311 I-8.1354 J-2.8624
G2 X131.0745 Y53.4133 I-8.4749 J-2.9802
G2 X132.2383 Y49.9258 I-876.0059 J-294.2667
G2 X132.3128 Y49.7006 I-10.5959 J-3.6322
G2 X132.3897 Y49.4682 I-10.9511 J-3.7514
G2 X132.4691 Y49.2282 I-11.3326 J-3.8795
G2 X132.5509 Y48.9804 I-11.744 J-4.0176
G2 X132.6354 Y48.7247 I-12.1895 J-4.1671
G2 X132.7225 Y48.4606 I-12.6743 J-4.3298
G2 X132.8124 Y48.1881 I-13.2045 J-4.5079
G2 X132.9052 Y47.9068 I-13.7882 J-4.7039
G1 X133.8953 Y44.9061
G3 X134.0234 Y44.519 I28.4163 J9.1874
G3 X134.1558 Y44.1195 I33.0055 J10.7121
G3 X134.2926 Y43.7071 I40.4725 J13.1976
G3 X134.434 Y43.2815 I56.2557 J18.4574
G1 X135.084 Y41.3372
G1 X135.4335 Y40.3012
G1 X135.8092 Y39.1971
G1 X136.2137 Y38.0206
G1 X136.6499 Y36.7674
G1 X137.1214 Y35.4328
G1 X137.3676 Y34.745
G1 X137.6238 Y34.0357
G1 X137.8908 Y33.3044
G1 X138.169 Y32.5505
G1 X138.4593 Y31.7734
G1 X138.7624 Y30.9725
G1 X139.079 Y30.1472
G1 X139.4102 Y29.2969
G3 X140.9855 Y25.4343 I145.3868 J57.0406
G1 X141.1934 Y24.9471
G3 X141.6286 Y23.9437 I84.6676 J36.13
G3 X142.5858 Y21.8157 I107.3881 J47.0238
G3 X144.9358 Y17.0261 I99.8907 J46.0401
G3 X145.0134 Y16.8778 I4.8872 J2.4642
G3 X145.0916 Y16.729 I4.8256 J2.4419
G3 X146.4082 Y14.3767 I53.5159 J28.4079
G1 X146.4997 Y14.222
G3 X148.029 Y11.7872 I48.4296 J28.7183
G3 X149.1161 Y10.2082 I46.5368 J30.8781
G3 X150.6494 Y8.1633 I43.0438 J30.6775
G3 X157.6996 Y0.7769 I41.9104 J32.945
G3 X159.9601 Y-1.0741 I34.0544 J39.2838
G3 X166.427 Y-5.4078 I35.0716 J45.3425
G1 X166.8563 Y-5.6534
G3 X170.8664 Y-7.7391 I31.4004 J55.4759
G3 X175.6071 Y-9.7835 I29.9138 J62.8444
G3 X181.1769 Y-11.7122 I29.0178 J74.7953
G3 X187.6756 Y-13.4448 I27.4055 J89.7357
G3 X195.2046 Y-14.9042 I25.8096 J113.0076
G3 X199.2473 Y-15.492 I22.8589 J142.9978
G1 X200.2761 Y-15.6229
G3 X204.6677 Y-16.105 I20.4233 J165.7933
G3 X209.3552 Y-16.499 I19.4672 J203.5053
G3 X211.7754 Y-16.6607 I14.4366 J197.9688
G1 X213.0047 Y-16.7331
G3 X218.2417 Y-16.9783 I15.4669 J274.3422
G1 X219.5716 Y-17.0263
G1 X219.9054 Y-17.0376
G1 X220.2405 Y-17.0486
G1 X221.6013 Y-17.0903
G1 X222.983 Y-17.1282
G1 X223.3297 Y-17.137
G1 X224.738 Y-17.1704
G1 X226.1677 Y-17.2008
G1 X227.6194 Y-17.2284
G1 X229.0932 Y-17.2537
G1 X230.5895 Y-17.2774
G1 X233.6746 Y-17.3227
G1 X234.4517 Y-17.3339
G1 X237.6561 Y-17.383
G1 X238.4898 Y-17.3592
G1 X239.3234 Y-17.3311
G1 X239.879 Y-17.309
G3 X242.0994 Y-17.1807 I-2.6644 J65.4023
G3 X242.1698 Y-17.1754 I-0.0229 J0.768
G3 X242.2414 Y-17.1698 I-0.0243 J0.7807
G3 X242.8949 Y-17.1148 I-2.1011 J28.8529
G3 X244.6334 Y-16.9233 I-3.4834 J39.6121
G3 X246.9347 Y-16.5448 I-4.6154 J35.2503
G3 X249.945 Y-15.7585 I-4.9968 J25.2857
G3 X251.6109 Y-15.1312 I-6.5943 J20.0354
G3 X253.437 Y-14.228 I-6.9527 J16.3552
G3 X255.3766 Y-12.9298 I-7.8465 J13.821
G3 X257.3252 Y-11.0928 I-9.0493 J11.5514
G1 X257.4462 Y-10.9195
G1 X257.5627 Y-10.743
G3 X257.7803 Y-10.3805 I-5.8915 J3.7833
G3 X258.141 Y-9.6162 I-4.8619 J2.7616
G3 X258.2223 Y-9.3886 I-4.2507 J1.647
G3 X258.4453 Y-7.4758 I-4.442 J1.4871
G3 X258.1878 Y-6.2124 I-6.0071 J-0.5664
G3 X257.9356 Y-5.5207 I-8.4412 J-2.6863
G1 X257.8611 Y-5.346
G1 X228.0288 Y20.203
G2 X222.0481 Y25.6011 I94.0305 J110.1902
G2 X216.3566 Y31.3031 I113.3346 J118.8193
G1 X215.6183 Y32.0836
G1 X214.836 Y32.9209
G2 X210.7494 Y37.4645 I146.1376 J135.5492
G2 X205.5049 Y43.699 I178.6126 J155.5723
G1 X204.8433 Y44.5161
G1 X204.1637 Y45.3621
G1 X203.4656 Y46.2381
G1 X202.7485 Y47.1452
G1 X202.0119 Y48.0843
G1 X201.2552 Y49.0566
G2 X197.8398 Y53.5339 I280.8863 J217.8032
G1 X196.9687 Y54.6971
G1 X196.5277 Y55.289
G2 X192.5332 Y60.7268 I516.7732 J383.7891
G1 X192.03 Y61.4202
G1 X191.5194 Y62.1251
G1 X190.4675 Y63.5818
G1 X189.3841 Y65.087
G1 X188.2676 Y66.6421
G2 X185.8892 Y69.9614 I1363.436 J979.4443
G1 X183.3512 Y73.5005
G1 X182.0381 Y75.3247
G1 X180.6789 Y77.2049
G1 X179.9867 Y78.1585
G1 X179.282 Y79.1262
G1 X178.5643 Y80.1078
G1 X178.202 Y80.602
G1 X177.8362 Y81.0997
G1 X177.467 Y81.6009
G1 X177.0943 Y82.1057
G1 X176.7181 Y82.6139
G1 X176.3382 Y83.1256
G1 X175.9547 Y83.6408
G1 X175.5675 Y84.1596
G1 X175.1764 Y84.6818
G1 X174.7814 Y85.2075
G3 X171.3746 Y89.665 I-302.2939 J-227.5092
G1 X170.9402 Y90.2226
G1 X170.5011 Y90.7836
G3 X168.6734 Y93.0881 I-227.8794 J-178.8472
G3 X166.7603 Y95.4457 I-164.3501 J-131.4081
G1 X166.2737 Y96.0361
G1 X165.7813 Y96.6295
G1 X165.283 Y97.2259
G1 X164.7787 Y97.8252
G1 X164.2682 Y98.4275
G1 X163.7515 Y99.0326
G1 X163.2284 Y99.6405
G1 X162.6988 Y100.2511
G1 X162.1625 Y100.8643
G1 X161.6194 Y101.4801
G1 X161.0693 Y102.0984
G1 X160.5122 Y102.7191
G1 X159.9478 Y103.3421
G3 X155.007 Y108.5465 I-124.1404 J-112.9081
G3 X149.4708 Y113.8396 I-101.4273 J-100.543
G3 X148.0185 Y115.1346 I-106.5585 J-118.0391
G3 X141.5958 Y120.409 I-81.4533 J-92.6393
G3 X141.4925 Y120.488 I-2.2153 J-2.7918
G3 X139.8004 Y121.7552 I-69.7813 J-91.4051
G3 X138.0571 Y123.0109 I-60.3736 J-81.9849
G1 X137.6158 Y123.3208
G3 X129.8413 Y128.2777 I-62.4397 J-89.356
G3 X121.0838 Y132.811 I-52.7543 J-91.1872
G3 X121.0137 Y132.8431 I-0.6966 J-1.4256
G2 X121.5213 Y134.2075 I7.7008 J-2.0888
G2 X122.2532 Y135.4659 I8.7095 J-4.2234
G1 X122.3062 Y135.5436
G1 X122.4208 Y135.7082
G2 X122.4808 Y135.7925 I1.4889 J-0.995
G2 X126.4736 Y134.1738 I-29.2914 J-77.984
G2 X130.3784 Y132.353 I-35.0735 J-80.3134
G1 X130.8921 Y132.0956
G2 X138.8775 Y127.5512 I-42.6623 J-84.2548
G2 X143.9535 Y124.1214 I-56.2937 J-88.7827
G2 X146.7661 Y122.0373 I-66.143 J-92.2036
G2 X149.9044 Y119.557 I-77.5844 J-101.3917
G2 X150.0016 Y119.4775 I-2.3773 J-3.0086
G2 X150.0991 Y119.3977 I-2.3832 J-3.0104
G2 X150.197 Y119.3174 I-2.3893 J-3.0123
G2 X153.7203 Y116.3221 I-86.7069 J-105.5602
G2 X153.8293 Y116.2262 I-2.6508 J-3.1224
G2 X153.9386 Y116.1298 I-2.6598 J-3.1269
G2 X157.8685 Y112.5366 I-100.8387 J-114.2331
G1 X158.3589 Y112.0709
G2 X162.7555 Y107.7283 I-124.4479 J-130.3944
G1 X163.3034 Y107.1666
G1 X163.8576 Y106.5937
G1 X164.4183 Y106.0096
G2 X169.4417 Y100.578 I-166.1878 J-158.7335
G2 X169.5966 Y100.4051 I-5.9515 J-5.4865
G2 X169.7519 Y100.2313 I-6.0437 J-5.5598
G2 X171.0284 Y98.7919 I-220.6832 J-196.9884
G2 X171.1879 Y98.6106 I-7.1266 J-6.4304
G2 X171.3479 Y98.4284 I-7.2826 J-6.557
G2 X171.5083 Y98.2454 I-7.4483 J-6.6917
G2 X177.2717 Y91.4758 I-248.1614 J-217.1128
G1 X177.9914 Y90.6061
G1 X178.7201 Y89.7208
G1 X179.0864 Y89.2739
G1 X179.4551 Y88.8231
G1 X180.2022 Y87.9058
G1 X180.9589 Y86.9724
G1 X181.3395 Y86.5014
G1 X181.7225 Y86.0262
G1 X182.108 Y85.5469
G1 X182.496 Y85.0635
G1 X182.8865 Y84.576
G1 X183.6785 Y83.5844
G1 X184.4812 Y82.5759
G1 X185.2949 Y81.5501
G1 X185.4989 Y81.2925
G1 X185.7036 Y81.0338
G1 X185.909 Y80.774
G1 X187.6017 Y78.6271
G1 X189.3443 Y76.4083
G1 X191.1403 Y74.1169
G1 X192.0523 Y72.9531
G1 X193.9357 Y70.552
G3 X194.1566 Y70.2958 I3.2367 J2.5673
G1 X194.2372 Y70.2169
G3 X194.3559 Y70.1244 I0.5173 J0.5415
G3 X194.4379 Y70.0949 I0.0994 J0.1476
G3 X194.481 Y70.1297 I0.0006 J0.0433
G3 X194.4814 Y70.2085 I-0.1738 J0.0404
G3 X194.4581 Y70.3003 I-0.6761 J-0.1229
G3 X194.3365 Y70.5789 I-1.8 J-0.6197
G3 X194.1979 Y70.8256 I-3.4622 J-1.7836
G3 X188.82 Y79.564 I-307.9659 J-183.5063
G3 X183.1726 Y88.1305 I-262.6299 J-166.9924
G1 X182.3975 Y89.258
G1 X181.5648 Y90.4565
G1 X181.1326 Y91.0733
G3 X176.4141 Y97.576 I-214.081 J-150.3779
G3 X175.1212 Y99.2846 I-297.4687 J-223.7459
G3 X175.0396 Y99.3914 I-4.6665 J-3.481
G3 X174.9576 Y99.4986 I-4.7133 J-3.5207
G3 X167.7279 Y108.4634 I-175.4689 J-134.1099
G3 X163.3779 Y113.403 I-146.8677 J-124.952
G3 X158.1942 Y118.8557 I-131.0048 J-119.3514
G3 X151.9727 Y124.7935 I-110.2789 J-109.3193
G3 X144.4447 Y131.1203 I-91.8244 J-101.6163
G3 X140.2385 Y134.2578 I-77.3678 J-99.3341
G1 X139.9701 Y134.4485
G1 X139.7 Y134.6392
G1 X139.4284 Y134.8299
G3 X134.7056 Y137.9622 I-63.4326 J-90.5156
G3 X132.2049 Y139.4819 I-54.5188 J-86.8987
G1 X131.8881 Y139.6676
G3 X129.2454 Y141.1579 I-48.2066 J-82.3949
G1 X128.9105 Y141.3393
G3 X123.083 Y144.229 I-44.6251 J-82.6696
G3 X116.6458 Y146.846 I-35.7688 J-78.7567
G3 X109.5529 Y149.0488 I-27.8993 J-77.317
G3 X109.4404 Y149.078 I-1.0171 J-3.6761
G3 X108.5319 Y149.3082 I-13.7107 J-52.2184
G3 X103.5035 Y150.3999 I-21.6929 J-87.7881
G3 X103.4232 Y150.415 I-0.3583 J-1.6831
G1 X103.0805 Y150.4787
G3 X97.571 Y151.3358 I-18.5192 J-100.9122
G1 X97.2141 Y151.3809
G1 X96.4521 Y151.4733
G3 X92.379 Y151.8769 I-13.2168 J-112.6379
G3 X90.046 Y152.0426 I-10.6981 J-134.0969
G3 X83.8142 Y152.2677 I-7.6398 J-125.1311
G3 X80.2508 Y152.2626 I-1.5878 J-135.8501
G1 X79.7984 Y152.2553
G3 X70.162 Y151.7639 I2.7009 J-147.6978
G3 X70.0111 Y151.7513 I0.1864 J-3.1377
G3 X69.8597 Y151.7385 I0.1902 J-3.1507
G3 X69.7076 Y151.7255 I0.1941 J-3.1638
G3 X69.555 Y151.7123 I0.1981 J-3.1769
G3 X56.5991 Y150.0637 I14.7245 J-167.4534
G3 X49.2649 Y148.6877 I29.4085 J-176.9847
G3 X40.9614 Y146.7579 I38.1176 J-182.8329
G3 X31.4928 Y143.8461 I25.9412 J-101.2072
G3 X22.3377 Y140.0623 I36.3929 J-101.0233
G3 X22.053 Y139.9285 I8.3967 J-18.2355
G3 X19.4681 Y138.6672 I47.6087 J-100.8521
G3 X12.7441 Y134.9809 I50.4145 J-99.933
G3 X12.5364 Y134.8574 I3.6629 J-6.3941
G3 X10.7756 Y133.7858 I53.4545 J-89.8198
G1 X11.2448 Y133.9271
G1 X11.7142 Y134.0681
G1 X12.6532 Y134.3495
G1 X12.9216 Y134.4298
G1 X15.0692 Y135.0683
G1 X16.502 Y135.4906
G1 X16.8842 Y135.6027
G1 X17.7582 Y135.8581
G1 X18.7573 Y136.1486
G2 X26.7699 Y138.4046 I138.8362 J-477.7581
G2 X27.8413 Y138.6944 I38.1087 J-138.7331
G1 X28.985 Y139.0002
G1 X29.1293 Y139.0385
G1 X29.2747 Y139.077
G1 X29.4212 Y139.1158
G1 X30.6718 Y139.4438
G2 X37.3652 Y141.1015 I68.9028 J-263.8752
G1 X37.4706 Y141.1261
G1 X38.341 Y141.3269
G2 X40.2007 Y141.7428 I55.6585 J-244.4957
G1 X41.1621 Y141.9503
G1 X42.1558 Y142.1588
G2 X42.6611 Y142.2624 I11.5297 J-54.9358
G2 X47.2971 Y143.1262 I27.5205 J-134.8395
G1 X47.3699 Y143.1383
G2 X47.9621 Y143.2353 I8.3973 J-49.4006
G1 X48.5643 Y143.3305
G2 X51.1401 Y143.6941 I13.0938 J-83.4515
G1 X51.7959 Y143.7742
G1 X52.463 Y143.8498
G1 X52.7994 Y143.8855
G2 X55.678 Y144.1185 I6.5316 J-62.8073
G1 X55.7684 Y144.1234
G2 X58.8577 Y144.1832 I2.3552 J-41.8792
G2 X59.2471 Y144.1732 I-0.5463 J-28.9112
G2 X60.8541 Y144.0796 I-0.7983 J-27.5372
G2 X61.6682 Y143.9947 I-1.5777 J-19.0734
G2 X63.6056 Y143.4184 I-0.8927 J-6.5467
G2 X65.2865 Y142.2957 I-2.8392 J-6.0701
G2 X65.9914 Y142.3657 I4.746 J-44.246
G1 X66.6967 Y142.4311
G1 X67.1671 Y142.4724
G2 X69.0504 Y142.6195 I12.6992 J-150.4657
G1 X69.5889 Y142.6565
G1 X70.2045 Y142.6962
G1 X70.5328 Y142.7162
G1 X70.8832 Y142.7368
G1 X71.257 Y142.7577
G1 X72.1113 Y142.8021
G2 X78.9522 Y142.996 I8.1773 J-167.7642
G1 X79.3939 Y142.9995
G1 X80.3358 Y143.0034
G2 X95.3925 Y142.4722 I0.3079 J-204.9121
G2 X97.3957 Y142.3165 I-13.5084 J-186.772
G1 X98.429 Y142.2276
G2 X103.1445 Y141.7407 I-14.0652 J-159.3038
G2 X105.6525 Y141.4194 I-13.5236 J-115.5116
G1 X106.2884 Y141.3299
G2 X107.5997 Y141.1336 I-12.2546 J-86.3335
G2 X110.3878 Y140.6551 I-13.6643 J-87.9832
G1 X111.0933 Y140.5182
G2 X112.5447 Y140.211 I-9.7809 J-49.7994
G2 X114.034 Y139.8514 I-10.2007 J-45.5083
G1 X114.22 Y139.8025
G2 X114.9733 Y139.5939 I-13.2953 J-49.4638
G1 X115.1616 Y139.5387
G2 X116.7006 Y139.0269 I-6.8869 J-23.2801
G2 X117.4645 Y138.7149 I-4.6175 J-12.3972
G1 X117.5587 Y138.6724
G1 X117.7468 Y138.5844
G1 X117.9338 Y138.4918
G2 X118.6673 Y138.0592 I-2.8898 J-5.7382
G2 X119.0068 Y137.7923 I-2.0114 J-2.9072
G2 X119.1627 Y137.6398 I-2.3743 J-2.583
G2 X119.6237 Y137.0583 I-3.1472 J-2.9688
G2 X119.9611 Y136.3974 I-2.708 J-1.7992
G2 X120.0816 Y135.9161 I-2.13 J-0.7889
G2 X120.0711 Y135.2529 I-2.1406 J-0.2977
G2 X118.7798 Y134.8673 I-2.499 J6.0138
G2 X117.4399 Y134.7228 I-1.5889 J8.4473
G2 X116.5415 Y134.7313 I-0.3421 J11.2297
G2 X116.4845 Y134.7342 I0.0003 J0.5766
G2 X115.2747 Y134.8482 I0.9137 J16.1784
G2 X115.1982 Y134.8584 I0.0673 J0.7963
G2 X114.5014 Y134.9646 I3.5751 J25.7794
G2 X112.6633 Y135.3275 I6.4571 J37.5427
G2 X112.4272 Y135.3794 I1.5217 J7.4952
G1 X111.3506 Y135.6195
G1 X111.0727 Y135.6809
G1 X110.4797 Y135.8083
G1 X110.1731 Y135.8712
G1 X109.8563 Y135.9334
G3 X108.3999 Y136.1609 I-3.6903 J-18.8503
G3 X107.616 Y136.2224 I-1.308 J-11.6438
G3 X106.776 Y136.2137 I-0.3378 J-7.9725
G3 X106.5631 Y136.1955 I0.1687 J-3.2223
G3 X107.6132 Y135.7221 I8.285 J16.9784
G3 X108.6829 Y135.295 I12.4894 J29.7263
G3 X108.9906 Y135.1784 I5.2924 J13.5012
G1 X109.343 Y135.047
G1 X109.7463 Y134.8983
G1 X110.8219 Y134.5027
G1 X111.4348 Y134.2718
G1 X111.7605 Y134.1457
G1 X111.9282 Y134.0795
G2 X112.2848 Y133.9357 I-5.0814 J-13.1111
G1 X112.6633 Y133.7774
G2 X113.5184 Y133.3922 I-7.8787 J-18.6338
G2 X114.4715 Y132.9011 I-7.7642 J-16.2382
G1 X114.5902 Y132.8341
G2 X115.0887 Y132.5348 I-6.8717 J-12.0119
G2 X116.1704 Y131.7594 I-5.9492 J-9.4416
G2 X116.7036 Y131.2887 I-5.5793 J-6.8581
G2 X117.7716 Y130.0534 I-5.8461 J-6.1336
G1 X117.8486 Y129.9409
G2 X117.8736 Y129.9028 I-0.2894 J-0.2171
G1 X117.9063 Y129.8517
G1 X117.9486 Y129.7828
G1 X118.0029 Y129.6896
G2 X118.1884 Y129.3005 I-2.6331 J-1.4943
G2 X118.2299 Y129.1842 I-1.9028 J-0.744
G2 X118.306 Y128.8641 I-1.9562 J-0.6343
G2 X118.3017 Y128.424 I-1.3443 J-0.2069
G2 X118.0505 Y127.8863 I-1.1333 J0.2019
G2 X117.8004 Y127.65 I-1.0607 J0.8722
G2 X117.4623 Y127.4494 I-1.1785 J1.6012
G2 X117.0442 Y127.2961 I-1.1021 J2.3577
G2 X116.5535 Y127.1966 I-0.937 J3.3619
G2 X116.4256 Y127.1814 I-0.4538 J3.2781
G2 X115.1546 Y127.2157 I-0.4955 J5.2051
G2 X113.6819 Y127.6437 I0.7926 J5.4747
G3 X108.4353 Y129.779 I-28.2634 J-61.9329
G3 X103.0377 Y131.4973 I-25.6732 J-71.3101
G1 X102.3091 Y131.697
G1 X101.53 Y131.9027
G3 X97.3453 Y132.8775 I-22.0114 J-85.0224
G1 X96.8021 Y132.9888
G3 X90.9748 Y133.9868 I-19.994 J-99.237
G1 X90.2192 Y134.0916
G3 X86.7569 Y134.5063 I-15.2493 J-112.6484
G1 X85.8616 Y134.5969
G1 X84.9368 Y134.6835
G3 X80.7033 Y134.9957 I-12.1599 J-136.0288
G1 X80.1651 Y135.026
G3 X79.0537 Y135.082 I-5.6328 J-100.6411
G1 X78.4891 Y135.1072
G3 X78.3473 Y135.1132 I-0.2319 J-3.8025
G3 X75.9281 Y135.1952 I-6.6949 J-161.7968
G3 X75.7763 Y135.1991 I-0.1881 J-4.3715
G3 X75.6238 Y135.2029 I-0.1852 J-4.4117
G3 X70.0506 Y135.2453 I-4.0469 J-165.8086
G3 X69.8757 Y135.2437 I-0.024 J-7.2777
G3 X69.7001 Y135.242 I-0.0157 J-7.4587
G3 X63.2864 Y135.0724 I2.0585 J-199.2139
G1 X62.4725 Y135.0369
G3 X55.0433 Y134.5839 I11.6853 J-252.8187
G1 X54.8616 Y134.5702
G1 X54.8356 Y134.568
G1 X54.6282 Y134.5484
G3 X54.215 Y134.495 I0.5246 J-5.6848
G3 X53.9435 Y134.4355 I0.2603 J-1.8359
G3 X53.8767 Y134.4021 I0.0526 J-0.1888
G3 X53.8729 Y134.3805 I0.0098 J-0.0128
G3 X53.9047 Y134.3603 I0.0573 J0.0551
G1 X53.9521 Y134.3463
G3 X54.0482 Y134.329 I0.4821 J2.4112
G1 X54.1918 Y134.3129
G3 X54.4883 Y134.2935 I0.527 J5.776
G3 X55.0633 Y134.277 I1.0144 J25.2638
G3 X55.1309 Y134.276 I0.0525 J1.344
G1 X56.0399 Y134.2598
G1 X56.9488 Y134.2412
G1 X57.2086 Y134.2354
G1 X57.9011 Y134.2189
G1 X58.8244 Y134.1943
G1 X59.0707 Y134.1872
G1 X60.3835 Y134.1457
G2 X65.6324 Y133.9045 I-7.0921 J-211.6009
G2 X69.127 Y133.6636 I-11.1473 J-187.1787
G1 X69.3488 Y133.6458
G1 X69.574 Y133.6274
G1 X69.8028 Y133.6084
G1 X70.0352 Y133.5887
G1 X70.2712 Y133.5683
G1 X70.511 Y133.5472
G1 X70.7545 Y133.5254
G1 X71.0019 Y133.5028
G1 X72.0566 Y133.4017
G1 X72.3244 Y133.3748
G2 X74.7699 Y133.1033 I-14.8481 J-144.9119
G1 X75.0801 Y133.0655
G1 X75.395 Y133.0263
G1 X75.7149 Y132.9856
G1 X76.0398 Y132.9433
G1 X76.3697 Y132.8995
G1 X76.7047 Y132.8541
G2 X83.8133 Y131.6352 I-13.983 J-102.8839
G2 X85.6923 Y131.2223 I-16.3246 J-78.7736
G2 X89.9512 Y130.1241 I-18.4318 J-80.2885
G2 X94.7396 Y128.5882 I-21.2112 J-74.3639
G2 X100.076 Y126.4453 I-24.7738 J-69.409
G1 X100.7411 Y126.1431
G2 X106.6735 Y123.0665 I-30.0931 J-65.2834
G2 X113.0769 Y118.8906 I-37.01 J-63.7494
G1 X113.4655 Y118.6057
G2 X114.2495 Y118.0194 I-66.8449 J-90.1993
G2 X115.8448 Y116.7776 I-43.2422 J-57.1977
G2 X116.0427 Y116.6189 I-7.2243 J-9.2123
G2 X116.2409 Y116.4589 I-6.3662 J-8.0905
G2 X119.5459 Y113.634 I-50.2379 J-62.1213
G2 X119.5965 Y113.5884 I-0.6422 J-0.7632
G1 X120.0025 Y113.2198
G2 X123.3728 Y109.9733 I-59.1576 J-64.7861
G2 X126.7855 Y106.3313 I-68.6546 J-67.7526
G2 X128.4762 Y104.3879 I-73.5476 J-65.6892
G2 X131.9292 Y100.1174 I-88.3164 J-74.943
G2 X133.6341 Y97.8539 I-111.8948 J-86.0571
G1 X134.0558 Y97.2778
G1 X134.4776 Y96.695
G2 X137.9508 Y91.6412 I-113.8466 J-81.9612
G2 X141.4267 Y86.1117 I-139.7987 J-91.7349
G2 X142.2754 Y84.6872 I-161.6298 J-97.2568
G2 X144.0079 Y81.4498 I-81.5642 J-45.7334
G1 X144.2449 Y80.9818
G1 X144.5127 Y80.4454
G1 X144.8148 Y79.8304
G1 X145.1551 Y79.1252
G2 X147.7037 Y73.404 I-110.4013 J-52.607
G2 X147.78 Y73.2204 I-11.0727 J-4.7138
G2 X149.3547 Y69.2818 I-152.8018 J-63.3725
G2 X149.4515 Y69.0304 I-10.5604 J-4.2117
G2 X149.5495 Y68.7749 I-10.628 J-4.2234
G2 X149.6487 Y68.5153 I-10.7047 J-4.2386
G2 X149.7491 Y68.2513 I-10.7912 J-4.2575
G2 X149.8508 Y67.9831 I-10.8874 J-4.2799
G2 X149.9537 Y67.7105 I-10.9944 J-4.3064
G2 X150.0579 Y67.4334 I-11.1124 J-4.3369
G2 X150.1634 Y67.1517 I-11.2421 J-4.3716
G2 X150.2702 Y66.8655 I-11.3845 J-4.411
G2 X150.3784 Y66.5745 I-11.5402 J-4.4552
G2 X152.6179 Y60.3463 I-358.1951 J-132.3142
G2 X152.7571 Y59.9498 I-21.5973 J-7.8072
G2 X152.8984 Y59.5469 I-23.3745 J-8.4222
G2 X153.0417 Y59.1376 I-25.6723 J-9.2195
G2 X153.1872 Y58.7218 I-28.7985 J-10.3066
G1 X154.5156 Y54.9199
G3 X155.2286 Y52.894 I369.0569 J128.7404
G1 X155.5994 Y51.8494
G1 X155.9849 Y50.772
G1 X156.3864 Y49.6613
G1 X156.8052 Y48.5164
G1 X157.2428 Y47.3366
G1 X157.4675 Y46.7382
G1 X157.6974 Y46.1309
G1 X157.9329 Y45.5147
G1 X158.1741 Y44.8895
G1 X158.4215 Y44.2553
G1 X158.6752 Y43.6119
G1 X158.9355 Y42.9594
G1 X159.2028 Y42.2977
G3 X160.3786 Y39.4888 I123.3052 J49.9657
G1 X160.6871 Y38.7797
G3 X161.3379 Y37.3216 I92.5994 J40.4548
G3 X161.505 Y36.9556 I22.6097 J10.0975
G3 X161.6746 Y36.5872 I19.2047 J8.623
G3 X161.847 Y36.2166 I16.8921 J7.6294
G3 X161.934 Y36.0308 I11.0485 J5.0614
G3 X162.0217 Y35.8444 I10.5134 J4.8341
G3 X162.7598 Y34.3118 I107.7437 J50.9439
G3 X162.8542 Y34.1203 I7.488 J3.5726
G3 X162.9494 Y33.9283 I7.2712 J3.4843
G3 X163.0453 Y33.7357 I7.0677 J3.4018
G3 X163.8542 Y32.1534 I73.9519 J36.8044
G3 X165.683 Y28.831 I77.1482 J40.3016
G3 X165.7426 Y28.7283 I2.9447 J1.6411
G3 X166.7496 Y27.0443 I60.3352 J34.9361
G3 X167.8336 Y25.3324 I67.8595 J41.772
G3 X167.903 Y25.2262 I2.2974 J1.4253
G3 X167.9728 Y25.1198 I2.282 J1.4206
G3 X170.4667 Y21.5634 I60.6923 J39.9068
G1 X170.7964 Y21.1265
G1 X171.0732 Y20.7692
G1 X171.3559 Y20.4164
G3 X171.9378 Y19.7246 I28.0603 J23.0096
G1 X172.1079 Y19.5301
G3 X173.5229 Y18.0249 I23.9725 J21.1193
G3 X176.5902 Y15.2599 I28.8688 J28.9403
G3 X178.7707 Y13.579 I30.8147 J37.7198
G3 X179.3672 Y13.1509 I23.7789 J32.501
G1 X179.5196 Y13.0434
G3 X182.8495 Y10.8724 I34.6615 J49.5243
G1 X183.2893 Y10.6083
G3 X188.0951 Y8.0043 I35.7556 J60.252
G3 X194.7651 Y5.0913 I35.346 J71.8416
G3 X196.5842 Y4.4146 I26.8083 J69.2798
G3 X196.6415 Y4.394 I0.342 J0.8628
G3 X196.6988 Y4.3735 I0.3421 J0.8646
G3 X196.7563 Y4.353 I0.3421 J0.8663
G3 X196.8139 Y4.3324 I0.3421 J0.8681
G3 X206.8006 Y1.4003 I31.3516 J88.3085
G3 X206.88 Y1.3816 I0.3177 J1.1753
G3 X206.9596 Y1.363 I0.3173 J1.1776
G3 X207.0393 Y1.3445 I0.3169 J1.18
G1 X207.6875 Y1.1961
G3 X213.6495 Y0.0408 I22.4795 J100.0494
G3 X220.5254 Y-0.8454 I16.5979 J101.6582
G1 X221.4021 Y-0.9255
G3 X229.4297 Y-1.324 I9.3814 J107.9344
G3 X238.5987 Y-1.0587 I1.3946 J110.3864
G3 X239.4516 Y-0.623 I-1.1401 J3.2846
G3 X240.1719 Y0.0083 I-2.5686 J3.6572
G3 X240.5845 Y0.4954 I-4.888 J4.5583
G3 X240.8033 Y0.7868 I-6.3966 J5.0312
G3 X240.9166 Y0.9446 I-3.4143 J2.5726
G1 X241.1705 Y1.308
G1 X241.2355 Y1.4021
G1 X241.3745 Y1.6023
G1 X241.5243 Y1.8143
G1 X241.6874 Y2.0378
G2 X242.0835 Y2.5294 I6.7294 J-5.0157
G1 X242.137 Y2.5892
G2 X242.6707 Y3.0923 I3.1866 J-2.8462
G2 X243.3956 Y3.5236 I2.0021 J-2.5399
G2 X244.3454 Y3.757 I1.2118 J-2.8826
G2 X245.6233 Y2.3762 I-44.0587 J-42.0575
G2 X246.0373 Y1.9052 I-23.333 J-20.9267
G2 X246.0901 Y1.8439 I-1.004 J-0.9182
G1 X246.3295 Y1.5619
G2 X246.4558 Y1.4102 I-9.0802 J-7.6873
G2 X247.1088 Y0.585 I-16.5173 J-13.742
G1 X247.1902 Y0.4763
G2 X247.3613 Y0.2425 I-9.7884 J-7.3453
G2 X248.2036 Y-1.0533 I-11.8407 J-8.618
G2 X248.6148 Y-1.8359 I-9.9063 J-5.7042
G1 X248.6624 Y-1.9377
G2 X249.0381 Y-2.8946 I-7.6814 J-3.5681
G2 X249.0771 Y-3.0194 I-2.3275 J-0.7969
G2 X249.2182 Y-3.5597 I-6.3824 J-1.9549
G2 X249.3598 Y-4.4104 I-8.3772 J-1.8317
G2 X249.4063 Y-5.2716 I-7.0826 J-0.8146
G2 X249.1432 Y-6.9736 I-5.6886 J0.008
G2 X248.6673 Y-8.0232 I-4.8124 J1.5496
G2 X247.6861 Y-9.2072 I-4.441 J2.6817
G2 X246.9911 Y-9.7483 I-3.9495 J4.3562
G2 X246.1185 Y-10.2461 I-3.9978 J5.9942
G1 X246.0032 Y-10.3006
G1 X245.8852 Y-10.3541
G2 X245.3738 Y-10.5612 I-3.1038 J6.9293
G2 X244.8168 Y-10.7464 I-3.2558 J8.8615
G2 X243.5204 Y-11.045 I-3.1516 J10.72
G2 X242.0248 Y-11.2045 I-2.1129 J12.7179
G2 X241.9776 Y-11.2068 I-0.046 J0.4699
G2 X238.8438 Y-11.3393 I-26.4686 J588.6356
G1 X237.799 Y-11.3802
G1 X236.4059 Y-11.4317
G1 X234.5482 Y-11.4943
G2 X234.3084 Y-11.5018 I-0.3992 J8.9129
G2 X234.061 Y-11.5094 I-0.4107 J9.3281
G2 X233.8055 Y-11.5171 I-0.423 J9.7898
G2 X233.5418 Y-11.5249 I-0.4363 J10.308
G2 X233.2695 Y-11.5327 I-0.4506 J10.8956
G2 X232.9885 Y-11.5406 I-0.4665 J11.5706
G2 X232.6984 Y-11.5486 I-0.4841 J12.357
G2 X232.3989 Y-11.5566 I-0.5042 J13.2914
G2 X232.0898 Y-11.5646 I-0.5276 J14.4285
G2 X231.7707 Y-11.5725 I-0.556 J15.8575
G2 X231.4413 Y-11.5805 I-0.5922 J17.7347
G2 X231.1012 Y-11.5884 I-0.6418 J20.365
G2 X230.7502 Y-11.5961 I-0.7179 J24.4626
G1 X229.1456 Y-11.627
G1 X228.2898 Y-11.6401
G1 X227.3768 Y-11.6515
G1 X226.403 Y-11.6603
G1 X225.3642 Y-11.666
G2 X219.8239 Y-11.6215 I-0.9782 J223.0127
G1 X219.1092 Y-11.6056
G1 X218.7462 Y-11.5966
G1 X218.3774 Y-11.5868
G1 X218.0028 Y-11.5761
G2 X210.0185 Y-11.1596 I4.8123 J169.0015
G1 X208.9901 Y-11.0768
G1 X208.4679 Y-11.032
G2 X207.3904 Y-10.9333 I6.587 J77.8353
G2 X202.4758 Y-10.37 I12.3118 J129.1524
G2 X196.8919 Y-9.4761 I15.0632 J111.9812
G2 X196.1864 Y-9.3417 I34.1295 J180.9708
G2 X189.7842 Y-7.8697 I17.7483 J91.8552
G2 X182.6212 Y-5.5977 I20.9257 J78.4014
G1 X182.1776 Y-5.4319
G2 X174.2643 Y-1.8859 I24.7498 J65.8343
G2 X170.2416 Y0.4122 I30.0109 J57.2038
G2 X160.2262 Y8.9041 I32.5837 J48.5816
G1 X159.9365 Y9.2143
G2 X156.9871 Y12.6481 I43.3441 J40.2132
G2 X153.4566 Y17.5411 I50.8403 J40.4036
G2 X152.5907 Y18.8978 I52.8701 J34.6965
G1 X152.3757 Y19.2454
G2 X150.4992 Y22.4756 I64.843 J39.8297
G2 X148.5385 Y26.266 I78.6822 J43.1035
G2 X147.5652 Y28.3229 I78.1271 J38.2279
G2 X146.577 Y30.5388 I94.5311 J43.4836
G2 X146.5166 Y30.6786 I4.8458 J2.1776
G2 X146.4561 Y30.819 I4.8347 J2.1657
G2 X146.3956 Y30.96 I4.8245 J2.1542
G2 X146.335 Y31.1016 I4.8152 J2.1431
G2 X146.2744 Y31.2439 I4.807 J2.1326
G2 X146.2137 Y31.3868 I4.7996 J2.1225
G2 X145.2055 Y33.8354 I107.5678 J45.7227
G2 X145.1438 Y33.9897 I4.8043 J2.0092
G2 X145.0821 Y34.1447 I4.8116 J2.006
G2 X145.0203 Y34.3003 I4.8196 J2.0029
G2 X144.9585 Y34.4567 I4.8283 J2.0003
G2 X144.8966 Y34.6137 I4.8378 J1.998
G2 X143.8669 Y37.3015 I145.8734 J57.4243
G2 X141.6641 Y43.4895 I220.9171 J82.1293
G2 X141.5974 Y43.6845 I6.7334 J2.4098
G2 X141.5307 Y43.8803 I6.8197 J2.4352
G2 X141.4637 Y44.0769 I6.9098 J2.4619
G2 X140.3367 Y47.4336 I392.5849 J133.6747
G1 X139.7624 Y49.1677
G1 X138.5417 Y52.8644
G1 X137.9083 Y54.7701
G1 X137.5843 Y55.737
G1 X137.2532 Y56.7184
G1 X136.9144 Y57.7141
G1 X136.7425 Y58.2155
G3 X135.2384 Y62.4754 I-231.6354 J-79.3888
G3 X133.5317 Y66.9765 I-163.2524 J-59.3276
G3 X131.5497 Y71.7085 I-120.3323 J-47.6206
G3 X129.1985 Y76.647 I-91.5461 J-40.5551
G3 X126.3613 Y81.7453 I-72.6032 J-37.0647
G3 X119.8966 Y91.2014 I-82.476 J-49.4474
G3 X112.3345 Y99.8053 I-73.1159 J-56.6375
G3 X106.7186 Y104.9846 I-63.7169 J-63.4544
G3 X98.5747 Y111.1008 I-56.6107 J-66.8986
G3 X86.6992 Y117.6822 I-46.9494 J-70.7105
G3 X69.5085 Y123.3367 I-34.6199 J-76.2921
G3 X59.2647 Y124.8663 I-17.5695 J-82.5985
G3 X47.4304 Y125.0895 I-7.5603 J-86.995
G1 X46.3661 Y126.1652
G1 X47.4304 Y127.0963
G2 X56.4718 Y127.0907 I4.4565 J-102.7135
G2 X65.4741 Y126.2505 I-4.1752 J-93.386
G2 X71.4108 Y125.1976 I-12.2368 J-86.2615
G2 X79.1866 Y123.1585 I-17.788 J-83.6776
G2 X81.2245 Y122.491 I-25.2187 J-80.4285
G2 X91.7619 Y118.0571 I-26.6768 J-78.1376
G2 X104.6819 Y109.9756 I-37.7865 J-74.7784
G2 X111.3498 Y104.3612 I-52.6623 J-69.3106
G2 X111.7506 Y103.9856 I-34.4886 J-37.2084
G2 X118.6534 Y96.6976 I-60.7591 J-64.4603
G2 X122.8691 Y91.2461 I-60.9906 J-51.5206
G1 X123.1335 Y90.8702
G1 X123.4132 Y90.4676
G2 X124.8666 Y88.2945 I-78.3853 J-53.9974
G1 X125.2434 Y87.7079
G1 X125.6404 Y87.0791
G2 X127.675 Y83.6753 I-87.6569 J-54.7067
G2 X127.7997 Y83.4565 I-9.9504 J-5.8134
G2 X127.9258 Y83.2339 I-9.5961 J-5.583
G2 X130.4921 Y78.4197 I-97.7973 J-55.2236
G2 X130.5693 Y78.2661 I-5.16 J-2.6913
G2 X131.2198 Y76.952 I-103.4735 J-52.0341
G2 X131.3007 Y76.7859 I-5.1151 J-2.5946
G1 X131.6324 Y76.099
G2 X133.1015 Y72.9372 I-123.1349 J-59.1368
G1 X133.4689 Y72.116
G1 X133.8434 Y71.2662
G1 X134.2253 Y70.387
G1 X134.6145 Y69.4773
G1 X135.0113 Y68.5362
G1 X135.4159 Y67.5628
G1 X135.8284 Y66.5558
G1 X136.2491 Y65.5145
G1 X136.6783 Y64.4375
G1 X137.1163 Y63.324
G1 X137.5634 Y62.1727
G1 X138.0202 Y60.9825
G1 X138.4871 Y59.7523
G2 X140.576 Y54.1147 I-493.7922 J-186.1721
G1 X141.1073 Y52.6571
G1 X142.2363 Y49.5469
G1 X143.4421 Y46.2311
G3 X144.7411 Y42.7 I604.9533 J220.5453
G1 X145.0746 Y41.8046
G1 X145.4153 Y40.8957
G1 X145.7635 Y39.9733
G1 X146.1196 Y39.0373
G3 X147.672 Y35.0574 I260.8062 J99.439
G1 X147.872 Y34.5577
G1 X148.0747 Y34.0546
G3 X149.8543 Y29.7829 I190.825 J76.9932
G1 X150.3223 Y28.7048
G3 X152.405 Y24.1438 I139.2631 J60.8346
G1 X152.6781 Y23.5743
G3 X154.0178 Y20.9639 I51.4153 J24.7374
G3 X155.4911 Y18.4265 I47.6749 J25.987
G3 X158.8615 Y13.6252 I42.3143 J26.1199
G3 X159.9295 Y12.3322 I33.2678 J26.3904
G3 X162.9985 Y9.0803 I35.6277 J30.5491
G3 X167.5463 Y5.2265 I33.08 J34.4267
G3 X170.3442 Y3.2812 I29.9238 J40.056
G1 X170.7084 Y3.0475
G3 X174.1199 Y1.0462 I30.1924 J47.5579
G3 X178.17 Y-0.9549 I29.7918 J55.1975
G3 X179.2369 Y-1.4249 I22.0019 J48.5018
G3 X181.5371 Y-2.3673 I26.6862 J61.8576
G3 X186.8932 Y-4.2364 I29.2841 J75.3069
G3 X193.1322 Y-5.9478 I29.0093 J93.5298
G1 X193.5286 Y-6.0422
G1 X193.9286 Y-6.1359
G3 X197.3493 Y-6.8762 I25.6429 J110.2189
G1 X198.2211 Y-7.0483
G3 X200.0233 Y-7.3841 I25.055 J129.4581
G3 X201.8869 Y-7.7046 I22.2821 J123.9987
G3 X202.8347 Y-7.8576 I17.01 J102.3245
G1 X203.3127 Y-7.9324
G1 X203.7945 Y-8.0061
G1 X204.2803 Y-8.0788
G3 X213.1611 Y-9.1456 I24.7453 J168.4969
G1 X214.2918 Y-9.2492
G3 X219.1113 Y-9.6198 I17.5826 J197.1494
G1 X219.7189 Y-9.6587
G1 X220.3311 Y-9.6964
G1 X220.9482 Y-9.7326
G1 X221.57 Y-9.7675
G3 X226.8668 Y-10.0003 I13.3308 J242.9365
G1 X228.2119 Y-10.0421
G1 X229.5778 Y-10.0778
G1 X230.9646 Y-10.1073
G1 X232.3728 Y-10.1306
G1 X233.8025 Y-10.1474
G1 X235.254 Y-10.1577
G1 X235.6403 Y-10.1466
G1 X236.0267 Y-10.1416
G2 X236.7997 Y-10.1426 I0.3307 J-40.9161
G1 X237.315 Y-10.147
G1 X238.0021 Y-10.1518
G1 X238.3947
G3 X239.4414 Y-10.1334 I-0.2252 J42.4384
G3 X239.5079 Y-10.131 I-0.0207 J1.4902
G3 X239.645 Y-10.1254 I-0.0338 J2.5387
G3 X239.9375 Y-10.1109 I-0.289 J8.7532
G1 X240.2492 Y-10.0908
G3 X241.9025 Y-9.8803 I-0.9256 J13.8691
G3 X242.8296 Y-9.6557 I-1.8302 J9.5796
G3 X243.8535 Y-9.2744 I-2.2932 J7.7225
G3 X244.9386 Y-8.6438 I-2.6309 J5.7755
G3 X245.1961 Y-8.4457 I-5.2744 J7.125
G3 X246.2268 Y-7.3604 I-3.6897 J4.5362
G3 X246.7973 Y-6.2394 I-3.6301 J2.5532
G3 X247.0521 Y-5.0078 I-4.73 J1.6204
G3 X246.7065 Y-2.5386 I-5.8115 J0.4455
G3 X245.9154 Y-1.0722 I-5.4267 J-1.9813
G3 X245.2768 Y-0.3632 I-4.1711 J-3.1146
G3 X244.8608 Y-0.0141 I-1.9424 J-1.8924
G3 X244.7059 Y0.0803 I-2.0765 J-3.234
G3 X244.0088 Y0.2715 I-0.7247 J-1.2755
G3 X243.5281 Y0.1967 I-0.0002 J-1.5827
G3 X243.2685 Y0.0958 I0.6803 J-2.1325
G3 X242.9888 Y-0.0534 I1.0553 J-2.3153
G3 X242.689 Y-0.2519 I1.8407 J-3.1061
G3 X241.9662 Y-0.8382 I6.0664 J-8.2177
G2 X238.9074 Y-2.7076 I-6.4959 J7.1919
G2 X237.7616 Y-3.0674 I-3.9053 J10.4308
G2 X236.1902 Y-3.3657 I-3.3563 J13.3923
G2 X235.2817 Y-3.462 I-2.2462 J16.8548
G2 X234.796 Y-3.496 I-4.5554 J61.6217
G2 X233.6857 Y-3.5374 I-1.7413 J31.7682
G2 X232.4186 Y-3.5382 I-0.6553 J34.2408
G2 X230.9748 Y-3.4995 I1.424 J79.9753
G1 X230.2062 Y-3.4679
G2 X229.3877 Y-3.4293 I3.9755 J92.8348
G1 X227.5234 Y-3.3326
G1 X227.4059 Y-3.3264
G1 X227.2875 Y-3.3202
G2 X217.1889 Y-2.4392 I8.4478 J155.1567
G2 X207.1707 Y-0.8915 I17.5848 J147.0242
G1 X207.0139 Y-0.8616
G1 X206.8558 Y-0.8312
G2 X200.1512 Y0.6481 I23.2468 J121.2913
G1 X199.2926 Y0.8671
G1 X198.4083 Y1.1005
G2 X194.3939 Y2.2713 I24.3956 J91.1101
G1 X193.8881 Y2.4333
G1 X193.3754 Y2.6011
G1 X192.8557 Y2.7752
G2 X190.6526 Y3.5609 I21.1737 J62.8489
G2 X188.3343 Y4.4854 I20.569 J54.9493
G2 X188.1902 Y4.5467 I1.3612 J3.3986
G2 X185.7602 Y5.6637 I18.6103 J43.6893
G2 X183.2516 Y7.0294 I15.4426 J31.3521
G2 X179.7016 Y9.4125 I22.3157 J37.0788
G2 X176.3862 Y12.1123 I29.1551 J39.1877
G2 X176.2848 Y12.2026 I1.9537 J2.2988
G2 X174.1755 Y14.1869 I37.8762 J42.3746
G2 X171.5246 Y16.9931 I41.5316 J41.8888
G2 X162.7588 Y29.6405 I49.4164 J43.6114
G2 X160.8362 Y33.6041 I53.137 J28.222
G1 X160.6141 Y34.1177
G2 X159.9088 Y35.8747 I154.3642 J62.9871
G2 X159.8622 Y35.992 I3.6451 J1.5147
G2 X159.8126 Y36.1172 I3.7707 J1.567
G2 X159.7597 Y36.2508 I3.9012 J1.6213
G1 X159.479 Y36.9634
G2 X159.1076 Y37.9148 I86.824 J34.4434
G2 X159.0599 Y38.0376 I3.8522 J1.5662
G2 X159.0107 Y38.1645 I3.9225 J1.5939
G1 X158.4894 Y39.5186
G2 X156.4524 Y44.9532 I461.2138 J175.9688
G2 X156.3887 Y45.1261 I5.4135 J2.0926
G1 X156.1174 Y45.864
G1 X155.8288 Y46.6513
G1 X155.5218 Y47.4915
G2 X155.4439 Y47.7049 I6.5762 J2.5207
G2 X155.3648 Y47.9217 I6.6845 J2.5607
G2 X155.2845 Y48.142 I6.7967 J2.6022
G2 X155.203 Y48.3658 I6.9128 J2.6452
G2 X155.1202 Y48.5931 I7.0331 J2.6899
G2 X155.0362 Y48.8241 I7.1581 J2.7362
G2 X154.9508 Y49.0587 I7.2878 J2.7844
G2 X154.9078 Y49.177 I5.2233 J1.9668
G2 X154.8644 Y49.2962 I5.2717 J1.9846
G2 X154.8208 Y49.4163 I5.3211 J2.0028
G1 X152.9574 Y54.5411
G1 X152.4582 Y55.9069
G1 X151.9232 Y57.3627
G3 X151.7868 Y57.7323 I-17.8038 J-6.3596
G3 X151.648 Y58.1077 I-19.0042 J-6.8124
G3 X151.5068 Y58.489 I-20.4453 J-7.357
G3 X151.363 Y58.8762 I-22.2207 J-8.029
G3 X151.2167 Y59.2694 I-24.4853 J-8.8871
G3 X151.0677 Y59.6687 I-27.5211 J-10.0383
G3 X150.9161 Y60.0743 I-31.9054 J-11.7011
G3 X150.7616 Y60.4861 I-39.0935 J-14.4262
G3 X150.6043 Y60.9043 I-54.5391 J-20.2751
G1 X150.2782 Y61.7672
G1 X149.9395 Y62.6572
G1 X149.5875 Y63.5749
G1 X149.2213 Y64.5212
G1 X148.8402 Y65.4967
G1 X148.4432 Y66.5024
G1 X148.0293 Y67.5389
G3 X147.131 Y69.744 I-231.2748 J-92.9267
G3 X144.9872 Y74.7467 I-179.5435 J-73.9785
G1 X144.7048 Y75.3776
G1 X144.4153 Y76.0173
G1 X144.1185 Y76.666
G1 X143.814 Y77.3237
G1 X143.5017 Y77.9904
G1 X143.1812 Y78.6662
G1 X142.8522 Y79.3511
G3 X139.6705 Y85.5284 I-119.8876 J-57.8423
G3 X137.8328 Y88.7481 I-106.982 J-58.9286
G3 X137.7139 Y88.9481 I-7.2672 J-4.1828
G3 X136.7159 Y90.59 I-100.2039 J-59.7815
G3 X134.4844 Y94.0304 I-86.1373 J-53.4287
G3 X128.8236 Y101.5153 I-73.8879 J-49.9977
G3 X121.3634 Y109.2555 I-61.8951 J-52.1912
G3 X117.6428 Y112.4219 I-52.0092 J-57.341
G1 X117.3877 Y112.6245
G3 X113.1944 Y115.7187 I-48.2783 J-61.0396
G3 X104.2561 Y121.0677 I-47.1322 J-68.6167
G3 X97.9661 Y124.0148 I-40.7186 J-78.7193
G3 X89.2713 Y127.1938 I-36.9327 J-87.5339
G3 X77.2976 Y130.1525 I-30.8102 J-98.9782
G1 X76.9153 Y130.2228
G1 X76.5297 Y130.2922
G3 X69.4446 Y131.3171 I-19.3107 J-108.4923
G3 X50.4063 Y131.8352 I-12.6002 J-112.9553
G3 X39.5831 Y130.6802 I6.1138 J-108.5775
G1 X38.906 Y130.5707
G3 X33.1626 Y129.4509 I15.8596 J-96.6299
G1 X32.444 Y129.2856
G1 X31.7211 Y129.1134
G3 X25.6145 Y127.4056 I21.0968 J-87.2035
G3 X22.5162 Y126.3476 I25.3008 J-79.158
G3 X18.6051 Y124.7876 I24.4322 J-66.939
G3 X14.784 Y123.0187 I33.0498 J-76.4042
G3 X14.2811 Y122.7689 I26.7159 J-54.4096
G3 X6.4489 Y118.378 I44.0074 J-87.6791
G3 X-7.9295 Y107.6574 I56.1042 J-90.249
G3 X-16.4144 Y99.2243 I69.0467 J-77.9555
G3 X-18.5057 Y96.813 I69.4404 J-62.3379
G3 X-22.9875 Y91.0578 I75.6214 J-63.5126
G1 X-23.2553 Y90.6843
G3 X-25.4674 Y87.4458 I81.2947 J-57.9033
G3 X-26.5567 Y85.7394 I72.917 J-47.7493
G3 X-31.0597 Y77.6557 I79.349 J-49.4973
G3 X-35.6905 Y67.2584 I128.7115 J-63.5564
G3 X-37.0447 Y63.7133 I132.6133 J-52.6871
G3 X-41.4741 Y49.2016 I130.9411 J-47.8992
G1 X-41.589 Y48.7336
G3 X-42.5688 Y44.4381 I141.0234 J-34.4253
G3 X-43.04 Y42.136 I164.7358 J-34.9199
G3 X-43.9881 Y36.8501 I161.6891 J-31.7298
G1 X-44.042 Y36.5161
G3 X-44.4749 Y33.662 I160.8577 J-25.8551
G1 X-44.5772 Y32.936
G1 X-44.6781 Y32.1981
G3 X-45.4618 Y25.4358 I186.2538 J-25.0124
G1 X-45.5442 Y24.5752
G1 X-45.6242 Y23.7007
G3 X-46.1885 Y15.6941 I215.1741 J-19.1895
G3 X-46.3759 Y11.4181 I258.7032 J-13.4797
G1 X-46.3852 Y11.1497
G3 X-46.5025 Y6.5688 I248.7452 J-8.6582
G3 X-46.5457 Y1.6825 I318.5424 J-5.2601
G1 X-46.5455 Y1.0668
G1 X-46.5442 Y0.4464
G3 X-46.5434 Y0.246 I5.4303 J-0.0808
G3 X-46.5426 Y0.0457 I5.9868 J-0.075
G3 X-46.542 Y-0.0879 I5.3979 J-0.0414
G3 X-46.5411 Y-0.266 I6.9896 J-0.0531
G3 X-46.5397 Y-0.5034 I9.9633 J-0.0622
G3 X-46.5377 Y-0.8201 I21.0162 J-0.0256
G1 X-46.5281 Y-2.0864
G1 X-46.5087 Y-4.6193
G1 X-46.5053 Y-5.3429
G1 X-46.5034 Y-6.17
G2 X-46.5036 Y-6.6111 I-29.3597 J-0.2082
G1 X-46.5078 Y-7.6194
G1 X-46.5098 Y-7.8796
G2 X-46.5641 Y-10.6546 I-132.9389 J1.2127
G1 X-46.591 Y-11.3943
G1 X-46.6268 Y-12.183
G1 X-46.6371 Y-12.3833
G1 X-46.6482 Y-12.5867
G1 X-46.6729 Y-13.0065
G1 X-46.7011 Y-13.4397
G2 X-46.8692 Y-15.4174 I-53.2269 J3.5301
G1 X-46.9244 Y-15.9267
G2 X-47.2504 Y-18.2464 I-40.7848 J4.5486
G1 X-47.3015 Y-18.5395
G2 X-47.5475 Y-19.7852 I-38.8995 J7.0366
G2 X-48.5562 Y-20.1602 I-11.1122 J28.3512
G2 X-49.5744 Y-20.5086 I-15.7863 J44.4708
G1 X-49.7106 Y-20.5539
G1 X-50.022 Y-20.6567
G1 X-52.517 Y-21.4677
G3 X-54.1702 Y-22.0386 I13.6692 J-42.2637
G3 X-54.2218 Y-22.058 I0.507 J-1.4283
G2 X-55.1082 Y-25.175 I-123.6217 J33.4732
G1 X-55.4191 Y-26.2096
G1 X-55.5992 Y-26.8001
G1 X-55.8067 Y-27.4743
G1 X-55.9181 Y-27.8338
G1 X-56.0372 Y-28.217
G1 X-56.6765 Y-30.2597
G1 X-57.0416 Y-31.4271
G1 X-57.2353 Y-32.05
G1 X-57.3348 Y-32.3717
G1 X-57.4372 Y-32.7039
G1 X-57.5424 Y-33.0469
G1 X-57.6505 Y-33.4012
G3 X-58.1356 Y-35.0231 I129.1552 J-39.5129
G3 X-59.3185 Y-39.3801 I95.8999 J-28.3767
G1 X-59.3862 Y-39.6587
G1 X-59.4539 Y-39.942
G1 X-59.5214 Y-40.2301
G1 X-59.5888 Y-40.523
G1 X-59.7238 Y-41.1288
G1 X-59.857 Y-41.7553
G1 X-59.9875 Y-42.4037
G1 X-55.1719 Y-40.5299
G1 X-54.9848 Y-39.9251
G1 X-54.9232 Y-39.7232
G1 X-54.6806 Y-38.9148
G1 X-54.522 Y-38.3749
G1 X-54.3139 Y-37.654
G1 X-54.0417 Y-36.6914
G1 X-53.8885 Y-36.1406
G1 X-53.4858 Y-34.6703
G1 X-53.4343 Y-34.4804
G1 X-53.3812 Y-34.2844
G1 X-53.3265 Y-34.0821
G2 X-52.7433 Y-31.9237 I605.3488 J-162.3961
G2 X-51.9471 Y-29.0512 I200.8617 J-54.1291
G1 X-51.7267 Y-28.2874
G2 X-50.4521 Y-24.2438 I87.1981 J-25.2616
G2 X-49.6227 Y-21.9668 I58.2717 J-19.936
G3 X-49.4782 Y-21.9458 I-0.0129 J0.5962
G3 X-49.3372 Y-21.9074 I-0.2742 J1.2854
G3 X-49.3185 Y-21.9017 I-0.0053 J0.0509
G3 X-49.2986 Y-21.8956 I-0.0059 J0.0544
G1 X-49.2774 Y-21.8889
G1 X-49.2548 Y-21.8817
G1 X-49.2307 Y-21.874
G1 X-48.8487 Y-21.7458
G2 X-48.824 Y-21.7376 I0.0618 J-0.1451
G2 X-48.5596 Y-21.6545 I1.6819 J-4.8905
G2 X-48.2005 Y-21.5671 I0.9207 J-3.0023
G2 X-47.9904 Y-21.5427 I0.2497 J-1.2317
G2 X-47.7481 Y-21.5705 I0.048 J-0.6511
G2 X-47.5475 Y-21.7996 I-0.0839 J-0.2758
G1 X-47.4835 Y-22.9808
G1 X-47.4236 Y-24.1623
G1 X-47.4073 Y-24.4999
G1 X-47.366 Y-25.4003
G1 X-47.3158 Y-26.6011
G2 X-47.1857 Y-31.4064 I-189.4695 J-7.536
G1 X-47.1838 Y-31.5591
G2 X-47.1736 Y-32.9544 I-137.159 J-1.6936
G1 X-47.1733 Y-33.3145
G2 X-47.2398 Y-37.1549 I-107.4602 J-0.0619
G2 X-47.3473 Y-39.3473 I-81.4816 J2.8966
G1 X-47.3653 Y-39.6256
G1 X-47.4061 Y-40.1996
G2 X-47.6602 Y-42.8187 I-55.125 J4.0276
G2 X-47.8503 Y-44.2096 I-51.8475 J6.3776
G2 X-48.1059 Y-45.6855 I-36.1537 J5.4992
G1 X-48.124 Y-45.7778
G1 X-48.2004 Y-46.1521
G1 X-48.2827 Y-46.5314
G2 X-48.6961 Y-48.1365 I-24.615 J5.483
G2 X-48.7562 Y-48.3366 I-23.5859 J6.9754
G3 X-48.7865 Y-48.4703 I1.1721 J-0.3363
G3 X-48.7764 Y-48.6071 I0.2687 J-0.0489
G3 X-48.7076 Y-48.6727 I0.1032 J0.0394
G3 X-48.5771 Y-48.674 I0.0678 J0.2486
G3 X-48.2279 Y-48.5192 I-0.3068 J1.1634
G1 X-45.5407 Y-44.8058
G1 X-45.4651 Y-43.5815
G1 X-45.4412 Y-43.1733
G3 X-45.4103 Y-42.6289 I-41.2859 J2.6127
G3 X-45.4064 Y-42.5587 I-1.5605 J0.1218
G3 X-45.4024 Y-42.4861 I-1.587 J0.124
G1 X-45.3609 Y-41.7126
G1 X-45.3382 Y-41.2705
G1 X-45.3131 Y-40.7653
G3 X-45.2855 Y-40.1878 I-77.3199 J3.9878
G3 X-45.282 Y-40.1144 I-1.6495 J0.1138
G1 X-45.2132 Y-38.5498
G1 X-45.1773 Y-37.6555
G1 X-45.1592 Y-37.1785
G1 X-45.1202 Y-36.0883
G1 X-45.1008 Y-35.5067
G1 X-45.0599 Y-34.1774
G3 X-45.0399 Y-33.4683 I-64.676 J2.1801
G1 X-44.9986 Y-31.8475
G1 X-44.9889 Y-31.4292
G1 X-44.9794 Y-30.9974
G1 X-44.9404 Y-29.0235
G1 X-44.9226 Y-27.9706
G3 X-44.857 Y-22.355 I-614.4871 J9.9838
G3 X-44.8563 Y-22.2669 I-2.4836 J0.0638
G3 X-44.8556 Y-22.1784 I-2.4935 J0.0639
G3 X-44.8549 Y-22.0896 I-2.5035 J0.0639
G3 X-44.8543 Y-22.0005 I-2.5136 J0.0639
G3 X-44.8536 Y-21.911 I-2.5238 J0.0639
G3 X-44.8529 Y-21.8211 I-2.534 J0.0639
G3 X-44.8522 Y-21.7309 I-2.5443 J0.0639
G3 X-44.8516 Y-21.6403 I-2.5547 J0.0639
G3 X-44.8509 Y-21.5494 I-2.5653 J0.064
G3 X-44.8503 Y-21.4581 I-2.5758 J0.064
G3 X-44.8496 Y-21.3665 I-2.5865 J0.064
G3 X-44.849 Y-21.2745 I-2.5972 J0.064
G3 X-44.8484 Y-21.1821 I-2.6081 J0.064
G3 X-44.8477 Y-21.0894 I-2.619 J0.0641
G3 X-44.8298 Y-17.6996 I-912.6058 J6.52
G3 X-44.8294 Y-17.5933 I-3.0712 J0.0656
G3 X-44.8289 Y-17.4865 I-3.0864 J0.0656
G3 X-44.8285 Y-17.3792 I-3.1019 J0.0657
G3 X-44.8281 Y-17.2716 I-3.1175 J0.0658
G3 X-44.8277 Y-17.1635 I-3.1332 J0.0659
G3 X-44.8273 Y-17.055 I-3.1492 J0.066
G3 X-44.8269 Y-16.9461 I-3.1652 J0.0661
G3 X-44.8265 Y-16.8368 I-3.1815 J0.0662
G3 X-44.8261 Y-16.727 I-3.1979 J0.0662
G1 X-44.8015 Y-7.3637
G1 X-44.7921 Y-4.8669
G2 X-44.7525 Y0.84 I929.1181 J-3.5795
G2 X-44.7489 Y1.1995 I47.6001 J-0.2997
G1 X-44.7322 Y2.6838
G1 X-44.7118 Y4.2159
G2 X-44.5668 Y11.219 I515.9878 J-7.1778
G2 X-44.2639 Y19.2189 I373.141 J-10.1241
G1 X-44.2123 Y20.2342
G1 X-44.1565 Y21.2654
G1 X-44.1271 Y21.785
G1 X-44.0964 Y22.3087
G2 X-43.9063 Y24.8462 I88.4491 J-5.3528
G2 X-43.6458 Y27.3774 I97.049 J-8.7052
G1 X-43.5601 Y28.0994
G1 X-43.5372 Y28.2856
G1 X-43.5132 Y28.4779
G2 X-42.5889 Y34.6053 I128.8202 J-16.2981
G2 X-41.8242 Y38.6651 I151.0049 J-26.3424
G2 X-40.645 Y44.0451 I167.7998 J-33.9578
G2 X-40.5644 Y44.3854 I15.4299 J-3.4771
G2 X-40.4818 Y44.7309 I19.3203 J-4.4367
G2 X-40.3971 Y45.0817 I29.2344 J-6.8663
G1 X-40.3105 Y45.438
G1 X-40.1292 Y46.1728
G2 X-38.0069 Y53.9605 I178.2515 J-44.3925
G2 X-37.9709 Y54.0819 I2.6772 J-0.7281
G2 X-37.9347 Y54.2038 I2.7089 J-0.7393
G2 X-34.5255 Y64.4983 I167.9977 J-49.9235
G2 X-33.5059 Y67.2049 I152.0851 J-55.7438
G1 X-33.374 Y67.5446
G2 X-30.8147 Y73.6961 I137.0449 J-53.4078
G2 X-27.5087 Y80.557 I107.6065 J-47.6251
G2 X-27.0556 Y81.4117 I238.1612 J-125.6924
G2 X-26.9406 Y81.6255 I10.7844 J-5.6615
G2 X-24.8929 Y85.2291 I83.113 J-44.8451
G2 X-23.768 Y87.0495 I71.0366 J-42.6377
G1 X-23.4766 Y87.5033
G2 X-20.8431 Y91.2817 I54.1197 J-34.9132
G2 X-19.3695 Y93.1499 I41.5891 J-31.2893
G1 X-19.1785 Y93.3795
G2 X-11.8392 Y101.2739 I80.5688 J-67.544
G2 X-3.7333 Y108.3787 I73.062 J-75.1811
G2 X-3.6668 Y108.4311 I0.8202 J-0.9733
G2 X2.1642 Y112.6823 I59.7007 J-75.7612
G2 X2.2582 Y112.7455 I0.9926 J-1.3748
G2 X2.3526 Y112.8088 I0.9949 J-1.3814
G2 X2.4475 Y112.8723 I0.9971 J-1.388
G2 X2.5428 Y112.9359 I0.9993 J-1.3947
G2 X2.6386 Y112.9996 I1.0015 J-1.4014
G2 X2.7348 Y113.0635 I1.0038 J-1.4081
G2 X2.8315 Y113.1275 I1.0059 J-1.4149
G2 X2.9286 Y113.1916 I1.0081 J-1.4217
G2 X3.0262 Y113.2558 I1.0103 J-1.4286
G2 X3.1243 Y113.3202 I1.0125 J-1.4355
G2 X3.2229 Y113.3847 I1.0147 J-1.4424
G2 X11.9241 Y118.4036 I48.4581 J-73.9592
G2 X17.1433 Y120.8012 I36.9309 J-73.5133
G1 X17.4776 Y120.9398
G1 X18.1588 Y121.2166
G1 X18.8535 Y121.4913
G1 X19.5619 Y121.7635
G2 X26.1569 Y123.9239 I26.8458 J-70.807
G2 X33.9103 Y125.6214 I19.334 J-69.7518
G2 X42.9492 Y126.4882 I11.181 J-69.0307
G2 X42.6491 Y125.4772 I-6.044 J1.2441
G2 X42.1397 Y124.5536 I-3.7568 J1.4698
G3 X38.2091 Y124.1323 I6.1472 J-75.8862
G1 X37.6496 Y124.0553
G3 X33.1969 Y123.2917 I10.903 J-76.938
G3 X24.4601 Y121.0038 I15.8408 J-78.3162
G3 X18.7994 Y118.9482 I26.2679 J-81.158
G3 X18.4451 Y118.8041 I9.4451 J-23.7304
G3 X11.0509 Y115.3653 I33.3635 J-81.4092
G3 X6.9763 Y113.1029 I43.7591 J-83.6106
G3 X-3.2858 Y106.1175 I48.8148 J-82.7431
G1 X-3.906 Y105.6303
G1 X-4.5321 Y105.1304
G1 X-5.164 Y104.6174
G3 X-7.8116 Y102.3717 I64.5902 J-78.8362
G3 X-20.5239 Y88.9707 I67.3324 J-76.6016
G3 X-25.5976 Y80.9215 I83.1605 J-58.0422
G3 X-27.1188 Y78.1374 I88.7175 J-50.2826
G3 X-29.014 Y74.3557 I89.5288 J-47.2339
G3 X-31.3063 Y69.203 I98.5698 J-46.9378
G3 X-33.9567 Y62.1675 I107.1411 J-44.3778
G3 X-34.5879 Y60.2643 I152.7274 J-51.7093
G3 X-34.7433 Y59.7793 I27.9641 J-9.2278
G3 X-36.0739 Y55.3184 I118.5068 J-37.7776
G3 X-36.1524 Y55.0358 I9.9939 J-2.9288
G3 X-37.4812 Y49.8421 I131.8809 J-36.5086
G3 X-37.5197 Y49.6783 I5.9463 J-1.485
G3 X-37.5582 Y49.5139 I5.9299 J-1.4742
G3 X-37.5966 Y49.3488 I5.9142 J-1.4637
G3 X-37.635 Y49.183 I5.899 J-1.4533
G3 X-38.9114 Y43.0935 I154.0906 J-35.4754
G1 X-39.0564 Y42.3168
G1 X-39.1999 Y41.5271
G3 X-40.345 Y34.2826 I177.4338 J-31.7579
G3 X-41.3226 Y25.9627 I212.13 J-29.1434
G1 X-41.4244 Y24.9038
G1 X-41.5231 Y23.8277
G3 X-42.2246 Y13.9827 I283.7629 J-25.167
G1 X-42.2906 Y12.7311
G1 X-42.353 Y11.4596
G3 X-42.4676 Y8.8346 I308.5794 J-14.7905
G1 X-42.519 Y7.5012
G3 X-42.6919 Y1.8137 I500.1296 J-18.054
G3 X-42.6963 Y1.6356 I7.9387 J-0.2818
G3 X-42.7005 Y1.4571 I8.0003 J-0.2807
G3 X-42.7048 Y1.2783 I8.0635 J-0.2797
G3 X-42.7089 Y1.0991 I8.1283 J-0.2786
G3 X-42.713 Y0.9196 I8.1945 J-0.2776
G3 X-42.7171 Y0.7397 I8.2624 J-0.2766
G1 X-42.7479 Y-0.7218
G1 X-42.7756 Y-2.2062
G1 X-42.8 Y-3.7141
G3 X-42.8405 Y-6.8264 I477.4341 J-7.7669
G3 X-42.8448 Y-7.2169 I21.3934 J-0.4266
G3 X-42.8488 Y-7.609 I22.706 J-0.4313
G3 X-42.8527 Y-8.0026 I24.2928 J-0.4379
G3 X-42.8565 Y-8.3978 I26.2668 J-0.4471
G3 X-42.8601 Y-8.7944 I28.8126 J-0.4602
G3 X-42.8635 Y-9.1927 I32.2768 J-0.4795
G3 X-42.8669 Y-9.5924 I37.3878 J-0.5101
G3 X-42.87 Y-9.9937 I46.0737 J-0.5656
G3 X-42.876 Y-10.8025 I138.1769 J-1.4239
G1 X-42.8865 Y-12.4455
G1 X-42.8952 Y-14.1144
G1 X-42.9087 Y-17.5584
G1 X-42.9115 Y-18.4262
G1 X-42.9221 Y-22.0076
G1 X-42.9345 Y-25.703
G1 X-42.9364 Y-26.1668
G1 X-42.9384 Y-26.6323
G1 X-42.9478 Y-28.5236
G2 X-43.0222 Y-36.5856 I-886.6746 J4.1537
G1 X-43.0537 Y-38.6326
G1 X-43.0626 Y-39.1463
G2 X-43.1819 Y-41.42 I-31.7994 J0.5282
G2 X-43.4852 Y-43.6764 I-25.2047 J2.2394
G2 X-43.8148 Y-45.1585 I-19.5768 J3.5752
G2 X-43.8658 Y-45.3478 I-4.2561 J1.0469
G1 X-43.9207 Y-45.5424
G1 X-43.9797 Y-45.7428
G2 X-44.7723 Y-47.8251 I-14.3516 J4.2704
G1 X-44.8978 Y-48.0842
G2 X-45.5438 Y-49.2316 I-11.5413 J5.7433
G2 X-47.8415 Y-51.894 I-10.1867 J6.4684
G2 X-49.4515 Y-53.1097 I-10.1122 J11.7181
G2 X-50.3639 Y-53.6803 I-12.0018 J18.1785
G2 X-50.844 Y-53.9589 I-8.8161 J14.6368
G1 X-50.9657 Y-54.0278
G1 X-51.0886 Y-54.0967
G1 X-51.5979 Y-54.3771
G1 X-51.8575 Y-54.5177
G1 X-52.3935 Y-54.8057
G2 X-53.0852 Y-55.1452 I-5.5191 J10.3693
G1 X-53.3203 Y-55.2489
G2 X-54.2749 Y-55.6281 I-7.5542 J17.6227
G1 X-54.4036 Y-55.6752
G1 X-54.6986 Y-55.78
G1 X-54.8564 Y-55.8346
G2 X-55.2183 Y-55.9558 I-7.6809 J22.321
G2 X-56.1894 Y-56.2593 I-11.149 J33.9666
G1 X-56.4496 Y-56.336
G1 X-57.046 Y-56.5057
G1 X-57.3649 Y-56.5932
G1 X-57.7056 Y-56.6844
G2 X-58.0696 Y-56.7795 I-3.7121 J13.4636
G1 X-58.1621 Y-56.8033
G1 X-58.2562 Y-56.8274
G2 X-60.2684 Y-57.3107 I-20.5297 J81.0419
G1 X-60.8069 Y-57.4313
G1 X-61.3819 Y-57.5568
G1 X-61.996 Y-57.6871
G2 X-63.4017 Y-57.9729 I-18.0071 J84.9512
G2 X-63.7649 Y-58.0442 I-5.7869 J28.5179
G2 X-67.6469 Y-58.7527 I-31.3582 J160.836
G1 X-68.6844 Y-58.928
G1 X-69.2202 Y-59.0166
G1 X-69.7735 Y-59.1068
G2 X-75.6819 Y-59.998 I-46.3908 J287.5187
G2 X-83.5766 Y-61.034 I-61.8703 J440.8783
G1 X-84.0785 Y-61.0952
G1 X-84.5883 Y-61.1568
G1 X-85.641 Y-61.2825
G1 X-86.1758 Y-61.3456
G2 X-91.0667 Y-61.8992 I-65.867 J559.965
G1 X-91.3749 Y-61.9328
G1 X-92.0012 Y-62.0006
G1 X-92.6375 Y-62.0688
G1 X-92.9583 Y-62.103
G1 X-93.2815 Y-62.1373
G1 X-94.6161 Y-62.2772
G1 X-95.994 Y-62.4189
G1 X-97.4165 Y-62.5625
G1 X-97.775 Y-62.5982
G1 X-98.5033 Y-62.6703
G1 X-100.0071 Y-62.8168
G1 X-100.3861 Y-62.8533
G1 X-101.951 Y-63.0019
G1 X-102.1474 Y-63.0203
G1 X-103.7693 Y-63.1705
G1 X-104.178 Y-63.2079
G1 X-105.8657 Y-63.3598
G1 X-105.9715 Y-63.3692
G1 X-107.7173 Y-63.5222
G2 X-108.6042 Y-63.5985 I-9.9864 J110.9484
G1 X-110.4354 Y-63.7527
G1 X-111.4672 Y-63.838
G1 X-111.8112 Y-63.8661
G2 X-112.2698 Y-63.9033 I-3.4728 J39.9871
G1 X-112.8815 Y-63.9524
G1 X-115.3282 Y-64.1448
G1 X-116.0273 Y-64.1987
G1 X-117.8918 Y-64.3404
G1 X-118.3891 Y-64.3777
G1 X-121.0413 Y-64.5739
G1 X-122.557 Y-64.6839
G1 X-123.3655 Y-64.7421
G1 X-125.2134 Y-64.8737
G2 X-140.0002 Y-65.8715 I-165.3269 J2340.0818
G1 X-140.2331 Y-65.8865
G1 X-140.4679 Y-65.9016
G2 X-140.5268 Y-65.9054 I-0.0865 J0.8845
G2 X-140.5857 Y-65.9092 I-0.0867 J0.8863
G2 X-140.6448 Y-65.913 I-0.0868 J0.8881
G1 X-144.9627 Y-66.1878
G1 X-147.2659 Y-66.3319
G2 X-152.5304 Y-66.6548 I-170.2107 J2732.1277
G2 X-152.6128 Y-66.6598 I-0.1189 J1.281
G2 X-152.6955 Y-66.6648 I-0.1191 J1.284
G2 X-152.7782 Y-66.6698 I-0.1193 J1.2869
G2 X-152.8612 Y-66.6748 I-0.1196 J1.2899
G2 X-152.9443 Y-66.6798 I-0.1198 J1.2928
G2 X-153.0275 Y-66.6848 I-0.12 J1.2958
G2 X-153.111 Y-66.6898 I-0.1202 J1.2988
G1 X-154.4884 Y-66.7727
G1 X-155.9104 Y-66.8575
G1 X-158.9439 Y-67.0365
G1 X-159.7143 Y-67.0815
G1 X-161.3049 Y-67.1739
G1 X-164.6984 Y-67.3684
G1 X-168.3184 Y-67.5722
G1 X-168.7745 Y-67.5975
G1 X-169.7011 Y-67.6489
G1 X-173.6549 Y-67.8653
G1 X-174.1531 Y-67.8922
G1 X-174.6552 Y-67.9193
G1 X-178.9396 Y-68.1471
G1 X-183.5099 Y-68.3839
G2 X-185.8689 Y-68.5036 I-30.6862 J581.5804
G2 X-211.0372 Y-69.6646 I-147.024 J2913.7848
G1 X-212.6355 Y-69.7306
G2 X-219.4555 Y-70.0007 I-118.5656 J2907.6781
G1 X-222.9758 Y-70.1324
G2 X-239.0712 Y-70.66 I-76.9436 J2101.7306
G1 X-241.1154 Y-70.7172
G1 X-241.3715 Y-70.7242
G1 X-241.6281 Y-70.7312
G1 X-241.8852 Y-70.7381
G1 X-242.1428 Y-70.7451
G1 X-242.4009 Y-70.7519
G2 X-246.6629 Y-70.8599 I-38.2233 J1424.7839
G1 X-247.7368 Y-70.8853
G1 X-249.9189 Y-70.9345
G1 X-252.1356 Y-70.9811
G1 X-254.3876 Y-71.0248
G1 X-254.9529 Y-71.0352
G1 X-255.5203 Y-71.0453
G1 X-256.6642 Y-71.0651
G1 X-258.9882 Y-71.1019
G1 X-261.3492 Y-71.1346
G1 X-262.5391 Y-71.1493
G1 X-263.7383 Y-71.1627
G1 X-266.1749 Y-71.1857
G2 X-268.6501 Y-71.2029 I-4.6175 J485.8119
G1 X-271.1647 Y-71.2136
G1 X-273.7193 Y-71.2168
G2 X-276.3144 Y-71.2116 I-0.181 J557.1833
G1 X-276.6395 Y-71.2103
G1 X-276.8023 Y-71.2096
G1 X-276.9652 Y-71.2089
G1 X-277.1282 Y-71.2081
G1 X-278.4424 Y-71.2004
G2 X-279.1022 Y-71.1956 I0.1705 J68.4839
G2 X-280.4319 Y-71.1839 I1.7045 J267.9968
G1 X-281.0994 Y-71.1769
G1 X-282.4448 Y-71.1606
G1 X-283.1202 Y-71.1512
G1 X-283.7982 Y-71.141
G1 X-285.1648 Y-71.1178
G2 X-285.5071 Y-71.1115 I0.1446 J16.9561
G2 X-291.1602 Y-70.9695 I9.4997 J490.9881
G2 X-296.9934 Y-70.7336 I9.3161 J302.5673
G1 X-297.7251 Y-70.6959
G2 X-303.763 Y-70.2913 I10.3837 J200.2147
G1 X-304.5196 Y-70.226
G1 X-304.8986 Y-70.1918
G1 X-305.2782 Y-70.1564
G1 X-305.6585 Y-70.1199
G1 X-306.4218 Y-70.0429
G2 X-309.5177 Y-69.671 I10.0294 J96.5479
G2 X-309.9044 Y-69.6162 I2.5004 J19.0649
G2 X-310.68 Y-69.4996 I5.193 J37.1556
G1 X-312.1352 Y-69.2691
G1 X-313.5893 Y-69.0319
G1 X-314.5581 Y-68.8695
G2 X-314.8163 Y-68.8256 I1.8363 J11.5852
G2 X-318.941 Y-68.0844 I36.3668 J214.2077
G1 X-320.1168 Y-67.8573
G1 X-320.4199 Y-67.7975
G1 X-320.7328 Y-67.7352
G1 X-321.3998 Y-67.6003
G1 X-321.7438 Y-67.5297
G1 X-322.0988 Y-67.456
G1 X-322.2791 Y-67.4182
G1 X-322.4623 Y-67.3796
G2 X-326.3555 Y-66.5014 I30.0589 J142.3191
G1 X-326.8559 Y-66.3796
G1 X-327.3719 Y-66.2517
G2 X-329.7231 Y-65.6367 I24.7581 J99.4516
G1 X-330.0207 Y-65.5549
G2 X-331.2875 Y-65.1954 I24.1057 J87.3747
G1 X-331.9394 Y-65.0032
G1 X-332.2701 Y-64.9038
G1 X-332.6056 Y-64.8015
G1 X-332.946 Y-64.6963
G2 X-336.0374 Y-63.6678 I23.2559 J75.0657
G2 X-339.5135 Y-62.3305 I22.6363 J64.0257
G2 X-343.3863 Y-60.559 I22.8517 J55.0765
G1 X-343.6259 Y-60.438
G2 X-347.8942 Y-58.0096 I22.9024 J45.2211
G2 X-352.4455 Y-54.7086 I24.2384 J38.2075
G2 X-352.5814 Y-54.5959 I2.3421 J2.9617
G2 X-354.83 Y-52.5861 I28.0031 J33.5924
G2 X-356.1751 Y-51.2173 I24.4878 J25.4107
G2 X-357.4656 Y-49.7968 I42.6912 J40.0803
G1 X-357.6348 Y-49.6048
G1 X-358.0195 Y-49.1643
G1 X-358.2236 Y-48.9283
G1 X-358.6874 Y-48.3869
G1 X-359.2136 Y-47.7647
G1 X-359.8102 Y-47.0499
G1 X-360.487 Y-46.2286
G2 X-362.2693 Y-44.0208 I169.5842 J138.7259
G2 X-362.3816 Y-43.8798 I3.7077 J3.0683
G2 X-362.4955 Y-43.7366 I3.8969 J3.2164
G2 X-362.6112 Y-43.5909 I4.1176 J3.389
G1 X-363.1034 Y-42.9689
G1 X-363.6266 Y-42.3039
G2 X-363.896 Y-41.9601 I19.0928 J15.2368
G1 X-364.1735 Y-41.6049
G1 X-364.7641 Y-40.8459
G1 X-365.0681 Y-40.4536
G1 X-365.3815 Y-40.0483
G1 X-366.0482 Y-39.1823
G1 X-366.2172 Y-38.962
G1 X-366.9367 Y-38.0215
G1 X-367.7017 Y-37.0164
G1 X-368.5153 Y-35.9424
G1 X-369.3804 Y-34.7949
G1 X-370.3006 Y-33.5689
G2 X-370.3582 Y-33.4919 I1.1841 J0.9468
G2 X-370.4161 Y-33.4146 I1.1961 J0.9557
G1 X-371.4022 Y-32.0943
G1 X-371.9102 Y-31.4122
G2 X-377.2953 Y-24.113 I1020.0378 J758.1799
G1 X-378.7241 Y-22.1613
G1 X-379.4608 Y-21.1534
G1 X-381.0313 Y-19.0026
G1 X-384.6194 Y-14.0858
G1 X-386.5363 Y-11.4661
G1 X-387.5281 Y-10.1158
G1 X-388.5546 Y-8.7239
G1 X-389.0774 Y-8.0179
G1 X-390.1608 Y-6.5636
G1 X-390.435 Y-6.1979
G3 X-390.5728 Y-6.0145 I-8.1024 J-5.9448
G3 X-391.7173 Y-4.5052 I-220.0262 J-165.6582
G1 X-392.3049 Y-3.7433
G3 X-393.5432 Y-2.1898 I-55.4009 J-42.8907
G3 X-393.5828 Y-2.1419 I-0.6867 J-0.5282
G1 X-393.9996 Y-1.6434
G1 X-394.4198 Y-1.1477
G1 X-394.5405 Y-1.0066
G1 X-394.6788 Y-0.8456
G1 X-395.0496 Y-0.4183
G1 X-395.5485 Y0.1476
G3 X-396.2223 Y0.8946 I-44.8455 J-39.773
G3 X-397.1367 Y1.8758 I-55.276 J-50.5963
G3 X-398.3868 Y3.1546 I-44.0232 J-41.7852
G3 X-400.114 Y4.7985 I-39.9654 J-40.2618
G1 X-400.2262 Y4.9002
G1 X-400.3404 Y5.0032
G3 X-401.4002 Y5.9277 I-29.4461 J-32.6845
G1 X-401.6782 Y6.161
G3 X-404.7679 Y8.4944 I-25.187 J-30.1381
G1 X-405.1835 Y8.772
G3 X-407.1354 Y9.9615 I-17.9142 J-27.2007
G3 X-409.4689 Y11.14 I-14.7169 J-26.2402
G1 X-409.7727 Y11.2743
G3 X-412.6247 Y12.3251 I-10.6424 J-24.4872
G3 X-414.1927 Y12.7456 I-7.2266 J-23.814
G3 X-414.292 Y12.7686 I-0.372 J-1.3819
G3 X-417.9828 Y13.324 I-5.4922 J-23.9583
G3 X-422.2596 Y13.2793 I-1.8709 J-25.6622
G3 X-424.5251 Y12.9777 I2.5823 J-28.0514
G2 X-423.8244 Y12.9372 I-1.0276 J-23.8557
G1 X-423.5911 Y12.9193
G2 X-422.6595 Y12.8322 I-3.7732 J-45.3791
G2 X-422.0396 Y12.7618 I-17.7387 J-158.8664
G2 X-419.5723 Y12.3923 I-5.0908 J-42.4194
G2 X-414.7179 Y11.2479 I-7.7164 J-43.6004
G2 X-414.6804 Y11.2367 I-0.1026 J-0.4127
G2 X-413.3165 Y10.8028 I-11.5388 J-38.6311
G2 X-409.7703 Y9.3924 I-11.3074 J-33.5934
G1 X-409.3249 Y9.1817
G2 X-408.3861 Y8.7088 I-14.3201 J-29.5927
G2 X-406.3074 Y7.5016 I-12.6787 J-24.2274
G2 X-404.0768 Y5.893 I-13.3829 J-20.9077
G1 X-403.6512 Y5.5434
G1 X-403.23 Y5.1887
G1 X-402.9515 Y4.9494
G1 X-402.7931 Y4.8118
G2 X-401.5477 Y3.6866 I-29.8565 J-34.2997
G1 X-401.3843 Y3.5335
G2 X-398.8528 Y1.002 I-41.9033 J-44.4355
G2 X-398.1555 Y0.2534 I-33.7734 J-32.1606
G2 X-397.3714 Y-0.6137 I-40.3555 J-37.2754
G2 X-396.4911 Y-1.6188 I-45.2426 J-40.5178
G2 X-395.5041 Y-2.7837 I-73.9454 J-63.6503
G1 X-395.2525 Y-3.0869
G1 X-394.9941 Y-3.401
G1 X-394.7286 Y-3.7263
G1 X-394.1667 Y-4.4237
G1 X-393.5736 Y-5.1725
G1 X-393.2699 Y-5.5609
G1 X-392.9581 Y-5.963
G1 X-392.6379 Y-6.3795
G2 X-389.3164 Y-10.8887 I-129.4156 J-98.807
G1 X-389.1103 Y-11.1785
G2 X-387.2481 Y-13.8425 I-191.368 J-135.7539
G1 X-386.7729 Y-14.5337
G1 X-386.2843 Y-15.2483
G1 X-385.7818 Y-15.9873
G1 X-385.2649 Y-16.7512
G1 X-384.1673 Y-18.384
G1 X-383.0021 Y-20.129
G1 X-381.7629 Y-21.9923
G2 X-381.6852 Y-22.1093 I-3.5655 J-2.4532
G3 X-380.3591 Y-24.1046 I843.9772 J559.4713
G1 X-378.9415 Y-26.2303
G1 X-378.2071 Y-27.3255
G1 X-377.4463 Y-28.4542
G1 X-377.2541 Y-28.7382
G1 X-377.0602 Y-29.0243
G3 X-376.2567 Y-30.2036 I182.621 J123.5574
G1 X-375.4221 Y-31.4173
G1 X-375.2109 Y-31.7225
G1 X-374.9976 Y-32.0298
G1 X-374.7822 Y-32.3392
G1 X-374.5647 Y-32.6507
G1 X-374.3449 Y-32.9644
G1 X-374.123 Y-33.2801
G1 X-373.6705 Y-33.9204
G1 X-372.4985 Y-35.5707
G1 X-372.1066 Y-36.12
G3 X-370.5299 Y-38.3105 I336.2561 J240.3832
G3 X-367.3072 Y-42.6406 I175.5912 J127.3197
G3 X-367.2555 Y-42.7081 I1.4657 J1.0701
G3 X-367.2033 Y-42.7761 I1.4797 J1.0815
G3 X-367.1507 Y-42.8446 I1.4939 J1.0932
G3 X-367.0976 Y-42.9136 I1.5083 J1.1051
G3 X-367.044 Y-42.9831 I1.5231 J1.1173
G3 X-366.99 Y-43.0532 I1.5381 J1.1298
G3 X-366.9356 Y-43.1238 I1.5535 J1.1425
G3 X-364.5731 Y-46.1024 I113.1397 J87.3111
G3 X-364.4973 Y-46.1951 I2.5539 J2.0098
G3 X-361.1727 Y-50.0751 I82.6143 J67.4257
G1 X-360.7295 Y-50.5633
G3 X-359.7721 Y-51.594 I52.336 J47.655
G1 X-359.6292 Y-51.7447
G0 Z5.0
G0 X-54.7729 Y-67.5458
G1 Z0.0
G1 Y-68.4885
G1 X-11.9645 Y-69.3855
G2 X-12.5382 Y-68.8031 I16.3073 J16.6375
G1 X-12.7264 Y-68.606
G2 X-13.4685 Y-67.8078 I61.6008 J58.0153
G2 X-13.4919 Y-67.7822 I0.1736 J0.1819
G2 X-13.5156 Y-67.7562 I0.1766 J0.1848
G2 X-13.5397 Y-67.7297 I0.1797 J0.1879
G2 X-13.5642 Y-67.7028 I0.1828 J0.191
G2 X-13.5891 Y-67.6755 I0.1861 J0.1942
G1 X-14.115 Y-67.091
G2 X-16.1726 Y-64.7129 I93.2595 J82.7722
G1 X-16.7489 Y-64.0236
G2 X-18.2576 Y-62.1625 I66.013 J55.0535
G1 X-18.6501 Y-61.6584
G2 X-18.7885 Y-61.7214 I-1.6418 J3.4264
G2 X-18.9273 Y-61.7836 I-1.5456 J3.2608
G2 X-19.02 Y-61.8247 I-1.1983 J2.5784
G2 X-19.1438 Y-61.879 I-1.336 J2.8791
G2 X-19.6415 Y-62.0904 I-7.2843 J16.4495
G2 X-19.7844 Y-62.1493 I-1.1922 J2.6939
G1 X-20.1667 Y-62.3026
G2 X-21.7146 Y-62.8675 I-12.0315 J30.5619
G2 X-24.8767 Y-63.7919 I-13.0821 J38.8803
G2 X-27.0174 Y-64.2829 I-13.2584 J52.8907
G1 X-27.5912 Y-64.4
G1 X-28.2043 Y-64.5192
G1 X-28.8595 Y-64.6405
G2 X-30.3603 Y-64.8974 I-13.0036 J71.4636
G2 X-34.3751 Y-65.4842 I-23.2113 J144.769
G1 X-34.6305 Y-65.5185
G1 X-35.1577 Y-65.5887
G1 X-37.567 Y-65.9059
G1 X-38.8513 Y-66.0787
G2 X-39.0479 Y-65.4981 I1.9076 J0.9693
G2 X-39.0149 Y-64.886 I1.3067 J0.2366
G2 X-38.8379 Y-64.514 I1.4288 J-0.4516
G2 X-38.4827 Y-64.0995 I1.9721 J-1.3309
G2 X-37.9309 Y-63.6463 I4.12 J-4.4538
G2 X-37.9128 Y-63.6329 I0.1046 J-0.1219
G1 X-37.7589 Y-63.5201
G1 X-37.4103 Y-63.2684
G1 X-37.2267 Y-63.1336
G1 X-37.0345 Y-62.9877
G3 X-36.835 Y-62.8281 I-3.2545 J4.2735
G3 X-36.7852 Y-62.7866 I-0.5733 J0.7377
G3 X-36.3582 Y-62.3874 I-3.6425 J4.3245
G3 X-35.9471 Y-61.8682 I-2.4454 J2.3581
G3 X-35.6274 Y-61.1828 I-2.3881 J1.5313
G3 X-35.5028 Y-60.3206 I-2.7701 J0.8404
G2 X-39.1974 Y-62.533 I-22.2263 J32.9255
G2 X-43.1023 Y-64.3484 I-20.1375 J38.2069
G2 X-43.2291 Y-64.3997 I-1.3933 J3.2656
G2 X-45.9681 Y-65.4027 I-17.5417 J43.6613
G2 X-49.7016 Y-66.4882 I-16.5859 J50.0838
G2 X-54.7729 Y-67.5458 I-15.7592 J62.8762
G0 Z5.0
G0 X-32.5648 Y-54.038
G1 Z0.0
G1 X-32.0251 Y-54.4445
G3 X-30.7391 Y-54.5736 I1.2663 J6.148
G3 X-29.4538 Y-54.4365 I0.0046 J6.0497
G3 X-28.6289 Y-54.1829 I-1.083 J4.9924
G3 X-27.6263 Y-53.6157 I-1.5943 J3.9875
G3 X-26.6182 Y-52.4483 I-2.2755 J2.984
G3 X-26.2745 Y-51.6282 I-3.5768 J1.981
G1 X-32.5648 Y-54.038
G0 Z5.0
G0 X-31.0939 Y-51.6282
G1 Z0.0
G2 X-30.1943 Y-51.2191 I6.9662 J-14.1271
G1 X-29.2829 Y-50.8369
G1 X-29.0234 Y-50.7255
G1 X-28.7286 Y-50.5941
G1 X-28.5725 Y-50.5215
G1 X-28.4071 Y-50.4416
G3 X-28.0356 Y-50.2462 I-4.8974 J9.761
G3 X-27.6289 Y-49.9908 I-2.0743 J3.7554
G3 X-27.2133 Y-49.6289 I-1.3773 J2.0011
G3 X-27.6696 Y-49.5705 I-0.5743 J-2.676
G3 X-28.1296 Y-49.5813 I-0.1511 J-3.3821
G1 X-28.2605 Y-49.5941
G3 X-29.2848 Y-49.8143 I0.6541 J-5.5363
G3 X-31.1567 Y-50.7208 I2.0074 J-6.5309
G3 X-31.626 Y-51.0885 I2.7481 J-3.9908
G1 X-31.0939 Y-51.6282
G0 Z5.0
G0 X-30.1551 Y-48.6863
G1 Z0.0
G1 X-28.688 Y-47.2192
G1 X-31.4018 Y-47.4549
G1 X-30.1551 Y-48.6863
G0 Z5.0
G0 X-50.1131 Y-38.3368
G1 Z0.0
G1 X-49.6227 Y-28.7436
G1 X-52.7736 Y-39.4656
G1 X-50.1131 Y-38.3368
G0 Z5.0
G0 X-29.2201 Y-23.1299
G1 Z0.0
G2 X-28.2759 Y-22.3003 I15.7127 J-16.9318
G2 X-27.9531 Y-22.0332 I9.4783 J-11.1249
G1 X-27.5181 Y-21.6826
G1 X-27.2675 Y-21.4849
G1 X-26.9794 Y-21.261
G1 X-26.8252 Y-21.1424
G1 X-26.6601 Y-21.0165
G1 X-26.4836 Y-20.8829
G1 X-26.2947 Y-20.7411
G1 X-26.0926 Y-20.5906
G1 X-25.8765 Y-20.431
G1 X-25.6452 Y-20.2617
G1 X-25.3978 Y-20.0821
G2 X-24.0668 Y-19.141 I61.0517 J-84.9333
G2 X-22.2661 Y-17.9242 I57.7027 J-83.4494
G2 X-19.8257 Y-16.3627 I59.0129 J-89.5388
G1 X-19.1677 Y-15.958
G1 X-18.4622 Y-15.532
G2 X-16.8354 Y-14.5828 I39.6209 J-66.0361
G1 X-16.6272 Y-14.4649
G2 X-14.7049 Y-13.4227 I28.6244 J-50.5
G1 X-15.1724 Y-11.6363
G3 X-17.3412 Y-12.6843 I13.0022 J-29.6748
G3 X-19.432 Y-13.8804 I18.1994 J-34.2403
G3 X-20.7869 Y-14.7425 I23.5498 J-38.5048
G3 X-21.1435 Y-14.9797 I12.0876 J-18.557
G1 X-21.5217 Y-15.2357
G1 X-21.923 Y-15.512
G1 X-22.3485 Y-15.8102
G1 X-22.5673 Y-15.9654
G1 X-23.0319 Y-16.2993
G1 X-23.2707 Y-16.473
G1 X-23.5166 Y-16.6532
G1 X-24.0387 Y-17.0406
G1 X-24.5928 Y-17.4577
G1 X-25.1809 Y-17.9064
G1 X-25.8053 Y-18.3886
G3 X-27.2247 Y-19.5001 I220.7199 J-283.3238
G1 X-28.8421 Y-20.7754
G1 X-29.2603 Y-21.1036
G1 X-30.1551 Y-21.7996
G1 X-29.2201 Y-23.1299
G0 Z5.0
G0 X-30.6948 Y-19.7852
G1 Z0.0
G1 X-16.2442 Y-9.2266
G3 X-16.3264 Y-8.7378 I-8.1335 J-1.1164
G1 X-16.3594 Y-8.5759
G1 X-16.4064 Y-8.3606
G3 X-16.4345 Y-8.2378 I-2.5437 J-0.5166
G1 X-16.4497 Y-8.1724
G1 X-16.5333 Y-7.8241
G1 X-16.6471 Y-7.3604
G1 X-22.9298 Y-11.0928
G2 X-23.4757 Y-11.545 I-8.8222 J10.0938
G2 X-23.662 Y-11.6904 I-4.8336 J6.0021
G2 X-24.4227 Y-12.2516 I-13.2046 J17.1019
G2 X-25.98 Y-13.3222 I-54.1167 J77.0523
G1 X-26.4254 Y-13.6273
G3 X-26.9308 Y-13.9814 I17.6442 J-25.7169
G1 X-27.1977 Y-14.1739
G3 X-27.7979 Y-14.6274 I10.9251 J-15.0838
G3 X-28.4592 Y-15.1772 I8.2816 J-10.6325
G3 X-29.1647 Y-15.863 I6.1793 J-7.0623
G3 X-29.8658 Y-16.7461 I5.2488 J-4.8877
G3 X-30.0209 Y-16.9932 I3.4398 J-2.3297
G3 X-30.5462 Y-18.2303 I4.2408 J-2.5311
G3 X-30.6948 Y-19.7852 I4.6612 J-1.2302
G0 Z5.0
G0 X-31.0939 Y-15.9046
G1 Z0.0
G2 X-30.4956 Y-15.266 I9.9798 J-8.7509
G1 X-30.2884 Y-15.0606
G1 X-30.0076 Y-14.7914
G2 X-28.849 Y-13.7537 I24.7932 J-26.5157
G1 X-28.5117 Y-13.4644
G1 X-28.1249 Y-13.1353
G1 X-27.6828 Y-12.7593
G3 X-26.5221 Y-11.7362 I-22.2945 J26.4617
G3 X-25.8943 Y-11.1132 I-8.7604 J9.4555
G1 X-25.8755 Y-11.0928
G3 X-26.5223 Y-10.8054 I-0.9553 J-1.2786
G3 X-27.23 Y-10.8187 I-0.3203 J-1.7946
G3 X-27.6823 Y-10.9528 I0.5627 J-2.7279
G3 X-28.2459 Y-11.2185 I1.7754 J-4.4963
G3 X-28.9401 Y-11.6533 I3.7307 J-6.7282
G3 X-28.9614 Y-11.668 I0.0957 J-0.1609
G3 X-28.9827 Y-11.6829 I0.0972 J-0.1624
G3 X-29.8547 Y-12.3363 I10.6854 J-15.1699
G1 X-30.3377 Y-12.7217
G1 X-30.8838 Y-13.1611
G2 X-31.1757 Y-13.3927 I-8.0753 J9.877
G1 X-31.2502 Y-13.4511
G2 X-31.9365 Y-13.9677 I-15.5834 J19.9895
G1 X-31.9806 Y-13.9992
G1 X-32.0251 Y-14.0308
G3 X-31.8316 Y-14.5617 I3.1759 J0.8569
G3 X-31.5619 Y-15.0583 I4.5562 J2.1537
G3 X-31.4771 Y-15.1958 I3.6193 J2.1365
G1 X-31.4314 Y-15.2688
G2 X-31.1971 Y-15.6632 I-5.6396 J-3.6168
G2 X-31.0939 Y-15.9046 I-1.2583 J-0.6808
G0 Z5.0
G0 X-32.0251 Y-12.5713
G1 Z0.0
G1 X-29.2201 Y-10.1577
G1 X-30.6948 Y-8.6868
G1 X-32.5648 Y-10.6937
G1 X-32.5411 Y-10.7823
G1 X-32.5151 Y-10.8702
G3 X-32.4585 Y-11.0447 I4.207 J1.2683
G1 X-32.3368 Y-11.3907
G2 X-32.1179 Y-12.0907 I-6.9422 J-2.5549
G2 X-32.0251 Y-12.5713 I-4.1597 J-1.0522
G0 Z5.0
G0 X-33.1007 Y-9.2266
G1 Z0.0
G2 X-32.8737 Y-8.9813 I1.8315 J-1.467
G1 X-32.7927 Y-8.9049
G2 X-32.4559 Y-8.6132 I4.9203 J-5.3405
G1 X-32.2285 Y-8.4224
G1 X-32.1002 Y-8.3114
G3 X-31.9576 Y-8.18 I-5.8104 J6.4536
G3 X-31.8844 Y-8.107 I-3.5046 J3.5898
G3 X-31.7298 Y-7.9278 I-1.5865 J1.5246
G3 X-31.6 Y-7.6883 I-0.6648 J0.5151
G3 X-31.626 Y-7.3604 I-0.3872 J0.1343
G3 X-31.9646 Y-7.0326 I-0.7711 J-0.4577
G3 X-32.429 Y-6.9518 I-0.3566 J-0.6748
G3 X-32.7306 Y-7.0483 I0.1387 J-0.9534
G3 X-33.0571 Y-7.3071 I0.5188 J-0.9898
G3 X-33.3173 Y-7.7808 I0.9702 J-0.8411
G3 X-33.3635 Y-8.4672 I1.5 J-0.4458
G3 X-33.2722 Y-8.8402 I2.0976 J0.3159
G3 X-33.1007 Y-9.2266 I2.6168 J0.9302
G0 Z5.0
G0 X-21.4627 Y-8.284
G1 Z0.0
G1 X-17.3693 Y-6.0035
G1 X-18.118 Y-3.4684
G3 X-19.0581 Y-4.1741 I2.8703 J-4.8026
G3 X-19.8383 Y-5.0534 I4.1705 J-4.4861
G3 X-20.2706 Y-5.7075 I6.7019 J-4.8987
G1 X-20.3217 Y-5.7948
G1 X-20.4277 Y-5.9827
G3 X-20.9308 Y-7.0146 I11.8036 J-6.3933
G1 X-21.052 Y-7.2956
G1 X-21.3196 Y-7.9406
G1 X-21.4627 Y-8.284
G0 Z5.0
G0 X-10.5737 Y31.3697
G1 Z0.0
G3 X-10.4194 Y31.341 I0.2466 J0.8979
G3 X-10.1672 Y31.3451 I0.1061 J1.2447
G3 X-9.6123 Y31.4996 I-0.2677 J2.0353
G3 X-9.0755 Y31.7881 I-1.3482 J3.1514
G3 X-8.5476 Y32.183 I-2.5783 J3.997
G3 X-8.1323 Y32.6217 I-1.6697 J1.9966
G3 X-7.8614 Y33.1616 I-1.3655 J1.0231
G3 X-7.8171 Y33.5648 I-1.1981 J0.3357
G3 X-7.9978 Y34.0805 I-0.9923 J-0.0582
G3 X-8.6343 Y34.4696 I-0.7844 J-0.5681
G3 X-9.0736 Y34.4555 I-0.1832 J-1.1402
G3 X-9.5368 Y34.2677 I0.3323 J-1.4845
G3 X-9.9691 Y33.9239 I1.1614 J-1.9044
G3 X-10.4046 Y33.4386 I4.4713 J-4.4507
G3 X-10.7721 Y32.9001 I3.2301 J-2.5989
G3 X-10.954 Y32.5046 I2.1245 J-1.2169
G3 X-11.0206 Y32.2641 I1.5976 J-0.5714
G3 X-11.0433 Y31.9782 I1.1667 J-0.2367
G3 X-10.9555 Y31.6555 I0.7378 J0.0275
G3 X-10.6438 Y31.3919 I0.515 J0.293
G3 X-10.5737 Y31.3697 I0.3167 J0.8756
G0 Z5.0
G0 X117.2623 Y12.4494
G1 Z0.0
G1 X117.0608 Y9.3973
G2 X119.1283 Y8.725 I-5.5499 J-20.5831
G2 X121.1259 Y7.8669 I-9.8465 J-25.676
G2 X122.4227 Y7.2197 I-16.5739 J-34.8281
G2 X124.1181 Y6.2936 I-27.7175 J-52.7582
G2 X124.2247 Y6.233 I-1.2951 J-2.4053
G2 X124.333 Y6.1713 I-1.3493 J-2.4938
G2 X125.3189 Y5.6011 I-35.9391 J-63.2739
G1 X126.4404 Y4.9412
G1 X127.7217 Y4.1874
G1 X128.4075 Y3.7898
G1 X128.5822 Y3.6897
G1 X128.7599 Y3.5884
G3 X130.3985 Y2.6891 I30.4105 J53.4622
G1 X130.8266 Y2.4669
G3 X132.8212 Y1.5261 I14.7448 J28.673
G3 X133.9136 Y1.0887 I8.9769 J20.8416
G1 X134.3202 Y4.0724
G1 X117.2623 Y12.4494
G0 Z5.0
G0 X117.9763 Y13.9011
G1 Z0.0
G1 X134.5217 Y5.7638
G3 X134.8163 Y7.1215 I-12.6849 J3.4628
G3 X134.8482 Y7.3175 I-3.893 J0.7349
G3 X135.0394 Y8.8936 I-24.978 J3.8288
G1 X135.0575 Y9.1046
G3 X133.4949 Y9.954 I-80.8658 J-146.9111
G1 X132.9719 Y10.2332
G1 X132.6724 Y10.3916
G1 X131.8717 Y10.8101
G3 X130.7986 Y11.3572 I-46.3819 J-89.6394
G3 X130.6597 Y11.4268 I-2.5262 J-4.8698
G3 X130.5161 Y11.4984 I-3.1454 J-6.1277
G3 X130.3677 Y11.5721 I-4.6649 J-9.2122
G1 X130.0507 Y11.7282
G3 X128.3484 Y12.5361 I-34.0679 J-69.5841
G1 X128.1271 Y12.6371
G3 X127.1108 Y13.0874 I-22.5482 J-49.5141
G1 X126.5653 Y13.3196
G3 X123.6108 Y14.4467 I-18.26 J-43.4308
G1 X123.4205 Y14.511
G3 X123.0266 Y14.6404 I-5.1314 J-14.9471
G1 X122.6185 Y14.7695
G3 X121.7426 Y15.0281 I-14.0338 J-45.9224
G3 X119.7137 Y15.5228 I-7.9366 J-28.1426
G1 X119.5847 Y15.5489
G3 X118.4785 Y15.745 I-5.1606 J-25.898
G1 X118.3385 Y15.7661
G1 X118.1973 Y15.7865
G1 X117.7906 Y13.9925
G1 X117.9763 Y13.9011
G0 Z5.0
G0 X119.7932 Y17.9022
G1 Z0.0
G1 X135.0575 Y10.9708
G1 Y13.392
G1 X134.7168 Y13.6615
G3 X134.6677 Y13.6996 I-0.4406 J-0.5165
G3 X134.6116 Y13.743 I-0.4745 J-0.5556
G1 X134.4614 Y13.8581
G3 X134.2599 Y14.01 I-13.3439 J-17.4859
G3 X133.4414 Y14.5999 I-14.6054 J-19.4017
G3 X131.7459 Y15.6936 I-16.1978 J-23.2507
G3 X128.1431 Y17.5061 I-14.0157 J-23.3727
G1 X127.9018 Y17.604
G1 X127.6517 Y17.7025
G3 X124.9206 Y18.5747 I-8.3821 J-21.5367
G3 X124.175 Y18.7469 I-6.4554 J-26.2387
G3 X122.449 Y19.0328 I-4.0414 J-19.0471
G1 X122.2281 Y19.0577
G1 X122.0034 Y19.0801
G1 X121.7748 Y19.1
G3 X119.6757 Y19.1387 I-1.3522 J-16.4051
G1 X119.1627 Y18.1885
G1 X119.7932 Y17.9022
G0 Z5.0
G0 X121.5382 Y21.1456
G1 Z0.0
G2 X123.5852 Y20.8405 I-1.6151 J-17.8567
G2 X125.5923 Y20.3352 I-5.0309 J-24.2213
G2 X126.9058 Y19.9129 I-9.6093 J-32.1426
G2 X127.2528 Y19.7907 I-5.0248 J-14.8222
G2 X129.0817 Y19.0819 I-13.2953 J-37.0183
G2 X131.47 Y18.0209 I-21.8423 J-52.3875
G1 X131.7749 Y17.8769
G1 X131.8517 Y17.8404
G1 X132.505 Y17.5263
G1 X133.1995 Y17.1867
G1 X133.9387 Y16.8218
G1 X134.1264 Y16.729
G3 X133.2365 Y18.7485 I-4.2211 J-0.6544
G3 X132.732 Y19.2937 I-4.2085 J-3.388
G3 X131.9608 Y19.911 I-4.4281 J-4.7414
G3 X131.7416 Y20.057 I-2.9742 J-4.2268
G3 X130.519 Y20.7291 I-5.8632 J-9.2184
G3 X129.7934 Y21.053 I-7.1932 J-15.1404
G3 X129.7472 Y21.0723 I-0.2126 J-0.4429
G3 X129.7006 Y21.0917 I-0.2146 J-0.4503
G3 X129.6536 Y21.1111 I-0.2167 J-0.458
G1 X129.2521 Y21.2721
G1 X128.8219 Y21.4363
G1 X128.3619 Y21.6049
G1 X128.1241 Y21.6899
G1 X127.617 Y21.8679
G1 X126.4635 Y22.2689
G1 X126.1668 Y22.374
G2 X126.0164 Y22.428 I1.1957 J3.566
G1 X125.707 Y22.5411
G1 X125.5504 Y22.5995
G2 X124.1455 Y23.1811 I6.9456 J18.7631
G2 X123.4234 Y23.5476 I5.1602 J11.0645
G2 X123.0968 Y23.117 I-4.9 J3.377
G2 X122.7452 Y22.7068 I-9.0525 J7.4031
G1 X122.5061 Y22.4374
G1 X122.3698 Y22.2831
G3 X122.015 Y21.8645 I10.2088 J-9.0114
G3 X121.8243 Y21.6154 I3.2532 J-2.6887
G3 X121.7289 Y21.4779 I3.7339 J-2.6917
G3 X121.5382 Y21.1456 I2.1301 J-1.4431
G0 Z5.0
G0 X125.8178 Y24.4827
G1 Z0.0
G1 X132.1195 Y22.6165
G3 X131.2941 Y23.3018 I-4.5627 J-4.6556
G3 X131.1682 Y23.3894 I-1.3435 J-1.797
G3 X131.0224 Y23.4868 I-1.6387 J-2.2955
G3 X129.7991 Y24.1684 I-5.6086 J-8.6282
G3 X129.4338 Y24.3322 I-3.714 J-7.7928
G3 X128.43 Y24.6938 I-3.6538 J-8.5673
G3 X127.8375 Y24.8397 I-1.8784 J-6.3544
G1 X127.6826 Y24.8679
G3 X126.9636 Y24.9287 I-0.6999 J-3.9966
G3 X126.5782 Y24.8945 I0.0261 J-2.4833
G3 X126.1792 Y24.7712 I0.2496 J-1.5154
G3 X125.8178 Y24.4827 I0.409 J-0.8826
G0 Z5.0
G0 X118.7404 Y7.2717
G1 Z0.0
G3 X116.734 Y7.953 I-6.424 J-15.6219
G1 X116.3311 Y5.5319
G2 X118.1969 Y4.486 I-18.484 J-35.1629
G2 X120.0195 Y3.3669 I-37.8397 J-63.6661
G1 X120.2607 Y3.2147
G1 X121.5443 Y2.3989
G3 X122.278 Y1.933 I48.8428 J76.1014
G1 X123.1189 Y1.4046
G3 X125.3905 Y0.0429 I35.8265 J57.1893
G1 X125.5367 Y-0.0401
G1 X125.6857 Y-0.1239
G1 X125.8373 Y-0.2084
G3 X126.1514 Y-0.3809 I8.0885 J14.3559
G3 X127.6082 Y-1.1303 I16.6087 J30.4953
G1 X127.796 Y-1.2202
G1 X127.9873 Y-1.3101
G3 X128.8117 Y-1.6768 I9.9847 J21.3396
G3 X130.7482 Y-2.3915 I8.3944 J19.7631
G3 X133.0508 Y-2.9325 I4.787 J15.2036
G2 X133.2101 Y-2.4118 I9.3168 J-2.566
G3 X133.3787 Y-1.894 I-32.9875 J11.0278
G3 X133.3891 Y-1.8604 I-0.2345 J0.0913
G1 X133.4353 Y-1.7067
G3 X133.6665 Y-0.443 I-5.5872 J1.6749
G2 X131.4536 Y0.3217 I5.4358 J19.3154
G2 X129.3312 Y1.3101 I10.1296 J24.5232
G2 X129.0544 Y1.4547 I4.0799 J8.1497
G2 X127.5987 Y2.2625 I18.8399 J35.6632
G2 X125.6967 Y3.4042 I43.2028 J74.135
G1 X124.6187 Y4.0704
G1 X124.0436 Y4.4253
G1 X123.4287 Y4.8012
G3 X122.0112 Y5.6391 I-30.0502 J-49.2227
G1 X121.6413 Y5.8481
G3 X119.919 Y6.7461 I-14.8235 J-26.3294
G3 X118.9747 Y7.1732 I-10.0794 J-21.0255
G3 X118.7404 Y7.2717 I-6.6584 J-15.5235
G0 Z5.0
G0 X116.9527 Y3.1536
G1 Z0.0
G3 X116.084 Y3.5175 I-14.5929 J-33.6165
G1 X115.5291 Y0.8532
G2 X117.6086 Y-0.2946 I-27.3956 J-52.0917
G2 X119.6543 Y-1.5017 I-68.9452 J-119.1859
G2 X119.7856 Y-1.5807 I-4.3852 J-7.4344
G1 X121.1841 Y-2.427
G3 X121.9833 Y-2.9105 I111.9471 J184.1335
G1 X122.1897 Y-3.0349
G1 X122.6307 Y-3.2996
G1 X123.1019 Y-3.5804
G1 X123.6058 Y-3.8776
G3 X124.7645 Y-4.5453 I46.9951 J80.2194
G3 X126.1046 Y-5.2805 I26.1787 J46.1257
G3 X126.8279 Y-5.6564 I14.599 J27.2068
G1 X127.2041 Y-5.8452
G1 X127.5944 Y-6.0358
G3 X127.9997 Y-6.2278 I6.9535 J14.1593
G3 X129.887 Y-7.0311 I12.0401 J25.6671
G3 X132.1195 Y-7.7557 I7.6701 J19.8292
G1 X132.1742 Y-7.4763
G1 X132.1917 Y-7.383
G1 X132.2598 Y-7.0095
G1 X132.2688 Y-6.9596
G2 X132.4246 Y-6.1647 I20.0395 J-3.5147
G2 X132.5566 Y-5.641 I9.2328 J-2.0488
