( Made using CamBam - http://www.cambam.co.uk )
( car2 1/22/2014 9:24:18 AM )
( T0 : 0.0 )
G21 G90 G64 G40
G0 Z5.0
( T0 : 0.0 )
T0 M6
( 11-40 )
G17
M3 S1000
G0 X364.823 Y0.6593
G1 F1.0 Z0.0
G3 X367.0722 Y-0.4903 I6.7558 J10.442
G3 X369.5006 Y-1.1857 I5.0651 J13.0999
G3 X369.5795 Y-1.2008 I0.3666 J1.701
G3 X369.6597 Y-1.2158 I0.349 J1.6513
G3 X371.3833 Y-1.4418 I3.1053 J16.9952
G3 X371.4379 Y-1.4463 I0.1051 J0.9524
G3 X373.7691 Y-1.5092 I1.7995 J23.457
G3 X373.8426 Y-1.5076 I0.0137 J1.0784
G3 X373.9167 Y-1.5058 I0.011 J1.086
G3 X375.2677 Y-1.4424 I-0.8158 J31.8053
G3 X376.8054 Y-1.3107 I-3.3126 J47.7251
G1 X377.2013 Y-1.2687
G1 X377.6095 Y-1.2226
G1 X378.0305 Y-1.1725
G3 X379.9474 Y-0.9197 I-12.4075 J101.4896
G3 X380.9675 Y-0.777 I-28.9188 J210.4278
G1 X381.4937 Y-0.7034
G1 X382.6155 Y-0.5506
G2 X385.1801 Y-0.2568 I8.3705 J-61.7231
G3 X386.6932 Y-0.0665 I-1.9337 J21.4859
G3 X388.183 Y0.2596 I-2.2126 J13.6769
G3 X389.1478 Y0.5824 I-2.6649 J9.5689
G3 X389.6799 Y0.8179 I-2.8973 J7.2636
G3 X390.2598 Y1.1455 I-2.7907 J5.6175
G1 X390.295 Y1.1685
G1 X390.3302 Y1.1921
G3 X390.9314 Y1.6834 I-2.2282 J3.3398
G3 X391.4627 Y2.4056 I-2.0046 J2.0311
G3 X391.733 Y3.4202 I-2.2328 J1.1383
G3 X391.7075 Y3.9909 I-2.9543 J0.1541
G3 X391.5718 Y4.5922 I-3.6265 J-0.503
G3 X391.3334 Y5.2089 I-4.4199 J-1.3542
G3 X390.9725 Y5.7795 I-2.4484 J-1.1487
G3 X390.4943 Y6.2561 I-2.647 J-2.1779
G3 X390.1358 Y6.5284 I-2.8343 J-3.3596
G1 X390.0368 Y6.5961
G3 X389.4943 Y6.9321 I-5.4773 J-8.239
G3 X389.1777 Y7.1118 I-10.4435 J-18.0259
G3 X389.0956 Y7.1575 I-0.7031 J-1.1661
G2 X388.2277 Y7.6491 I12.8641 J23.7232
G2 X388.0018 Y7.789 I2.3396 J4.0314
G2 X387.506 Y8.1388 I3.0491 J4.8478
G2 X387.0007 Y8.6154 I2.1644 J2.8007
G2 X386.5722 Y9.2927 I1.9235 J1.6913
G2 X386.3702 Y10.2059 I2.4019 J1.0101
G2 X386.385 Y10.7111 I3.8063 J0.1413
G2 X386.419 Y10.9708 I4.0327 J-0.3952
G2 X382.7933 Y8.6989 I-13.3977 J17.3521
G2 X378.7859 Y7.1999 I-9.3254 J18.8238
G2 X375.982 Y6.6608 I-5.547 J21.2886
G2 X373.2342 Y6.4302 I-4.1572 J33.0522
G2 X372.3151 Y6.4068 I-1.0955 J24.9459
G2 X372.1964 Y6.406 I-0.0783 J2.8059
G2 X371.654 Y6.4092 I-0.1298 J23.4956
G2 X370.2095 Y6.4805 I0.3866 J22.5
G2 X369.3877 Y6.5703 I1.1456 J14.2913
G2 X368.9515 Y6.6361 I1.2757 J9.9397
G2 X367.9645 Y6.8441 I1.7854 J10.9165
G2 X366.87 Y7.214 I1.8662 J7.326
G2 X366.3179 Y7.4931 I2.18 J4.9971
G2 X365.7775 Y7.8793 I1.8946 J3.2227
G2 X365.304 Y8.421 I1.7102 J1.9726
G2 X365.0073 Y9.1571 I1.7681 J1.1405
G2 X365.0026 Y10.0473 I2.4738 J0.4582
G2 X365.1112 Y10.5062 I3.6292 J-0.6163
G2 X365.2828 Y10.9708 I4.2104 J-1.2917
G2 X366.0168 Y12.2747 I6.3262 J-2.7027
G2 X367.0048 Y13.3984 I6.1268 J-4.3909
G1 X367.0756 Y13.4642
G2 X367.8728 Y14.1165 I6.3699 J-6.9715
G2 X369.0304 Y14.8514 I6.4179 J-8.8311
G3 X367.6317 Y14.7058 I4.2488 J-47.6124
G3 X366.2377 Y14.5201 I6.3351 J-52.8783
G3 X363.4733 Y14.0033 I5.3942 J-36.5094
G3 X362.6921 Y13.8141 I6.0313 J-26.6072
G1 X362.2776 Y13.7047
G1 X361.8373 Y13.5812
G3 X359.5296 Y12.7916 I6.6044 J-23.0697
G3 X358.9293 Y12.5405 I11.9334 J-29.3718
G3 X358.2977 Y12.252 I8.8747 J-20.2693
G3 X356.8949 Y11.5083 I8.1703 J-17.1056
G1 X356.7215 Y11.4051
G1 X356.5466 Y11.2982
G1 X356.3703 Y11.1876
G3 X354.8252 Y10.0719 I8.716 J-13.6981
G3 X353.242 Y8.5687 I9.1255 J-11.1972
G3 X354.6637 Y6.4419 I4.2639 J1.3117
G3 X355.3679 Y5.9433 I3.5546 J4.2732
G3 X356.3927 Y5.4293 I4.0358 J6.7692
G1 X356.598 Y5.3364
G1 X356.8013 Y5.2394
G2 X357.2043 Y5.0378 I-6.0705 J-12.6406
G2 X357.2578 Y5.0104 I-1.3749 J-2.7467
G1 X357.5421 Y4.8625
G1 X357.7041 Y4.777
G1 X358.1343 Y4.5462
G2 X359.8407 Y3.597 I-43.6667 J-80.5077
G1 X360.3254 Y3.3207
G2 X360.8781 Y3.003 I-19.986 J-35.4094
G1 X361.1725 Y2.8328
G1 X361.8441 Y2.4418
G1 X362.61 Y1.9919
G1 X362.8073 Y1.8752
G1 X363.7076 Y1.3391
G1 X364.1862 Y1.0507
G1 X364.6946 Y0.7396
G1 X364.823 Y0.6593
G0 Z5.0
G0 X371.9684 Y-17.919
G1 Z0.0
G1 X371.444 Y-20.3325
G1 X371.8484 Y-20.2212
G1 X371.9834 Y-20.1849
G3 X372.5209 Y-20.0307 I-2.8542 J10.9642
G3 X372.592 Y-20.0081 I-0.2188 J0.8127
G3 X372.6676 Y-19.9833 I-0.3926 J1.3241
G3 X373.0651 Y-19.835 I-1.5479 J4.7538
G3 X373.286 Y-19.7347 I-1.5352 J3.6769
G3 X373.8346 Y-19.3899 I-1.2444 J2.5885
G1 X371.9684 Y-17.919
G0 Z5.0
G0 X362.8693 Y-20.3325
G1 Z0.0
G1 X343.6146 Y-21.7996
G1 X341.6077 Y-23.6658
G1 X341.7694 Y-23.6417
G1 X341.9312 Y-23.618
G1 X342.2549 Y-23.5717
G1 X342.9028 Y-23.4829
G2 X344.2006 Y-23.3202 I9.3457 J-69.2725
G2 X346.8019 Y-23.0448 I12.0614 J-101.504
G1 X347.5462 Y-22.9766
G2 X347.7384 Y-22.9597 I0.5221 J-4.83
G2 X349.7891 Y-22.7951 I11.3688 J-128.7785
G2 X352.526 Y-22.6148 I14.59 J-200.6662
G1 X352.8794 Y-22.5944
G1 X353.6333 Y-22.5527
G1 X354.4376 Y-22.511
G1 X355.2956 Y-22.4694
G2 X359.8733 Y-22.2872 I18.4082 J-404.9284
G2 X360.164 Y-22.2773 I0.5991 J-13.2189
G1 X361.4043 Y-22.2355
G1 X362.0446 Y-22.2139
G1 X362.8693 Y-20.3325
G0 Z5.0
G0 X361.8051 Y-23.6658
G1 Z0.0
G1 X351.7634 Y-24.2055
G1 Y-25.5434
G1 X352.5023 Y-25.5035
G1 X352.7485 Y-25.4897
G1 X353.7334 Y-25.4324
G1 X354.0148 Y-25.4153
G1 X354.7649 Y-25.3683
G1 X355.7649 Y-25.3014
G1 X356.0316 Y-25.2825
G1 X356.6409 Y-25.2375
G1 X357.3368 Y-25.1817
G1 X357.3807 Y-25.1779
G3 X357.5616 Y-25.1623 I-0.7784 J10.0515
G1 X357.9474 Y-25.127
G1 X357.9717 Y-25.1246
G1 X358.1714 Y-25.1049
G1 X358.5971 Y-25.0583
G1 X358.8164 Y-25.0307
G3 X359.2814 Y-24.9504 I-0.5821 J4.7609
G3 X360.0689 Y-24.7149 I-1.5353 J6.5676
G3 X360.1789 Y-24.6736 I-0.5885 J1.7346
G1 X360.3036 Y-24.624
G3 X361.2512 Y-24.1208 I-1.9769 J4.8671
G3 X361.8051 Y-23.6658 I-2.0484 J3.0582
G0 Z5.0
G0 X360.8625 Y-26.0792
G1 Z0.0
G3 X358.3089 Y-26.0234 I-1.8207 J-24.8484
G3 X355.7643 Y-26.2444 I0.7488 J-23.3821
G3 X350.8323 Y-27.5463 I3.1191 J-21.8083
G3 X350.8388 Y-27.5849 I0.0409 J-0.0129
G3 X350.8672 Y-27.6118 I0.0958 J0.0723
G3 X350.933 Y-27.646 I0.1812 J0.2686
G3 X351.0681 Y-27.6889 I0.3389 J0.8335
G1 X351.159 Y-27.71
G3 X351.5198 Y-27.7684 I0.9783 J4.8978
G3 X352.2394 Y-27.8325 I1.4196 J11.8706
G3 X353.675 Y-27.8674 I1.2835 J23.2279
G1 X354.085 Y-27.8617
G3 X355.1762 Y-27.8163 I-0.524 J25.7364
G1 X355.3168 Y-27.8072
G1 X355.6165 Y-27.7853
G1 X355.9358 Y-27.7579
G3 X357.6285 Y-27.5323 I-1.7665 J19.7149
G3 X358.5823 Y-27.3243 I-2.2763 J12.7265
G3 X359.0826 Y-27.1791 I-2.1427 J8.3207
G3 X359.605 Y-26.9878 I-1.895 J5.9831
G3 X360.1391 Y-26.7251 I-1.6406 J4.0094
G3 X360.6511 Y-26.3401 I-1.2436 J2.1868
G3 X360.8625 Y-26.0792 I-1.0223 J1.0447
G0 Z5.0
G0 X367.5003 Y-28.9256
G1 Z0.0
G3 X367.4838 Y-28.9648 I4.494 J-1.9271
G1 X367.4316 Y-29.0902
G1 X367.379 Y-29.2251
G3 X367.149 Y-29.9599 I6.1236 J-2.3201
G3 X368.3536 Y-29.7965 I-0.8354 J10.6827
G3 X368.7494 Y-29.7091 I-1.2163 J6.4462
G1 X368.9735 Y-29.6504
G3 X369.2272 Y-29.5748 I-1.3764 J5.0827
G3 X369.8866 Y-29.3219 I-1.6245 J5.2223
G3 X370.6964 Y-28.8384 I-1.6975 J3.7629
G3 X371.092 Y-28.4682 I-1.7129 J2.2268
G3 X371.444 Y-27.9531 I-1.7947 J1.6042
G1 X371.176 Y-27.8486
G1 X370.906 Y-27.7492
G1 X370.7249 Y-27.6857
G3 X369.9924 Y-27.4574 I-3.887 J-11.1867
G1 X369.7801 Y-27.4026
G3 X369.2046 Y-27.2982 I-1.0207 J-3.9902
G3 X368.869 Y-27.2991 I-0.1644 J-1.3997
G3 X368.696 Y-27.3563 I0.0559 J-0.4592
G3 X368.3437 Y-27.6326 I1.1234 J-1.7951
G3 X368.0478 Y-27.9686 I1.8142 J-1.8955
G1 X367.9723 Y-28.0719
G3 X367.5003 Y-28.9256 I4.022 J-2.7808
G0 Z5.0
G0 X348.1033 Y-27.4513
G1 Z0.0
G1 X346.412 Y-27.5463
G1 Y-28.4814
G3 X346.586 Y-28.6448 I0.224 J0.0643
G3 X346.8247 Y-28.6434 I0.1161 J0.5316
G3 X347.2368 Y-28.4796 I-0.3044 J1.3664
G3 X347.8567 Y-27.9355 I-1.0338 J1.8031
G3 X348.1033 Y-27.4513 I-1.1636 J0.8976
G0 Z5.0
G0 X337.6919 Y-23.7413
G1 Z0.0
G3 X337.9521 Y-22.8921 I-9.2972 J3.3129
G3 X338.263 Y-21.2637 I-12.0827 J3.151
G3 X337.1009 Y-22.0612 I4.2807 J-7.4835
G3 X336.0509 Y-23.0014 I9.3459 J-11.4934
G1 X335.9168 Y-23.1332
G1 X335.6139 Y-23.4378
G1 X335.3577 Y-23.6963
G1 X335.0993 Y-23.9525
G1 X334.9257 Y-24.122
G2 X334.6924 Y-24.3462 I-24.4283 J25.1812
G2 X334.5581 Y-24.4734 I-5.7534 J5.9419
G2 X334.4038 Y-24.6177 I-3.6248 J3.7214
G2 X333.1302 Y-25.7289 I-17.9386 J19.2746
G2 X332.2364 Y-26.4156 I-12.4471 J15.276
G2 X330.9788 Y-27.2389 I-9.1468 J12.5998
G1 X330.8106 Y-27.3357
G2 X328.9261 Y-28.1949 I-5.5584 J9.696
G2 X327.7806 Y-28.5059 I-3.0052 J8.8039
G2 X324.5988 Y-28.473 I-1.5145 J7.4098
G2 X322.8623 Y-27.8656 I1.8865 J8.179
G3 X323.2783 Y-27.0192 I-27.389 J13.9888
G1 X323.6832 Y-26.1675
G2 X323.9686 Y-25.6073 I13.8281 J-6.6906
G2 X324.4145 Y-24.8967 I5.3008 J-2.8314
G1 X324.4803 Y-24.8105
G2 X325.3213 Y-24.0115 I3.1355 J-2.4582
G2 X325.8904 Y-23.6645 I3.1752 J-4.567
G2 X326.2093 Y-23.5066 I2.8256 J-5.3086
G2 X326.9611 Y-23.1993 I4.2145 J-9.2358
G1 X327.0583 Y-23.1644
G1 X327.1571 Y-23.1299
G3 X329.4496 Y-22.0438 I-3.293 J9.9135
G3 X331.4183 Y-20.4439 I-5.9763 J9.3651
G3 X332.5199 Y-19.159 I-8.8886 J8.7351
G3 X333.074 Y-18.3665 I-10.9945 J8.276
G3 X334.3011 Y-16.108 I-14.0591 J9.1017
G3 X334.8549 Y-14.7495 I-17.1915 J7.8002
G1 X334.9183 Y-14.5743
G3 X333.9531 Y-14.9486 I0.3525 J-2.3404
G3 X333.6741 Y-15.1554 I1.691 J-2.5724
G3 X333.5226 Y-15.2836 I2.1706 J-2.7188
G1 X333.1292 Y-15.634
G2 X333.0226 Y-15.7253 I-5.8018 J6.6624
G2 X332.7709 Y-15.9236 I-2.732 J3.2081
G3 X331.8892 Y-16.5883 I43.1587 J-58.173
G1 X331.5975 Y-16.8127
G3 X330.4398 Y-17.7222 I48.7577 J-63.2534
G3 X330.1109 Y-17.9845 I33.38 J-42.1989
G1 X329.9356 Y-18.1245
G1 X329.5346 Y-18.4442
G2 X328.453 Y-19.2809 I-26.1313 J32.6631
G2 X327.8129 Y-19.7295 I-9.5597 J12.959
G1 X327.6432 Y-19.8386
G2 X326.8334 Y-20.2826 I-3.8746 J6.1054
G1 X326.7804 Y-20.3068
G2 X325.7671 Y-20.6483 I-2.2746 J5.0744
G2 X325.203 Y-20.7489 I-1.4728 J6.6307
G2 X323.8886 Y-20.8078 I-1.0431 J8.5733
G2 X323.549 Y-20.7951 I0.2045 J9.9925
G2 X322.0061 Y-20.6527 I1.1628 J21.0351
G1 X321.9092 Y-20.6405
G1 X321.8116 Y-20.6279
G1 X321.4098 Y-20.5731
G1 X321.3086 Y-20.5587
G1 X321.2067 Y-20.5439
G1 X321.1041 Y-20.5288
G1 X320.6814 Y-20.4643
G2 X319.7833 Y-20.318 I40.1575 J249.318
G1 X319.5556 Y-20.2793
G3 X316.3415 Y-17.7977 I-21.0094 J-23.8878
G3 X315.1974 Y-17.0728 I-14.1795 J-21.114
G3 X313.5996 Y-16.23 I-8.6718 J-14.5054
G1 X313.3864 Y-16.1354
G3 X312.3869 Y-15.7613 I-4.0408 J-9.2729
G3 X311.8364 Y-15.6128 I-1.9286 J-6.0537
G3 X311.2356 Y-15.5093 I-1.2412 J-5.4118
G2 X311.3417 Y-14.9508 I4.3538 J-0.5372
G2 X311.5355 Y-14.4164 I3.0565 J-0.8064
G2 X312.2064 Y-13.503 I2.6621 J-1.2523
G2 X312.8116 Y-13.0469 I2.6851 J-2.9332
G2 X313.7038 Y-12.5876 I3.7217 J-6.1326
G2 X313.8225 Y-12.5359 I2.4552 J-5.4791
G1 X314.0765 Y-12.4292
G1 X314.6565 Y-12.1948
G3 X315.311 Y-11.9203 I-6.2466 J15.8117
G1 X315.3931 Y-11.8834
G1 X315.4762 Y-11.8452
G3 X315.6463 Y-11.764 I-1.7519 J3.8882
G3 X316.3886 Y-11.3383 I-2.7683 J5.6868
G3 X317.123 Y-10.6937 I-2.0763 J3.1065
G3 X316.9771 Y-9.7838 I-6.2785 J-0.5408
G3 X316.67 Y-8.9149 I-4.2596 J-1.0165
G3 X316.3564 Y-8.3852 I-3.2674 J-1.577
G3 X315.7978 Y-7.7824 I-2.6062 J-1.8544
G3 X314.8593 Y-7.2147 I-2.3484 J-2.8231
G3 X314.2665 Y-7.0086 I-1.8961 J-4.4977
G3 X313.5679 Y-6.8585 I-1.68 J-6.1168
G3 X312.7612 Y-6.7729 I-1.2609 J-8.0394
G3 X312.3305 Y-6.756 I-0.54 J-8.2932
G3 X311.3566 Y-6.773 I-0.238 J-14.3021
G3 X311.2954 Y-6.7761 I0.0024 J-0.6398
G3 X310.7766 Y-6.811 I1.4437 J-25.3321
G3 X309.6126 Y-6.9303 I2.2145 J-27.3459
G1 X309.314 Y-6.9674
G1 X309.1627 Y-6.9868
G1 X308.523 Y-7.0723
G1 X308.3609 Y-7.0944
G1 X307.6749 Y-7.187
G1 X307.3221 Y-7.2321
G1 X307.143 Y-7.2538
G1 X307.0528 Y-7.2643
G1 X306.8698 Y-7.2847
G2 X306.4929 Y-7.3214 I-1.9933 J18.4724
G1 X306.3016 Y-7.3367
G2 X305.4889 Y-7.3604 I-0.6599 J8.6884
G1 X305.5907 Y-7.5224
G1 X305.6884 Y-7.6871
G2 X305.8687 Y-8.0248 I-5.3417 J-3.0696
G2 X306.146 Y-8.738 I-3.6143 J-1.8158
G2 X306.2422 Y-9.24 I-3.1939 J-0.8722
G2 X306.2257 Y-9.9227 I-2.6253 J-0.278
G2 X305.9597 Y-10.7948 I-3.3002 J0.5298
G2 X305.7214 Y-11.2581 I-4.6091 J2.0781
G2 X305.4045 Y-11.759 I-6.2606 J3.6096
G2 X305.0081 Y-12.3026 I-10.8535 J7.499
G2 X304.7873 Y-12.5835 I-7.056 J5.3185
G2 X304.5475 Y-12.8776 I-35.7193 J28.8858
G1 X304.2886 Y-13.1859
G1 X304.0103 Y-13.5101
G2 X304.8955 Y-14.1 I-1.1003 J-2.6102
G2 X305.5053 Y-14.9717 I-2.1906 J-2.1816
G2 X305.5199 Y-15.0025 I-0.2074 J-0.1168
G2 X305.7671 Y-15.6796 I-4.216 J-1.9228
G2 X305.9496 Y-16.6168 I-6.376 J-1.7285
G2 X305.9773 Y-16.8696 I-5.4686 J-0.7256
G2 X305.999 Y-17.1394 I-7.0455 J-0.7022
G2 X306.0139 Y-18.5635 I-14.4927 J-0.8645
G2 X305.8824 Y-20.4282 I-30.9132 J1.2442
G2 X305.774 Y-21.4833 I-70.9079 J6.7479
G1 X305.6481 Y-22.6803
G1 X305.6406 Y-22.7558
G1 X305.6105 Y-23.0669
G1 X305.5816 Y-23.3877
G1 X305.5747 Y-23.4686
G1 X305.568 Y-23.5502
G1 X305.5422 Y-23.8862
G1 X305.5306 Y-24.0569
G1 X305.52 Y-24.2303
G1 X305.5024 Y-24.5879
G1 X305.4913 Y-24.957
G1 X305.4889 Y-25.1444
G2 X306.3493 Y-25.1261 I0.9913 J-26.3792
G1 X306.6362 Y-25.1258
G2 X307.7834 Y-25.1463 I-0.2964 J-48.6703
G1 X308.5479 Y-25.1719
G1 X309.5671 Y-25.208
G1 X310.1496 Y-25.2237
G3 X310.3 Y-25.2266 I0.1566 J4.1978
G1 X310.6208 Y-25.2307
G3 X312.3315 Y-25.1788 I0.2621 J19.5731
G3 X312.786 Y-25.1344 I-0.8027 J10.5509
G1 X313.0199 Y-25.1047
G3 X314.0794 Y-24.8998 I-1.2429 J9.266
G3 X315.2496 Y-24.4967 I-1.8152 J7.1702
G3 X316.482 Y-23.784 I-2.666 J6.0313
G3 X317.6856 Y-22.6692 I-4.296 J5.8457
G3 X317.9564 Y-22.3418 I-6.0901 J5.3135
G1 X318.088 Y-22.1706
G3 X318.2176 Y-21.9934 I-3.6945 J2.8402
G2 X318.297 Y-21.9253 I0.1867 J-0.1372
G2 X318.395 Y-21.8887 I0.2052 J-0.4007
G2 X318.5996 Y-21.8657 I0.2083 J-0.9315
G2 X319.0007 Y-21.9006 I-0.0121 J-2.4676
G2 X319.7675 Y-22.0847 I-1.0256 J-5.9591
G1 X319.8679 Y-22.1157
G2 X321.4027 Y-22.7346 I-3.2386 J-10.244
G2 X321.1551 Y-23.3849 I-4.8397 J1.4697
G2 X320.821 Y-23.9955 I-4.6508 J2.1485
G2 X320.5589 Y-24.3784 I-4.5256 J2.8163
G2 X320.1715 Y-24.8602 I-6.9653 J5.2053
G2 X319.9345 Y-25.1222 I-14.5672 J12.934
G2 X319.2645 Y-25.7818 I-9.3719 J8.8513
G2 X319.2204 Y-25.8221 I-0.4172 J0.4109
G2 X319.1755 Y-25.863 I-0.4242 J0.4209
G2 X319.1298 Y-25.9043 I-0.4318 J0.4316
G2 X318.7071 Y-26.2754 I-10.2777 J11.2802
G1 X318.4787 Y-26.4697
G1 X318.2338 Y-26.675
G2 X318.1714 Y-26.727 I-0.819 J0.9198
G1 X317.9051 Y-26.948
G1 X317.2988 Y-27.454
G1 X317.1436 Y-27.5859
G1 X317.0651 Y-27.6533
G3 X316.7334 Y-27.944 I10.7054 J-12.55
G3 X316.5646 Y-28.0967 I3.8028 J-4.374
G1 X316.3925 Y-28.2565
G3 X315.6445 Y-29.0249 I8.284 J-8.8132
G1 X320.8744 Y-27.9531
G2 X321.1003 Y-28.252 I-1.5666 J-1.4187
G2 X321.2655 Y-28.5881 I-1.3668 J-0.8807
G2 X321.3365 Y-29.3305 I-1.4172 J-0.5101
G2 X321.201 Y-29.8116 I-1.9606 J0.2926
G2 X320.8911 Y-30.3934 I-3.3615 J1.4173
G2 X320.6782 Y-30.7009 I-5.0423 J3.2626
G1 X320.5585 Y-30.8594
G2 X319.8995 Y-31.6511 I-14.7816 J11.6344
G1 X319.5206 Y-32.0915
G3 X319.3233 Y-32.328 I5.8901 J-5.1143
G3 X319.1198 Y-32.5834 I5.001 J-4.1932
G3 X318.6988 Y-33.1901 I5.4594 J-4.2376
G1 X318.6513 Y-33.271
G1 X318.6281 Y-33.3122
G3 X318.5373 Y-33.7024 I0.6888 J-0.366
G3 X318.6118 Y-34.096 I1.2906 J0.0407
G3 X318.9892 Y-34.7831 I2.3653 J0.8519
G3 X319.6075 Y-34.6749 I-0.8098 J6.4454
G1 X319.6484 Y-34.6656
G3 X320.2954 Y-34.4932 I-2.2641 J9.796
G1 X320.4784 Y-34.4373
G3 X321.9183 Y-33.9234 I-6.8164 J21.3734
G3 X322.8608 Y-33.5365 I-13.2332 J33.5808
G3 X324.102 Y-32.9862 I-21.8388 J50.9251
G1 X324.2611 Y-32.9128
G3 X325.9455 Y-32.1068 I-27.0556 J58.7004
G1 X326.3915 Y-31.8854
G3 X327.4064 Y-31.3711 I-34.2207 J68.7853
G1 X327.6674 Y-31.2366
G1 X328.223 Y-30.9478
G1 X328.3639 Y-30.874
G1 X328.964 Y-30.5574
G1 X329.6023 Y-30.2165
G3 X332.9797 Y-28.3548 I-95.2892 J176.8626
G1 X333.8743 Y-27.8478
G1 X334.8264 Y-27.3035
G1 X335.3173 Y-27.0218
G3 X336.3711 Y-26.0891 I-2.9718 J4.4191
G3 X337.1678 Y-24.929 I-4.8925 J4.2134
G3 X337.5647 Y-24.0787 I-7.1449 J3.8532
G3 X337.6919 Y-23.7413 I-9.1699 J3.6503
G0 Z5.0
G0 X309.4682 Y-30.4349
G1 Z0.0
G1 X308.4306 Y-41.0582
G1 X310.4375 Y-38.7435
G1 X309.4682 Y-30.4349
G0 Z5.0
G0 X307.8834 Y-30.3551
G1 Z0.0
G1 X306.9521
G1 X306.4237 Y-42.4037
G3 X306.7413 Y-41.599 I-9.7947 J4.331
G3 X306.9977 Y-40.7728 I-12.0132 J4.18
G3 X307.3536 Y-39.081 I-14.8373 J4.0048
G1 X307.3878 Y-38.853
G3 X307.5286 Y-37.6318 I-23.821 J3.3656
G3 X307.5833 Y-36.9318 I-57.003 J4.8074
G3 X307.5892 Y-36.8428 I-1.2249 J0.1255
G3 X307.5949 Y-36.7523 I-1.2547 J0.1251
G3 X307.6005 Y-36.6604 I-1.2866 J0.1247
G3 X307.606 Y-36.5671 I-1.3211 J0.1244
G3 X307.6114 Y-36.4722 I-1.3585 J0.1241
G3 X307.6166 Y-36.3759 I-1.3991 J0.124
G3 X307.6216 Y-36.278 I-1.4436 J0.124
G3 X307.6266 Y-36.1785 I-1.4923 J0.1241
G3 X307.6455 Y-35.7544 I-17.0506 J0.9734
G3 X307.6789 Y-34.785 I-52.998 J2.3102
G3 X307.6825 Y-34.6619 I-4.6541 J0.1973
G1 X307.697 Y-34.1368
G1 X307.7317 Y-32.9375
G2 X307.7425 Y-32.628 I11.1496 J-0.2347
G1 X307.7704 Y-31.9684
G1 X307.7788 Y-31.8009
G1 X307.788 Y-31.6308
G1 X307.7981 Y-31.458
G2 X307.8214 Y-31.1016 I12.131 J-0.6141
G1 X307.8495 Y-30.7341
G1 X307.8834 Y-30.3551
G0 Z5.0
G0 X296.785 Y-36.6493
G1 Z0.0
G3 X294.8586 Y-37.2963 I1.445 J-7.4935
G3 X293.1884 Y-38.4538 I3.1861 J-6.3815
G3 X292.2734 Y-39.4558 I5.6344 J-6.0641
G3 X292.0568 Y-39.7459 I13.636 J-10.4067
G3 X291.0792 Y-41.4011 I9.2996 J-6.6086
G3 X290.6354 Y-42.4037 I14.07 J-6.8279
G2 X290.102 Y-43.2739 I-3.6323 J1.6276
G2 X289.3524 Y-43.9664 I-2.7388 J2.2128
G2 X288.7577 Y-44.3002 I-2.177 J3.182
G2 X287.8989 Y-44.5918 I-1.9617 J4.3677
G2 X286.7105 Y-44.7698 I-1.6473 J6.939
G2 X286.6727 Y-44.7725 I-0.0382 J0.2725
G2 X286.3505 Y-44.7893 I-0.5374 J7.2261
G2 X286.0074 Y-44.7966 I-0.3485 J8.2742
G2 X285.2275 Y-44.7804 I-0.1268 J12.6542
G2 X284.8135 Y-44.7569 I0.6215 J14.6141
G1 X284.7085 Y-44.7496
G2 X284.4922 Y-44.733 I0.27 J4.9436
G1 X284.033 Y-44.6918
G1 X283.5456 Y-44.6408
G1 X283.2947 Y-44.6123
G1 X282.762 Y-44.5481
G1 X282.1965 Y-44.4763
G1 X281.5958 Y-44.399
G3 X281.5201 Y-44.3894 I-0.313 J-2.1468
G1 X280.8769 Y-44.309
G1 X280.5452 Y-44.2697
G1 X280.3768 Y-44.2505
G1 X280.0296 Y-44.213
G3 X278.4498 Y-44.0925 I-2.7453 J-25.5746
G1 X278.3501 Y-44.0886
G1 X278.2496 Y-44.0852
G3 X277.394 Y-44.0828 I-0.4699 J-14.7049
G3 X276.485 Y-44.1444 I0.2657 J-10.6532
G2 X276.5547 Y-44.0931 I0.5479 J-0.6703
G2 X276.6249 Y-44.0423 I0.6184 J-0.7809
G1 X276.7663 Y-43.9421
G2 X276.8612 Y-43.8763 I1.36 J-1.8602
G1 X276.9886 Y-43.7897
G1 X277.0617 Y-43.7409
G2 X277.6592 Y-43.3687 I5.9076 J-8.8163
G2 X277.7407 Y-43.3221 I0.6856 J-1.1052
G1 X277.8283 Y-43.2734
G2 X278.3076 Y-43.0375 I2.7235 J-4.9282
G2 X278.5944 Y-42.932 I0.9469 J-2.1322
G3 X278.5393 Y-42.767 I-0.348 J-0.0247
G3 X278.4241 Y-42.6368 I-0.4947 J-0.3215
G3 X278.1321 Y-42.461 I-0.7767 J-0.9601
G1 X278.0425 Y-42.4234
G3 X277.7999 Y-42.3405 I-1.029 J-2.6165
G3 X277.6595 Y-42.3017 I-0.5516 J-1.7201
G3 X277.2844 Y-42.2196 I-1.4301 J-5.6361
G3 X277.0691 Y-42.183 I-0.8506 J-4.3523
G3 X276.823 Y-42.1482 I-0.9188 J-5.6178
G1 X276.5422 Y-42.1161
G3 X276.3923 Y-42.1018 I-0.5847 J-5.3343
G1 X276.2326 Y-42.0885
G1 X276.0625 Y-42.0763
G3 X275.1606 Y-42.0407 I-1.0937 J-16.2556
G3 X275.0442 Y-42.0392 I-0.0809 J-1.7396
G3 X273.811 Y-42.059 I-0.2591 J-22.2134
G3 X273.7722 Y-42.0607 I-0.0022 J-0.4156
G1 X273.4415 Y-42.0767
G1 X273.271 Y-42.0866
G1 X272.9079 Y-42.1112
G3 X272.8157 Y-42.1182 I0.0858 J-1.7352
G3 X272.6256 Y-42.1337 I0.6381 J-9.015
G3 X270.6166 Y-42.3851 I2.0072 J-24.1925
G1 X270.3593 Y-42.4305
G1 X270.0946 Y-42.4812
G3 X268.8985 Y-42.7723 I2.7475 J-13.8888
G3 X269.1029 Y-42.8474 I1.7176 J4.3619
G1 X269.308 Y-42.9203
G1 X269.4451 Y-42.9682
G1 X269.9938 Y-43.1576
G1 X270.3585 Y-43.2871
G2 X270.84 Y-43.4729 I-3.0783 J-8.6934
G2 X270.9668 Y-43.5264 I-0.798 J-2.0682
G1 X271.1011 Y-43.586
G2 X271.7887 Y-43.9621 I-1.9529 J-4.3868
G2 X271.9587 Y-44.0844 I-4.3387 J-6.2108
G2 X272.3117 Y-44.4104 I-1.4767 J-1.9525
G1 X272.051 Y-44.4283
G1 X271.7903 Y-44.4477
G1 X271.2694 Y-44.491
G1 X270.9223 Y-44.5228
G3 X270.7241 Y-44.542 I0.482 J-5.997
G3 X269.1411 Y-44.7205 I6.4016 J-63.9064
G3 X265.9892 Y-45.1835 I9.5028 J-75.6395
G1 X265.5702 Y-45.254
G3 X263.3411 Y-45.6578 I16.0774 J-95.1122
G3 X260.3812 Y-46.2574 I25.779 J-134.8523
G1 X259.5939 Y-46.427
G1 X258.7551 Y-46.6117
G3 X257.8611 Y-46.8126 I192.1357 J-857.0225
G2 X257.594 Y-46.2572 I3.7785 J2.1589
G2 X257.3979 Y-45.673 I4.9659 J1.9921
G2 X257.1699 Y-44.4642 I7.8161 J2.1003
G2 X257.1334 Y-44.1145 I9.6186 J1.1813
G1 X257.1175 Y-43.9277
G2 X257.0887 Y-43.5005 I12.6961 J1.07
G1 X257.0647 Y-43.0121
G1 X257.0427 Y-42.4542
G1 X257.0152 Y-41.8174
G3 X256.9666 Y-41.0915 I-21.9091 J-1.1021
G1 X256.9582 Y-40.9994
G3 X256.8459 Y-40.1626 I-9.0603 J-0.7903
G3 X256.7509 Y-39.7221 I-6.5671 J-1.1858
G3 X256.3974 Y-38.7509 I-4.5226 J-1.096
G3 X256.2686 Y-38.5159 I-4.079 J-2.0842
G3 X255.4514 Y-37.5804 I-2.9319 J-1.7363
G2 X255.3 Y-38.0209 I-9.2783 J2.9427
G1 X255.2438 Y-38.1657
G2 X254.993 Y-38.7337 I-8.2663 J3.3104
G2 X254.9567 Y-38.8081 I-1.3018 J0.5884
G2 X254.306 Y-39.9607 I-11.666 J5.8258
G2 X253.8205 Y-40.6974 I-17.7075 J11.1417
G1 X253.5329 Y-41.1112
G1 X253.2 Y-41.5809
G3 X252.8194 Y-42.1172 I31.7541 J-22.9401
G1 X252.6184 Y-42.4046
G3 X252.171 Y-43.0693 I26.8786 J-18.5724
G1 X252.1159 Y-43.1549
G1 X252.0603 Y-43.2421
G3 X251.5807 Y-44.0561 I12.0727 J-7.6608
G1 X251.5242 Y-44.162
G1 X251.468 Y-44.2702
G3 X251.0214 Y-45.293 I7.8663 J-4.0435
G3 X250.8445 Y-45.8627 I6.2236 J-2.2448
G3 X250.6434 Y-47.2192 I5.9615 J-1.5771
G3 X250.6839 Y-47.438 I0.9631 J0.0651
G3 X250.7067 Y-47.5086 I0.6841 J0.1821
G3 X250.7419 Y-47.6011 I0.9264 J0.2992
G1 X250.7954 Y-47.7215
G3 X251.0601 Y-48.1747 I3.0537 J1.4799
G3 X251.7433 Y-48.9619 I3.9685 J2.7544
G3 X252.2894 Y-49.3908 I2.7402 J2.9264
G3 X253.1235 Y-49.7912 I1.8201 J2.723
G3 X253.6451 Y-49.8936 I0.745 J2.4133
G3 X254.2564 Y-49.8636 I0.1979 J2.2081
G3 X254.923 Y-49.6289 I-0.4445 J2.3266
G2 X258.9484 Y-48.3771 I15.6338 J-43.1741
G2 X263.0635 Y-47.4621 I14.1564 J-53.9581
G2 X265.8377 Y-47.0113 I12.3571 J-67.2776
G2 X269.5593 Y-46.581 I10.534 J-74.8066
G2 X269.7963 Y-46.5597 I0.7184 J-6.6651
G2 X274.8598 Y-46.2591 I7.8399 J-89.2504
G1 X275.1818 Y-46.2493
G1 X275.5088 Y-46.2404
G1 X276.1841 Y-46.2253
G1 X276.8812 Y-46.2145
G2 X280.0676 Y-46.2222 I1.3071 J-118.0851
G2 X288.5447 Y-46.6563 I-2.2434 J-126.7802
G2 X293.3688 Y-47.1453 I-11.3914 J-136.4208
G1 X293.9801 Y-47.2192
G1 X296.785 Y-36.6493
G0 Z5.0
G0 X292.5358 Y-52.2173
G1 Z0.0
G1 X292.5016 Y-53.502
G1 X294.9113
G1 X292.5358 Y-52.2173
G0 Z5.0
G0 X286.2362 Y-51.3867
G1 Z0.0
G3 X286.2188 Y-51.0885 I-0.7874 J0.1038
G1 X284.3526 Y-51.6282
G3 X284.9488 Y-52.1077 I0.7972 J0.3808
G3 X285.7102 Y-52.0318 I0.2702 J1.1462
G3 X286.1092 Y-51.7101 I-0.3934 J0.8962
G3 X286.228 Y-51.4364 I-0.6134 J0.4289
G3 X286.2362 Y-51.3867 I-0.7793 J0.1535
G0 Z5.0
G0 X287.6973 Y-59.2564
G1 Z0.0
G3 X285.9046 Y-60.2685 I2.1205 J-5.8497
G3 X285.3883 Y-60.7244 I4.3517 J-5.4486
G3 X284.7646 Y-61.3975 I6.0341 J-6.2165
G3 X284.0332 Y-62.3754 I9.3259 J-7.7383
G3 X283.1865 Y-63.7595 I16.9712 J-11.3318
G1 X282.9765 Y-64.1374
G3 X282.9239 Y-64.2338 I1.3976 J-0.8265
G3 X282.8706 Y-64.3318 I1.5444 J-0.9028
G3 X282.6458 Y-64.7504 I498.1763 J-267.7977
G1 X282.5308 Y-64.9669
G1 X282.0065 Y-65.9538
G1 X281.9392 Y-66.0787
G3 X283.0885 Y-65.5704 I-1.4958 J4.9353
G3 X284.0909 Y-64.8124 I-3.1002 J5.1419
G3 X284.6707 Y-64.2073 I-5.1254 J5.4911
G3 X285.3485 Y-63.3221 I-8.147 J6.9413
G3 X286.1303 Y-62.0648 I-14.7705 J10.0552
G3 X286.5406 Y-61.3271 I-34.876 J19.8806
G1 X286.9985 Y-60.4812
G1 X287.2453 Y-60.0324
G1 X287.2768 Y-59.976
G1 X287.4081 Y-59.7444
G2 X287.6973 Y-59.2564 I13.4984 J-7.672
G0 Z5.0
G0 X289.2585 Y-61.2072
G1 Z0.0
G3 X288.9358 Y-61.4903 I2.9754 J-3.7179
G3 X288.7422 Y-61.683 I3.7199 J-3.9294
G3 X288.2666 Y-62.2262 I5.7253 J-5.4933
G3 X287.7062 Y-62.998 I7.4366 J-5.9894
G3 X287.0828 Y-64.0938 I7.6704 J-5.0888
G3 X286.8199 Y-64.7635 I4.1426 J-2.0123
G3 X286.7547 Y-65.1438 I1.3594 J-0.4288
G3 X287.6248 Y-64.5024 I-4.7962 J7.4162
G3 X288.4237 Y-63.7743 I-7.5269 J9.0623
G3 X289.8158 Y-62.124 I-8.671 J8.7262
G3 X290.5551 Y-60.8876 I-7.6892 J5.4371
G3 X290.6354 Y-60.7197 I-4.247 J2.1339
G3 X290.2295 Y-60.7059 I-0.2335 J-0.8941
G3 X289.8433 Y-60.8321 I0.275 J-1.4961
G3 X289.7395 Y-60.884 I0.9369 J-2.0005
G3 X289.4766 Y-61.0449 I1.5991 J-2.9085
G3 X289.3342 Y-61.1481 I5.5852 J-7.8591
G1 X289.2983 Y-61.1758
G3 X289.2585 Y-61.2072 I2.9357 J-3.7493
G0 Z5.0
G0 X277.7108 Y-51.1182
G1 Z0.0
G3 X277.7133 Y-51.1154 I-0.1421 J0.1242
G3 X277.7191 Y-51.0757 I-0.0322 J0.025
G3 X277.6786 Y-51.037 I-0.0809 J-0.0441
G3 X277.5522 Y-50.9916 I-0.2499 J-0.4985
G1 X277.4826 Y-50.9765
G1 X277.4118 Y-50.9641
G3 X277.3533 Y-50.9556 I-0.1265 J-0.6614
G1 X277.2223 Y-50.9402
G3 X273.2767 Y-50.7028 I-5.2764 J-54.7814
G1 X273.0131 Y-50.697
G3 X268.798 Y-50.7921 I-1.0341 J-47.6022
G1 X268.2372 Y-50.8347
G3 X265.2612 Y-51.208 I2.8134 J-34.4749
G1 X265.0735 Y-51.2411
G1 X264.6869 Y-51.3135
G1 X264.2889 Y-51.394
G3 X262.4878 Y-51.847 I4.6591 J-22.332
G3 X260.4888 Y-52.5693 I4.8375 J-16.5172
G3 X259.4667 Y-53.0651 I5.3876 J-12.4074
G3 X258.4287 Y-53.6964 I5.5207 J-10.2453
G3 X257.4073 Y-54.5033 I5.4941 J-8.0054
G3 X256.9276 Y-54.9775 I4.9049 J-5.4418
G3 X256.699 Y-55.2336 I5.131 J-4.8082
G3 X255.8544 Y-56.4477 I5.5422 J-4.7566
G2 X258.2279 Y-55.196 I12.9178 J-21.6193
G2 X260.7182 Y-54.197 I11.1783 J-24.2634
G1 X261.0571 Y-54.0818
G2 X262.8845 Y-53.5322 I9.7896 J-29.2358
G2 X265.3597 Y-52.9481 I10.5875 J-39.3295
G2 X266.787 Y-52.6759 I9.5626 J-46.2745
G2 X266.8772 Y-52.66 I0.2632 J-1.2289
G2 X267.6471 Y-52.5297 I15.7797 J-90.8793
G1 X268.0451 Y-52.4659
G1 X268.4561 Y-52.4023
G1 X268.8807 Y-52.3388
G1 X269.3193 Y-52.2754
G2 X271.3258 Y-52.0073 I18.6975 J-132.3091
G2 X271.3888 Y-51.9993 I0.151 J-0.9409
G2 X271.4521 Y-51.9913 I0.151 J-0.9423
G1 X272.5316 Y-51.8578
G1 X272.8058 Y-51.8245
G1 X273.0844 Y-51.7908
G1 X273.6594 Y-51.7216
G1 X274.8856 Y-51.5737
G1 X276.1925 Y-51.4123
G1 X276.5243 Y-51.3703
G1 X276.8612 Y-51.327
G1 X277.2034 Y-51.2823
G3 X277.5511 Y-51.206 I-0.2825 J2.1163
G3 X277.6603 Y-51.159 I-0.1396 J0.4755
G3 X277.7108 Y-51.1182 I-0.0916 J0.165
G0 Z5.0
G0 X271.7759 Y-62.7342
G1 Z0.0
G1 X269.3623 Y-63.6729
G3 X269.3555 Y-63.9547 I0.4522 J-0.152
G3 X269.4932 Y-64.2008 I0.6711 J0.214
G3 X269.6208 Y-64.3375 I1.3168 J1.101
G1 X269.801 Y-64.5043
G2 X269.902 Y-64.6004 I-2.6978 J-2.9385
G3 X270.3362 Y-64.7099 I0.5705 J1.3458
G3 X270.7773 Y-64.6322 I0.079 J0.842
G3 X271.0228 Y-64.4567 I-0.3864 J0.8
G3 X271.2626 Y-64.1371 I-1.0784 J1.0589
G3 X271.4773 Y-63.6636 I-2.7215 J1.5199
G3 X271.5719 Y-63.3869 I-4.0489 J1.5377
G1 X271.618 Y-63.2393
G1 X271.7192 Y-62.9081
G1 X271.7759 Y-62.7342
G0 Z5.0
G0 X268.1042 Y-61.9663
G1 Z0.0
G1 X266.029 Y-63.137
G1 X267.5417 Y-63.5855
G1 X268.1042 Y-61.9663
G0 Z5.0
G0 X247.7356 Y-57.0332
G1 Z0.0
G3 X247.8105 Y-56.5729 I-2.9704 J0.7194
G3 X247.7742 Y-55.7849 I-3.2605 J0.2447
G3 X247.4693 Y-54.782 I-4.3285 J-0.7681
G3 X247.3528 Y-54.5277 I-4.4729 J-1.8941
G3 X247.2171 Y-54.2629 I-4.2662 J-2.0193
G3 X246.8735 Y-53.6811 I-8.7419 J-4.7706
G1 X246.7788 Y-53.535
G3 X246.3275 Y-52.8886 I-14.7267 J-9.7987
G3 X245.7914 Y-52.1772 I-36.903 J-27.256
G1 X245.5033 Y-51.803
G1 X245.1996 Y-51.4048
G1 X245.0455 Y-51.1982
G1 X244.8893 Y-50.9839
G1 X244.7321 Y-50.7607
G1 X244.5753 Y-50.5276
G2 X244.4206 Y-50.2833 I5.3332 J3.5464
G1 X244.3454 Y-50.1573
G1 X193.7836 Y-47.2192
G1 X187.862 Y-55.4365
G3 X187.5866 Y-56.4155 I2.251 J-1.1612
G3 X187.7452 Y-57.42 I2.3857 J-0.1381
G3 X188.0542 Y-58.0252 I2.9671 J1.1331
G3 X188.613 Y-58.7286 I4.1064 J2.689
G3 X188.9782 Y-59.0856 I5.2833 J5.0387
G1 X189.0763 Y-59.1733
G1 X189.1788 Y-59.2621
G3 X189.6596 Y-59.6452 I7.3294 J8.7039
G3 X190.9957 Y-60.5284 I8.9072 J12.0228
G3 X191.0832 Y-60.5801 I1.2113 J1.949
G3 X191.4571 Y-60.7954 I6.417 J10.7115
G3 X192.3127 Y-61.2632 I22.7466 J40.5908
G2 X190.9279 Y-62.5397 I-3.1817 J2.0624
G2 X190.3513 Y-62.8019 I-2.2853 J4.2594
G2 X189.5419 Y-63.0362 I-2.0303 J5.4978
G2 X188.4347 Y-63.1918 I-1.706 J8.1231
G2 X186.9567 Y-63.2248 I-1.0829 J15.3958
G1 X186.5632 Y-63.214
G1 X186.1448 Y-63.1978
G1 X185.6997 Y-63.1779
G1 X185.226 Y-63.157
G3 X184.1485 Y-63.137 I-0.8967 J-19.276
G1 Y-64.6004
G3 X184.5994 Y-64.7625 I3.5185 J9.0733
G1 X184.7509 Y-64.8127
G3 X185.3632 Y-64.9946 I4.3241 J13.4335
G3 X185.5397 Y-65.0412 I0.9847 J3.3743
G3 X186.9695 Y-65.3327 I3.5971 J13.9882
G3 X187.9347 Y-65.4544 I2.4968 J15.9173
G1 X188.1931 Y-65.4781
G3 X189.5743 Y-65.5493 I1.7323 J20.1609
G3 X189.6621 Y-65.551 I0.0693 J1.3378
G3 X189.7513 Y-65.5524 I0.0655 J1.3609
G3 X191.6523 Y-65.5135 I0.3443 J29.6618
G3 X194.1757 Y-65.3125 I-2.6561 J49.2865
G1 X194.8468 Y-65.2408
G1 X195.5618 Y-65.1596
G1 X195.7433 Y-65.1385
G1 X197.4007 Y-64.9428
G1 X198.2847 Y-64.8431
G2 X200.3076 Y-64.6598 I5.6552 J-51.1592
G1 X200.565 Y-64.6437
G1 X200.8266 Y-64.6296
G2 X201.944 Y-64.6004 I1.1296 J-21.8281
G1 X197.6642 Y-63.137
G2 X194.4842 Y-61.7211 I3.4796 J12.094
G2 X193.5329 Y-61.0506 I5.3486 J8.5988
G2 X192.4027 Y-59.9865 I5.4366 J6.9063
G2 X191.8571 Y-59.2845 I5.154 J4.5688
G2 X191.3572 Y-58.3967 I4.9769 J3.3869
G2 X190.9951 Y-57.2835 I4.6963 J2.1432
G2 X190.9092 Y-55.9366 I4.892 J0.9884
G2 X191.2355 Y-54.4141 I5.7366 J-0.4333
G2 X191.3816 Y-54.038 I8.7019 J-3.1642
G2 X192.0634 Y-52.8853 I8.2393 J-4.0958
G2 X192.9184 Y-51.8544 I6.2044 J-4.2755
G2 X193.6006 Y-51.2762 I3.8393 J-3.8387
G2 X194.0383 Y-51.0098 I2.2577 J-3.2174
G2 X194.5837 Y-50.7904 I1.3637 J-2.6008
G2 X195.2545 Y-50.6932 I0.6724 J-2.2783
G1 X195.7883 Y-50.6538
G1 X196.3223 Y-50.6183
G1 X196.6784 Y-50.5968
G1 X197.1535 Y-50.5706
G2 X199.0549 Y-50.4942 I4.0891 J-78.0586
G2 X202.8603 Y-50.4651 I2.6398 J-96.2172
G2 X205.3966 Y-50.5249 I-1.3771 J-112.1615
G2 X205.7238 Y-50.5366 I-0.2737 J-12.1807
G2 X205.89 Y-50.5429 I-0.2403 J-8.5363
G2 X206.0588 Y-50.5496 I-0.249 J-8.5028
G2 X207.6015 Y-50.62 I-4.7016 J-119.8096
G2 X207.7973 Y-50.6302 I-0.3421 J-8.475
G2 X211.9715 Y-50.9027 I-9.3903 J-175.9516
G2 X212.2363 Y-50.9231 I-0.6481 J-10.1614
G2 X212.5054 Y-50.9441 I-0.6724 J-10.3489
G2 X212.7786 Y-50.9657 I-0.6981 J-10.553
G2 X213.0562 Y-50.988 I-0.7255 J-10.7753
G2 X213.3382 Y-51.0109 I-0.7548 J-11.0182
G2 X213.6246 Y-51.0346 I-0.7861 J-11.2841
G2 X213.9155 Y-51.0588 I-0.8198 J-11.5764
G2 X214.211 Y-51.0838 I-0.8562 J-11.8985
G2 X214.5112 Y-51.1095 I-0.8958 J-12.2553
G2 X214.8162 Y-51.1358 I-0.9391 J-12.6525
G2 X215.1259 Y-51.1628 I-0.9867 J-13.097
G2 X215.4405 Y-51.1905 I-1.0395 J-13.5984
G2 X215.7601 Y-51.2189 I-1.0986 J-14.1679
G2 X216.0848 Y-51.2481 I-1.1654 J-14.8214
G2 X216.4145 Y-51.2779 I-1.2419 J-15.5799
G2 X216.7495 Y-51.3084 I-1.331 J-16.4737
G2 X217.0898 Y-51.3395 I-1.4365 J-17.5451
G2 X217.4354 Y-51.3714 I-1.5648 J-18.8599
G2 X217.7865 Y-51.404 I-1.7256 J-20.5235
G2 X218.1432 Y-51.4372 I-1.936 J-22.7176
G2 X218.5055 Y-51.4711 I-2.2294 J-25.7967
G2 X218.8735 Y-51.5056 I-2.6819 J-30.5697
G2 X219.2473 Y-51.5407 I-3.5261 J-39.5049
G1 X220.8423 Y-51.691
G1 X222.5436 Y-51.8498
G1 X223.4219 Y-51.9303
G1 X224.3285 Y-52.0119
G1 X225.2646 Y-52.0939
G3 X229.5464 Y-52.4289 I22.2202 J256.4793
G1 X230.0906 Y-52.4653
G1 X230.6436 Y-52.5006
G1 X231.2054 Y-52.5345
G1 X231.7763 Y-52.567
G1 X238.5987 Y-58.3251
G1 X246.8085 Y-58.6673
G3 X247.3433 Y-57.9629 I-3.2601 J3.0307
G3 X247.4866 Y-57.7048 I-2.7013 J1.6681
G3 X247.7356 Y-57.0332 I-2.7214 J1.391
G0 Z5.0
G0 X242.8823 Y-45.3417
G1 Z0.0
G1 Y-41.997
G1 X241.5709 Y-43.9011
G2 X241.2242 Y-43.8794 I-0.031 J2.2876
G2 X240.8859 Y-43.8003 I0.1899 J1.5748
G2 X240.3367 Y-43.3785 I0.3246 J0.991
G2 X240.1567 Y-42.9457 I1.254 J0.7754
G2 X240.1049 Y-42.6836 I2.1928 J0.5699
G1 X240.0859 Y-42.543
G1 X240.0698 Y-42.3933
G3 X240.0376 Y-42.0558 I-18.9457 J-1.634
G1 X240.0281 Y-41.9691
G3 X239.9583 Y-41.5841 I-2.4145 J-0.2387
G3 X239.8857 Y-41.3894 I-1.1864 J-0.3315
G3 X239.5299 Y-41.0582 I-0.5783 J-0.2645
G3 X239.2213 Y-41.3841 I0.5451 J-0.8252
G3 X239.0843 Y-41.8116 I1.025 J-0.5642
G3 X239.0717 Y-41.9396 I0.9633 J-0.1588
G3 X239.0723 Y-42.2798 I3.0214 J-0.165
G1 X239.0853 Y-42.4727
G2 X239.1211 Y-42.9798 I-11.009 J-1.0327
G2 X239.1129 Y-43.2685 I-2.3029 J-0.0788
G2 X239.0297 Y-43.5887 I-1.0315 J0.0971
G2 X238.769 Y-43.88 I-0.6104 J0.284
G2 X238.5734 Y-43.9717 I-0.5276 J0.8706
G2 X238.3465 Y-44.0288 I-0.465 J1.3685
G2 X238.0971 Y-44.057 I-0.3849 J2.2894
G1 X237.6561 Y-39.0513
G1 X236.5654 Y-43.4261
G2 X236.2083 Y-42.8361 I2.449 J1.8851
G2 X235.9793 Y-42.1857 I3.4779 J1.5902
G2 X235.8833 Y-41.7362 I5.4845 J1.4064
G1 X235.8634 Y-41.6153
G2 X235.7868 Y-40.9677 I9.6803 J1.4739
G1 X235.7797 Y-40.8838
G1 X235.7661 Y-40.705
G2 X235.718 Y-39.7532 I30.21 J2.0028
G1 X235.7002 Y-39.2098
G1 X235.696 Y-39.0696
G3 X235.6492 Y-37.5804 I-121.2815 J-3.0609
G3 X234.9764 Y-38.6025 I1.7654 J-1.8946
G3 X234.8587 Y-38.9965 I3.2873 J-1.1971
G1 X234.835 Y-39.1035
G1 X234.8128 Y-39.2183
G3 X234.7396 Y-39.8351 I5.3987 J-0.9536
G3 X234.7167 Y-40.6582 I13.2624 J-0.7796
G3 X234.7187 Y-41.1273 I38.7007 J-0.0739
G2 X234.7166 Y-41.6614 I-14.9294 J-0.2083
G1 X234.7152 Y-41.7293
G1 X234.7134 Y-41.7982
G2 X234.6719 Y-42.4242 I-8.5914 J0.2545
G2 X234.5352 Y-43.1275 I-4.2918 J0.4691
G2 X234.186 Y-43.8747 I-2.4933 J0.7104
G2 X233.8286 Y-43.5817 I0.4434 J0.9056
G2 X233.6202 Y-43.1693 I1.0461 J0.7873
G2 X233.5491 Y-42.8699 I1.9017 J0.6099
G2 X233.5057 Y-42.4655 I3.2932 J0.5579
G1 X233.5008 Y-42.3573
G2 X233.502 Y-41.7873 I7.7469 J0.268
G1 X233.5146 Y-41.4637
G1 X233.5227 Y-41.2917
G1 X233.5317 Y-41.1087
G3 X233.5616 Y-40.1445 I-18.6631 J1.0608
G3 X233.5444 Y-39.5959 I-8.1522 J0.0187
G3 X233.468 Y-38.9749 I-4.9521 J-0.2938
G3 X233.2691 Y-38.2871 I-3.4092 J-0.6132
G3 X232.8405 Y-37.5804 I-2.3591 J-0.9476
G1 X231.7763 Y-43.8747
G2 X231.4504 Y-43.5511 I0.7033 J1.0342
G2 X231.2519 Y-43.137 I1.3036 J0.8797
G2 X231.1779 Y-42.8401 I2.1828 J0.7016
G2 X231.15 Y-42.6679 I3.3829 J0.6362
G2 X231.1077 Y-42.2079 I5.9697 J0.7811
G1 X231.0955 Y-41.9451
G2 X231.0931 Y-41.8773 I0.942 J0.0675
G2 X231.0908 Y-41.8074 I1.1169 J0.0719
G1 X231.0811 Y-41.4892
G1 X231.0671 Y-41.1273
G3 X230.9729 Y-40.1746 I-8.0348 J-0.3134
G3 X230.9253 Y-39.924 I-9.4767 J-1.6704
G3 X230.4385 Y-38.6561 I-4.0514 J-0.8282
G3 X229.9089 Y-41.4489 I22.8104 J-5.7716
G3 X229.7572 Y-44.2875 I19.6802 J-2.4756
G3 X229.852 Y-46.1808 I30.2446 J0.566
G1 X229.892 Y-46.6846
G1 X229.9025 Y-46.8126
G3 X236.4112 Y-46.181 I-46.8634 J516.778
G1 X236.8448 Y-46.1353
G1 X237.3072 Y-46.0859
G3 X239.7715 Y-45.8061 I-18.5318 J174.1882
G1 X240.4278 Y-45.7247
G1 X240.7664 Y-45.681
G1 X240.9383 Y-45.6582
G3 X241.671 Y-45.5555 I-5.2894 J40.4203
G1 X242.0485 Y-45.4976
G1 X242.1436 Y-45.4822
G3 X242.535 Y-45.4139 I-3.7243 J22.4993
G3 X242.584 Y-45.4046 I-0.3285 J1.863
G1 X242.7826 Y-45.3642
G3 X242.8823 Y-45.3417 I-0.2332 J1.2628
G0 Z5.0
G0 X232.7818 Y-34.336
G1 Z0.0
G3 X233.3339 Y-33.7931 I-7.5984 J8.2793
G3 X233.783 Y-33.3046 I-13.1668 J12.5553
G3 X233.2039 Y-32.1061 I-4.2243 J-1.302
G3 X232.273 Y-31.1547 I-3.307 J-2.3049
G3 X231.5109 Y-30.6966 I-2.8916 J-3.9474
G3 X230.4088 Y-30.274 I-3.1038 J-6.4459
G1 X230.2624 Y-30.2317
G3 X229.5888 Y-30.0661 I-2.9782 J-10.6603
G3 X228.8135 Y-29.92 I-4.0321 J-19.2626
G3 X227.9269 Y-29.79 I-3.6302 J-21.6723
G1 X227.4543 Y-29.7302
G1 X227.2104 Y-29.7009
G3 X226.9592 Y-29.6712 I-1.1253 J-8.4438
G1 X226.4249 Y-29.6084
G1 X225.8573 Y-29.5389
G2 X224.5739 Y-29.3501 I3.3576 J27.2754
G2 X223.1367 Y-29.0264 I2.2435 J13.3124
G1 X223.0476 Y-29.0001
G1 X222.9581 Y-28.9728
G1 X222.8682 Y-28.9443
G2 X222.1166 Y-28.6606 I2.5955 J8.0145
G2 X221.7423 Y-28.4814 I2.7955 J6.3192
G2 X222.441 Y-27.6091 I3.921 J-2.4249
G2 X223.3564 Y-26.9679 I2.4518 J-2.5261
G2 X224.0601 Y-26.7154 I1.5563 J-3.2302
G2 X225.0454 Y-26.5814 I1.1425 J-4.7124
G2 X225.6128 Y-26.5821 I0.2728 J-8.4472
G2 X226.2566 Y-26.6278 I-0.4466 J-10.8641
G1 X226.4221 Y-26.6451
G1 X226.7735 Y-26.6873
G1 X227.1464 Y-26.738
G1 X227.9908 Y-26.8609
G1 X228.4398 Y-26.9229
G1 X228.6714 Y-26.9521
G3 X229.1646 Y-27.0046 I1.5475 J12.2026
G1 X229.29 Y-27.0153
G1 X229.4174 Y-27.0249
G3 X230.5761 Y-27.0339 I0.647 J8.6919
G3 X231.8755 Y-26.795 I-0.3214 J5.4025
G3 X233.2261 Y-26.0907 I-1.3789 J4.2913
G3 X233.8378 Y-25.5427 I-3.1074 J4.0839
G1 X233.9796 Y-25.3889
G3 X234.1182 Y-25.2275 I-2.3287 J2.1399
G1 X234.186 Y-25.1444
G3 X233.2583 Y-24.853 I-2.0749 J-4.985
G3 X232.2974 Y-24.7038 I-1.72 J-7.9054
G3 X231.6506 Y-24.6602 I-1.0579 J-10.8818
G3 X230.7874 Y-24.6469 I-0.7076 J-17.8388
G1 X230.2943 Y-24.6533
G1 X229.7314 Y-24.6664
G2 X229.5861 Y-24.6701 I-0.1745 J4.0227
G1 X228.9226 Y-24.6844
G1 X228.5688 Y-24.688
G1 X228.1915 Y-24.6865
G2 X227.9969 Y-24.683 I0.092 J10.5398
G1 X227.7961 Y-24.6771
G2 X227.3681 Y-24.6548 I0.4191 J12.1984
G2 X226.3951 Y-24.5392 I0.6028 J9.2215
G2 X225.3102 Y-24.2482 I1.033 J6.0195
G2 X224.171 Y-23.6316 I1.5928 J4.3036
G3 X221.8085 Y-22.6394 I-3.1083 J-4.0922
G3 X220.9487 Y-22.5768 I-0.8736 J-6.0601
G3 X219.8056 Y-22.6684 I0.0123 J-7.3307
G3 X219.1627 Y-22.792 I1.3095 J-8.5456
G3 X218.441 Y-22.982 I2.4745 J-10.8652
G3 X218.3959 Y-22.9955 I0.0815 J-0.3545
G1 X218.3045 Y-23.0233
G3 X217.9177 Y-23.1491 I6.6878 J-21.2266
G3 X217.5095 Y-23.2945 I3.3068 J-9.9274
G3 X216.5944 Y-23.6618 I6.8099 J-18.2928
G3 X216.4795 Y-23.7114 I1.0601 J-2.6102
G3 X216.3631 Y-23.7625 I1.1923 J-2.8774
G3 X215.3156 Y-24.2509 I11.492 J-26.016
G1 X215.0484 Y-24.3827
G1 X214.7738 Y-24.5206
G1 X214.1927 Y-24.8196
G1 X213.5781 Y-25.1444
G1 X213.981 Y-25.5434
G1 X214.066 Y-25.6302
G2 X214.1492 Y-25.7187 I-3.2537 J-3.141
G2 X214.3093 Y-25.9014 I-4.0246 J-3.6879
G2 X214.4107 Y-26.0278 I-6.7692 J-5.5378
G2 X214.7591 Y-26.5737 I-2.7044 J-2.11
G2 X214.9194 Y-26.9756 I-2.2249 J-1.1201
G2 X215.0021 Y-27.548 I-1.8646 J-0.5618
G2 X214.8453 Y-28.307 I-2.0214 J0.0221
G2 X214.6444 Y-28.704 I-2.7658 J1.1497
G2 X214.3527 Y-29.118 I-3.4142 J2.0963
G2 X213.9698 Y-29.5453 I-4.1408 J3.3251
G1 X213.865 Y-29.6494
G2 X213.6362 Y-29.8633 I-12.0408 J12.6462
G2 X213.3861 Y-30.0813 I-5.3263 J5.8598
G2 X213.3216 Y-30.1353 I-0.8724 J0.9757
G2 X213.2558 Y-30.1896 I-1.0055 J1.1506
G2 X213.1888 Y-30.2442 I-1.2336 J1.4462
G2 X213.0499 Y-30.3551 I-2.696 J3.2347
G1 X213.2875 Y-30.3003
G2 X213.5261 Y-30.2505 I2.0046 J-9.0102
G2 X214.0064 Y-30.1664 I2.0322 J-10.1954
G2 X214.1443 Y-30.1463 I0.3645 J-2.0174
G2 X215.2544 Y-30.0519 I1.4163 J-10.0748
G2 X217.4721 Y-30.2372 I0.2992 J-9.7822
G2 X218.9044 Y-30.6308 I-2.1674 J-10.69
G2 X220.7134 Y-31.4301 I-4.4109 J-12.4292
G2 X221.6926 Y-31.9928 I-8.349 J-15.6625
G2 X221.7531 Y-32.0303 I-0.5314 J-0.9255
G2 X222.835 Y-32.7477 I-12.4511 J-19.9508
G2 X224.0269 Y-33.6235 I-20.7464 J-29.4846
G1 X224.3292 Y-33.856
G2 X224.4052 Y-33.9149 I-1.3803 J-1.8585
G2 X224.4816 Y-33.9743 I-1.4881 J-1.9921
G2 X224.5586 Y-34.0344 I-1.6244 J-2.1619
G1 X224.7759 Y-34.2009
G1 X224.9956 Y-34.3641
G1 X225.1436 Y-34.4709
G1 X225.2287 Y-34.5312
G3 X225.9254 Y-34.9901 I7.2148 J10.197
G1 X226.0207 Y-35.0477
G3 X226.5385 Y-35.3373 I4.5505 J7.5284
G3 X227.2579 Y-35.667 I3.8563 J7.4648
G3 X228.271 Y-35.9662 I2.0945 J5.2262
G3 X228.8719 Y-36.0404 I0.8193 J4.1636
G3 X230.4774 Y-35.8117 I0.2299 J4.1349
G3 X231.3273 Y-35.4235 I-1.7389 J4.931
G3 X232.2107 Y-34.8242 I-3.4092 J5.9762
G3 X232.4244 Y-34.6504 I-4.1369 J5.304
G3 X232.7818 Y-34.336 I-7.241 J8.5937
G0 Z5.0
G0 X211.7291 Y-42.9012
G1 Z0.0
G1 X211.3652 Y-42.0066
G3 X211.3141 Y-41.8825 I-2.7249 J-1.0491
G3 X211.2595 Y-41.7502 I-2.9518 J-1.1404
G1 X210.9668 Y-41.0451
G3 X210.5743 Y-40.106 I-134.8531 J-55.816
G1 X210.0516 Y-38.8535
G1 X209.7557 Y-38.1366
G1 X209.6799 Y-37.9514
G1 X209.3374 Y-37.103
G1 X209.1578 Y-36.6493
G2 X208.5384 Y-37.051 I-3.5565 J4.8059
G1 X208.3224 Y-37.1691
G2 X207.4353 Y-37.5947 I-6.8462 J13.1314
G1 X206.8373 Y-37.8639
G3 X206.053 Y-38.2494 I5.6243 J-12.4313
G3 X205.6233 Y-38.5042 I2.8246 J-5.2538
G3 X205.1649 Y-38.8463 I2.2155 J-3.4472
G3 X204.7148 Y-39.3252 I2.0074 J-2.3375
G3 X204.3537 Y-39.994 I2.0435 J-1.5354
G3 X204.1614 Y-40.6918 I8.8632 J-2.8169
G3 X204.0479 Y-41.4066 I5.0356 J-1.1661
G3 X204.0417 Y-41.8897 I3.2094 J-0.2827
G3 X204.1754 Y-42.522 I2.0534 J0.1038
G3 X204.7167 Y-43.2095 I1.3932 J0.5401
G3 X205.1696 Y-43.4454 I1.1584 J1.6717
G3 X205.7322 Y-43.5975 I1.1539 J3.1507
G3 X206.3851 Y-43.6741 I1.0084 J5.7723
G3 X207.1217 Y-43.6908 I0.6173 J11.0222
G1 X207.215 Y-43.6895
G1 X207.4067 Y-43.6852
G1 X207.6032 Y-43.6787
G1 X208.0162 Y-43.6602
G1 X208.9235 Y-43.6095
G1 X209.3975 Y-43.586
G2 X210.4352 Y-43.5716 I0.7197 J-14.515
G2 X210.9775 Y-43.6036 I-0.136 J-6.924
G2 X211.5413 Y-43.6897 I-0.4687 J-4.9594
G2 X212.1148 Y-43.8747 I-0.5777 J-2.7725
G1 X211.9771 Y-43.5233
G3 X211.9309 Y-43.4062 I-1.8588 J-0.6668
G1 X211.7444 Y-42.9388
G1 X211.7291 Y-42.9012
G0 Z5.0
G0 X205.2848 Y-35.1784
G1 Z0.0
G1 X206.7556 Y-33.8406
G3 X205.8109 Y-32.7605 I-9.4902 J-7.348
G3 X204.7486 Y-31.7959 I-9.3117 J-9.1873
G1 X204.5996 Y-31.6757
G3 X203.7844 Y-31.062 I-11.3289 J-14.2001
G1 X203.5628 Y-30.9043
G1 X203.0529 Y-30.5485
G1 X202.921 Y-30.4571
G1 X202.64 Y-30.2619
G1 X202.3415 Y-30.0521
G2 X202.2659 Y-29.9983 I0.5866 J0.9042
G1 X202.1106 Y-29.8867
G2 X201.7823 Y-29.6446 I7.8533 J10.9921
G2 X201.7412 Y-29.6136 I0.2889 J0.4255
G2 X201.0089 Y-29.0249 I9.526 J12.6012
G3 X200.4711 Y-30.0071 I8.7355 J-5.4217
G1 X200.4055 Y-30.1531
G3 X200.2563 Y-30.5532 I3.4298 J-1.5061
G3 X200.1971 Y-30.7903 I2.3066 J-0.7024
G3 X200.1699 Y-31.0692 I1.5066 J-0.2874
G3 X200.2322 Y-31.3881 I0.8344 J-0.0025
G3 X200.4755 Y-31.6895 I0.6879 J0.3064
G3 X200.6557 Y-31.8016 I0.6454 J0.8365
G3 X200.755 Y-31.849 I0.6333 J1.1985
G1 X200.8603 Y-31.8924
G3 X201.3479 Y-32.045 I1.6713 J4.4856
G1 X201.6059 Y-32.1123
G1 X201.6712 Y-32.129
G1 X201.9443 Y-32.2002
G1 X202.2309 Y-32.2802
G2 X202.3032 Y-32.3018 I-0.2504 J-0.9702
G2 X202.9345 Y-32.5273 I-1.6987 J-5.7515
G1 X203.0909 Y-32.5967
G2 X203.7278 Y-32.9611 I-1.7644 J-3.8225
G2 X204.325 Y-33.4813 I-2.2173 J-3.1482
G2 X204.8415 Y-34.1814 I-2.8805 J-2.6656
G2 X205.2451 Y-35.0621 I-4.2261 J-2.4695
G1 X205.2848 Y-35.1784
G0 Z5.0
G0 X202.4975 Y-34.9908
G1 Z0.0
G3 X202.4496 Y-34.5168 I-1.4224 J0.0957
G3 X202.1246 Y-33.9403 I-1.3943 J-0.4061
G3 X201.7907 Y-33.6502 I-1.3867 J-1.2585
G3 X201.2719 Y-33.382 I-1.3844 J-2.0429
G3 X200.5254 Y-33.2118 I-1.0161 J-2.7337
G3 X199.5304 Y-33.3046 I-0.26 J-2.5934
G1 X199.1352 Y-35.1784
G1 X202.4723
G3 X202.4975 Y-34.9908 I-1.3972 J0.2833
G0 Z5.0
G0 X199.5834 Y-38.1473
G1 Z0.0
G1 X199.4459 Y-38.0203
G1 X199.2762 Y-37.8675
G1 X199.2547 Y-37.8483
G2 X198.8724 Y-37.495 I6.8515 J7.7986
G1 X198.7788 Y-37.399
G2 X198.5992 Y-37.1776 I1.2035 J1.1599
G1 X198.4911 Y-37.2153
G1 X198.3843 Y-37.2568
G3 X198.1762 Y-37.3521 I0.9142 J-2.2702
G3 X197.7947 Y-37.6047 I0.8401 J-1.683
G3 X197.5872 Y-37.8296 I0.8251 J-0.9696
G3 X197.4145 Y-38.2015 I0.8532 J-0.6223
G3 X197.4202 Y-38.7529 I1.1457 J-0.2639
G3 X197.461 Y-38.8954 I1.2062 J0.2683
G3 X197.5181 Y-39.0426 I2.1492 J0.7492
G3 X197.6889 Y-39.3571 I2.1008 J0.9375
G3 X197.932 Y-39.6789 I2.6544 J1.7523
G3 X198.6923 Y-40.3479 I3.0208 J2.6669
G3 X199.8049 Y-40.9007 I2.5685 J3.7734
G3 X200.473 Y-41.0582 I1.1913 J3.5574
G3 X200.6793 Y-40.3691 I-2.1395 J1.016
G3 X200.6317 Y-39.6513 I-1.8075 J0.2405
G3 X200.4535 Y-39.204 I-2.115 J-0.5831
G3 X200.0929 Y-38.6768 I-2.6692 J-1.4389
G1 X199.9813 Y-38.5482
G3 X199.7125 Y-38.2701 I-4.1163 J-3.71
G1 X199.6772 Y-38.2359
G1 X199.6039 Y-38.1662
G1 X199.5834 Y-38.1473
G0 Z5.0
G0 X202.8957 Y-27.8287
G1 Z0.0
G3 X203.4496 Y-27.941 I0.7822 J2.4369
G3 X204.2577 Y-27.8872 I0.2486 J2.3638
G3 X204.6879 Y-27.7076 I-0.3423 J1.425
G3 X204.8819 Y-27.5463 I-0.5554 J0.8657
G3 X204.9103 Y-27.1821 I-1.8025 J0.3235
G3 X204.859 Y-26.8203 I-1.4901 J-0.0269
G3 X204.494 Y-26.1921 I-1.3949 J-0.3902
G3 X204.1188 Y-25.8835 I-1.6437 J-1.6162
G3 X203.5568 Y-25.5789 I-2.2054 J-3.3988
G3 X202.7834 Y-25.2683 I-5.62 J-12.8766
G1 X202.5774 Y-25.1878
G1 X202.4723 Y-25.1444
G1 X201.5372 Y-26.6075
G3 X201.8426 Y-27.1408 I1.7031 J0.6212
G3 X202.3015 Y-27.5495 I1.5722 J1.3033
G3 X202.8957 Y-27.8287 I1.3765 J2.1576
G0 Z5.0
G0 X206.7556 Y-28.4814
G1 Z0.0
G3 X207.3836 Y-28.6028 I1.4342 J5.7331
G3 X208.0222 Y-28.6388 I0.5561 J4.1828
G3 X209.2706 Y-28.3732 I-0.077 J3.4278
G3 X210.0256 Y-27.9754 I-1.9728 J4.6609
G3 X210.4282 Y-27.7013 I-4.98 J7.7447
G3 X210.6363 Y-27.5463 I-5.7833 J7.986
G2 X210.0596 Y-27.1321 I2.5326 J4.134
G2 X209.539 Y-26.6493 I4.2226 J5.0755
G1 X209.3982 Y-26.5033
G2 X209.0355 Y-26.1022 I7.58 J7.2201
G1 X208.8345 Y-25.8676
G1 X208.6086 Y-25.5966
G1 X208.3531 Y-25.2847
G1 X208.0617 Y-24.9281
G3 X207.2605 Y-23.9995 I-15.7968 J-12.8185
G3 X206.7642 Y-23.5046 I-5.8227 J-5.3434
G3 X206.1359 Y-23.0052 I-3.5068 J-3.7671
G3 X205.3093 Y-22.5927 I-1.9101 J-2.7931
G3 X204.2379 Y-22.4687 I-0.8325 J-2.5034
G3 X203.6612 Y-22.577 I0.2845 J-3.1064
G3 X203.0684 Y-22.8011 I1.0268 J-3.6124
G3 X202.4723 Y-23.1299 I2.4254 J-5.1019
G2 X203.2334 Y-23.3222 I-0.5631 J-3.8312
G2 X203.9518 Y-23.639 I-1.7896 J-5.0311
G2 X205.2446 Y-24.5206 I-3.1642 J-6.0285
G2 X205.9766 Y-25.2646 I-4.1074 J-4.7733
G2 X206.3303 Y-25.7456 I-3.7794 J-3.1501
G2 X206.6555 Y-26.3466 I-3.551 J-2.3095
G2 X206.7843 Y-26.6887 I-3.0809 J-1.3556
G2 X206.9245 Y-27.5178 I-2.7672 J-0.8943
G2 X206.7556 Y-28.4814 I-2.568 J-0.0466
G0 Z5.0
G0 X188.0292 Y-36.2502
G1 Z0.0
G3 X187.5466 Y-35.8447 I-1.1257 J-0.8497
G3 X186.9302 Y-35.7136 I-0.5666 J-1.1489
G3 X186.5141 Y-35.7826 I0.0593 J-1.6458
G3 X185.2619 Y-36.7555 I0.6922 J-2.1831
G3 X185.0799 Y-37.1776 I1.3711 J-0.8416
G3 X185.9548 Y-37.2911 I1.0744 J4.854
G3 X186.8346 Y-37.2246 I0.1654 J3.6645
G1 X186.9495 Y-37.1977
G3 X187.5294 Y-36.9501 I-0.4439 J1.8425
G3 X188.0292 Y-36.2502 I-0.6107 J0.9645
G0 Z5.0
G0 X183.6062 Y-34.1784
G1 Z0.0
G3 X183.7011 Y-33.8072 I-0.9288 J0.4351
G3 X183.6202 Y-33.3046 I-1.1408 J0.0744
G1 X181.7351 Y-34.7831
G1 X182.6853
G3 X183.0576 Y-34.6953 I-0.1068 J1.286
G3 X183.3805 Y-34.4901 I-0.3855 J0.9632
G3 X183.6062 Y-34.1784 I-0.7031 J0.7467
G0 Z5.0
G0 X185.0799 Y-45.8701
G1 Z0.0
G1 X182.6853 Y-46.2766
G3 X182.9315 Y-46.6655 I1.7913 J0.8618
G3 X183.2678 Y-46.9799 I1.2605 J1.0113
G3 X184.1486 Y-47.221 I0.7733 J1.0957
G3 X184.7323 Y-47.0117 I-0.0919 J1.1752
G3 X184.9853 Y-46.7545 I-0.5652 J0.8087
G3 X185.1337 Y-46.3607 I-0.7709 J0.5154
G3 X185.0799 Y-45.8701 I-1.074 J0.1305
G0 Z5.0
M5
M30
