( Made using CamBam - http://www.cambam.co.uk )
( car2 1/22/2014 9:38:12 AM )
( T0 : 0.0 )
G21 G90 G64 G40
G0 Z5.0
( T0 : 0.0 )
T0 M6
( 281-330 )
G17
M3 S1000
G0 X134.1264 Y-35.7142
G1 F1.0 Z0.0
G3 X133.9512 Y-35.2842 I-3.1243 J-1.0223
G3 X133.7255 Y-34.8784 I-4.021 J-1.9705
G3 X133.1429 Y-34.1574 I-3.2267 J-2.0113
G3 X132.6461 Y-33.7867 I-1.6773 J-1.73
G3 X132.3161 Y-33.6511 I-0.7535 J-1.364
G3 X131.9044 Y-33.6132 I-0.3079 J-1.0888
G3 X131.4435 Y-33.7719 I0.113 J-1.0766
G3 X131.0206 Y-34.158 I0.896 J-1.406
G3 X130.9758 Y-34.2159 I0.8817 J-0.7284
G3 X130.6411 Y-34.7831 I2.6985 J-1.9748
G1 X134.1264 Y-35.7142
G0 Z5.0
G0 X133.0508 Y-37.1776
G1 Z0.0
G1 X132.1195 Y-36.6493
G3 X131.5684 Y-36.3502 I-1.8383 J-2.7296
G3 X130.967 Y-36.1727 I-1.0444 J-2.4319
G3 X129.7273 Y-36.3087 I-0.3876 J-2.1855
G3 X129.0286 Y-36.7761 I0.8766 J-2.0663
G3 X128.4243 Y-37.7139 I1.8322 J-1.8443
G3 X128.2622 Y-38.3307 I2.7941 J-1.0638
G3 X128.2275 Y-39.0513 I3.4992 J-0.5297
G2 X129.1578 Y-38.7938 I3.4646 J-10.7053
G1 X130.0986 Y-38.5782
G3 X130.7224 Y-38.4207 I-3.568 J15.4394
G3 X131.0749 Y-38.3156 I-2.358 J8.5527
G3 X131.9844 Y-37.9467 I-1.7862 J5.7103
G3 X133.0508 Y-37.1776 I-1.886 J3.7387
G0 Z5.0
G0 X136.9237 Y-35.1784
G1 Z0.0
G3 X137.2339 Y-35.4074 I2.684 J3.3098
G1 X137.343 Y-35.4756
G3 X137.8093 Y-35.6915 I1.2248 J2.0338
G3 X138.8328 Y-35.7002 I0.5246 J1.5031
G3 X139.4335 Y-35.3551 I-0.6114 J1.7595
G3 X139.7171 Y-35.0784 I-1.9423 J2.2747
G3 X139.9914 Y-34.7227 I-2.4423 J2.1671
G3 X140.2489 Y-34.2859 I-3.242 J2.2055
G3 X140.6953 Y-33.0743 I-4.9587 J2.5152
G3 X140.812 Y-32.362 I-4.5187 J1.1057
G3 X140.5584 Y-31.9338 I-1.548 J-0.6277
G3 X140.2032 Y-31.5853 I-1.5717 J-1.2465
G3 X139.3105 Y-31.1646 I-1.3771 J-1.7646
G3 X138.65 Y-31.134 I-0.4186 J-1.8917
G3 X137.8324 Y-31.4695 I0.2268 J-1.7165
G3 X137.4673 Y-31.8261 I1.2888 J-1.6847
G1 X136.9237 Y-35.1784
G0 Z5.0
G0 X141.1482 Y-39.0788
G1 Z0.0
G3 X140.9718 Y-39.3297 I0.8517 J-0.7864
G3 X140.8421 Y-39.6622 I1.5025 J-0.7777
G3 X140.7742 Y-40.0433 I2.1295 J-0.5761
G3 X140.7604 Y-40.4586 I3.473 J-0.3233
G3 X140.7707 Y-40.6726 I3.1192 J0.043
G3 X140.7909 Y-40.8919 I3.0201 J0.1686
G3 X140.7974 Y-40.9469 I1.0148 J0.0912
G3 X140.812 Y-41.0582 I2.9256 J0.3271
G3 X141.1596 Y-41.2398 I0.8379 J1.1802
G3 X141.5386 Y-41.3402 I0.6816 J1.8082
G3 X142.3176 Y-41.3652 I0.4891 J3.09
G3 X143.8036 Y-40.9742 I-0.4516 J4.7358
G3 X144.689 Y-40.4638 I-1.844 J4.2221
G3 X145.1285 Y-40.0787 I-1.9291 J2.6451
G3 X145.5288 Y-39.5417 I-1.8704 J1.812
G2 X145.2953 Y-39.4615 I2.8785 J8.7601
G1 X145.0633 Y-39.3771
G1 X144.5999 Y-39.2068
G1 X144.2897 Y-39.0968
G1 X144.1115 Y-39.0364
G1 X143.907 Y-38.9702
G3 X143.3553 Y-38.8143 I-2.5075 J-7.8148
G3 X142.6022 Y-38.6795 I-1.3048 J-5.1198
G3 X142.164 Y-38.6665 I-0.3109 J-3.0913
G3 X141.667 Y-38.7522 I0.0658 J-1.8666
G3 X141.418 Y-38.8626 I0.4648 J-1.3836
G3 X141.1482 Y-39.0788 I0.5819 J-1.0027
G0 Z5.0
G0 X143.2141 Y-36.6493
G1 Z0.0
G3 X144.3658 Y-37.1747 I4.4345 J8.1956
G3 X145.5839 Y-37.5191 I2.5544 J6.7096
G3 X146.4253 Y-37.6009 I0.8764 J4.645
G3 X146.9088 Y-37.5715 I0.0015 J3.9685
G3 X147.451 Y-37.4502 I-0.3908 J3.0199
G3 X148.0297 Y-37.1776 I-0.7883 J2.4238
G3 X148.0044 Y-36.8312 I-2.0787 J0.0223
G3 X147.9163 Y-36.4952 I-1.5429 J-0.225
G3 X147.496 Y-35.9459 I-1.1082 J-0.4126
G3 X147.0759 Y-35.7435 I-0.8282 J-1.1811
G3 X146.4683 Y-35.6511 I-0.6497 J-2.2288
G3 X145.6746 Y-35.7123 I-0.076 J-4.19
G3 X144.6904 Y-35.9621 I1.1427 J-6.5643
G3 X143.5066 Y-36.4734 I2.2307 J-6.7922
G3 X143.2141 Y-36.6493 I2.2514 J-4.0735
G0 Z5.0
G0 X150.9677 Y-35.7142
G1 Z0.0
G3 X151.2285 Y-35.8923 I0.7948 J0.8843
G3 X151.5217 Y-36.0094 I0.7366 J1.4188
G3 X152.1418 Y-36.1075 I0.6945 J2.3806
G3 X153.3585 Y-35.878 I0.095 J2.8364
G3 X154.0479 Y-35.4188 I-0.9108 J2.1146
G3 X154.614 Y-34.4688 I-1.5155 J1.5467
G3 X154.7192 Y-33.8406 I-2.5985 J0.758
G1 X150.9677 Y-33.3046
G1 Y-35.7142
G0 Z5.0
G0 X154.3124 Y-31.8261
G1 Z0.0
G1 X155.7909
G2 X155.7988 Y-31.7076 I1.1214 J-0.0149
G1 X155.8147 Y-31.5898
G1 X155.827 Y-31.5116
G1 X155.8771 Y-31.1989
G3 X155.9321 Y-30.5682 I-4.3675 J0.6991
G3 X155.9052 Y-30.1463 I-2.7269 J0.038
G3 X155.8864 Y-30.0349 I-0.9874 J-0.1099
G3 X155.6844 Y-29.4658 I-1.9336 J-0.3657
G1 X154.3124 Y-31.8261
G0 Z5.0
G0 X157.1498 Y-32.2057
G1 Z0.0
G1 X157.1288 Y-32.362
G1 X158.5997
G3 X158.9796 Y-32.3113 I-0.105 J2.2384
G3 X159.3491 Y-32.21 I-0.6758 J3.1885
G1 X159.3975 Y-32.1935
G3 X160.1411 Y-31.8588 I-1.6666 J4.696
G3 X161.46 Y-30.9157 I-3.3642 J6.0987
G3 X162.1984 Y-30.1267 I-4.0753 J4.5534
G3 X162.5439 Y-29.6138 I-3.3904 J2.6566
G3 X162.8192 Y-28.9596 I-2.378 J1.386
G3 X162.8749 Y-28.5808 I-1.5446 J0.4207
G3 X162.8168 Y-28.167 I-1.2039 J0.0417
G3 X162.5804 Y-27.7641 I-1.0524 J-0.3465
G3 X162.1616 Y-27.4423 I-1.15 J-1.063
G3 X161.618 Y-27.2242 I-1.254 J-2.3393
G3 X161.3218 Y-27.1506 I-0.8723 J-2.8792
G3 X161.1692 Y-27.1211 I-1.3221 J-6.4288
G1 X161.013 Y-27.0958
G1 X160.934 Y-27.0847
G1 X160.773 Y-27.0653
G3 X160.092 Y-27.0223 I-0.8116 J-7.4298
G3 X160.0706 Y-27.0218 I-0.0133 J-0.1139
G3 X158.8534 Y-28.0725 I2.6659 J-4.3186
G3 X157.9782 Y-29.4213 I5.0119 J-4.2105
G3 X157.8859 Y-29.6154 I3.3529 J-1.7136
G3 X157.4823 Y-30.6846 I7.5658 J-3.4668
G3 X157.1548 Y-32.1676 I9.4405 J-2.862
G1 X157.1498 Y-32.2057
G0 Z5.0
G0 X158.5921 Y-41.4877
G1 Z0.0
G1 X156.7259 Y-43.4755
G1 X158.2044
G3 X158.417 Y-43.1491 I-1.3 J1.0796
G3 X158.5551 Y-42.785 I-1.9595 J0.9513
G3 X158.6528 Y-42.0168 I-2.6546 J0.728
G3 X158.5959 Y-41.5036 I-2.4359 J-0.0105
G1 X158.5921 Y-41.4877
G0 Z5.0
G0 X160.1721 Y-42.1756
G1 Z0.0
G3 X159.9676 Y-42.6601 I21.4823 J-9.3531
G2 X159.8315 Y-42.968 I-10.7208 J4.5536
G1 X159.7522 Y-43.1283
G2 X159.5423 Y-43.4755 I-2.4128 J1.2217
G2 X160.3492 Y-43.4792 I-0.2642 J-143.6955
G3 X161.1559 Y-43.4638 I0.131 J14.3065
G1 X161.2634 Y-43.4582
G1 X161.5087 Y-43.4405
G3 X162.1588 Y-43.3518 I-0.5371 J6.3669
G3 X162.9969 Y-43.0951 I-0.7049 J3.797
G3 X163.9512 Y-42.4037 I-1.0988 J2.521
G1 X161.5491 Y-41.0582
G3 X161.0426 Y-41.1464 I-0.0183 J-1.3936
G3 X160.6185 Y-41.4372 I0.4203 J-1.0676
G3 X160.4103 Y-41.7107 I1.1511 J-1.0923
G3 X160.1996 Y-42.1126 I2.7694 J-1.7081
G3 X160.1721 Y-42.1756 I21.4548 J-9.416
G0 Z5.0
G0 X160.4184 Y-44.7744
G1 Z0.0
G3 X160.046 Y-44.8248 I0.4449 J-4.6925
G3 X159.5668 Y-44.9497 I0.6206 J-3.3621
G3 X159.054 Y-45.1962 I0.7829 J-2.2854
G3 X158.5713 Y-45.6455 I0.9937 J-1.5516
G3 X158.2553 Y-46.3527 I1.5191 J-1.103
G3 X158.1981 Y-46.7687 I2.2607 J-0.5226
G3 X158.2044 Y-47.2192 I3.0064 J-0.1835
G3 X159.2329 Y-47.0407 I-0.4259 J5.5071
G3 X159.567 Y-46.942 I-2.2436 J8.2043
G3 X159.6553 Y-46.913 I-0.3231 J1.1337
G3 X160.1205 Y-46.743 I-2.7693 J8.2984
G3 X160.7283 Y-46.4859 I-6.2793 J15.6906
G3 X161.5257 Y-46.1166 I-13.8227 J30.8946
G2 X161.9808 Y-45.905 I10.7046 J-22.432
G1 X162.0988 Y-45.8515
G1 X162.2208 Y-45.7969
G2 X162.7841 Y-45.5609 I5.2476 J-11.7342
G1 X162.8565 Y-45.5329
G2 X163.1676 Y-45.4203 I2.0645 J-5.2166
G1 X163.2473 Y-45.3936
G1 X163.3286 Y-45.3674
G1 X163.4115 Y-45.3417
G3 X163.2778 Y-45.2521 I-0.4694 J-0.5558
G3 X163.1337 Y-45.1807 I-1.6197 J-3.0889
G1 X163.0915 Y-45.1623
G1 X162.9779 Y-45.1166
G1 X162.8241 Y-45.062
G3 X162.1955 Y-44.8944 I-1.7753 J-5.3956
G3 X160.9074 Y-44.7536 I-1.3651 J-6.5289
G3 X160.4184 Y-44.7744 I-0.0441 J-4.7133
G0 Z5.0
G0 X156.7259 Y-45.8701
G1 Z0.0
G1 X152.853 Y-47.2192
G1 X156.7259
G1 Y-45.8701
G0 Z5.0
G0 X152.317 Y-49.6289
G1 Z0.0
G1 X150.4394 Y-48.2911
G3 X150.1305 Y-48.4345 I0.0967 J-0.6126
G3 X149.9525 Y-48.7249 I0.4418 J-0.4705
G3 X149.9064 Y-48.9471 I1.2937 J-0.3847
G3 X149.8929 Y-49.2436 I2.1882 J-0.2478
G1 X149.9035 Y-49.6289
G1 X152.317
G0 Z5.0
G0 X148.5656 Y-48.2911
G1 Z0.0
G1 X145.6276 Y-48.6863
G1 X146.5587 Y-49.6289
G3 X146.8892 Y-49.7021 I0.9793 J3.6376
G3 X146.937 Y-49.7097 I0.1085 J0.533
G3 X147.3235 Y-49.7285 I0.2756 J1.6815
G3 X147.5774 Y-49.6782 I-0.0683 J1.0113
G3 X147.8743 Y-49.4964 I-0.2654 J0.7665
G3 X148.0058 Y-49.3444 I-0.8385 J0.8585
G1 X148.0658 Y-49.2556
G3 X148.1241 Y-49.1574 I-0.8302 J0.5596
G3 X148.2429 Y-48.928 I-5.8298 J3.1639
G3 X148.2501 Y-48.9133 I-0.0698 J0.0431
G3 X148.2573 Y-48.8985 I-0.0705 J0.0434
G3 X148.2645 Y-48.8836 I-0.0712 J0.0437
G3 X148.2717 Y-48.8686 I-0.0719 J0.044
G3 X148.279 Y-48.8534 I-0.0726 J0.0443
G1 X148.4109 Y-48.5816
G1 X148.4839 Y-48.4393
G1 X148.5656 Y-48.2911
G0 Z5.0
G0 X148.785 Y-46.868
G1 Z0.0
G3 X149.073 Y-46.8775 I0.1833 J1.1892
G3 X149.5524 Y-46.6989 I-0.1089 J1.0253
G3 X149.8079 Y-46.4709 I-0.772 J1.1222
G3 X150.0649 Y-46.0995 I-1.4939 J1.3082
G3 X150.2925 Y-45.5554 I-2.704 J1.4509
G3 X150.4394 Y-44.8058 I-3.4012 J1.0559
G3 X150.1386 Y-44.8052 I-0.1531 J-1.3348
G3 X149.8419 Y-44.8542 I0.291 J-2.68
G3 X149.2672 Y-45.0247 I1.1253 J-4.8474
G3 X148.1881 Y-45.5322 I2.2398 J-6.1635
G3 X147.5373 Y-45.9883 I2.2285 J-3.8727
G3 X147.2242 Y-46.3199 I1.2167 J-1.4624
G3 X147.1074 Y-46.5366 I0.6598 J-0.4956
G3 X147.0985 Y-46.8126 I0.3934 J-0.1508
G1 X148.5656
G3 X148.785 Y-46.868 I0.4027 J1.1339
G0 Z5.0
G0 X142.5984 Y-48.09
G1 Z0.0
G3 X142.5375 Y-47.8616 I-1.773 J-0.3502
G1 X139.3183 Y-49.7963
G1 X142.0625 Y-50.0432
G3 X142.4757 Y-49.2838 I-2.5298 J1.8687
G3 X142.6326 Y-48.4337 I-2.2305 J0.8513
G3 X142.5984 Y-48.09 I-1.8072 J-0.0065
G0 Z5.0
G0 X135.8171 Y-45.0763
G1 Z0.0
G1 X136.5285 Y-43.4755
G1 X132.6478 Y-45.8701
G1 X135.4643
G1 X135.8171 Y-45.0763
G0 Z5.0
G0 X133.2612 Y-47.744
G1 Z0.0
G3 X133.1168 Y-47.622 I-1.0518 J-1.0978
G3 X132.8515 Y-47.4579 I-1.1329 J-1.5355
G3 X132.1257 Y-47.2263 I-1.0551 J-2.0533
G3 X131.713 Y-47.2192 I-0.2325 J-1.5228
G1 Y-49.2223
G1 X132.6478
G3 X133.0462 Y-49.0021 I-1.2118 J2.6618
G3 X133.3852 Y-48.6985 I-0.7843 J1.2171
G3 X133.5221 Y-48.4244 I-0.5796 J0.4605
G3 X133.4651 Y-48.0088 I-0.5835 J0.1316
G3 X133.3239 Y-47.8078 I-0.8291 J-0.4319
G3 X133.2612 Y-47.744 I-1.1145 J-1.034
G0 Z5.0
G0 X129.1124 Y-48.997
G1 Z0.0
G1 X128.6685 Y-47.5271
G1 X127.2964 Y-48.6863
G3 X127.4024 Y-49.2472 I1.0249 J-0.0967
G3 X127.8138 Y-49.643 I0.8332 J0.4544
G3 X128.1759 Y-49.7653 I0.6191 J1.2356
G3 X128.6757 Y-49.7871 I0.3306 J1.8411
G3 X129.3033 Y-49.6289 I-0.1904 J2.0792
G1 X129.1124 Y-48.997
G0 Z5.0
G0 X121.0137 Y-38.3368
G1 Z0.0
G1 X121.2168 Y-37.8948
G1 X121.4144 Y-37.4503
G3 X121.543 Y-37.1525 I-17.5508 J7.7578
G3 X122.0271 Y-35.949 I-27.8396 J11.8961
G1 X122.1535 Y-35.6006
G1 X122.2178 Y-35.4137
G1 X122.25 Y-35.3168
G3 X122.3857 Y-34.8704 I-7.8119 J2.6189
G3 X120.2293 Y-33.1058 I-102.9643 J-123.6227
G1 X119.9194 Y-32.8559
G1 X119.5649 Y-32.5707
G1 X119.1593 Y-32.2454
G1 X115.9101 Y-29.6486
G1 X115.4777 Y-29.3013
G1 X115.017 Y-28.9302
G1 X113.967 Y-28.0781
G1 X113.4093 Y-27.6209
G1 X112.8165 Y-27.1307
G1 X112.187 Y-26.6043
G1 X111.8635 Y-26.331
G2 X110.3987 Y-25.065 I52.9553 J62.7484
G2 X109.6295 Y-24.3761 I49.7539 J56.3282
G2 X107.9155 Y-22.7527 I37.7364 J41.5579
G1 X107.863 Y-22.7004
G2 X107.6924 Y-23.2279 I-6.4843 J1.8055
G2 X107.627 Y-23.4007 I-4.1262 J1.4631
G2 X107.5355 Y-23.6295 I-4.9884 J1.8608
G2 X107.14 Y-24.5318 I-19.251 J7.9013
G1 X106.8623 Y-25.1269
G3 X106.4909 Y-25.9196 I80.0734 J-38.0031
G1 X121.0137 Y-38.3368
G0 Z5.0
G0 X123.2637 Y-33.4185
G1 Z0.0
G1 X124.3204 Y-30.4349
G1 X109.7292 Y-18.5803
G2 X109.4896 Y-19.6728 I-6.727 J0.9027
G2 X109.4792 Y-19.7074 I-0.2682 J0.0619
G2 X109.0689 Y-20.7867 I-7.7745 J2.3381
G2 X108.9196 Y-21.0812 I-3.7208 J1.7006
G3 X111.4515 Y-23.4847 I73.1219 J74.4973
G1 X111.6231 Y-23.642
G1 X111.8065 Y-23.8094
G3 X114.785 Y-26.4376 I91.7261 J100.9508
G3 X116.8083 Y-28.1459 I114.3225 J133.3475
G3 X117.3516 Y-28.5971 I106.1426 J127.2536
G3 X117.4201 Y-28.6539 I0.8923 J1.0081
G3 X117.4893 Y-28.7111 I0.8864 J1.0011
G3 X117.5589 Y-28.7687 I0.8806 J0.9942
G1 X118.154 Y-29.2592
G1 X118.4617 Y-29.5118
G1 X119.1188 Y-30.0496
G1 X120.6238 Y-31.2748
G1 X121.4274 Y-31.9271
G1 X123.2637 Y-33.4185
G0 Z5.0
G0 X124.883 Y-29.0249
G1 Z0.0
G1 X125.7647 Y-26.8166
G3 X123.7625 Y-25.2836 I-24.3497 J-29.7273
G3 X123.6964 Y-25.2362 I-0.5299 J-0.6697
G1 X123.555 Y-25.1355
G3 X121.2554 Y-23.5795 I-40.2739 J-57.042
G1 X120.9448 Y-23.378
G3 X120.2325 Y-22.921 I-55.558 J-85.8015
G1 X119.4159 Y-22.403
G3 X119.3644 Y-22.3705 I-0.6327 J-0.945
G1 X118.4219 Y-21.777
G2 X115.9148 Y-20.1854 I138.0849 J220.2784
G1 X115.2512 Y-19.7532
G1 X114.91 Y-19.5282
G2 X113.3654 Y-18.4768 I35.1309 J53.2723
G1 X113.1714 Y-18.3402
G1 X112.9749 Y-18.2006
G2 X111.2102 Y-16.8801 I28.4846 J39.906
G1 X111.1013 Y-16.7939
G3 X111.0546 Y-16.7577 I-0.2621 J-0.2902
G1 X111.0051 Y-16.7255
G3 X110.8929 Y-16.6888 I-0.1209 J-0.1801
G3 X110.8276 Y-16.7433 I0.0007 J-0.0672
G3 X110.8227 Y-16.7965 I0.1356 J-0.0394
G3 X110.85 Y-16.9207 I0.4914 J0.043
G3 X110.9071 Y-17.0489 I1.0268 J0.3805
G3 X111.0861 Y-17.3147 I1.586 J0.8745
G3 X112.6752 Y-19.1415 I23.3326 J18.6925
G3 X113.2346 Y-19.7234 I23.5456 J22.0746
G1 X113.56 Y-20.0504
G3 X116.2838 Y-22.5373 I33.2027 J33.6298
G3 X117.0935 Y-23.212 I31.9989 J37.5819
G1 X117.5298 Y-23.5664
G3 X117.6411 Y-23.6558 I2.8552 J3.4376
G3 X117.7543 Y-23.7465 I3.2198 J3.9052
G3 X117.8695 Y-23.8384 I3.7773 J4.6185
G3 X118.3629 Y-24.2278 I46.3781 J58.2533
G1 X118.8923 Y-24.639
G1 X119.4603 Y-25.0733
G1 X120.0694 Y-25.5321
G1 X120.2246 Y-25.648
G1 X120.3824 Y-25.7655
G1 X121.0575 Y-26.2642
G1 X121.4071 Y-26.5201
G1 X122.1545 Y-27.0633
G1 X122.2488 Y-27.1316
G1 X122.6386 Y-27.4129
G1 X123.0413 Y-27.7027
G1 X124.883 Y-29.0249
G0 Z5.0
G0 X126.3613 Y-25.1444
G1 Z0.0
G1 X127.057 Y-22.936
G2 X122.8163 Y-20.1769 I459.4743 J710.8398
G2 X122.7492 Y-20.1327 I0.9507 J1.5179
G2 X118.492 Y-17.2532 I98.1614 J149.7129
G2 X118.4256 Y-17.2067 I0.9178 J1.3808
G2 X118.3588 Y-17.1599 I0.9207 J1.3836
G2 X118.2915 Y-17.1126 I0.9236 J1.3865
G1 X117.7186 Y-16.7075
G1 X117.1101 Y-16.2718
G1 X116.7972 Y-16.0454
G1 X116.475 Y-15.8105
G1 X116.1432 Y-15.5667
G1 X115.4388 Y-15.0423
G2 X113.8471 Y-13.8196 I50.046 J66.7978
G2 X112.0628 Y-12.3774 I51.9514 J66.1009
G1 X111.1734 Y-14.7947
G1 X126.3613 Y-25.1444
G0 Z5.0
G0 X133.0508 Y-26.0792
G1 Z0.0
G1 X137.874 Y-23.1299
G1 X134.5217 Y-21.7996
G1 X133.0508 Y-26.0792
G0 Z5.0
G0 X140.2611 Y-21.7772
G1 Z0.0
G3 X140.2681 Y-21.7889 I0.8539 J0.5095
G3 X140.4763 Y-22.0395 I1.0538 J0.6638
G3 X140.7755 Y-22.2623 I1.3013 J1.4348
G3 X141.1522 Y-22.4524 I1.3589 J2.2243
G3 X141.3601 Y-22.5339 I1.0245 J2.3088
G3 X141.8369 Y-22.6827 I2.0252 J5.651
G3 X141.9609 Y-22.7151 I0.5641 J1.9052
G1 X142.223 Y-22.7774
G3 X142.8034 Y-22.8934 I2.9094 J13.0428
G1 X142.9522 Y-22.9199
G1 X142.9897 Y-22.9264
G1 X143.3023 Y-22.9793
G2 X143.9835 Y-23.0959 I-4.5683 J-28.73
G1 X144.1568 Y-23.1299
G2 X144.5439 Y-22.3109 I10.9586 J-4.679
G1 X144.6816 Y-22.0422
G1 X144.7603 Y-21.8886
G1 X144.9675 Y-21.4778
G1 X145.0822 Y-21.2411
G1 X145.1417 Y-21.1142
G3 X145.4333 Y-20.4254 I-8.827 J4.143
G3 X145.7221 Y-19.4698 I-6.304 J2.4268
G3 X145.7731 Y-19.2082 I-3.5981 J0.8368
G3 X145.8394 Y-18.6014 I-5.3849 J0.8959
G3 X145.6276 Y-16.9802 I-4.6131 J0.2217
G1 X140.812 Y-19.7852
G3 X140.5367 Y-20.1569 I4.3156 J-3.4838
G3 X140.3051 Y-20.5573 I2.5854 J-1.7626
G3 X140.1903 Y-20.8438 I1.9523 J-0.9489
G3 X140.1208 Y-21.2507 I1.3909 J-0.447
G3 X140.2611 Y-21.7772 I0.9942 J-0.0171
G0 Z5.0
G0 X145.7333 Y-23.8819
G1 Z0.0
G1 X144.685 Y-26.6075
G1 X151.9027 Y-23.6658
G3 X151.5978 Y-23.006 I-2.2711 J-0.6492
G3 X151.1207 Y-22.4577 I-2.4677 J-1.6654
G3 X150.7432 Y-22.154 I-3.1791 J-3.5642
G3 X150.1997 Y-21.8093 I-3.6609 J-5.1715
G3 X149.4396 Y-21.4219 I-5.3266 J-9.5126
G1 X149.2331 Y-21.3271
G1 X149.012 Y-21.2285
G1 X148.8978 Y-21.1783
G1 X148.3764 Y-20.9517
G1 X148.3102 Y-20.9228
G2 X148.0292 Y-20.7984 I9.0473 J20.8066
G2 X147.7319 Y-20.6614 I4.3661 J9.8689
G1 X147.5798 Y-20.5881
G2 X147.2602 Y-20.4234 I3.3768 J6.9434
G1 X147.0985 Y-20.3325
G1 X145.7333 Y-23.8819
G0 Z5.0
G0 X150.4394 Y-20.3325
G1 Z0.0
G3 X150.8996 Y-20.6901 I5.4552 J6.545
G1 X151.0567 Y-20.8045
G1 X151.268 Y-20.9542
G1 X151.5533 Y-21.1486
G1 X151.5717 Y-21.1608
G3 X151.9711 Y-21.4043 I2.4447 J3.5616
G3 X152.316 Y-21.5524 I1.1314 J2.1577
G3 X152.6864 Y-21.6138 I0.366 J1.061
G3 X152.9336 Y-21.5632 I-0.0106 J0.6817
G3 X153.2024 Y-21.354 I-0.2677 J0.6213
G3 X153.3095 Y-21.1893 I-0.9998 J0.7669
G3 X153.3993 Y-20.9855 I-1.1621 J0.6341
G3 X153.5385 Y-20.4334 I-3.0807 J1.07
G3 X153.6259 Y-19.7334 I-8.719 J1.4451
G1 X153.6601 Y-19.3462
G1 X153.6994 Y-18.9185
G2 X153.7616 Y-18.4459 I9.4465 J-1.0021
G1 X153.7841 Y-18.3256
G1 X150.4394 Y-20.3325
G0 Z5.0
G0 X154.7192 Y-21.7996
G1 Z0.0
G2 X155.1134 Y-21.58 I8.4515 J-14.7091
G1 X155.5123 Y-21.3692
G2 X155.6268 Y-21.31 I1.2537 J-2.2832
G1 X155.9327 Y-21.153
G1 X156.3406 Y-20.9438
G1 X156.5729 Y-20.8228
G1 X156.8372 Y-20.6823
G3 X156.9052 Y-20.6454 I-0.5459 J1.089
G1 X157.2139 Y-20.4738
G3 X158.0151 Y-19.9784 I-6.102 J10.7641
G3 X158.996 Y-19.1914 I-4.0973 J6.1116
G3 X159.482 Y-18.659 I-3.9161 J4.0624
G3 X160.3748 Y-16.9443 I-3.9012 J3.1212
G3 X160.5885 Y-15.8499 I-5.9623 J1.7325
G3 X160.6141 Y-14.5743 I-7.9618 J0.7974
G3 X159.5189 Y-15.2354 I6.3782 J-11.803
G3 X159.17 Y-15.481 I7.1132 J-10.4753
G3 X157.8857 Y-16.6027 I5.9011 J-8.0524
G3 X157.1399 Y-17.4617 I7.4639 J-7.2333
G3 X156.2759 Y-18.7071 I10.8338 J-8.4385
G1 X156.174 Y-18.8742
G3 X155.2005 Y-20.7137 I17.1695 J-10.2643
G3 X154.7192 Y-21.7996 I28.4284 J-13.2508
G0 Z5.0
G0 X161.9444 Y-16.9802
G1 Z0.0
G3 X162.7023 Y-16.929 I0.0424 J5.0048
G3 X163.4351 Y-16.7293 I-0.3881 J2.8692
G3 X163.8687 Y-16.4628 I-0.6803 J1.5928
G3 X164.2594 Y-15.8985 I-0.8621 J1.0144
G3 X164.3465 Y-15.5093 I-1.4568 J0.5301
G1 X162.4803 Y-14.5743
G1 X161.9444 Y-16.9802
G0 Z5.0
G0 X154.2642 Y-8.3282
G1 Z0.0
G3 X154.3124 Y-8.284 I-1.3475 J1.518
G3 X154.1657 Y-7.4834 I-2.326 J-0.0124
G3 X153.7767 Y-6.7685 I-2.8542 J-1.0894
G3 X153.429 Y-6.3521 I-3.4343 J-2.5148
G3 X152.8972 Y-5.8665 I-3.9673 J-3.8107
G3 X152.5685 Y-5.6203 I-3.2495 J-3.9959
G1 X152.3874 Y-5.4975
G3 X151.3744 Y-4.9392 I-4.1213 J-6.2805
G3 X151.2471 Y-5.1681 I6.9976 J-4.0415
G1 X151.1208 Y-5.3976
G3 X150.8751 Y-5.8603 I12.9986 J-7.198
G3 X150.4394 Y-6.8131 I9.9079 J-5.1064
G2 X150.5328 Y-6.9065 I-1.8701 J-1.9641
G2 X150.6255 Y-7.0007 I-1.5971 J-1.664
G1 X150.6869 Y-7.0638
G1 X150.7687 Y-7.1481
G1 X151.0962 Y-7.4847
G1 X151.3183 Y-7.7056
G3 X151.4477 Y-7.8293 I2.1139 J2.0816
G1 X151.5177 Y-7.8943
G3 X151.9056 Y-8.2241 I3.906 J4.2017
G3 X152.4795 Y-8.5887 I2.0564 J2.603
G3 X152.8459 Y-8.7246 I0.8274 J1.6688
G3 X153.2953 Y-8.7691 I0.3633 J1.3759
G3 X153.806 Y-8.6348 I-0.0901 J1.3802
G3 X154.2642 Y-8.3282 I-0.8892 J1.8246
G0 Z5.0
G0 X148.2147 Y-6.7672
G1 Z0.0
G1 X148.9609 Y-3.8751
G3 X148.1793 Y-3.6391 I-0.95 J-1.7342
G3 X147.3667 Y-3.7183 I-0.1768 J-2.3925
G3 X146.8542 Y-3.9012 I0.7979 J-3.0456
G3 X146.2222 Y-4.2475 I1.9114 J-4.2383
G3 X145.8858 Y-4.4823 I2.549 J-4.0107
G3 X145.0719 Y-5.1925 I4.6315 J-6.1288
G3 X144.1568 Y-6.2771 I5.9993 J-5.9906
G3 X143.8478 Y-6.9122 I4.33 J-2.4996
G3 X143.6528 Y-7.5909 I3.1265 J-1.2656
G3 X143.6151 Y-8.0612 I2.3364 J-0.4238
G3 X143.7148 Y-8.6839 I2.1327 J0.022
G3 X144.1177 Y-9.4256 I2.1831 J0.7057
G3 X144.4504 Y-9.7776 I2.4581 J1.9897
G3 X144.8844 Y-10.1175 I2.7731 J3.0949
G3 X145.4211 Y-10.4374 I3.0669 J4.5346
G3 X145.456 Y-10.4556 I0.1502 J0.246
G3 X146.1021 Y-10.7499 I3.7627 J7.4032
G3 X146.1437 Y-10.7665 I0.1892 J0.4125
G3 X146.901 Y-11.033 I3.5285 J8.8202
G3 X147.0985 Y-11.0928 I1.2834 J3.8805
G1 X148.2147 Y-6.7672
G0 Z5.0
G0 X142.2754
G1 Z0.0
G1 Y-6.2771
G1 X139.3335 Y-7.7557
G1 X139.5687 Y-7.9714
G1 X139.6483 Y-8.042
G1 X139.7558 Y-8.1345
G3 X140.207 Y-8.4783 I3.5178 J4.1496
G3 X140.5326 Y-8.6712 I1.6528 J2.4185
G3 X141.007 Y-8.8465 I0.9054 J1.7206
G3 X141.2967 Y-8.8765 I0.2823 J1.3117
G3 X141.6288 Y-8.8182 I-0.0131 J1.0495
G3 X141.9702 Y-8.6227 I-0.3842 J1.0662
G3 X142.2754 Y-8.284 I-1.0946 J1.2933
G1 Y-6.7672
G0 Z5.0
G0 X140.5193 Y-10.2837
G1 Z0.0
G1 X138.4023 Y-9.2266
G3 X137.6059 Y-10.5004 I7.1752 J-5.3719
G3 X137.396 Y-10.9557 I5.2416 J-2.6922
G3 X137.1832 Y-11.5897 I4.0156 J-1.7008
G3 X137.1448 Y-11.7642 I2.8026 J-0.7081
G3 X137.1005 Y-12.1711 I2.399 J-0.4669
G3 X137.1623 Y-12.6392 I1.4522 J-0.0463
G3 X137.4673 Y-13.1071 I0.9625 J0.2941
G1 X141.3403 Y-10.6937
G1 X140.5193 Y-10.2837
G0 Z5.0
G0 X140.812 Y0.9405
G1 Z0.0
G1 X142.6782 Y2.8144
G1 X140.2685 Y3.757
G2 X140.2945 Y3.4848 I-3.5085 J-0.4721
G1 X140.2983 Y3.3937
G1 X140.301 Y3.2722
G1 X140.3013 Y3.1101
G1 X140.3002 Y3.0175
G1 X140.2952 Y2.7707
G1 X140.288 Y2.4417
G1 X140.2865 Y2.2537
G3 X140.308 Y1.7528 I5.6307 J-0.0091
G3 X140.3547 Y1.4696 I2.2276 J0.2219
G3 X140.4788 Y1.1632 I0.9809 J0.2191
G3 X140.812 Y0.9405 I0.4109 J0.2541
G0 Z5.0
G0 X171.1557 Y-32.3459
G1 Z0.0
G3 X171.0347 Y-32.4656 I1.4076 J-1.5441
G3 X170.6301 Y-33.2991 I1.155 J-1.0755
G3 X170.6368 Y-33.8406 I1.7047 J-0.2497
G1 X172.1077
G3 X172.5899 Y-33.7756 I0.0317 J1.5878
G3 X172.9952 Y-33.5063 I-0.2413 J0.8027
G3 X173.1631 Y-33.2246 I-0.9526 J0.7587
G3 X173.3013 Y-32.8159 I-2.8498 J1.1909
G1 X173.4445 Y-32.2753
G1 X173.4854 Y-32.133
G1 X173.5321 Y-31.9832
G1 X173.5861 Y-31.8261
G3 X172.5623 Y-31.7445 I-0.7162 J-2.5235
G3 X171.5805 Y-32.0462 I0.2967 J-2.7142
G3 X171.1557 Y-32.3459 I0.9828 J-1.8439
G0 Z5.0
G0 X167.3035 Y-37.5804
G1 Z0.0
G1 X165.4182 Y-38.6561
G3 X165.8916 Y-39.0542 I2.4187 J2.3949
G3 X166.441 Y-39.3383 I1.2766 J1.7955
G3 X166.8507 Y-39.4036 I0.3854 J1.1004
G3 X167.0865 Y-39.3536 I-0.0174 J0.6631
G3 X167.3138 Y-39.1821 I-0.2196 J0.5273
G3 X167.4561 Y-38.8727 I-0.6123 J0.4691
G3 X167.4876 Y-38.4811 I-1.4768 J0.3158
G3 X167.4316 Y-38.0521 I-2.5005 J-0.1084
G3 X167.3081 Y-37.5946 I-3.8047 J-0.7811
G3 X167.3035 Y-37.5804 I-0.0728 J-0.016
G0 Z5.0
G0 X170.0448 Y-45.2978
G1 Z0.0
G3 X169.7498 Y-45.4253 I0.808 J-2.2746
G3 X168.9305 Y-46.0531 I1.3018 J-2.5474
G3 X168.2347 Y-47.2192 I2.5493 J-2.3116
G1 X168.763 Y-47.7437
G1 X168.8042 Y-47.7438
G1 X168.8455 Y-47.7441
G1 X168.9279 Y-47.7452
G1 X169.0927 Y-47.7488
G2 X169.1148 Y-47.7494 I0.0079 J-0.1169
G1 X169.4664 Y-47.7601
G1 X169.7009 Y-47.7667
G1 X170.0136 Y-47.7717
G1 X170.1923 Y-47.7713
G3 X170.6687 Y-47.7527 I-0.0467 J7.3062
G3 X171.2986 Y-47.6641 I-0.3081 J4.4749
G3 X171.4632 Y-47.6221 I-0.4864 J2.2465
G3 X171.8273 Y-47.4837 I-0.5241 J1.927
G3 X172.1992 Y-47.2313 I-0.6969 J1.4271
G3 X172.5038 Y-46.8034 I-0.8871 J0.9539
G3 X172.6434 Y-46.2023 I-1.6067 J0.6898
G3 X172.6436 Y-45.8701 I-2.4267 J0.1677
G3 X171.9999 Y-45.4407 I-2.1074 J-2.4621
G3 X171.2664 Y-45.1942 I-1.2162 J-2.4046
G3 X170.0448 Y-45.2978 I-0.4136 J-2.3782
G0 Z5.0
G0 X173.7058 Y-46.6161
G1 Z0.0
G3 X173.5861 Y-47.2192 I1.938 J-0.6979
G3 X174.7916 Y-47.2604 I0.67 J1.9521
G3 X175.1755 Y-47.125 I-0.6422 J2.4326
G3 X175.2235 Y-47.1035 I-0.1507 J0.4025
G3 X175.7143 Y-46.839 I-2.0973 J4.4785
G1 X175.8406 Y-46.7607
G3 X175.8725 Y-46.7406 I-0.1952 J0.3438
G1 X176.1607 Y-46.5538
G1 X176.4892 Y-46.3423
G1 X176.5749 Y-46.2894
G2 X176.975 Y-46.066 I3.0472 J-4.9873
G2 X177.4592 Y-45.8701 I1.4381 J-2.8575
G3 X177.4901 Y-45.6364 I-0.3301 J0.1625
G3 X177.366 Y-45.4362 I-0.3782 J-0.0958
G3 X177.2381 Y-45.3452 I-0.4649 J-0.5181
G3 X177.052 Y-45.2622 I-0.5566 J-0.9972
G3 X176.7984 Y-45.1948 I-0.5933 J-1.7223
G3 X176.4638 Y-45.1535 I-0.4585 J-2.3405
G1 X176.3746 Y-45.1494
G3 X175.0888 Y-45.3546 I-0.0957 J-3.5323
G3 X174.3386 Y-45.7623 I0.9146 J-2.5769
G3 X173.9922 Y-46.1054 I1.2365 J-1.5948
G3 X173.7152 Y-46.5904 I1.4795 J-1.1665
G3 X173.7058 Y-46.6161 I1.9285 J-0.7236
G0 Z5.0
G0 X165.4202 Y-49.2284
G1 Z0.0
G3 X165.4182 Y-49.2223 I-0.4869 J-0.1535
G1 X163.0163
G1 Y-50.1573
G1 X164.3465
G3 X164.7894 Y-50.0795 I-0.0709 J1.7029
G3 X165.185 Y-49.8659 I-0.3532 J1.1275
G3 X165.3778 Y-49.633 I-0.5014 J0.6112
G3 X165.4202 Y-49.2284 I-0.4444 J0.2512
G0 Z5.0
G0 X175.0566 Y-72.8557
G1 Z0.0
G3 X173.9929 Y-73.304 I18.6916 J-45.8293
G3 X180.8782 Y-73.6675 I26.1613 J430.1784
G1 X181.8622 Y-73.711
G1 X182.9869 Y-73.7584
G1 X184.2724 Y-73.8095
G1 X185.7416 Y-73.8642
G1 X187.421 Y-73.922
G1 X189.3405 Y-73.9822
G1 X191.5343 Y-74.0437
G1 X192.7044 Y-74.0734
G1 X193.9526 Y-74.1028
G1 X195.2841 Y-74.1317
G1 X196.7044 Y-74.1598
G1 X198.2194 Y-74.1868
G1 X199.8354 Y-74.2122
G1 X200.6696 Y-74.224
G3 X204.4829 Y-74.2673 I14.6162 J1120.7461
G1 X205.467 Y-74.2757
G3 X205.5905 Y-74.2766 I0.0871 J3.1965
G3 X206.6104 Y-74.2841 I1.3885 J120.7366
G1 X208.786 Y-74.2961
G3 X208.9226 Y-74.2967 I0.085 J3.8805
G3 X209.0597 Y-74.2973 I0.0849 J3.9146
G1 X211.3987 Y-74.3041
G3 X211.5455 Y-74.3043 I0.0811 J4.6655
G1 X212.7575 Y-74.3055
G1 X215.3429 Y-74.3034
G1 X216.6774 Y-74.2998
G1 X219.5242 Y-74.287
G1 X222.5607 Y-74.2658
G1 X224.128 Y-74.252
G1 X224.924 Y-74.2443
G1 X226.5674 Y-74.2267
G1 X226.9816 Y-74.222
G1 X228.6913 Y-74.2011
G1 X229.1222 Y-74.1955
G1 X230.9009 Y-74.1711
G1 X232.737 Y-74.1436
G1 X234.6322 Y-74.113
G3 X238.6753 Y-74.0401 I-19.2245 J1178.918
G1 X240.7621 Y-73.9987
G1 X242.916 Y-73.9535
G1 X244.0101 Y-73.9296
G1 X246.2687 Y-73.8783
G1 X246.5522 Y-73.8717
G1 X246.8367 Y-73.865
G1 X247.993 Y-73.8374
G1 X249.1676 Y-73.8088
G1 X250.3608 Y-73.7791
G1 X250.9621 Y-73.7638
G1 X253.4447 Y-73.6994
G3 X246.6569 Y-72.1272 I-34.0975 J-131.7731
G3 X239.8051 Y-70.8634 I-35.5889 J-173.7404
G3 X237.8397 Y-70.5469 I-44.7618 J-271.6966
G3 X237.778 Y-70.5372 I-0.2223 J-1.218
G3 X237.716 Y-70.5275 I-0.2223 J-1.219
G3 X237.6537 Y-70.5178 I-0.2222 J-1.2201
G1 X236.5919 Y-70.3546
G2 X234.1434 Y-70.6136 I-3.9479 J25.6173
G2 X233.9795 Y-70.6232 I-0.2891 J3.545
G2 X233.1046 Y-70.6605 I-1.7202 J30.0538
G2 X233.0489 Y-70.6621 I-0.044 J0.5511
G2 X229.4929 Y-70.6156 I-1.1697 J46.4634
G1 X229.2636 Y-70.6039
G1 X229.0271 Y-70.591
G1 X228.7829 Y-70.5767
G1 X228.531 Y-70.561
G1 X228.271 Y-70.5437
G2 X227.0836 Y-70.4528 I3.9359 J59.1614
G2 X225.7287 Y-70.3271 I8.4857 J98.8529
G2 X225.6434 Y-70.3185 I0.0823 J1.2428
G1 X224.9159 Y-70.242
G2 X224.8243 Y-70.232 I0.1122 J1.4524
G1 X224.043 Y-70.1435
G2 X219.8883 Y-69.5985 I18.9362 J160.4601
G1 X219.3531 Y-69.5217
G1 X218.212 Y-69.355
G2 X216.9954 Y-69.1741 I32.5784 J223.3517
G1 X214.216 Y-68.7599
G1 X213.4984 Y-68.6552
G1 X212.7574 Y-68.5491
G1 X212.3809 Y-68.4961
G3 X206.3218 Y-68.2418 I-9.648 J-157.5419
G1 X205.4556 Y-68.2257
G3 X198.5255 Y-68.3101 I-1.9981 J-120.5074
G1 X198.0787 Y-68.3298
G1 X197.6176 Y-68.3521
G3 X192.7077 Y-68.7238 I4.7439 J-95.2761
G1 X192.3966 Y-68.7562
G1 X192.0807 Y-68.7902
G1 X191.76 Y-68.826
G1 X191.4343 Y-68.8636
G1 X191.1036 Y-68.903
G1 X190.7678 Y-68.9444
G1 X190.4269 Y-68.9879
G3 X187.3191 Y-69.4542 I9.9489 J-76.9005
G1 X187.124 Y-69.4879
G1 X186.9275 Y-69.5224
G1 X186.7295 Y-69.5577
G3 X183.1281 Y-70.3048 I11.786 J-65.8659
G1 X182.9026 Y-70.3586
G1 X182.6756 Y-70.4136
G3 X178.5648 Y-71.577 I13.9906 J-57.2838
G3 X175.0566 Y-72.8557 I15.1835 J-47.108
G0 Z5.0
G0 X196.1858 Y-57.9185
G1 Z0.0
G3 X196.7945 Y-58.1776 I16.7811 J38.5852
G3 X197.4054 Y-58.4314 I17.9641 J42.3706
G1 X197.8138 Y-58.5978
G1 X198.3598 Y-58.8161
G3 X200.5589 Y-59.6504 I31.6838 J80.1976
G3 X202.0371 Y-60.1733 I29.1204 J79.9747
G3 X202.8859 Y-60.4607 I28.8376 J83.7791
G1 X203.3396 Y-60.6106
G1 X203.8244 Y-60.768
G1 X204.3424 Y-60.9331
G3 X207.1197 Y-61.7666 I29.2598 J92.4554
G1 X207.8641 Y-61.976
G1 X208.6596 Y-62.1936
G3 X212.9266 Y-63.26 I31.376 J116.4715
G3 X218.6656 Y-64.4612 I32.0942 J139.0192
G1 X219.4094 Y-64.5999
G3 X227.3741 Y-65.8814 I34.0605 J186.2967
G1 X227.8815 Y-65.9519
G1 X228.3971 Y-66.0223
G3 X233.1163 Y-66.6149 I35.3207 J262.2294
G1 X234.3357 Y-66.7542
G1 X235.595 Y-66.8927
G1 X235.9124 Y-66.9269
G3 X238.6216 Y-67.2061 I28.5788 J264.0452
G1 X239.31 Y-67.2738
G1 X240.7313 Y-67.41
G1 X241.4535 Y-67.4774
G1 X242.9444 Y-67.6131
G1 X243.7019 Y-67.6805
G1 X244.4714 Y-67.7479
G1 X246.0602 Y-67.8842
G1 X246.2596 Y-67.9011
G1 X246.4598 Y-67.918
G1 X247.2732 Y-67.9861
G1 X248.9527 Y-68.1247
G1 X252.5349 Y-68.415
G1 X253.4447 Y-68.4885
G1 X251.5785 Y-67.0175
G1 X250.6304 Y-66.8868
G1 X249.6816 Y-66.762
G3 X249.0487 Y-66.6819 I-7.3087 J-55.1953
G3 X248.8798 Y-66.6609 I-0.55 J-3.7361
G3 X246.1763 Y-66.3443 I-27.7501 J-225.2118
G1 X245.4032 Y-66.2593
G1 X244.5194 Y-66.1645
G1 X243.5091 Y-66.0586
G3 X240.8142 Y-65.7843 I-109.0569 J-1058.2082
G1 X239.2742 Y-65.6293
G1 X238.4528 Y-65.5461
G1 X236.5759 Y-65.3522
G1 X236.0916 Y-65.301
G1 X235.5918 Y-65.2474
G1 X234.5259 Y-65.1306
G2 X232.0914 Y-64.8462 I32.6433 J290.064
G1 X231.4637 Y-64.7681
G2 X230.1255 Y-64.5936 I14.0089 J112.6482
G1 X229.4355 Y-64.499
G1 X229.0851 Y-64.4496
G1 X228.7293 Y-64.3985
G1 X228.368 Y-64.3456
G1 X228.0012 Y-64.2908
G1 X227.6287 Y-64.2339
G1 X227.2504 Y-64.175
G1 X226.8664 Y-64.1139
G1 X226.4765 Y-64.0504
G2 X225.6722 Y-63.9147 I8.012 J49.9571
G2 X222.0111 Y-63.2062 I15.4264 J89.5232
G2 X217.8723 Y-62.1816 I14.2608 J66.4735
G1 X217.3517 Y-62.0323
G1 X216.8242 Y-61.8759
G1 X216.2898 Y-61.7119
G2 X215.1916 Y-61.3564 I16.3068 J52.2589
G1 X214.916 Y-61.2632
G1 X216.576 Y-61.4034
G1 X218.2355 Y-61.5498
G1 X219.3416 Y-61.6499
G1 X219.9736 Y-61.7078
G1 X221.6587 Y-61.8638
G1 X223.9055 Y-62.0734
G1 X226.9013 Y-62.3509
G1 X227.7004 Y-62.4238
G1 X229.5268 Y-62.5874
G1 X231.6149 Y-62.768
G3 X237.187 Y-63.2003 I29.5166 J344.3487
G3 X240.3745 Y-63.402 I17.6862 J254.1768
G1 X241.1974 Y-63.4472
G1 X241.6155 Y-63.4689
G3 X243.3998 Y-63.5517 I15.6833 J318.663
G1 X243.6248 Y-63.561
G1 X244.5534 Y-63.5959
G3 X246.5349 Y-63.6525 I5.3422 J152.3248
G1 X247.558 Y-63.6711
G1 X247.6865 Y-63.6729
G1 X246.7552 Y-62.1982
G1 X235.254 Y-61.2632
G3 X232.6512 Y-58.9453 I-8.2492 J-6.6429
G3 X231.6341 Y-58.3745 I-5.9215 J-9.3594
G3 X231.0292 Y-58.0941 I-4.7601 J-9.4766
G3 X229.3581 Y-57.4962 I-5.6561 J-13.1746
G3 X227.0552 Y-56.9774 I-5.5937 J-19.4607
G3 X225.7218 Y-56.7858 I-4.4409 J-26.1625
G3 X224.194 Y-56.6301 I-5.3062 J-44.5095
G3 X222.4486 Y-56.5042 I-6.3434 J-75.7634
G1 X221.5183 Y-56.4485
G3 X221.2821 Y-56.4348 I-0.6519 J-9.1968
G1 X220.7949 Y-56.4065
G1 X219.7574 Y-56.3436
G1 X219.2226 Y-56.3079
G1 X218.6711 Y-56.2675
G1 X218.5323 Y-56.2566
G2 X218.2503 Y-56.2336 I21.2764 J261.8144
G2 X217.0512 Y-56.1173 I3.2963 J40.2514
G1 X216.9003 Y-56.1002
G2 X215.6188 Y-55.9265 I3.36 J29.5984
G2 X215.2948 Y-55.8732 I3.551 J22.5998
G2 X213.9232 Y-55.5946 I4.0189 J23.3028
G1 X213.5781 Y-55.5088
G3 X211.0181 Y-54.2109 I-5.5961 J-7.8639
G3 X208.1947 Y-53.6948 I-3.2651 J-9.8811
G3 X206.2804 Y-53.7765 I-0.4822 J-11.1644
G3 X203.8082 Y-54.4031 I1.3159 J-10.3821
G3 X202.4987 Y-55.0518 I2.9478 J-7.5967
G3 X201.861 Y-55.5042 I3.2187 J-5.2121
G3 X201.2627 Y-56.0925 I2.7428 J-3.3884
G3 X201.0089 Y-56.4477 I2.3516 J-1.9485
G3 X201.9884 Y-56.948 I4.422 J7.4486
G3 X203.0167 Y-57.3384 I4.5809 J10.5172
G3 X203.718 Y-57.553 I5.6364 J17.1627
G3 X204.6633 Y-57.8005 I7.818 J27.932
G3 X204.9167 Y-57.8614 I1.8341 J7.073
G1 X205.1873 Y-57.9248
G1 X206.6309 Y-58.253
G1 X207.0152 Y-58.3431
G1 X207.2132 Y-58.391
G2 X207.6346 Y-58.497 I-4.0658 J-17.054
G1 X207.7414 Y-58.5249
G2 X208.1953 Y-58.6498 I-3.4562 J-13.4529
G2 X209.2193 Y-58.9801 I-4.3449 J-15.2189
G2 X210.3502 Y-59.4664 I-3.3661 J-9.3858
G2 X210.9242 Y-59.7878 I-3.6476 J-7.189
G2 X212.1148 Y-60.7197 I-3.4006 J-5.571
G2 X210.8263 Y-60.7815 I-1.2485 J12.5564
G2 X210.3963 Y-60.7742 I0.0239 J14.0714
G2 X209.8236 Y-60.7454 I0.568 J16.9577
G2 X207.5512 Y-60.4512 I1.4837 J20.3883
G2 X206.9084 Y-60.3261 I6.2487 J33.8233
G2 X206.1774 Y-60.1667 I11.9021 J56.3171
G1 X205.789 Y-60.0756
G2 X203.7319 Y-59.5401 I14.5455 J60.0964
G1 X203.6018 Y-59.5042
G1 X203.0472 Y-59.35
G1 X202.9064 Y-59.3106
G1 X201.6197 Y-58.9521
G1 X200.9323 Y-58.7659
G3 X199.3535 Y-58.3736 I-10.9746 J-40.8027
G1 X199.2534 Y-58.3512
G1 X199.1525 Y-58.329
G3 X198.2884 Y-58.1558 I-4.3471 J-19.4451
G3 X197.8397 Y-58.0802 I-3.9432 J-22.0458
G3 X197.3746 Y-58.0144 I-2.5086 J-16.059
G1 X197.316 Y-58.0071
G1 X197.2572 Y-58.0
G1 X197.1981 Y-57.9932
G3 X196.1858 Y-57.9185 I-1.3791 J-11.7977
G0 Z5.0
G0 X252.5096 Y-60.7197
G1 Z0.0
G3 X253.164 Y-61.6091 I5.1396 J3.096
G3 X253.2128 Y-61.6644 I0.6467 J0.5212
G3 X253.4809 Y-61.9517 I9.5322 J8.6278
G3 X253.8568 Y-62.3167 I9.7324 J9.6469
G3 X254.3834 Y-62.7748 I7.6776 J8.2953
G3 X254.5281 Y-62.8921 I2.9074 J3.4366
G3 X254.8639 Y-63.153 I11.0152 J13.833
G3 X254.9518 Y-63.2188 I1.0007 J1.2437
G3 X255.0429 Y-63.2862 I0.9495 J1.1898
G3 X256.039 Y-63.9675 I12.2575 J16.8505
G3 X257.4205 Y-64.7878 I13.5189 J21.1946
G1 X257.5099 Y-64.837
G3 X257.6949 Y-64.9375 I9.8469 J17.9056
G3 X259.7036 Y-65.9313 I16.3222 J30.4654
G1 X259.9672 Y-66.0502
G3 X262.819 Y-67.2032 I17.4942 J39.1659
G3 X264.4782 Y-67.7782 I18.7733 J51.4951
G3 X266.3938 Y-68.3679 I17.72 J54.1549
G3 X266.6384 Y-68.4379 I5.3128 J18.1035
G3 X271.9051 Y-69.6799 I16.6316 J58.7375
G3 X279.0369 Y-70.6084 I11.4072 J59.767
G3 X279.9635 Y-70.6655 I5.5415 J82.2945
G3 X284.2015 Y-70.7281 I2.9247 J54.5146
G3 X285.2946 Y-70.6883 I-1.321 J51.2011
G3 X287.6214 Y-70.5199 I-2.0713 J44.7968
G3 X290.0899 Y-70.2065 I-4.3083 J43.8003
G3 X291.3554 Y-69.9863 I-5.8097 J37.1525
G3 X294.0271 Y-69.3724 I-6.9854 J36.5159
G1 X294.193 Y-69.3269
G3 X296.9872 Y-68.4154 I-8.5116 J30.8276
G3 X297.3327 Y-68.2816 I-4.7352 J12.7455
G3 X300.2085 Y-66.9528 I-9.815 J25.0181
G3 X303.0792 Y-65.1438 I-11.4402 J21.3371
G3 X303.6753 Y-64.0865 I-1.2504 J1.4017
G3 X303.7133 Y-63.6774 I-2.2083 J0.4115
G3 X303.6677 Y-63.1339 I-3.464 J-0.0171
G3 X303.5017 Y-62.433 I-5.336 J-0.894
G1 X303.4452 Y-62.2499
G1 X303.3817 Y-62.0563
G1 X303.3112 Y-61.8513
G1 X303.2741 Y-61.7459
G1 X303.104 Y-61.2685
G1 X303.0609 Y-61.1453
G2 X302.9725 Y-60.8822 I10.367 J3.63
G2 X302.8865 Y-60.5999 I21.3078 J6.6475
G2 X302.7529 Y-59.943 I3.7258 J1.0996
G2 X302.7487 Y-59.5844 I2.1241 J0.2039
G2 X302.8388 Y-59.2075 I1.2966 J-0.1107
G2 X303.0792 Y-58.8535 I0.9906 J-0.4139
G2 X303.6828 Y-59.5339 I-3.2368 J-3.4791
G1 X303.7185 Y-59.5831
G2 X304.2144 Y-60.4168 I-4.7831 J-3.409
G1 X304.2705 Y-60.5336
G2 X304.5367 Y-61.1698 I-7.5104 J-3.5164
G2 X304.8288 Y-62.0401 I-14.0513 J-5.2002
G1 X304.8997 Y-62.2742
G3 X305.164 Y-62.9738 I5.3097 J1.6062
G3 X305.5173 Y-63.633 I5.4273 J2.4839
G1 X305.5701 Y-63.7177
G3 X306.558 Y-64.9655 I6.7639 J4.3399
G3 X307.3304 Y-65.6927 I7.7205 J7.4267
G3 X308.4557 Y-66.5444 I8.2492 J9.7305
G1 X308.6074 Y-66.6452
G1 X308.7654 Y-66.7472
G3 X309.1065 Y-66.9577 I12.7482 J20.2807
G3 X311.0044 Y-67.9208 I7.9964 J13.406
G3 X313.6929 Y-68.7872 I6.0561 J14.1874
G3 X315.2879 Y-69.0334 I2.6618 J11.9554
G3 X316.1486 Y-69.0689 I0.8444 J10.0321
G3 X317.0671 Y-69.0122 I0.0069 J7.3633
G3 X318.0325 Y-68.8123 I-0.7378 J5.9914
G3 X318.5132 Y-68.6372 I-1.155 J3.9182
G3 X319.4537 Y-68.0474 I-1.3482 J3.1948
G3 X320.179 Y-67.0463 I-1.8969 J2.1377
G3 X320.38 Y-66.4162 I-2.9754 J1.2959
G3 X320.4644 Y-65.7177 I-4.0011 J0.8381
G3 X320.4677 Y-65.5391 I-2.1913 J0.1297
G3 X320.2585 Y-64.7973 I-1.8145 J-0.1113
G3 X319.7707 Y-64.2005 I-1.8435 J-1.0092
G3 X319.3546 Y-63.8989 I-2.0899 J-2.4453
G3 X318.7503 Y-63.588 I-2.4153 J-3.9515
G3 X318.3917 Y-63.4437 I-3.5962 J-8.4213
G3 X317.9765 Y-63.3006 I-3.3413 J-9.0181
G3 X316.8649 Y-62.9948 I-4.6346 J-14.6776
G1 X316.5666 Y-62.9247
G1 X316.2489 Y-62.8532
G1 X315.5261 Y-62.698
G3 X315.4343 Y-62.6786 I-0.3074 J-1.2297
G1 X314.6012 Y-62.501
G1 X314.1593 Y-62.402
G2 X313.1614 Y-62.1499 I4.7615 J20.951
G1 X313.0358 Y-62.114
G2 X311.9135 Y-61.7199 I2.6399 J9.3126
G1 X311.7754 Y-61.6584
G2 X312.341 Y-61.0499 I3.1149 J-2.3283
G2 X313.0137 Y-60.5624 I3.1682 J-3.6643
G2 X313.2198 Y-60.444 I3.0596 J-5.0861
G2 X313.7887 Y-60.1671 I3.3784 J-6.2174
G2 X313.8256 Y-60.1512 I0.1749 J-0.3548
G2 X314.6256 Y-59.8493 I3.779 J-8.8029
G2 X315.0905 Y-59.7007 I4.5338 J-13.3842
G2 X316.3356 Y-59.3416 I18.442 J-61.6063
G1 X316.6673 Y-59.2457
G1 X317.0195 Y-59.1397
G1 X317.1087 Y-59.1119
G3 X317.4871 Y-58.9879 I-3.7462 J12.0712
G1 X317.6809 Y-58.9198
G3 X318.5471 Y-58.56 I-2.8131 J7.9942
G3 X318.9892 Y-58.3251 I-2.6238 J5.4724
G3 X317.6351 Y-57.9465 I-5.97 J-18.7415
G3 X316.2542 Y-57.6818 I-3.454 J-14.2832
G3 X313.4455 Y-57.6116 I-1.6945 J-11.5715
G3 X311.5983 Y-57.9431 I1.2568 J-12.3147
G3 X310.5681 Y-58.2426 I3.8566 J-15.1845
G1 X310.3052 Y-58.3294
G3 X309.748 Y-58.5242 I18.9984 J-55.2356
G1 X309.4621 Y-58.6289
G1 X309.1679 Y-58.7394
G1 X309.0103 Y-58.7999
G1 X308.8524 Y-58.8598
G2 X308.5354 Y-58.9761 I-3.0816 J7.9078
G2 X307.8931 Y-59.1848 I-3.8417 J10.7291
G2 X307.4564 Y-59.2944 I-1.4983 J5.0476
G2 X306.8616 Y-59.3803 I-0.9053 J4.165
G2 X306.0597 Y-59.3276 I-0.2172 J2.8207
G2 X305.0859 Y-58.8535 I0.5056 J2.2754
G2 X305.7276 Y-57.6656 I10.0273 J-4.6494
G2 X306.5195 Y-56.572 I7.7743 J-4.7955
G2 X308.5874 Y-54.8445 I5.8176 J-4.8626
G2 X310.2489 Y-54.1427 I3.9668 J-7.074
G2 X311.2518 Y-53.9009 I2.8653 J-9.6841
G2 X311.7948 Y-53.8128 I2.5053 J-13.7159
G1 X312.0763 Y-53.7772
G2 X312.6783 Y-53.7216 I1.2757 J-10.5265
G2 X314.0538 Y-53.6815 I1.2287 J-18.5122
G1 X314.2285 Y-53.6835
G2 X314.9715 Y-53.7065 I-0.3069 J-21.9232
G2 X316.6545 Y-53.8236 I-1.8842 J-39.2425
G2 X318.5566 Y-54.0119 I-10.174 J-112.4725
G1 X319.5662 Y-54.1137
G3 X319.8225 Y-54.138 I1.9786 J19.4471
G3 X320.9117 Y-54.2291 I5.2802 J56.5635
G3 X321.1884 Y-54.248 I0.9746 J12.2657
G3 X322.3647 Y-54.3005 I1.7963 J27.0653
G1 X322.4386 Y-54.302
G3 X323.6938 Y-54.2858 I0.4032 J17.3982
G3 X324.3391 Y-54.2403 I-0.8524 J16.6964
G3 X325.0014 Y-54.1606 I-1.546 J15.6457
G3 X325.6786 Y-54.038 I-1.3744 J9.5184
G2 X325.431 Y-53.6531 I2.2535 J1.7218
G2 X325.2539 Y-53.231 I2.0164 J1.0943
G2 X325.2105 Y-52.3201 I1.7784 J0.5411
G2 X325.405 Y-51.7405 I2.5494 J-0.5329
G2 X325.8091 Y-51.0423 I4.6776 J-2.2414
G1 X325.9303 Y-50.8653
G1 X326.0616 Y-50.6792
G1 X326.361 Y-50.2596
G1 X326.4369 Y-50.1508
G1 X326.5939 Y-49.9171
G3 X326.9125 Y-49.3662 I-4.9761 J3.2454
G3 X327.1571 Y-48.6863 I-2.6621 J1.342
G1 X322.3339
G2 X321.7937 Y-48.2031 I1.4451 J2.1591
G2 X321.4533 Y-47.563 I1.3116 J1.108
G2 X321.388 Y-47.0811 I1.775 J0.486
G2 X321.4664 Y-46.4402 I2.7517 J-0.0117
G2 X321.5637 Y-46.0859 I4.7459 J-1.1115
G2 X321.6989 Y-45.692 I5.9456 J-1.8212
G1 X321.7768 Y-45.485
G2 X321.7969 Y-45.4326 I0.6116 J-0.2048
G2 X321.8174 Y-45.3795 I0.7361 J-0.2537
G2 X321.8598 Y-45.2703 I1.8489 J-0.6542
G3 X322.0476 Y-44.7757 I-15.6459 J6.2234
G3 X322.1389 Y-44.5106 I-4.2858 J1.6254
G3 X322.2235 Y-44.2256 I-3.509 J1.1964
G3 X322.2422 Y-44.1525 I-0.9903 J0.2927
G3 X322.3339 Y-43.4755 I-2.7534 J0.7175
G1 X318.9892 Y-43.8747
G2 X318.5128 Y-43.7362 I0.722 J3.3725
G2 X318.0703 Y-43.5116 I0.738 J2.0029
G2 X317.8169 Y-43.2975 I0.8415 J1.2529
G2 X317.5739 Y-42.9255 I0.9023 J0.8547
G2 X317.4632 Y-42.3405 I1.3788 J0.5639
G2 X317.4891 Y-42.0006 I2.1621 J0.0058
G2 X317.5697 Y-41.6227 I2.7551 J-0.3895
G1 X317.597 Y-41.527
G2 X317.7447 Y-41.1038 I4.7375 J-1.4164
G2 X317.7551 Y-41.0776 I0.2073 J-0.0672
G1 X317.8476 Y-40.8575
G2 X318.0759 Y-40.3752 I11.3037 J-5.0567
G2 X318.3527 Y-39.8498 I19.4312 J-9.9023
G1 X318.5033 Y-39.5759
G1 X318.6625 Y-39.2878
G1 X318.8269 Y-38.9829
G3 X318.9892 Y-38.6561 I-5.1694 J2.7709
G3 X317.2232 Y-38.5494 I-1.2856 J-6.614
G3 X315.4981 Y-38.942 I0.465 J-6.03
G3 X314.4382 Y-39.4646 I2.4924 J-6.3912
G3 X313.1689 Y-40.3904 I4.8649 J-8.0023
G3 X312.509 Y-40.9967 I7.8553 J-9.2128
G3 X312.345 Y-41.1596 I4.1035 J-4.2976
G3 X312.1781 Y-41.3298 I4.5269 J-4.6035
G3 X312.0083 Y-41.5076 I6.1202 J-6.0147
G3 X311.6536 Y-41.8927 I31.3144 J-29.1994
G3 X311.2849 Y-42.3103 I17.6117 J-15.9249
G3 X311.2389 Y-42.3634 I0.5125 J-0.4899
G3 X311.1927 Y-42.417 I0.522 J-0.4966
G3 X311.1463 Y-42.4711 I0.532 J-0.5037
G3 X310.7549 Y-42.9342 I25.3648 J-21.8286
G1 X310.5552 Y-43.1746
G1 X309.6548 Y-44.2722
G2 X309.5403 Y-44.4113 I-3.3954 J2.6765
G1 X309.3036 Y-44.6975
G1 X309.0579 Y-44.9909
G2 X308.5274 Y-45.6081 I-24.1366 J20.2122
G2 X307.9458 Y-46.2491 I-15.6795 J13.6432
G1 X307.8709 Y-46.3284
G1 X307.795 Y-46.4079
G1 X307.7182 Y-46.4875
G1 X307.6403 Y-46.5674
G2 X306.9575 Y-47.2264 I-11.2105 J10.933
G2 X306.1841 Y-47.8768 I-8.1514 J8.9071
G2 X305.2982 Y-48.4903 I-5.8846 J7.5515
G2 X304.2776 Y-49.024 I-4.327 J7.0308
G2 X304.2111 Y-49.0526 I-0.3759 J0.7838
G2 X301.6006 Y-49.6289 I-2.8429 J6.6768
G1 X305.0859 Y-53.1066
G1 X304.55 Y-53.502
G3 X303.9237 Y-53.4659 I-0.6144 J-5.2097
G3 X303.3001 Y-53.5347 I-0.0032 J-2.8318
G3 X302.9072 Y-53.6826 I0.3286 J-1.4688
G3 X302.4922 Y-54.0673 I0.5429 J-1.0018
G3 X302.3502 Y-54.3637 I1.1496 J-0.7331
G3 X302.2621 Y-54.7292 I2.1596 J-0.7137
G3 X302.2235 Y-55.1534 I3.6483 J-0.5464
G3 X302.2204 Y-55.6326 I9.1084 J-0.2977
G3 X302.221 Y-55.6628 I0.228 J-0.0109
G1 X302.2342 Y-56.2025
G2 X302.2374 Y-56.4867 I-7.8303 J-0.229
G2 X302.2315 Y-56.7857 I-4.6706 J-0.058
G2 X302.1547 Y-57.4428 I-3.7478 J0.1054
G2 X302.0568 Y-57.7778 I-2.539 J0.5598
G2 X301.5197 Y-57.4599 I0.7803 J1.9306
G2 X301.0764 Y-57.0204 I2.2867 J2.7497
G1 X300.8082 Y-56.7029
G1 X300.6528 Y-56.5237
G3 X300.4648 Y-56.3288 I-2.0584 J-1.7979
G3 X300.3573 Y-56.2323 I-0.9913 J-0.9956
G3 X300.0867 Y-56.0421 I-1.2103 J-1.4343
G3 X299.7337 Y-55.8984 I-0.705 J-1.2267
G3 X299.2959 Y-55.846 I-0.4178 J-1.6359
G3 X298.7918 Y-55.904 I0.0349 J-2.5219
G3 X298.889 Y-56.1803 I12.2537 J4.1531
G1 X298.9038 Y-56.2194
G3 X298.9445 Y-56.3233 I2.1508 J0.7816
G3 X299.1192 Y-56.734 I14.5241 J5.9356
G1 X299.2442 Y-57.0039
G1 X299.3181 Y-57.157
G3 X299.3583 Y-57.2383 I1.2082 J0.5462
G3 X299.4518 Y-57.4232 I6.4495 J3.1439
G3 X300.2763 Y-58.8597 I15.4462 J7.9109
G3 X300.9137 Y-59.7617 I8.9361 J5.639
G1 X301.004 Y-59.872
G2 X301.1188 Y-60.0159 I-3.7548 J-3.1151
G1 X301.2279 Y-60.164
G2 X301.4259 Y-60.4743 I-3.8169 J-2.6541
G2 X301.7136 Y-61.151 I-2.661 J-1.531
G2 X301.6393 Y-62.6118 I-2.1762 J-0.6216
G2 X301.4548 Y-62.9948 I-2.3761 J0.9082
G2 X301.1834 Y-63.3964 I-2.7272 J1.5506
G2 X301.0186 Y-63.5951 I-2.5081 J1.913
G2 X300.6059 Y-64.0105 I-4.3041 J3.8631
G2 X300.0927 Y-64.4288 I-4.8578 J5.4357
G1 X299.9547 Y-64.5289
G2 X299.656 Y-64.7318 I-4.7709 J6.7027
G2 X298.9594 Y-65.1483 I-6.2322 J9.6311
G2 X298.8692 Y-65.1976 I-0.7868 J1.3328
G2 X298.4835 Y-65.3985 I-5.337 J9.7771
G2 X298.283 Y-65.4972 I-2.1454 J4.1047
G1 X298.0756 Y-65.5956
G2 X295.9094 Y-66.4535 I-8.9455 J19.4238
G2 X294.6643 Y-66.8437 I-8.6879 J25.5402
G2 X294.625 Y-66.8551 I-0.1336 J0.3882
G2 X294.3014 Y-66.9467 I-4.5154 J15.3414
G2 X290.9433 Y-67.7138 I-10.4817 J38.1512
G1 X290.7284 Y-67.7529
G2 X289.8161 Y-67.9069 I-7.0907 J39.2172
G2 X285.0507 Y-68.4106 I-7.2026 J45.3449
G2 X282.3392 Y-68.4609 I-2.0993 J40.0897
G2 X280.8995 Y-68.4026 I0.4254 J28.315
G2 X280.7185 Y-68.3903 I0.1961 J4.2312
G1 X280.3512 Y-68.3616
G1 X279.9789 Y-68.3271
G2 X279.2134 Y-68.2371 I1.7175 J17.9013
G1 X278.8263 Y-68.1806
G1 X279.0503 Y-67.7418
G1 X279.2809 Y-67.3065
G2 X279.438 Y-67.0181 I8.7992 J-4.6052
G2 X279.5289 Y-66.8539 I5.2876 J-2.819
G2 X279.6337 Y-66.6667 I5.0119 J-2.6836
G2 X280.5019 Y-65.1868 I45.8381 J-25.8983
G1 X280.7575 Y-64.7685
G2 X281.4488 Y-63.659 I91.3403 J-56.1395
G2 X281.493 Y-63.5888 I2.0159 J-1.219
G2 X281.5379 Y-63.5174 I2.0335 J-1.2301
G2 X281.5836 Y-63.4449 I2.0515 J-1.2413
G2 X281.63 Y-63.3712 I2.0699 J-1.2527
G2 X281.6771 Y-63.2964 I2.0886 J-1.2642
G1 X282.1081 Y-62.6128
G3 X283.2428 Y-60.7809 I-84.5416 J53.6313
G3 X283.3133 Y-60.6637 I-2.4714 J1.568
G3 X283.3848 Y-60.5444 I-2.4684 J1.5603
G3 X284.0241 Y-59.4463 I-37.9872 J22.8494
G3 X284.3526 Y-58.8535 I-21.473 J12.2884
G1 X282.8741
G1 X277.0475 Y-65.8393
G1 X275.6564 Y-65.1438
G3 X275.9112 Y-64.679 I-16.6391 J9.4205
G1 X276.1625 Y-64.2123
G2 X276.7038 Y-63.3007 I9.7022 J-5.1451
G2 X277.1273 Y-62.7342 I5.8287 J-3.9153
G1 X276.9987 Y-62.7326
G1 X276.8701 Y-62.7286
G1 X276.7844 Y-62.7249
G1 X276.6702 Y-62.7193
G1 X276.2135 Y-62.6938
G1 X276.083 Y-62.6874
G3 X275.7347 Y-62.6772 I-0.3743 J-6.8198
G3 X275.5355 Y-62.6782 I-0.0862 J-2.9043
G3 X275.4294 Y-62.6814 I0.0502 J-3.3305
G1 X275.3746 Y-62.684
G3 X274.795 Y-62.7675 I0.1228 J-2.909
G3 X274.4806 Y-62.8882 I0.3951 J-1.4978
G3 X274.1779 Y-63.137 I0.4358 J-0.839
G1 X274.0313 Y-63.3419
G1 X273.8903 Y-63.5507
G1 X273.6168 Y-63.9738
G1 X273.4324 Y-64.2546
G1 X273.3819 Y-64.3286
G1 X273.3273 Y-64.4071
G1 X273.1988 Y-64.5837
G1 X273.1279 Y-64.6761
G2 X272.7185 Y-65.1438 I-4.0722 J3.1519
G1 X275.6754 Y-67.8537
G1 X275.4327 Y-67.8435
G2 X275.1901 Y-67.8306 I0.199 J6.0271
G1 X274.7054 Y-67.7994
G1 X274.5669 Y-67.7893
G1 X274.1979 Y-67.7602
G2 X272.7246 Y-67.6147 I3.5492 J43.4553
G1 X272.3046 Y-67.565
G2 X268.962 Y-67.0434 I6.0219 J49.5595
G2 X268.0142 Y-66.8524 I6.5565 J34.9804
G2 X265.5094 Y-66.2429 I9.2102 J43.3035
G1 X265.1892 Y-66.1529
G2 X261.8311 Y-65.0057 I9.0183 J31.8852
G2 X261.7275 Y-64.9634 I1.3281 J3.4043
G2 X259.8663 Y-64.1148 I10.1247 J24.6705
G2 X259.398 Y-63.8706 I7.7626 J15.4605
G1 X259.2809 Y-63.8074
G2 X259.0442 Y-63.6766 I3.2438 J6.151
G2 X258.8054 Y-63.5406 I11.5153 J20.4987
G2 X257.8078 Y-62.9232 I9.5832 J16.6011
G1 X257.6848 Y-62.841
G1 X257.5616 Y-62.7571
G2 X256.5402 Y-61.9968 I9.8027 J14.2337
G2 X255.5227 Y-61.0928 I9.1457 J11.3188
G2 X255.0336 Y-60.5869 I9.1456 J9.332
G1 X254.9147 Y-60.4551
G2 X253.9805 Y-59.2564 I8.7456 J7.78
G1 X252.5096 Y-60.7197
G0 Z5.0
G0 X322.8698 Y-39.994
G1 Z0.0
G3 X323.4381 Y-39.8821 I-0.3327 J3.1894
G3 X323.9871 Y-39.6978 I-2.1181 J7.2179
G1 X324.1418 Y-39.6391
G1 X324.5528 Y-39.4795
G2 X324.6059 Y-39.4591 I0.2912 J-0.6785
G2 X324.8494 Y-39.3681 I3.4519 J-8.86
G1 X324.98 Y-39.3216
G2 X325.6918 Y-39.1218 I1.7451 J-4.8471
G2 X326.1116 Y-39.0667 I0.5744 J-2.7508
G2 X326.5976 Y-39.0867 I0.1478 J-2.3279
G2 X327.1365 Y-39.245 I-0.3088 J-2.0479
G2 X327.6854 Y-39.5949 I-0.9901 J-2.1584
G2 X327.8778 Y-39.7643 I-1.5951 J-2.0059
G2 X328.0544 Y-39.9502 I-1.4159 J-1.5217
G2 X328.3445 Y-40.3724 I-1.7911 J-1.5416
G2 X328.5892 Y-41.3617 I-1.8829 J-0.9906
G2 X328.5133 Y-42.0396 I-3.0624 J-0.0001
G2 X328.2272 Y-42.8928 I-4.578 J1.0604
G2 X327.684 Y-43.9359 I-8.8778 J3.9598
G2 X327.3398 Y-44.5044 I-57.9912 J34.7208
G1 X327.1571 Y-44.8058
G3 X327.8136 Y-44.8929 I1.1395 J6.0657
G3 X328.4758 Y-44.8883 I0.3038 J3.8728
G3 X329.7092 Y-44.4145 I-0.1888 J2.3339
G3 X329.997 Y-44.1621 I-1.5807 J2.0933
G3 X330.1388 Y-44.0153 I-2.3473 J2.408
G1 X330.2095 Y-43.9373
G1 X330.3561 Y-43.7677
G1 X330.682 Y-43.3766
G2 X331.0687 Y-42.9481 I4.9485 J-4.0768
G2 X331.5636 Y-42.5189 I2.9667 J-2.9203
G2 X332.2093 Y-42.1454 I2.1334 J-2.944
G2 X333.0179 Y-41.883 I1.6833 J-3.8097
G2 X333.6683 Y-42.3483 I-6.5048 J-9.7794
G2 X334.2676 Y-42.8778 I-3.7374 J-4.8347
G1 X334.3409 Y-42.9555
G2 X334.4165 Y-43.0406 I-1.2532 J-1.1887
G2 X334.7541 Y-43.5469 I-1.6776 J-1.4843
G2 X334.8598 Y-43.8818 I-1.1957 J-0.5615
G2 X334.8465 Y-44.291 I-1.0112 J-0.172
G2 X334.6511 Y-44.7301 I-1.3341 J0.3307
G2 X334.6166 Y-44.781 I-0.5606 J0.3421
G2 X334.2477 Y-45.2032 I-2.3295 J1.6634
G1 X334.1426 Y-45.302
G2 X333.6509 Y-45.7148 I-6.252 J6.9502
G1 X333.3836 Y-45.9223
G1 X333.1 Y-46.1391
G1 X333.0282 Y-46.194
G1 X332.7277 Y-46.4272
G3 X332.4179 Y-46.6771 I6.9499 J-8.9309
G3 X332.3795 Y-46.7091 I0.3031 J-0.403
G3 X332.341 Y-46.7415 I0.3198 J-0.4199
G3 X331.7029 Y-47.3326 I5.4296 J-6.4996
G3 X331.1085 Y-48.0642 I3.674 J-3.593
G3 X330.6568 Y-48.9992 I3.0983 J-2.0731
G3 X330.5018 Y-50.1573 I3.3226 J-1.0341
G1 X330.5744 Y-50.2502
G1 X330.6459 Y-50.3439
G1 X330.7873 Y-50.5326
G1 X331.0709 Y-50.9093
G1 X331.1092 Y-50.9592
G1 X331.1503 Y-51.0123
G1 X331.1944 Y-51.0687
G3 X331.9457 Y-51.9323 I8.1062 J6.2933
G3 X332.513 Y-52.4437 I4.7138 J4.6585
G3 X333.3774 Y-52.9862 I2.7267 J3.3846
G3 X334.7114 Y-53.3022 I1.3986 J2.9309
G3 X335.5009 Y-53.2191 I0.0572 J3.2466
G3 X336.3627 Y-52.9204 I-0.951 J4.137
G2 X336.9295 Y-52.6954 I2.3413 J-5.0712
G2 X337.5253 Y-52.5647 I0.8883 J-2.6253
G2 X337.9333 Y-52.5774 I0.1582 J-1.4727
G2 X338.433 Y-52.8089 I-0.1707 J-1.0234
G2 X338.6476 Y-53.0476 I-0.7946 J-0.9304
G2 X338.826 Y-53.3689 I-1.556 J-1.0743
G2 X338.8994 Y-53.5501 I-1.8788 J-0.8656
G2 X339.0297 Y-53.971 I-4.418 J-1.5988
G2 X339.0861 Y-54.1971 I-4.5678 J-1.2586
G1 X339.1404 Y-54.4372
G1 X339.255 Y-54.9731
G1 X339.3184 Y-55.2538
G3 X339.4873 Y-55.8642 I6.7732 J1.5447
G3 X339.7654 Y-56.5049 I3.339 J1.0686
G3 X339.9744 Y-56.809 I1.7561 J0.9834
G3 X340.6502 Y-57.3087 I1.3004 J1.0518
G3 X341.0919 Y-57.428 I0.7017 J1.7215
G3 X341.5836 Y-57.4559 I0.4131 J2.9334
G3 X342.1071 Y-57.4038 I-0.1353 J4.0188
G3 X342.6519 Y-57.2861 I-0.9309 J5.6273
G3 X342.9265 Y-57.2077 I-3.007 J11.0497
G3 X344.2018 Y-56.6323 I-4.0841 J10.7533
G3 X345.3987 Y-55.9079 I-5.0218 J9.6488
G3 X346.1296 Y-55.3273 I-4.1017 J5.9135
G3 X346.3105 Y-55.1561 I-3.1553 J3.514
G3 X346.6923 Y-54.7326 I-3.5931 J3.6237
G3 X346.8718 Y-54.4864 I-2.6775 J2.1405
G3 X347.1247 Y-53.9575 I-1.7186 J1.1466
G3 X347.2482 Y-53.3844 I-2.8544 J0.9149
G3 X347.1676 Y-52.2226 I-3.0887 J0.3694
G3 X346.8466 Y-51.5119 I-2.3216 J-0.6207
G3 X346.0525 Y-50.8303 I-1.6399 J-1.1072
G3 X345.4745 Y-50.646 I-1.0159 J-2.1876
G3 X344.7842 Y-50.5983 I-0.5669 J-3.1835
G3 X344.0098 Y-50.6932 I0.1802 J-4.6761
G2 X344.551 Y-51.0394 I-1.8051 J-3.4178
G2 X345.0164 Y-51.4821 I-1.8168 J-2.3762
G2 X345.5564 Y-52.6414 I-1.8084 J-1.5476
G2 X345.5492 Y-53.502 I-2.5999 J-0.4087
G2 X345.3763 Y-54.1143 I-2.7673 J0.4507
G2 X345.0532 Y-54.6623 I-2.1181 J0.8797
G2 X343.9934 Y-55.3473 I-1.5639 J1.2573
G2 X343.1457 Y-55.4061 I-0.5819 J2.2498
G2 X342.0836 Y-55.0519 I0.3299 J2.7589
G2 X341.566 Y-54.6804 I1.5523 J2.7086
G2 X341.0794 Y-54.152 I2.4016 J2.6998
G2 X340.6521 Y-53.3412 I5.8382 J3.595
G2 X340.3678 Y-52.4699 I3.8629 J1.7425
G2 X340.3262 Y-52.2107 I3.4261 J0.6829
G2 X340.3349 Y-51.5096 I2.5286 J0.3193
G2 X340.6566 Y-50.6261 I2.3969 J-0.3725
G2 X340.9732 Y-50.1876 I2.6848 J-1.6054
G2 X341.1683 Y-49.9751 I2.899 J-2.4653
G2 X341.6567 Y-49.5374 I4.2086 J-4.2044
G2 X342.2548 Y-49.0979 I5.3419 J-6.6427
G1 X342.4133 Y-48.9913
G2 X342.753 Y-48.7711 I8.4683 J-12.6927
G1 X342.8398 Y-48.7162
G1 X343.0187 Y-48.6041
G1 X343.2031 Y-48.4896
G1 X343.5936 Y-48.2481
G3 X344.4578 Y-47.6931 I-15.2264 J24.662
G1 X344.6749 Y-47.5434
G3 X345.5971 Y-46.8086 I-5.0574 J7.2939
G3 X346.0322 Y-46.3611 I-4.0097 J4.3341
G3 X346.4288 Y-45.8304 I-3.3638 J2.9269
G3 X346.9592 Y-44.4104 I-3.0225 J1.9382
G3 X346.8213 Y-44.418 I-0.0214 J-0.8751
G3 X346.6846 Y-44.4376 I0.1242 J-1.347
G3 X346.4161 Y-44.5018 I0.4959 J-2.6681
G3 X345.898 Y-44.6888 I1.3222 J-4.4748
G1 X345.7536 Y-44.7514
G1 X345.5903 Y-44.8264
G3 X344.3338 Y-45.5107 I6.2928 J-13.0495
G1 X344.1708 Y-45.6098
G3 X343.3157 Y-46.1578 I16.9866 J-27.4464
G3 X343.0909 Y-46.3087 I7.6553 J-11.6517
G3 X343.0339 Y-46.3473 I0.386 J-0.6306
G3 X342.9762 Y-46.3866 I0.4267 J-0.6888
G3 X342.7308 Y-46.5554 I5.4398 J-8.1702
G1 X342.6046 Y-46.6433
G3 X341.2804 Y-47.6052 I23.9113 J-34.3116
G1 X340.9328 Y-47.869
G1 X340.5645 Y-48.1534
G1 X340.4714 Y-48.2262
G3 X340.0763 Y-48.5391 I13.6234 J-17.6085
G3 X339.189 Y-49.2727 I22.8041 J-28.4847
G1 X338.9662 Y-49.4693
G2 X337.9131 Y-50.169 I-2.9293 J3.2661
G2 X336.6965 Y-50.513 I-1.6464 J3.4999
G2 X335.8506 Y-50.4974 I-0.363 J3.2499
G2 X335.3791 Y-50.382 I0.3455 J2.4345
G2 X334.881 Y-50.1299 I0.6583 J1.9181
G2 X334.6561 Y-49.9292 I0.8225 J1.1481
G2 X334.4389 Y-49.5516 I0.8429 J0.736
G2 X334.3593 Y-49.1233 I1.4791 J0.4965
G2 X334.3564 Y-48.9987 I1.2697 J0.0917
G2 X334.3805 Y-48.6686 I2.3494 J-0.0055
G2 X334.4656 Y-48.2384 I3.665 J-0.5014
G1 X334.496 Y-48.1255
G2 X334.6962 Y-47.5417 I6.2952 J-1.8319
G1 X334.7585 Y-47.3897
G2 X335.1332 Y-46.6082 I9.2158 J-3.938
G2 X335.7132 Y-45.6236 I11.8328 J-6.3071
G2 X336.585 Y-44.3936 I14.9286 J-9.6569
G1 X336.7051 Y-44.2408
G1 X336.8309 Y-44.0846
G2 X337.4299 Y-43.3957 I10.2971 J-8.3497
G1 X337.5926 Y-43.2255
G2 X337.9552 Y-42.8787 I4.6434 J-4.4921
G2 X338.9211 Y-42.1124 I8.8479 J-10.1603
G2 X339.2561 Y-41.8739 I6.251 J-8.4269
G1 X339.4495 Y-41.7405
G1 X339.672 Y-41.5902
G2 X339.7296 Y-41.5517 I0.4458 J-0.6057
G1 X339.9942 Y-41.3775
G1 X340.1359 Y-41.2856
G2 X340.4612 Y-41.0777 I15.2335 J-23.4761
G1 X340.6353 Y-40.9679
G1 X341.0347 Y-40.7189
G1 X342.1026 Y-40.0609
G3 X342.7094 Y-39.6794 I-30.6092 J49.3474
G1 X343.0291 Y-39.4699
G1 X343.1923 Y-39.359
G3 X343.5332 Y-39.112 I-5.6375 J8.1381
G3 X343.8737 Y-38.8181 I-2.2473 J2.9478
G3 X344.0212 Y-38.637 I-0.6872 J0.7107
G3 X344.3445 Y-37.9491 I-2.7457 J1.7103
G1 X344.3763 Y-37.845
G3 X344.4592 Y-36.9812 I-2.2769 J0.6545
G3 X344.339 Y-36.4127 I-2.5143 J-0.2345
G3 X344.0098 Y-35.7142 I-3.2285 J-1.0951
G1 X341.0794 Y-33.9811
G2 X340.6161 Y-34.307 I-2.4096 J2.9332
G2 X340.1206 Y-34.5813 I-3.4815 J5.7065
G2 X339.0959 Y-35.0604 I-9.5541 J19.0957
G1 X338.8 Y-35.1903
G1 X338.0115 Y-35.5363
G1 X337.5633 Y-35.7392
G3 X337.4482 Y-35.7927 I0.8146 J-1.9024
G1 X337.3297 Y-35.8486
G1 X337.0779 Y-35.9701
G1 X336.8115 Y-36.1039
G3 X336.6749 Y-36.1749 I2.3687 J-4.7236
G3 X336.0618 Y-36.5201 I4.6224 J-8.9264
G3 X335.3943 Y-36.9698 I3.8848 J-6.4869
G3 X334.7094 Y-37.5884 I2.9493 J-3.9538
G3 X334.4037 Y-37.978 I2.4595 J-2.2449
G3 X333.9795 Y-39.0513 I2.1336 J-1.4635
G3 X334.4021 Y-39.4093 I1.2055 J0.9944
G3 X334.9188 Y-39.6091 I0.9373 J1.6562
G3 X335.2834 Y-39.6673 I0.5982 J2.5782
G3 X335.4936 Y-39.6806 I0.3053 J3.1499
G3 X336.0514 Y-39.6679 I0.1541 J5.4876
G3 X336.7845 Y-39.5949 I-1.44 J18.183
G3 X337.3694 Y-39.4021 I-0.9844 J3.9691
G3 X337.9244 Y-39.135 I-2.202 J5.2874
G3 X338.2775 Y-38.9255 I-2.6089 J4.7992
G3 X338.4737 Y-38.7971 I-2.5286 J4.0758
G3 X338.9805 Y-38.4314 I-4.977 J7.4334
G3 X339.2621 Y-38.2121 I-10.3031 J13.515
G1 X340.0014 Y-37.6156
G2 X340.4309 Y-37.2844 I6.7372 J-8.2929
G2 X340.9468 Y-36.9411 I3.5313 J-4.7489
G2 X341.2404 Y-36.7882 I1.4284 J-2.3829
G2 X341.3175 Y-36.7544 I0.4096 J-0.8312
G2 X341.6603 Y-36.6421 I0.769 J-1.7675
G2 X342.5074 Y-36.6825 I0.3559 J-1.4379
G2 X342.9265 Y-36.8963 I-0.6084 J-1.7109
G3 X342.2949 Y-37.2587 I3.8889 J-7.5096
G3 X341.6929 Y-37.6684 I4.9711 J-7.9501
G1 X341.5258 Y-37.7924
G1 X341.3371 Y-37.9372
G3 X340.8438 Y-38.3354 I10.2878 J-13.2489
G1 X340.5664 Y-38.5683
G1 X339.8297 Y-39.192
G1 X339.7338 Y-39.2716
G1 X339.6345 Y-39.3532
G2 X339.1733 Y-39.7173 I-9.7892 J11.927
G1 X339.0518 Y-39.8081
G1 X338.9252 Y-39.9002
G2 X338.3273 Y-40.2941 I-4.9583 J6.8756
G2 X338.249 Y-40.3403 I-0.5057 J0.7674
G2 X336.4349 Y-41.0468 I-3.0459 J5.1385
G2 X335.2902 Y-41.1629 I-1.1219 J5.3606
G2 X334.154 Y-40.9825 I0.0126 J3.7479
G2 X333.4603 Y-40.6473 I0.9257 J2.8014
G2 X332.7305 Y-39.9179 I1.413 J2.1437
G2 X332.3028 Y-38.6007 I2.1935 J1.4402
G2 X332.8257 Y-36.8262 I2.8016 J0.1388
G2 X333.5974 Y-36.0813 I2.4121 J-1.7266
G2 X334.7092 Y-35.5926 I1.9842 J-3.0053
G3 X335.5334 Y-35.3059 I-1.4178 J5.4015
G3 X336.311 Y-34.9103 I-3.0414 J6.9417
G3 X337.7346 Y-33.9078 I-5.4798 J9.2933
G3 X340.1361 Y-31.4127 I-10.054 J12.0803
G3 X340.7091 Y-30.6045 I-9.1685 J7.1082
G1 X340.7764 Y-30.4981
G1 X340.843 Y-30.389
G3 X341.0999 Y-29.9072 I-3.92 J2.3986
G3 X341.1978 Y-29.6417 I-1.7769 J0.8063
G3 X341.219 Y-29.498 I-0.5633 J0.1564
G3 X341.2048 Y-29.424 I-0.1817 J0.0035
G3 X339.883 Y-30.1589 I6.4955 J-13.2379
G1 X339.6998 Y-30.2736
G1 X339.4919 Y-30.4069
G3 X339.2557 Y-30.5616 I4.4116 J-6.9915
G3 X338.9876 Y-30.741 I5.2221 J-8.0916
G1 X338.6831 Y-30.9488
G1 X338.3369 Y-31.1888
G1 X337.4171 Y-31.8331
G1 X336.889 Y-32.1977
G2 X335.4477 Y-33.1194 I-14.0149 J20.3279
G2 X334.5878 Y-33.5857 I-7.4449 J12.7042
G1 X334.4762 Y-33.6403
G2 X333.4267 Y-34.0788 I-4.402 J9.0598
G2 X332.1641 Y-34.4068 I-2.5743 J7.3157
G2 X330.6651 Y-34.4885 I-1.115 J6.6635
G2 X328.9621 Y-34.1686 I0.4271 J6.9668
G2 X328.0921 Y-33.8406 I2.7075 J8.4967
G3 X327.5725 Y-33.9674 I0.4756 J-3.0757
G3 X327.0784 Y-34.1723 I1.2952 J-3.8219
G3 X326.1716 Y-34.734 I2.6395 J-5.274
G3 X325.621 Y-35.1833 I4.2912 J-5.8206
G3 X325.3237 Y-35.4594 I4.3552 J-4.9868
G3 X324.589 Y-36.2495 I7.6202 J-7.8231
G3 X324.2056 Y-36.7315 I10.5028 J-8.7483
G3 X323.3295 Y-38.1134 I7.8437 J-5.9414
G3 X322.9648 Y-38.9755 I5.0273 J-2.6348
G3 X322.85 Y-39.4636 I2.7925 J-0.9146
G3 X322.8327 Y-39.7236 I1.7622 J-0.2476
G3 X322.8698 Y-39.994 I1.1305 J0.0174
G0 Z5.0
G0 X337.8834 Y-46.114
G1 Z0.0
G3 X337.8308 Y-46.2546 I2.411 J-0.9828
G3 X337.746 Y-46.6315 I1.7937 J-0.6013
G3 X337.7727 Y-47.0521 I1.227 J-0.1333
G3 X339.0511 Y-47.1309 I0.8247 J2.9696
G3 X339.472 Y-47.0456 I-0.5623 J3.8571
G3 X340.0146 Y-46.8651 I-1.1494 J4.3598
G1 X340.1554 Y-46.8064
G1 X340.3036 Y-46.7397
G3 X341.0627 Y-46.3291 I-3.091 J6.6214
G3 X341.4779 Y-46.065 I-9.706 J15.7165
G3 X341.9407 Y-45.7487 I-19.2228 J28.6251
G1 X342.0589 Y-45.6655
G1 X342.3099 Y-45.4873
G1 X342.4392 Y-45.3953
G2 X343.0319 Y-44.9816 I17.1666 J-23.9656
G1 X343.1871 Y-44.8785
G2 X343.3488 Y-44.7747 I3.3485 J-5.0428
G2 X343.518 Y-44.6713 I2.6687 J-4.1743
G2 X343.6049 Y-44.6205 I0.8037 J-1.2757
G2 X343.9853 Y-44.4217 I2.5052 J-4.3301
G1 X344.0098 Y-44.4104
G1 X342.0486 Y-42.6166
G3 X341.5769 Y-42.7696 I0.5526 J-2.5058
G1 X341.4255 Y-42.8365
G3 X340.8425 Y-43.1474 I2.6289 J-5.6319
G3 X339.7617 Y-43.9012 I5.1168 J-8.4887
G3 X339.1013 Y-44.4798 I6.0886 J-7.6142
G3 X338.324 Y-45.3543 I4.7604 J-5.0142
G3 X337.9701 Y-45.9236 I3.4001 J-2.5085
G3 X337.8834 Y-46.114 I2.3244 J-1.1732
G0 Z5.0
G0 X341.9687 Y-52.5327
G1 Z0.0
G1 X344.0098 Y-54.4445
G1 X344.063 Y-52.5327
G1 X341.9687
G0 Z5.0
G0 X355.9358 Y-53.355
G1 Z0.0
G3 X355.9351 Y-53.6498 I2.6192 J-0.1542
G3 X355.985 Y-53.9142 I1.0928 J0.0696
G3 X356.0508 Y-54.038 I0.3808 J0.123
G1 X358.4528 Y-52.0235
G3 X358.2854 Y-51.7405 I-4.5432 J-2.4977
G1 X358.2596 Y-51.7012
G3 X358.1882 Y-51.5982 I-2.2609 J-1.4898
G3 X357.853 Y-51.2259 I-1.6536 J-1.1521
G3 X357.5668 Y-51.0504 I-0.6962 J-0.8141
G3 X357.1096 Y-51.0401 I-0.2421 J-0.5951
G3 X356.8725 Y-51.1713 I0.2877 J-0.7998
G3 X356.6508 Y-51.3878 I0.9186 J-1.1625
G3 X356.5512 Y-51.5185 I1.1157 J-0.9541
G3 X356.3627 Y-51.8336 I2.1265 J-1.4854
G3 X356.1974 Y-52.2066 I3.6632 J-1.8464
G3 X355.958 Y-53.1356 I4.0131 J-1.5296
G3 X355.9358 Y-53.355 I2.597 J-0.3736
G0 Z5.0
G0 X355.2647 Y-34.4821
G1 Z0.0
G3 X355.2657 I-0.0343 J0.9632
G3 X355.694 Y-34.3787 I-0.0609 J1.1902
G3 X355.9176 Y-34.2626 I-0.9309 J2.0665
G3 X356.4374 Y-33.8649 I-1.819 J2.9164
G3 X356.4527 Y-33.851 I-0.0667 J0.0888
G1 X356.5799 Y-33.7315
G3 X356.6441 Y-33.6687 I-0.8919 J0.9767
G3 X356.7094 Y-33.6035 I-14.6359 J14.6911
G3 X356.9933 Y-33.3046 I-10.2446 J10.0166
G1 X354.177 Y-33.8406
G3 X354.5142 Y-34.1954 I1.8765 J1.4456
G3 X354.9395 Y-34.4378 I0.8187 J0.9422
G3 X355.2647 Y-34.4821 I0.2909 J0.9189
G0 Z5.0
G0 Y-31.8261
G1 Z0.0
G1 X357.5179
G3 X357.8348 Y-31.4366 I-1.704 J1.7103
G3 X358.0877 Y-31.0029 I-5.2396 J3.3454
G1 X358.2465 Y-30.7085
G2 X358.3403 Y-30.542 I15.7058 J-8.7319
G2 X358.4528 Y-30.3551 I2.8136 J-1.5669
G1 X354.177 Y-30.8911
G1 Y-31.8261
G1 X355.2647
G0 Z5.0
G0 X355.1139 Y-29.6296
G1 Z0.0
G1 X358.6619 Y-29.386
G1 X359.5437 Y-28.3407
G1 X359.116 Y-28.3871
G2 X359.0548 Y-28.3936 I-0.0953 J0.6104
G1 X358.5655 Y-28.4437
G1 X357.5863 Y-28.5374
G2 X356.9332 Y-28.5964 I-5.5299 J57.573
G2 X356.8488 Y-28.6039 I-0.1244 J0.9243
G2 X356.7617 Y-28.6116 I-0.1278 J0.9503
G2 X356.7175 Y-28.6154 I-0.0826 J0.6847
G1 X353.8888 Y-28.862
G1 X353.081 Y-28.9367
G3 X352.1583 Y-29.0276 I5.385 J-59.3508
G1 X351.9203 Y-29.0524
G1 X351.6746 Y-29.0785
G1 X351.1509 Y-29.1364
G3 X349.9554 Y-29.2826 I7.7336 J-68.2148
G3 X346.7857 Y-29.8044 I5.6785 J-44.3853
G3 X344.9984 Y-30.2274 I6.1643 J-30.0341
G1 X344.7736 Y-30.2896
G1 X344.5458 Y-30.3551
G1 X355.1139 Y-29.6296
G0 Z5.0
G0 X350.8323 Y-31.4309
G1 Z0.0
G1 X346.8111 Y-31.5714
G1 X349.7908 Y-33.012
G1 X350.8323 Y-31.4309
G0 Z5.0
M5
M30
