( Made using CamBam - http://www.cambam.co.uk )
( car2 1/22/2014 9:24:55 AM )
( T0 : 0.0 )
G21 G90 G64 G40
G0 Z5.0
( T0 : 0.0 )
T0 M6
( 41-70 )
G17
M3 S1000
G0 X226.953 Y-44.8058
G1 F1.0 Z0.0
G3 X227.307 Y-44.7506 I0.0514 J0.834
G3 X227.6014 Y-44.5463 I-0.3185 J0.773
G3 X227.7471 Y-44.3566 I-0.9488 J0.8794
G3 X227.8896 Y-44.0747 I-1.5992 J0.9854
G3 X228.0167 Y-43.6805 I-2.9825 J1.1794
G3 X228.0678 Y-43.4514 I-3.4712 J0.8948
G3 X228.1123 Y-43.1895 I-4.8946 J0.9656
G3 X228.1798 Y-42.5011 I-6.9902 J1.0332
G3 X228.1985 Y-41.5991 I-11.8454 J0.6962
G3 X228.1942 Y-41.3595 I-11.9267 J-0.0934
G3 X228.1275 Y-40.1064 I-21.3675 J-0.5083
G1 X228.0999 Y-39.7739
G1 X228.0844 Y-39.6026
G1 X228.0675 Y-39.4262
G1 X228.0288 Y-39.0513
G1 X226.953
G1 Y-44.8058
G0 Z5.0
G0 X225.4404 Y-44.5511
G1 Z0.0
G2 X225.3889 Y-43.3487 I26.3335 J1.7294
G1 X225.3563 Y-42.1457
G1 X225.3441 Y-41.802
G1 X225.327 Y-41.4094
G3 X225.3021 Y-40.9609 I-29.2668 J-1.4009
G1 X225.2859 Y-40.722
G3 X225.2766 Y-40.5986 I-2.1867 J-0.1025
G3 X225.1235 Y-39.2883 I-15.1465 J-1.1062
G3 X224.9653 Y-38.5504 I-7.3913 J-1.1978
G1 X224.9108 Y-38.3633
G3 X224.7664 Y-37.9724 I-3.4802 J-1.0634
G3 X224.5511 Y-37.5804 I-2.0998 J-0.8985
G1 X224.1557 Y-44.4104
G1 X225.4404 Y-44.5511
G0 Z5.0
G0 X222.6772 Y-43.8747
G1 Z0.0
G2 X222.7382 Y-42.7906 I23.0212 J-0.7535
G2 X222.7502 Y-42.6358 I3.8586 J-0.2211
G1 X222.7847 Y-42.2235
G1 X222.834 Y-41.6742
G1 X222.8473 Y-41.5277
G1 X222.9161 Y-40.7462
G1 X222.9504 Y-40.2993
G3 X222.9582 Y-40.1839 I-2.4044 J0.2219
G3 X223.0022 Y-38.9507 I-19.3385 J1.3059
G3 X222.9771 Y-38.2456 I-11.1669 J-0.043
G3 X222.8779 Y-37.4442 I-6.9445 J-0.4533
G3 X222.6329 Y-36.551 I-5.2461 J-0.9588
G3 X222.429 Y-36.0984 I-3.5942 J-1.3471
G3 X221.7423 Y-35.1784 I-3.2248 J-1.6906
G1 X221.6387 Y-35.724
G2 X221.6236 Y-35.8019 I-1.1134 J0.176
G1 X221.5024 Y-36.4249
G1 X221.4238 Y-36.8408
G3 X221.1612 Y-38.513 I26.3465 J-4.9936
G3 X221.111 Y-38.9941 I22.7102 J-2.6166
G3 X221.064 Y-40.2838 I11.7738 J-1.0747
G1 X221.0664 Y-40.3658
G3 X221.0859 Y-40.7152 I5.6577 J0.1407
G1 X221.1022 Y-40.8952
G3 X221.1529 Y-41.2777 I8.0311 J0.8693
G3 X221.367 Y-42.1358 I4.876 J0.7611
G3 X221.8272 Y-43.0455 I3.4793 J1.1888
G3 X222.6772 Y-43.8747 I2.6471 J1.8633
G0 Z5.0
G0 X245.2843 Y-28.4814
G1 Z0.0
G3 X246.5897 Y-29.0217 I4.1053 J8.0722
G3 X247.9535 Y-29.3906 I4.3721 J13.4593
G3 X248.8781 Y-29.5699 I4.4731 J20.5941
G3 X250.1192 Y-29.7548 I5.8094 J34.724
G1 X250.4511 Y-29.7971
G1 X250.8053 Y-29.84
G3 X250.8953 Y-29.8506 I0.2006 J1.3149
G1 X251.718 Y-29.9441
G1 X252.1567 Y-29.9931
G1 X252.6245 Y-30.0461
G2 X252.8659 Y-30.0743 I-0.6707 J-6.8019
G2 X253.9668 Y-30.2153 I-4.284 J-37.8222
G1 X254.2504 Y-30.2565
G1 X254.3942 Y-30.2784
G2 X255.702 Y-30.5185 I-3.499 J-22.7418
G2 X256.3915 Y-30.6852 I-3.72 J-16.8913
G2 X257.1167 Y-30.9032 I-3.7732 J-13.87
G1 X257.207 Y-30.934
G2 X257.9655 Y-31.2335 I-3.1664 J-9.1301
G1 X258.1536 Y-31.3207
G2 X258.9291 Y-31.7515 I-2.9621 J-6.2458
G1 X259.0228 Y-31.8128
G2 X260.5188 Y-33.2488 I-3.1479 J-4.7768
G2 X261.0828 Y-34.222 I-4.7766 J-3.4184
G2 X261.4938 Y-35.3653 I-6.5158 J-2.9879
G2 X261.7418 Y-36.6493 I-8.7369 J-2.3533
G2 X263.1699 Y-34.4884 I30.5674 J-18.6492
G2 X263.2185 Y-34.4203 I0.7544 J-0.4875
G2 X263.2689 Y-34.3502 I0.7774 J-0.5047
G2 X264.955 Y-32.165 I34.6743 J-25.0135
G2 X265.4627 Y-31.5614 I32.9397 J-27.187
G1 X265.5956 Y-31.4071
G2 X266.2121 Y-30.7102 I25.6028 J-22.0271
G2 X266.9355 Y-29.9308 I32.8349 J-29.7524
G2 X268.967 Y-27.9531 I27.2736 J-25.9838
G2 X268.9154 Y-25.0554 I145.3557 J4.0402
G2 X268.9645 Y-22.1575 I60.1842 J0.4286
G2 X269.0933 Y-20.2293 I42.136 J-1.8459
G2 X269.1047 Y-20.1072 I3.9546 J-0.3088
G2 X269.4574 Y-17.5128 I31.0429 J-2.8988
G1 X269.5191 Y-17.1806
G2 X270.4305 Y-13.6917 I26.954 J-5.1774
G2 X270.5821 Y-13.2514 I13.732 J-4.4806
G2 X270.7466 Y-12.7996 I26.1304 J-9.2578
G1 X270.8332 Y-12.5713
G2 X270.71 Y-12.054 I7.1058 J1.9658
G2 X270.6134 Y-11.5311 I12.2677 J2.537
G2 X270.457 Y-10.4796 I39.8152 J6.4577
G1 X270.3646 Y-9.777
G1 X270.2435 Y-8.8401
G1 X270.1719 Y-8.3051
G1 X270.0851 Y-7.6944
G1 X270.0616 Y-7.5369
G1 X270.0367 Y-7.3745
G1 X269.9813 Y-7.0283
G1 X269.9182 Y-6.6598
G1 X269.9015 Y-6.5663
G3 X269.7311 Y-5.7148 I-23.1904 J-4.1974
G3 X269.7068 Y-5.6072 I-1.9577 J-0.3849
G3 X269.4468 Y-4.6324 I-11.9121 J-2.6555
G3 X269.4077 Y-4.5104 I-8.4143 J-2.6311
G3 X269.2192 Y-3.9965 I-7.1095 J-2.3161
G3 X268.967 Y-3.4684 I-4.9509 J-2.0399
G1 X268.6635 Y-3.532
G1 X268.5626 Y-3.5543
G3 X268.1593 Y-3.6455 I4.2033 J-19.5153
G1 X267.8905 Y-3.7062
G1 X267.7366 Y-3.74
G1 X267.6544 Y-3.7575
G1 X267.4663 Y-3.796
G2 X266.9603 Y-3.8751 I-1.1168 J5.4886
G2 X267.008 Y-3.9329 I-1.1953 J-1.0366
G2 X267.0556 Y-3.9909 I-1.3423 J-1.1479
G2 X267.1498 Y-4.1076 I-2.3421 J-1.9876
G2 X267.3348 Y-4.3439 I-11.5163 J-9.2086
G2 X267.6884 Y-4.8286 I-7.7756 J-6.0431
G2 X268.3095 Y-5.8549 I-7.9697 J-5.5245
G2 X268.6383 Y-6.5847 I-6.9692 J-3.5787
G2 X268.967 Y-9.7549 I-5.5355 J-2.1761
G3 X267.9598 Y-11.0039 I4.3703 J-4.5547
G3 X267.3089 Y-12.4705 I5.2579 J-3.2113
G3 X267.0758 Y-13.5157 I7.2062 J-2.1555
G3 X267.0017 Y-14.1229 I9.8899 J-1.5152
G3 X266.9949 Y-14.2003 I0.9069 J-0.1193
G3 X266.9884 Y-14.279 I0.904 J-0.1134
G3 X266.952 Y-14.9981 I11.4088 J-0.9389
G1 X266.9481 Y-15.1839
G1 X266.9461 Y-15.3755
G1 X266.9459 Y-15.5732
G1 X266.9506 Y-15.9944
G3 X266.9612 Y-16.4429 I280.4714 J6.418
G3 X266.9645 Y-16.5568 I1.7446 J-0.0063
G1 X266.9968 Y-17.5938
G1 X267.0084 Y-18.146
G2 X267.0107 Y-18.4308 I-15.8334 J-0.2689
G1 X267.0094 Y-18.7245
G2 X266.9358 Y-20.0603 I-13.4384 J0.071
G2 X266.6418 Y-21.5594 I-8.3821 J0.8655
G2 X266.3604 Y-22.3268 I-6.2581 J1.8596
G2 X266.1773 Y-22.708 I-6.589 J2.9299
G2 X266.0311 Y-22.9414 I-1.5171 J0.7878
G2 X265.8567 Y-23.1544 I-2.475 J1.849
G2 X265.4565 Y-23.5309 I-2.8886 J2.6689
G2 X264.5528 Y-24.1474 I-4.3423 J5.3947
G2 X263.9106 Y-24.4908 I-5.1741 J8.9047
G2 X263.535 Y-24.6688 I-5.7807 J11.71
G2 X263.3326 Y-24.7591 I-4.4906 J9.7973
G2 X262.2369 Y-25.1914 I-6.2433 J14.2189
G2 X260.7433 Y-25.66 I-6.675 J18.6599
G2 X258.7152 Y-26.1202 I-6.1189 J22.2686
G2 X258.1686 Y-26.2127 I-3.0135 J16.152
G2 X255.2347 Y-26.4765 I-3.395 J21.3055
G2 X254.8544 Y-26.4797 I-0.3072 J14.1326
G2 X253.1199 Y-26.3856 I0.0029 J16.0782
G2 X252.2027 Y-26.2507 I1.2254 J11.5203
G2 X251.2384 Y-26.0273 I1.9749 J10.7174
G2 X250.2385 Y-25.6798 I2.464 J8.7035
G2 X249.9922 Y-25.571 I1.7542 J4.3038
G2 X248.9901 Y-24.996 I2.703 J5.8714
G3 X248.2379 Y-24.4962 I-8.4928 J-11.9664
G3 X247.4497 Y-24.0554 I-5.1733 J-8.3249
G3 X247.3412 Y-24.0031 I-1.7429 J-3.4771
G3 X246.7451 Y-23.7628 I-2.1512 J-4.4771
G3 X246.3899 Y-23.6673 I-1.1241 J-3.4741
G3 X245.9705 Y-23.6203 I-0.4546 J-2.1598
G3 X245.489 Y-23.7052 I-0.0235 J-1.2736
G3 X245.0372 Y-24.0781 I0.3742 J-0.9136
G3 X244.8901 Y-24.3681 I1.1179 J-0.7491
G3 X244.7959 Y-24.7082 I1.8254 J-0.6886
G3 X244.748 Y-25.0839 I2.6814 J-0.5333
G1 X244.7424 Y-25.1799
G3 X244.7412 Y-25.5852 I3.9965 J-0.2145
G3 X244.8265 Y-26.4582 I7.2985 J0.2727
G3 X245.0081 Y-27.4102 I12.8057 J1.9495
G3 X245.0217 Y-27.4697 I0.6502 J0.1173
G3 X245.2843 Y-28.4814 I22.5647 J5.316
G0 Z5.0
G0 X236.4056 Y19.6044
G1 Z0.0
G3 X236.4238 Y19.6092 I-0.0226 J0.1223
G3 X236.4901 Y19.6356 I-0.1067 J0.3641
G1 X236.5319 Y19.6578
G3 X236.6874 Y19.7608 I-0.8995 J1.5267
G1 X236.7856 Y19.8364
G3 X236.912 Y19.9416 I-1.6629 J2.127
G1 X237.0752 Y20.0872
G3 X237.6864 Y20.7038 I-6.8778 J7.4283
G3 X238.0589 Y21.1456 I-4.9086 J4.5172
G1 X237.6561 Y21.5408
G3 X237.3479 Y21.7538 I-1.3458 J-1.6174
G3 X237.0137 Y21.9228 I-1.5452 J-2.6416
G3 X236.3004 Y22.1466 I-1.3393 J-3.0205
G3 X235.8037 Y22.1948 I-0.4851 J-2.4153
G3 X235.5187 Y22.1686 I0.0048 J-1.6153
G3 X235.2054 Y22.0667 I0.2013 J-1.1516
G3 X234.908 Y21.8216 I0.378 J-0.7617
G3 X234.734 Y21.3954 I0.7768 J-0.5657
G3 X234.7144 Y21.1456 I1.5065 J-0.2442
G2 X235.0143 Y20.8917 I-1.0583 J-1.554
G2 X235.1044 Y20.7964 I-2.1558 J-2.1284
G2 X235.4401 Y20.3947 I-5.9934 J-5.351
G3 X235.6628 Y20.1265 I12.0622 J9.786
G1 X235.6926 Y20.0927
G3 X236.0434 Y19.765 I1.7191 J1.4887
G3 X236.0946 Y19.7299 I0.2273 J0.2765
G3 X236.3525 Y19.6062 I0.5619 J0.8407
G3 X236.4056 Y19.6044 I0.0306 J0.1206
G0 Z5.0
G0 X233.783 Y22.0882
G1 Z0.0
G1 X234.3913 Y22.9395
G1 X231.723 Y24.0684
G1 X233.783 Y22.0882
G0 Z5.0
G0 X236.3648 Y28.908
G1 Z0.0
G3 X236.8621 Y28.7216 I29.7007 J78.4547
G3 X236.928 Y28.6972 I0.2766 J0.6472
G3 X238.1345 Y28.2622 I29.7559 J80.6283
G1 X238.4469 Y28.1527
G1 X239.1145 Y27.9231
G3 X240.6466 Y27.4162 I32.4269 J95.4415
G1 X240.8417 Y27.3535
G1 X241.0401 Y27.2902
G1 X241.2417 Y27.2263
G1 X242.1031 Y26.958
G3 X243.0242 Y26.6792 I18.2539 J58.6378
G1 X243.2585 Y26.6095
G1 X243.4967 Y26.5392
G3 X248.6034 Y25.1426 I41.8389 J142.9492
G1 X249.2657 Y24.9753
G1 X249.9501 Y24.8053
G1 X250.6572 Y24.6328
G3 X258.2322 Y22.9531 I49.8684 J206.9809
G1 X259.2136 Y22.7552
G3 X261.3095 Y22.3457 I41.9829 J209.2744
G3 X261.3752 Y22.3331 I0.2636 J1.2004
G3 X261.441 Y22.3205 I0.264 J1.2035
G3 X261.507 Y22.308 I0.2643 J1.2067
G3 X261.5731 Y22.2954 I0.2647 J1.2098
G3 X261.6393 Y22.2828 I0.2651 J1.213
G3 X262.1775 Y22.181 I7.8547 J40.0654
G1 X263.2889 Y21.9742
G1 X264.437 Y21.7651
G1 X265.6228 Y21.5539
G3 X268.1547 Y21.1179 I59.633 J338.7645
G3 X273.9511 Y20.1898 I61.9 J368.0334
G3 X274.042 Y20.176 I0.3565 J2.0353
G1 X274.7805 Y20.0643
G1 X276.3055 Y19.8378
G1 X277.8805 Y19.6096
G1 X278.6808 Y19.4958
G1 X280.3333 Y19.2652
G1 X282.0398 Y19.0331
G1 X283.802 Y18.7996
G1 X285.6217 Y18.5646
G1 X286.5463 Y18.4476
G1 X288.4554 Y18.2107
G3 X289.4254 Y18.0928 I21.6853 J174.2912
G1 X291.4283 Y17.8542
G1 X293.4963 Y17.6144
G1 X295.6317 Y17.3736
G1 X297.8364 Y17.1318
G1 X298.1132 Y17.102
G3 X308.2357 Y16.0745 I89.3967 J830.334
G1 X308.8737 Y16.0136
G3 X314.3183 Y15.5102 I88.8232 J931.0461
G1 X314.4889 Y15.4949
G1 X315.8747 Y15.3713
G3 X316.2225 Y15.3405 I4.059 J43.8868
G1 X319.0949 Y15.0899
G1 X320.5541 Y14.965
G1 X323.5665 Y14.7116
G1 X326.6763 Y14.4556
G1 X328.2559 Y14.3274
G1 X329.052 Y14.2632
G1 X332.3388 Y14.0004
G1 X339.3493 Y13.4451
G1 X342.967 Y13.1549
G1 X344.8042 Y13.0043
G1 X345.2731 Y12.9675
G1 X345.7424 Y12.9362
G3 X346.6822 Y12.8937 I1.7079 J27.3334
G3 X348.5633 Y12.9177 I0.6744 J20.8952
G1 X348.623 Y12.9215
G1 X348.6836 Y12.9257
G1 X348.9417 Y12.9461
G1 X349.2167 Y12.973
G3 X350.6689 Y13.2261 I-1.0518 J10.3255
G3 X350.853 Y13.2749 I-1.0775 J4.4317
G1 X351.0417 Y13.33
G1 X351.2351 Y13.392
G3 X346.9752 Y14.216 I-22.2664 J-103.6888
G1 X346.3643 Y14.3211
G3 X346.2066 Y14.3478 I-0.9924 J-5.3807
G3 X344.5225 Y14.6229 I-25.4371 J-150.4074
G1 X344.4155 Y14.6398
G1 X344.3067 Y14.6569
G3 X341.985 Y15.0066 I-26.4137 J-167.506
G3 X332.6674 Y16.1705 I-36.9823 J-258.1933
G1 X332.5203 Y16.1863
G1 X331.2654 Y16.3182
G1 X331.1072 Y16.3345
G1 X330.4541 Y16.4008
G1 X329.0604 Y16.538
G1 X328.3409 Y16.6066
G1 X327.598 Y16.6758
G1 X327.2952 Y16.7024
G3 X327.2519 Y16.7061 I-0.0561 J-0.409
G1 X326.9056 Y16.7339
G1 X326.8067 Y16.7416
G3 X326.0148 Y16.7997 I-16.7231 J-222.3764
G1 X325.9636 Y16.8033
G1 X325.7299 Y16.8197
G3 X325.4629 Y16.8382 I-3.636 J-50.484
G1 X323.3264 Y16.9828
G1 X321.9021 Y17.0796
G1 X321.0883 Y17.1358
G2 X314.5806 Y17.624 I40.4045 J582.1449
G1 X314.3741 Y17.6408
G1 X314.1643 Y17.658
G1 X312.2469 Y17.8192
G1 X311.2246 Y17.9084
G1 X310.6969 Y17.9553
G1 X310.1523 Y18.0044
G1 X308.9908 Y18.1112
G2 X306.3369 Y18.3668 I29.342 J318.5507
G1 X304.9222 Y18.5097
G1 X303.4137 Y18.6674
G1 X301.8052 Y18.8415
G1 X300.0903 Y19.0341
G2 X290.959 Y20.1878 I42.5198 J373.2678
G1 X289.7829 Y20.3528
G2 X277.2756 Y22.3654 I47.0851 J332.4839
G1 X276.4844 Y22.5097
G1 X275.6809 Y22.6586
G1 X274.8651 Y22.812
G1 X274.0367 Y22.9702
G1 X273.6194 Y23.0509
G1 X273.1989 Y23.1328
G1 X272.7753 Y23.216
G2 X265.0531 Y24.8552 I52.3832 J265.7938
G2 X264.9326 Y24.8827 I0.7619 J3.6136
G2 X256.1594 Y27.0669 I52.0039 J227.5889
G1 X255.6098 Y27.2165
G1 X254.4945 Y27.525
G2 X249.7561 Y28.915 I49.1263 J176.2398
G2 X244.7444 Y30.5395 I51.4851 J167.3817
G1 X244.4316 Y30.6467
G2 X241.8574 Y31.5568 I51.8027 J150.605
G1 X241.5355 Y31.6743
G1 X241.2127 Y31.793
G2 X240.5626 Y32.0345 I15.1955 J41.8939
G2 X235.0646 Y34.2281 I46.5722 J124.7179
G1 X234.894 Y34.3008
G1 X234.7232 Y34.3739
G1 X234.5522 Y34.4474
G1 X234.381 Y34.5213
G2 X233.692 Y34.822 I35.9343 J83.2918
G2 X227.8927 Y37.5756 I43.1441 J98.3485
G2 X221.9125 Y40.9305 I40.3047 J78.851
G2 X220.4384 Y41.8601 I42.3231 J68.7451
G2 X218.9627 Y42.84 I39.279 J60.7611
G1 X218.596 Y43.0916
G2 X215.63 Y45.265 I36.1207 J52.4064
G2 X214.1723 Y46.4358 I35.5459 J45.7461
G1 X213.8123 Y46.737
G1 X213.4534 Y47.0425
G2 X210.5878 Y49.6904 I34.17 J39.8537
G2 X209.2118 Y51.1216 I30.462 J30.6631
G1 X209.0438 Y51.305
G2 X206.4137 Y54.4823 I31.4393 J28.7023
G3 X206.2225 Y54.7101 I-7.546 J-6.1386
G1 X206.1585 Y54.7858
G1 X205.9007 Y55.0872
G3 X205.7273 Y55.2869 I-8.6472 J-7.3377
G3 X205.0158 Y56.0691 I-18.0403 J-15.694
G1 X204.8042 Y56.2849
G1 X204.7486 Y56.3396
G1 X204.6281 Y56.4543
G3 X204.3336 Y56.6956 I-1.5839 J-1.6328
G3 X204.2442 Y56.7386 I-0.1757 J-0.2509
G3 X204.1922 Y56.7078 I-0.0159 J-0.0325
G3 X204.2164 Y56.5926 I0.286 J-0.0001
G3 X204.2764 Y56.4574 I1.0866 J0.4015
G3 X204.4123 Y56.211 I3.972 J2.0293
G3 X204.4851 Y56.0907 I3.1482 J1.822
G1 X204.6078 Y55.8969
G1 X204.7653 Y55.6589
G3 X204.8314 Y55.5617 I3.0139 J1.9756
G1 X204.9613 Y55.3737
G1 X205.1645 Y55.0865
G1 X205.2675 Y54.9436
G3 X205.6842 Y54.3785 I26.0884 J18.8026
G1 X205.7745 Y54.2584
G3 X205.8321 Y54.182 I1.0189 J0.7094
G3 X210.8183 Y47.9633 I98.0926 J73.5422
G3 X211.5647 Y47.1032 I144.0783 J124.2779
G1 X211.9665 Y46.6477
G1 X212.3981 Y46.1645
G1 X212.8618 Y45.652
G1 X213.1025 Y45.3888
G3 X215.7309 Y42.6378 I70.3795 J64.6127
G3 X219.4219 Y39.1572 I55.6544 J55.3205
G1 X219.9148 Y38.7263
G1 X220.4279 Y38.2863
G1 X220.6902 Y38.0648
G3 X223.1424 Y36.1045 I39.5317 J46.9366
G1 X223.3002 Y35.9852
G3 X226.2594 Y33.9044 I32.0469 J42.4312
G1 X226.6454 Y33.655
G3 X228.319 Y32.6326 I26.1061 J40.8532
G1 X228.7509 Y32.3844
G3 X231.1799 Y31.1157 I21.2735 J37.7686
G3 X233.6758 Y29.9842 I23.2054 J47.8673
G1 X234.0125 Y29.8421
G3 X234.7849 Y29.5245 I31.4682 J75.4247
G3 X236.3648 Y28.908 I31.2806 J77.8383
G0 Z5.0
G0 X257.7737 Y31.8105
G1 Z0.0
G3 X258.689 Y31.764 I0.5723 J2.2315
G3 X259.555 Y32.0641 I-0.4074 J2.5745
G3 X260.0621 Y32.4056 I-1.6175 J2.9495
G3 X260.6449 Y32.9682 I-2.8269 J3.5116
G3 X260.784 Y33.1332 I-5.4368 J4.7234
G3 X259.6123 Y33.2375 I-0.777 J-2.0954
G3 X258.5305 Y32.7756 I0.4581 J-2.5711
G3 X257.9775 Y32.2154 I1.3549 J-1.8901
G3 X257.7737 Y31.8105 I1.297 J-0.9068
G0 Z5.0
G0 X260.8523 Y31.3089
G1 Z0.0
G3 X261.5849 Y31.2464 I0.5636 J2.283
G3 X262.3014 Y31.4115 I-0.1914 J2.4681
G3 X262.7415 Y31.6287 I-1.0782 J2.7391
G3 X263.2679 Y32.0135 I-1.8289 J3.0543
G3 X263.8626 Y32.6391 I-3.2222 J3.6589
G3 X262.6909 Y32.735 I-0.7656 J-2.1474
G3 X261.6099 Y32.2728 I0.4685 J-2.591
G3 X261.0564 Y31.7135 I1.3356 J-1.8753
G3 X260.8523 Y31.3089 I1.3531 J-0.9359
G0 Z5.0
G0 X264.1438 Y30.7806
G1 Z0.0
G3 X265.1213 Y30.7398 I0.5834 J2.2444
G3 X266.0352 Y31.0891 I-0.4826 J2.6327
G3 X266.5616 Y31.4747 I-1.8238 J3.0421
G3 X267.1541 Y32.1032 I-3.1418 J3.555
G3 X265.984 Y32.1996 I-0.766 J-2.1487
G3 X264.9036 Y31.7404 I0.4693 J-2.6049
G3 X264.3489 Y31.1839 I1.3736 J-1.9239
G3 X264.1438 Y30.7806 I1.3204 J-0.9253
G0 Z5.0
G0 X266.9603 Y30.237
G1 Z0.0
G3 X267.7744 Y30.1652 I0.6345 J2.5446
G3 X268.5708 Y30.3491 I-0.202 J2.6916
G3 X269.0594 Y30.5918 I-1.1767 J2.9828
G3 X269.6434 Y31.0209 I-2.0952 J3.463
G3 X270.3049 Y31.7155 I-3.5457 J4.0394
G3 X269.0025 Y31.8232 I-0.8547 J-2.4071
G3 X267.8006 Y31.3101 I0.5111 J-2.8615
G3 X267.1865 Y30.687 I1.507 J-2.0995
G3 X266.9603 Y30.237 I1.5184 J-1.0451
G0 Z5.0
G0 X270.3771 Y29.6822
G1 Z0.0
G3 X271.4634 Y29.6443 I0.6313 J2.5126
G3 X272.4777 Y30.035 I-0.5577 J2.9601
G3 X273.0628 Y30.4629 I-2.1868 J3.604
G3 X273.7219 Y31.1606 I-3.261 J3.7409
G3 X272.2039 Y31.2219 I-0.858 J-2.4215
G3 X270.8836 Y30.4701 I0.7323 J-2.8211
G3 X270.6031 Y30.1324 I1.8564 J-1.8275
G3 X270.3771 Y29.6822 I1.4767 J-1.023
G0 Z5.0
G0 X274.0373 Y29.0854
G1 Z0.0
G3 X274.8505 Y29.0097 I0.6459 J2.5326
G3 X275.6469 Y29.1906 I-0.1929 J2.693
G3 X276.1358 Y29.4317 I-1.2538 J3.1586
G3 X276.7202 Y29.8592 I-2.1391 J3.5373
G3 X277.382 Y30.5524 I-3.6757 J4.1714
G3 X276.0809 Y30.6687 I-0.8634 J-2.3244
G3 X274.8797 Y30.1552 I0.5164 J-2.8695
G3 X274.2648 Y29.5341 I1.5222 J-2.1219
G3 X274.0373 Y29.0854 I1.4545 J-1.0197
G0 Z5.0
G0 X277.8723 Y28.6977
G1 Z0.0
G3 X278.7915 Y28.6335 I0.638 J2.5252
G3 X279.6767 Y28.8891 I-0.3158 J2.7554
G3 X280.2075 Y29.1996 I-1.5227 J3.2117
G3 X280.486 Y29.4133 I-2.1595 J3.1029
G3 X281.141 Y30.072 I-3.219 J3.8562
G1 X281.217 Y30.1648
G3 X279.9972 Y30.2927 I-0.8652 J-2.3713
G3 X278.8483 Y29.8629 I0.4085 J-2.8425
G3 X278.2309 Y29.3228 I1.4329 J-2.2608
G3 X278.0985 Y29.1476 I1.7295 J-1.4447
G3 X277.8723 Y28.6977 I1.502 J-1.0369
G0 Z5.0
G0 X281.2892 Y28.1427
G1 Z0.0
G3 X282.2382 Y28.0835 I0.6351 J2.5446
G3 X283.1478 Y28.3603 I-0.3543 J2.7972
G3 X283.3875 Y28.4903 I-1.3404 J2.7572
G3 X283.9728 Y28.9161 I-2.1608 J3.5858
G3 X284.6339 Y29.6098 I-3.5731 J4.0664
G3 X283.3342 Y29.7179 I-0.8522 J-2.3792
G3 X282.1335 Y29.2087 I0.5228 J-2.903
G3 X281.5171 Y28.5908 I1.4723 J-2.0851
G3 X281.2892 Y28.1427 I1.5159 J-1.053
G0 Z5.0
G0 X284.9493 Y27.5423
G1 Z0.0
G3 X285.763 Y27.4675 I0.6406 J2.5026
G3 X286.5601 Y27.6479 I-0.1844 J2.6658
G3 X287.0497 Y27.8887 I-1.2966 J3.253
G3 X287.6344 Y28.3167 I-2.1273 J3.5204
G3 X288.294 Y29.0132 I-3.3853 J3.8665
G3 X286.9926 Y29.1286 I-0.8598 J-2.2999
G3 X285.7924 Y28.6121 I0.5175 J-2.8553
G3 X285.1781 Y27.9903 I1.5351 J-2.1307
G3 X284.9493 Y27.5423 I1.4702 J-1.0335
G0 Z5.0
G0 X288.8413 Y27.489
G1 Z0.0
G3 X289.9256 Y27.4479 I0.6376 J2.4962
G3 X290.9379 Y27.8386 I-0.552 J2.9367
G3 X291.5215 Y28.2665 I-2.1997 J3.6119
G3 X292.1823 Y28.96 I-3.5524 J4.047
G3 X290.8824 Y29.0689 I-0.8563 J-2.4077
G3 X289.6817 Y28.5589 I0.4977 J-2.8402
G3 X289.0677 Y27.9379 I1.471 J-2.0684
G3 X288.8413 Y27.489 I1.5533 J-1.0649
G0 Z5.0
G0 X292.2544 Y26.938
G1 Z0.0
G3 X293.3398 Y26.8938 I0.6462 J2.5187
G3 X294.3548 Y27.281 I-0.5356 J2.9274
G3 X294.9396 Y27.7087 I-2.0692 J3.4434
G3 X295.5992 Y28.4051 I-3.3011 J3.7871
G3 X294.3004 Y28.5116 I-0.8479 J-2.3673
G3 X293.1017 Y28.0003 I0.5211 J-2.8825
G3 X292.485 Y27.3838 I1.5206 J-2.1379
G3 X292.2544 Y26.938 I1.5222 J-1.0698
G0 Z5.0
G0 X295.9147 Y26.3299
G1 Z0.0
G3 X296.8666 Y26.2718 I0.6339 J2.5608
G3 X297.778 Y26.5528 I-0.36 J2.7865
G3 X298.3203 Y26.8857 I-1.6237 J3.254
G3 X298.6038 Y27.1129 I-3.3103 J4.4197
G3 X299.267 Y27.8082 I-3.5338 J4.0342
G3 X297.9637 Y27.9136 I-0.848 J-2.3766
G3 X296.7619 Y27.3981 I0.5337 J-2.9031
G3 X296.1448 Y26.7779 I1.5056 J-2.115
G3 X295.9147 Y26.3299 I1.5373 J-1.0727
G0 Z5.0
G0 X300.6161 Y26.2842
G1 Z0.0
G3 X301.429 Y26.2049 I0.6532 J2.4899
G3 X302.2255 Y26.3857 I-0.1919 J2.6914
G3 X302.714 Y26.6278 I-1.1224 J2.8778
G3 X303.2975 Y27.0564 I-2.1209 J3.4998
G3 X303.9609 Y27.7475 I-3.6111 J4.13
G3 X302.6614 Y27.8595 I-0.8596 J-2.3795
G3 X301.4605 Y27.3507 I0.5114 J-2.8788
G3 X300.8445 Y26.732 I1.4883 J-2.0978
G3 X300.6161 Y26.2842 I1.4989 J-1.0467
G0 Z5.0
G0 X304.8731 Y26.0904
G1 Z0.0
G3 X305.922 Y26.0385 I0.6528 J2.566
G3 X306.9077 Y26.4011 I-0.4423 J2.7236
G3 X307.4733 Y26.8154 I-1.9882 J3.3073
G3 X308.1113 Y27.489 I-3.6758 J4.121
G3 X306.8513 Y27.621 I-0.8888 J-2.4034
G3 X305.6795 Y27.1394 I0.3929 J-2.6223
G3 X305.0889 Y26.5291 I1.4008 J-1.9462
G3 X304.8731 Y26.0904 I1.5416 J-1.0311
G0 Z5.0
G0 X308.4306 Y25.4215
G1 Z0.0
G3 X309.2437 Y25.3496 I0.6345 J2.5439
G3 X310.0392 Y25.5326 I-0.1977 J2.6805
G3 X310.5279 Y25.7739 I-1.2222 J3.0899
G3 X311.1124 Y26.2007 I-2.2622 J3.7125
G3 X311.7754 Y26.8923 I-3.4761 J3.9953
G3 X310.4734 Y27.0058 I-0.8647 J-2.3962
G3 X309.2703 Y26.4953 I0.4904 J-2.8285
G3 X308.6563 Y25.8719 I1.5186 J-2.1098
G3 X308.4306 Y25.4215 I1.4854 J-1.0261
G0 Z5.0
G0 X312.6534 Y25.353
G1 Z0.0
G3 X313.4679 Y25.2768 I0.6499 J2.5559
G3 X314.266 Y25.4573 I-0.1926 J2.7065
G3 X314.7561 Y25.6984 I-1.1661 J2.9885
G3 X315.3419 Y26.1263 I-2.2648 J3.7163
G3 X316.0056 Y26.8201 I-3.5546 J4.0644
G3 X314.7043 Y26.9281 I-0.8537 J-2.3942
G3 X313.5023 Y26.4177 I0.516 J-2.8857
G3 X312.8843 Y25.7998 I1.5351 J-2.1534
G3 X312.6534 Y25.353 I1.4906 J-1.0537
G0 Z5.0
G0 X318.4826 Y7.7632
G1 Z0.0
G3 X318.1217 Y7.6205 I1.0813 J-3.2629
G3 X317.4124 Y7.2156 I1.8573 J-4.0776
G3 X316.5785 Y6.5259 I3.7297 J-5.358
G3 X315.6257 Y5.4636 I7.5648 J-7.744
G1 X315.5696 Y5.3925
G3 X315.0789 Y4.732 I11.8175 J-9.2934
G3 X313.9086 Y2.9221 I24.3 J-16.9955
G1 X313.6157 Y2.43
G3 X312.965 Y1.3064 I122.9089 J-71.9246
G1 X312.6221 Y0.7076
G1 X312.5789 Y0.6322
G1 X312.2097 Y-0.0076
G2 X311.3434 Y-1.4428 I-38.6974 J22.3766
G1 X311.1087 Y-1.8055
G2 X310.5835 Y-2.5598 I-12.65 J8.2473
G2 X310.4431 Y-2.7461 I-38.7489 J29.0676
G1 X310.2968 Y-2.9325
G2 X310.5386 Y-2.9362 I-0.0482 J-10.9553
G2 X310.5732 Y-2.9373 I0.0096 J-0.2419
G1 X310.8491 Y-2.9508
G2 X310.886 Y-2.9531 I0.0005 J-0.2795
G1 X310.97 Y-2.959
G2 X311.6406 Y-3.0253 I-1.1804 J-15.3525
G2 X311.6838 Y-3.0306 I-0.0372 J-0.4846
G1 X311.8809 Y-3.0559
G1 X312.1059 Y-3.0869
G1 X312.3627 Y-3.1245
G1 X312.6557 Y-3.1697
G1 X313.4365 Y-3.2947
G1 X313.883 Y-3.3637
G1 X314.1214 Y-3.3979
G3 X314.182 Y-3.4062 I0.1423 J0.8153
G1 X314.3073 Y-3.4227
G1 X314.4368 Y-3.4387
G1 X314.7134 Y-3.4684
G1 X320.521 Y7.7857
G3 X319.3059 Y7.928 I-0.9941 J-3.2297
G3 X318.4826 Y7.7632 I0.2581 J-3.4277
G0 Z5.0
G0 X346.906 Y-4.0493
G1 Z0.0
G3 X346.8889 Y-4.0909 I6.5921 J-2.7396
G1 X346.8449 Y-4.2013
G3 X346.553 Y-5.2515 I4.7371 J-1.8827
G3 X346.5088 Y-5.8356 I3.7265 J-0.5754
G3 X346.5791 Y-6.4635 I2.9064 J0.0076
G2 X347.9367 Y-4.7231 I51.9684 J-39.1386
G1 X348.3995 Y-4.151
G2 X348.5233 Y-3.9988 I4.3848 J-3.4396
G1 X349.1839 Y-3.1873
G3 X350.0565 Y-2.0986 I-55.0938 J45.0519
G3 X351.1776 Y-0.614 I-32.6052 J25.7876
G3 X352.5374 Y1.4617 I-22.4461 J16.1885
G1 X352.6985 Y1.7386
G1 X351.0071 Y2.1187
G2 X350.3609 Y1.162 I-19.7223 J12.6237
G1 X350.1362 Y0.8495
G1 X349.8325 Y0.4359
G1 X349.4237 Y-0.1126
G1 X349.1897 Y-0.4258
G1 X349.0651 Y-0.5931
G1 X348.9327 Y-0.7718
G3 X348.2399 Y-1.7345 I26.7814 J-20.0031
G3 X347.3909 Y-3.0692 I14.0457 J-9.8719
G3 X346.9808 Y-3.8759 I8.7945 J-4.9784
G3 X346.906 Y-4.0493 I6.5174 J-2.913
G0 Z5.0
G0 X352.1702 Y19.667
G1 Z0.0
G3 X353.8773 Y19.3813 I17.6057 J99.9497
G1 X354.4473 Y19.2921
G3 X354.7732 Y19.2424 I2.201 J13.3515
G3 X354.9471 Y19.2163 I1.2001 J7.4062
G3 X355.1326 Y19.1888 I1.0873 J6.6898
G3 X358.1068 Y18.7903 I15.9366 J107.635
G1 X358.5041 Y18.743
G3 X364.8785 Y18.1594 I14.9626 J128.3234
G3 X364.9792 Y18.1526 I0.1447 J1.4026
G3 X365.0806 Y18.1458 I0.1442 J1.4028
G3 X365.1828 Y18.1391 I0.1436 J1.4032
G1 X366.0551 Y18.0847
G1 X366.9857 Y18.0321
G3 X371.9529 Y17.8395 I9.5456 J182.0002
G1 X372.5941 Y17.8243
G1 X372.9198 Y17.8173
G3 X374.3096 Y17.7932 I3.5907 J166.7522
G1 X374.3854 Y17.7988
G1 X374.4609 Y17.8076
G1 X374.6115 Y17.8273
G1 X374.9126 Y17.8684
G1 X375.515 Y17.9479
G1 X375.9171 Y17.9971
G1 X375.9691 Y18.0032
G1 X376.0227 Y18.0094
G1 X376.5949 Y18.0715
G1 X376.9223 Y18.1034
G1 X377.097 Y18.1193
G1 X377.4966 Y18.1525
G2 X377.7098 Y18.1685 I0.5727 J-6.223
G1 X378.1976 Y18.2001
G2 X379.5003 Y18.2484 I1.8834 J-33.1974
G2 X381.2383 Y18.2166 I0.4202 J-24.5074
G2 X382.2288 Y18.1369 I-0.9731 J-18.3077
G2 X383.3537 Y17.9762 I-1.4621 J-14.2507
G2 X384.6186 Y17.6754 I-1.976 J-11.1187
G2 X386.0026 Y17.1202 I-2.2201 J-7.5369
G2 X386.6838 Y16.7011 I-2.7074 J-5.1632
G2 X387.3328 Y16.1366 I-2.5827 J-3.6245
G2 X387.8899 Y15.3911 I-2.7993 J-2.6731
G2 X388.1542 Y14.5025 I-2.1799 J-1.1318
G2 X388.1158 Y13.5762 I-3.1869 J-0.3318
G2 X387.354 Y11.9134 I-3.7029 J0.6904
G1 X388.2646 Y11.9139
G3 X389.1752 Y11.9175 I0.0763 J96.0038
G1 X389.7823 Y11.923
G1 X390.5915 Y11.9358
G1 X390.8073 Y11.9404
G3 X391.0375 Y11.9461 I-0.1253 J9.8344
G1 X391.283 Y11.9529
G1 X391.844 Y11.9717
G3 X393.3388 Y12.0488 I-2.0525 J54.3431
G3 X393.5316 Y12.062 I-0.2863 J5.5885
G3 X395.5825 Y12.2603 I-2.6362 J37.9826
G3 X398.2898 Y12.7339 I-3.2507 J26.5564
G1 X398.4597 Y12.774
G3 X399.997 Y13.2075 I-4.9015 J20.3219
G1 X400.0926 Y13.2392
G3 X401.8047 Y13.9203 I-4.9543 J14.9463
G3 X400.4788 Y14.5067 I-5.9892 J-11.7489
G3 X399.0992 Y14.9524 I-5.5982 J-14.9704
G3 X398.1608 Y15.1842 I-4.5499 J-16.4071
G3 X397.6202 Y15.2974 I-3.536 J-15.5298
G3 X397.331 Y15.353 I-1.9477 J-9.3624
G3 X397.0218 Y15.4089 I-1.9378 J-9.8276
G3 X396.3136 Y15.5258 I-4.2212 J-23.3794
G1 X395.9351 Y15.583
G1 X395.531 Y15.6411
G3 X394.6068 Y15.7663 I-13.9581 J-99.5347
G1 X393.5508 Y15.9066
G2 X392.3465 Y16.0809 I6.6214 J50.0015
G1 X392.0366 Y16.1308
G1 X391.7171 Y16.1852
G1 X391.388 Y16.245
G1 X391.0491 Y16.3109
G1 X390.7003 Y16.3841
G1 X390.3417 Y16.4657
G2 X388.7261 Y16.9357 I3.7268 J15.822
G2 X387.8899 Y17.2649 I4.5006 J12.6583
G2 X388.5749 Y18.3094 I3.5337 J-1.5705
G2 X389.5542 Y19.0849 I3.0301 J-2.8206
G2 X390.3045 Y19.4475 I2.9263 J-5.097
G2 X391.3558 Y19.7902 I3.3991 J-8.6429
G1 X391.6413 Y19.8627
G2 X391.6774 Y19.8715 I0.1059 J-0.3592
G2 X391.7138 Y19.8802 I0.1062 J-0.3637
G2 X392.3792 Y20.0257 I3.6552 J-15.12
G1 X392.735 Y20.0959
G1 X393.1142 Y20.1675
G1 X393.9769 Y20.329
G3 X394.9537 Y20.5339 I-5.0558 J26.5264
G1 X395.2038 Y20.5944
G1 X395.3304 Y20.6268
G3 X395.8653 Y20.7791 I-3.2629 J12.4699
G3 X396.1379 Y20.8686 I-2.2716 J7.3801
G3 X397.333 Y21.4037 I-2.1796 J6.47
G3 X397.9145 Y21.7953 I-2.451 J4.2673
G3 X398.9882 Y23.0118 I-2.7076 J3.4719
G3 X396.934 Y23.4704 I-4.2814 J-14.3465
G3 X394.8383 Y23.6662 I-2.8022 J-18.6808
G3 X393.4349 Y23.6758 I-0.8478 J-21.4889
G1 X393.0608 Y23.6644
G1 X392.6621 Y23.6466
G3 X392.2371 Y23.6213 I0.7079 J-15.4845
G3 X389.9805 Y23.3946 I2.334 J-34.5752
G3 X389.9096 Y23.3853 I0.1075 J-1.095
G3 X389.8382 Y23.3758 I0.1103 J-1.1053
G3 X389.7663 Y23.3662 I0.1132 J-1.1159
G3 X389.6938 Y23.3563 I0.1162 J-1.1268
G3 X386.6195 Y22.8537 I9.3792 J-67.0217
G1 X385.8033 Y22.7009
G1 X384.9339 Y22.5337
G1 X382.9493 Y22.1487
G1 X382.4369 Y22.0513
G1 X381.9078 Y21.9528
G1 X381.3612 Y21.8536
G1 X381.2233 Y21.8292
G1 X381.0844 Y21.8047
G2 X380.8021 Y21.7558 I-17.8403 J102.1553
G2 X379.5958 Y21.5605 I-10.7625 J62.6393
G1 X379.4435 Y21.5376
G1 X379.2899 Y21.5151
G1 X379.1351 Y21.4928
G2 X376.2934 Y21.1926 I-5.2281 J35.8876
G1 X375.931 Y21.1724
G2 X374.382 Y21.1456 I-1.1604 J22.2872
G2 X374.8839 Y21.8381 I3.2474 J-1.8257
G2 X375.5134 Y22.4174 I3.5476 J-3.2232
G2 X375.7092 Y22.5638 I3.9827 J-5.1248
G2 X376.2548 Y22.9195 I5.0455 J-7.1416
G2 X377.0163 Y23.3327 I5.3244 J-8.9049
G2 X377.1165 Y23.3822 I1.4929 J-2.8917
G2 X377.2203 Y23.4327 I2.1388 J-4.2669
G1 X377.4425 Y23.5381
G1 X377.6806 Y23.6477
G1 X377.9355 Y23.7622
G1 X379.2952 Y24.356
G1 X379.4699 Y24.4341
G1 X379.8407 Y24.604
G3 X380.6732 Y25.0202 I-7.2612 J15.5651
G3 X381.5819 Y25.5716 I-4.5834 J8.5776
G3 X381.8048 Y25.7319 I-2.4405 J3.6308
G3 X382.7285 Y26.5871 I-3.3449 J4.5387
G3 X383.481 Y27.8349 I-3.3683 J2.8821
G3 X380.2501 Y28.0257 I-2.5793 J-16.2242
G3 X377.0396 Y27.6149 I0.7114 J-18.31
G3 X374.958 Y27.0431 I4.4053 J-20.1104
G3 X372.2988 Y25.9484 I6.5592 J-19.7107
G3 X369.0304 Y23.9544 I9.4951 J-19.2387
G3 X366.8885 Y25.1741 I-6.7893 J-9.4323
G3 X364.5475 Y25.946 I-5.3885 J-12.4062
G3 X362.9307 Y26.242 I-3.9374 J-16.9387
G3 X360.7505 Y26.4253 I-2.9905 J-22.5159
G3 X360.1673 Y26.4418 I-0.9451 J-23.146
G3 X358.8355 Y26.4393 I-0.6099 J-29.9713
G3 X358.126 Y26.4188 I0.4851 J-29.0774
G1 X357.7601 Y26.4038
G1 X357.3827 Y26.3856
G1 X356.9933 Y26.3641
G3 X357.5447 Y25.5154 I3.4037 J1.6081
G3 X358.2792 Y24.8191 I3.7386 J3.2083
G3 X358.8295 Y24.4289 I4.4667 J5.715
G3 X359.157 Y24.2263 I3.5718 J5.4089
G3 X359.3346 Y24.1231 I5.2918 J8.8992
G3 X360.2993 Y23.614 I8.7833 J15.4751
G3 X360.8578 Y23.3397 I14.8886 J29.6169
G1 X361.4949 Y23.0275
G1 X361.8324 Y22.8573
G1 X362.0055 Y22.7676
G2 X362.7824 Y22.3339 I-6.4833 J-12.524
G1 X362.9778 Y22.2134
G2 X363.8285 Y21.5999 I-4.1664 J-6.6739
G1 X363.9299 Y21.5134
G2 X364.7546 Y20.6096 I-3.3385 J-3.8745
G2 X362.7353 Y20.454 I-3.9396 J37.9515
G2 X360.711 Y20.391 I-3.0122 J64.1956
G1 X359.361 Y20.3724
G3 X357.5614 Y20.3336 I0.8609 J-81.5526
G3 X357.5047 Y20.3316 I0.0066 J-0.9846
G3 X355.0914 Y20.1648 I1.0423 J-32.6254
G3 X353.7212 Y19.9775 I2.9811 J-26.9222
G3 X352.1702 Y19.667 I3.812 J-23.0696
G0 Z5.0
G0 X368.5394 Y11.5469
G1 Z0.0
G3 X368.4147 Y11.2522 I2.3812 J-1.1812
G3 X368.3249 Y10.5854 I1.522 J-0.5445
G3 X368.5392 Y9.9476 I1.4336 J0.1267
G3 X368.8205 Y9.5961 I1.6307 J1.017
G3 X369.2879 Y9.2287 I1.8875 J1.9201
G3 X369.9829 Y8.8788 I2.331 J3.7657
G3 X370.9475 Y8.5793 I2.51 J6.379
G3 X371.0099 Y8.5648 I0.2031 J0.7348
G3 X372.3173 Y8.3584 I2.2376 J9.9293
G3 X372.4009 Y8.3505 I0.18 J1.4566
G3 X372.7557 Y8.3229 I0.9074 J9.3646
G3 X374.5954 Y8.3111 I1.0234 J16.1939
G3 X376.9703 Y8.5535 I-1.0597 J22.1368
G3 X378.5135 Y8.846 I-3.2799 J21.5254
G3 X378.7321 Y8.8973 I-1.2403 J5.7789
G1 X378.9811 Y8.959
G3 X380.9313 Y9.5953 I-3.6093 J14.3703
G3 X382.161 Y10.1972 I-3.725 J9.1667
G3 X382.8158 Y10.6278 I-3.5693 J6.1409
G1 X382.9762 Y10.7513
G3 X383.3033 Y11.0344 I-2.8015 J3.568
G3 X383.9385 Y11.7993 I-2.5728 J2.7829
G1 X384.0026 Y11.909
G3 X384.2152 Y12.4125 I-2.0646 J1.1684
G3 X384.2958 Y13.0027 I-1.8955 J0.5595
G3 X384.1631 Y13.6487 I-1.823 J-0.0377
G3 X383.7706 Y14.2747 I-1.9907 J-0.8123
G3 X383.4919 Y14.549 I-1.8751 J-1.627
G3 X382.7745 Y15.0269 I-2.4557 J-2.9088
G3 X381.9089 Y15.3832 I-2.5519 J-4.9708
G3 X380.9422 Y15.6218 I-2.2169 J-6.902
G3 X379.9228 Y15.7522 I-1.8402 J-10.339
G3 X377.7878 Y15.7452 I-1.0216 J-13.9519
G3 X377.7543 Y15.7426 I0.0011 J-0.2355
G3 X375.4837 Y15.4275 I1.5799 J-19.7215
G3 X374.9255 Y15.3113 I9.2234 J-45.7204
G3 X372.8775 Y14.7258 I3.2934 J-15.3948
G3 X370.9449 Y13.8302 I3.9914 J-11.1456
G3 X369.7777 Y13.0174 I4.2266 J-7.3137
G3 X369.1866 Y12.4567 I3.9381 J-4.7436
G3 X368.6265 Y11.7081 I3.1559 J-2.9454
G3 X368.5394 Y11.5469 I2.2942 J-1.3424
G0 Z5.0
G0 X390.6987 Y27.4282
G1 Z0.0
G1 X394.5794
G3 X394.0321 Y28.5353 I-21.3127 J-9.847
G1 X393.8366 Y28.8976
G3 X393.0031 Y30.3173 I-27.7095 J-15.3128
G3 X392.9469 Y30.4075 I-1.4195 J-0.8211
G3 X392.8887 Y30.5005 I-1.4735 J-0.8582
G3 X392.6196 Y30.9233 I-15.6071 J-9.6362
G1 X392.3066 Y31.4031
G1 X391.9431 Y31.9475
G1 X391.522 Y32.5658
G1 X391.0361 Y33.2692
G1 X390.7759 Y33.6436
G1 X390.4984 Y34.0428
G1 X390.428 Y34.1443
G1 X390.1282 Y34.5775
G2 X389.4503 Y35.5727 I50.5001 J35.1277
G1 X389.0958 Y36.1081
G1 X388.9154 Y36.3861
G1 X388.8703 Y36.4564
G1 X388.8249 Y36.5274
G3 X388.3948 Y35.8399 I5.0534 J-3.64
G3 X388.0899 Y35.0883 I3.2675 J-1.7632
G3 X388.0372 Y34.8622 I2.5332 J-0.71
G3 X387.9972 Y34.2433 I2.3152 J-0.4602
G3 X388.1953 Y33.437 I2.4318 J0.1701
G3 X388.4144 Y33.0141 I3.0165 J1.2946
G3 X388.7218 Y32.5671 I4.2339 J2.5821
G3 X389.1117 Y32.0909 I6.8003 J5.1703
G1 X389.5708 Y31.5684
G2 X389.6289 Y31.502 I-0.8868 J-0.8339
G2 X390.1336 Y30.8873 I-8.1942 J-7.2427
G2 X390.6127 Y30.1299 I-3.9683 J-3.0405
G2 X390.7971 Y29.6903 I-3.3176 J-1.65
G2 X390.9522 Y28.6121 I-2.8252 J-0.9566
G2 X390.8769 Y28.0305 I-3.3601 J0.139
G2 X390.6987 Y27.4282 I-4.172 J0.9072
G0 Z5.0
G0 X396.6724 Y29.6714
G1 Z0.0
G1 X396.7353 Y29.5041
G1 X396.9936 Y28.8222
G1 X397.258 Y28.1303
G1 X397.5288 Y27.4282
G1 X398.9552 Y27.1225
G2 X400.3737 Y26.7825 I-7.2505 J-33.3778
G2 X400.7754 Y26.6708 I-6.3141 J-23.4733
G2 X400.9885 Y26.6077 I-11.4966 J-39.2474
G2 X401.4727 Y26.4533 I-6.1255 J-20.0495
G2 X402.7358 Y25.9611 I-4.5022 J-13.4206
G2 X403.5198 Y25.413 I-0.5954 J-1.6866
G2 X403.9297 Y24.5487 I-1.5573 J-1.2677
G2 X403.9759 Y23.9112 I-2.3088 J-0.4878
G2 X402.6827 Y21.8944 I-2.4494 J0.1476
G3 X402.6467 Y20.8718 I6.0156 J-0.7234
G3 X402.8332 Y19.8658 I3.6949 J0.1645
G3 X403.1329 Y19.2498 I2.5714 J0.8704
G3 X403.7494 Y18.5726 I2.4816 J1.6396
G3 X404.1755 Y18.2667 I2.7865 J3.432
G3 X404.6943 Y17.971 I3.3695 J5.3087
G3 X404.7278 Y17.9537 I0.1445 J0.2385
G3 X405.3423 Y17.6567 I6.6294 J12.9324
G1 X406.0428 Y17.3319
G2 X406.8188 Y16.9345 I-5.1801 J-11.0713
G2 X407.0128 Y16.8217 I-5.0697 J-8.9426
G2 X407.8393 Y16.2343 I-3.2411 J-5.436
G2 X408.6232 Y15.3911 I-3.0751 J-3.6449
G2 X407.7213 Y13.0291 I-4.8 J0.4797
G2 X407.168 Y12.382 I-4.3576 J3.1651
G2 X406.2996 Y11.655 I-4.4647 J4.4516
G2 X404.9965 Y10.9069 I-4.9709 J7.1492
G2 X404.2067 Y10.5755 I-4.5262 J9.681
G1 X404.3208 Y10.2763
G1 X404.3588 Y10.1765
G1 X404.5111 Y9.7775
G1 X404.5547 Y9.6635
G1 X404.6711 Y9.3596
G1 X404.8269 Y8.9547
G1 X404.8686 Y8.8467
G1 X404.9132 Y8.7316
G1 X405.1526 Y8.1185
G1 X405.291 Y7.7688
G1 X405.451 Y7.3698
G1 X405.4927 Y7.267
G1 X405.685 Y6.7977
G3 X406.2181 Y5.5549 I39.9776 J16.4104
G1 X406.3662 Y5.2261
G1 X406.5275 Y4.8769
G1 X406.5691 Y4.7884
G3 X407.5215 Y2.9341 I25.8192 J12.0887
G3 X408.1342 Y1.912 I16.9257 J9.4508
G1 X408.3018 Y1.6541
G3 X408.6739 Y1.1132 I11.7326 J7.6723
G3 X409.6037 Y-0.0663 I12.4654 J8.8697
G1 X409.73 Y-0.2094
G3 X410.976 Y-1.4349 I9.8771 J8.7966
G3 X411.9859 Y-2.256 I13.1624 J15.1574
G3 X413.0643 Y-2.9847 I6.3842 J8.2852
G3 X413.3925 Y-3.1606 I3.3395 J5.8393
G3 X413.7837 Y-3.329 I1.5993 J3.1767
G3 X414.2576 Y-3.4486 I0.7556 J1.9945
G3 X414.5206 Y-3.4562 I0.1688 J1.2809
G3 X415.0933 Y-3.1941 I-0.0476 J0.8605
G3 X415.2976 Y-2.8998 I-0.8642 J0.8181
G3 X415.4361 Y-2.5309 I-1.8108 J0.8903
G1 X415.4611 Y-2.4335
G3 X415.4725 Y-2.3839 I-0.4187 J0.1223
G3 X415.5118 Y-2.1771 I-2.7436 J0.6285
G1 X415.5276 Y-2.0712
G3 X415.5525 Y-1.8517 I-6.8027 J0.8852
G3 X415.5805 Y-0.9034 I-8.4485 J0.7235
G3 X415.5626 Y-0.4176 I-11.1171 J-0.1658
G3 X415.4791 Y0.6572 I-23.7712 J-1.3069
G1 X415.451 Y0.9323
G1 X415.387 Y1.5
G3 X415.3828 Y1.5355 I-0.2593 J-0.0128
G1 X415.3119 Y2.1071
G1 X415.2749 Y2.3925
G1 X415.1986 Y2.9625
G3 X415.1789 Y3.1003 I-2.7465 J-0.3222
G3 X415.1582 Y3.238 I-2.5499 J-0.313
G3 X415.1438 Y3.3298 I-1.9802 J-0.2628
G1 X415.0822 Y3.6959
G3 X415.0633 Y3.8003 I-1.8156 J-0.2736
G3 X415.0412 Y3.9196 I-1.889 J-0.2895
G3 X414.8407 Y4.8684 I-27.0269 J-5.214
G3 X414.3363 Y6.7409 I-29.82 J-7.0291
G3 X413.9429 Y7.9723 I-35.8012 J-10.7597
G1 X413.8323 Y8.2988
G1 X413.7123 Y8.6463
G1 X413.5823 Y9.0163
G1 X413.4416 Y9.4101
G1 X413.2897 Y9.8297
G1 X412.9379 Y10.7867
G1 X412.534 Y11.8794
G2 X412.0801 Y13.1307 I77.2484 J28.7297
G1 X411.8454 Y13.8006
G1 X411.7271 Y14.1473
G1 X411.6073 Y14.506
G1 X411.4866 Y14.8773
G1 X411.4264 Y15.0663
G1 X411.3663 Y15.2585
G1 X411.3061 Y15.4541
G1 X411.2461 Y15.6532
G1 X411.1862 Y15.8557
G2 X410.7024 Y17.7252 I28.4858 J8.3703
G2 X410.5009 Y18.7359 I24.0258 J5.3145
G1 X411.8882 Y20.203
G2 X412.6124 Y19.3224 I-20.3704 J-17.4896
G1 X412.8478 Y19.024
G1 X413.1586 Y18.6238
G1 X413.5688 Y18.087
G1 X414.1102 Y17.3671
G1 X414.8257 Y16.4024
G2 X414.9177 Y16.2776 I-3.5191 J-2.6901
G2 X415.0126 Y16.1488 I-3.786 J-2.8867
G1 X416.0211 Y14.7724
G1 X416.5961 Y13.9849
G1 X418.1307 Y11.8862
G1 X419.0116 Y10.6899
G3 X419.0393 Y10.6524 I0.5992 J0.414
G3 X419.0671 Y10.6147 I0.6046 J0.418
G3 X419.2971 Y10.3041 I81.7103 J60.2603
G1 X419.7889 Y9.6426
G3 X422.4519 Y6.1444 I164.3675 J122.3637
G1 X422.5372 Y6.0353
G1 X422.7108 Y5.8139
G3 X424.3206 Y3.8075 I82.5458 J64.5786
G3 X425.1993 Y2.7538 I81.1377 J66.7703
G1 X425.6595 Y2.2156
G1 X426.1402 Y1.6647
G1 X426.2623 Y1.5267
G3 X426.5115 Y1.2475 I22.8212 J20.1236
G1 X426.7665 Y0.9656
G1 X426.8309 Y0.895
G1 X427.0936 Y0.6097
G3 X427.2268 Y0.4667 I3.2556 J2.8985
G3 X428.3897 Y-0.7294 I31.7165 J29.6735
G1 X428.6936 Y-1.0247
G1 X428.8484 Y-1.172
G3 X429.0055 Y-1.3193 I5.9718 J6.2129
G1 X429.045 Y-1.356
G1 X429.3692 Y-1.6511
G3 X430.0568 Y-2.2404 I11.8727 J13.1572
G3 X430.7987 Y-2.811 I9.5649 J11.6705
G1 X430.8465 Y-2.8451
G3 X432.2965 Y-3.8092 I15.2767 J21.4026
G3 X432.7987 Y-4.1006 I8.7644 J14.5257
G3 X433.4974 Y-4.435 I2.9144 J5.1918
G3 X433.9239 Y-4.5588 I0.7824 J1.8998
G3 X434.1635 Y-4.5638 I0.1354 J0.7459
G3 X434.3943 Y-4.4104 I-0.033 J0.3001
G3 X434.4396 Y-4.2524 I-0.4089 J0.2026
G3 X434.4371 Y-4.067 I-0.7588 J0.0824
G3 X434.3358 Y-3.6398 I-2.0742 J-0.2661
G1 X434.2988 Y-3.5334
G1 X434.2588 Y-3.4272
G3 X434.173 Y-3.2202 I-7.308 J-2.9041
G1 X434.0802 Y-3.0153
G3 X433.6599 Y-2.2056 I-10.9039 J-5.1464
G3 X433.2531 Y-1.5085 I-20.2631 J-11.3556
G3 X432.7468 Y-0.6975 I-27.5014 J-16.6063
G2 X427.8687 Y7.1031 I399.3423 J255.1557
G1 X427.1833 Y8.2246
G1 X426.4028 Y9.508
G2 X424.3347 Y12.9384 I673.788 J408.5412
G1 X423.786 Y13.8549
G1 X423.2018 Y14.8331
G1 X421.8702 Y17.0712
G1 X420.3531 Y19.6318
G1 X419.5455 Y20.9983
G1 X415.2406 Y28.2879
G1 X414.684 Y29.2279
G1 X414.1087 Y30.1977
G1 X413.5142 Y31.1984
G1 X412.8995 Y32.2308
G1 X412.2638 Y33.2958
G3 X409.3386 Y38.1527 I-747.9199 J-447.138
G1 X408.9644 Y38.7679
G1 X408.5836 Y39.3923
G1 X408.1959 Y40.0262
G1 X407.8013 Y40.6697
G3 X404.1488 Y46.5252 I-435.9565 J-267.8715
G1 X403.6785 Y47.2647
G1 X403.1991 Y48.0149
G1 X402.7102 Y48.7759
G3 X400.6033 Y52.0089 I-256.1016 J-164.5961
G3 X395.6388 Y59.3007 I-246.1743 J-162.2686
G3 X394.3198 Y61.1563 I-314.0662 J-221.8558
G3 X393.9848 Y61.6219 I-42.2919 J-30.0741
G3 X393.646 Y62.0905 I-35.2212 J-25.1101
G3 X390.7077 Y66.0546 I-175.5302 J-127.0342
G3 X390.5204 Y66.3012 I-12.1661 J-9.0458
G3 X383.4126 Y75.1205 I-155.408 J-117.9745
G1 X382.5308 Y73.1745
G1 X382.8302 Y72.2442
G1 X383.128 Y71.3134
G1 X383.3258 Y70.6926
G1 X383.5886 Y69.8646
G2 X384.6309 Y66.5496 I-1471.7242 J-464.5648
G1 X385.3195 Y64.3377
G1 X386.2327 Y61.387
G1 X386.4757 Y60.5999
G1 X387.7711 Y56.4023
G1 X388.5138 Y54.0043
G1 X388.706 Y53.3857
G1 X388.9048 Y52.7472
G1 X389.1103 Y52.0882
G1 X389.3229 Y51.4081
G1 X389.7782 Y49.9578
G1 X390.2667 Y48.4117
G1 X390.7918 Y46.7638
G1 X391.3569 Y45.0076
G1 X391.9664 Y43.1365
G1 X392.2839 Y42.1717
G3 X393.7653 Y37.7713 I378.4669 J124.9563
G1 X393.9572 Y37.2138
G1 X394.1533 Y36.6478
G1 X394.3534 Y36.0732
G1 X394.5578 Y35.4898
G3 X396.483 Y30.176 I272.7878 J95.8217
G1 X396.6724 Y29.6714
G0 Z5.0
G0 Y8.5687
G1 Z0.0
G1 X396.5861
G1 Y5.7638
G3 X396.9699 Y6.17 I-2.8582 J3.085
G3 X397.312 Y6.6119 I-5.0783 J4.2846
G3 X397.9109 Y7.554 I-9.6975 J6.8265
G3 X398.2697 Y8.2057 I-14.4221 J8.3641
G3 X398.3621 Y8.3812 I-4.8038 J2.6429
G1 X398.4599 Y8.5687
G1 X396.6724
G0 Z5.0
M5
M30
