( Made using CamBam - http://www.cambam.co.uk )
( Untitled 1/2/2014 3:28:03 PM )
( T0 : 0.0 )
G21 G90 G64 G40
G0 Z3.0
( T0 : 0.0 )
T0 M6
( Profile1 )
G17
M3 S1000
G0 X23.9063 Y45.8086
G0 Z1.4
G1 F300.0 Z0.0
G1 F800.0 X34.6992 Y17.7891
G1 X12.7266
G1 X23.9063 Y45.8086
G0 Z3.0
G0 X20.1061 Y47.3516
G0 Z1.4
G1 F300.0 Z0.0
G1 F800.0 X0.8789 Y0.0
G1 X5.625
G1 X10.8633 Y13.6055
G1 X36.3516
G1 X41.625 Y0.0
G1 X46.6523
G1 X26.8594 Y49.957
G1 X21.1641
G1 X20.1061 Y47.3516
G0 Z3.0
M5
M30
