( Made using CamBam - http://www.cambam.co.uk )
( Untitled 1/2/2014 11:23:40 PM )
( T0 : 0.0 )
G21 G90 G64 G40
G0 Z5.0
( T0 : 0.0 )
T0 M6
( Profile1 )
G17
M3 S1000
G0 X56.8828 Y19.3786
G0 Z1.0
G1 F300.0 Z-5.0
G1 F2000.0 Y15.2578
G2 X52.3575 Y10.6318 I-42.0629 J36.621
G2 X47.1797 Y6.75 I-22.1541 J24.1564
G2 X37.8984 Y4.0078 I-9.6014 J15.4193
G2 X28.8932 Y6.6323 I-0.1763 J16.1569
G2 X22.4297 Y13.4297 I12.6277 J18.4792
G2 X17.6583 Y25.3049 I30.8816 J19.3043
G2 X16.3828 Y38.0391 I57.8945 J12.2297
G2 X19.2656 Y59.7656 I76.0474 J0.9641
G2 X28.0547 Y77.0625 I51.6053 J-15.3408
G2 X39.7969 Y86.9766 I29.3264 J-22.8234
G2 X53.1563 Y90.7031 I13.9314 J-24.1335
G2 X61.1825 Y89.4094 I0.2958 J-23.7085
G2 X68.0625 Y85.0781 I-6.241 J-17.5435
G2 X72.4362 Y78.3219 I-12.8377 J-13.1044
G2 X73.7578 Y70.3828 I-21.4571 J-7.6514
G2 X71.6484 Y61.2422 I-18.8866 J-0.4553
G2 X65.5313 Y54.9844 I-13.8362 J7.4065
G1 Y67.8516
G2 X65.9531 Y71.4375 I11.7386 J0.4368
G2 X67.5 Y73.5469 I5.1639 J-2.165
G1 X67.5703 Y75.0234
G1 X56.8828 Y71.2969
G1 Y53.0156
G3 X56.25 Y52.9453 I0.173 J-4.4398
G2 X55.6172 Y52.875 I-0.814 J4.4434
G2 X50.6953 Y54.4922 I-0.3085 J7.3595
G2 X48.7969 Y58.7813 I3.4563 J4.0945
G2 X49.5703 Y61.875 I6.3149 J0.0648
G2 X51.9609 Y64.8281 I9.7298 J-5.4323
G1 X47.8125 Y65.25
G1 X47.3906
G3 X43.7344 Y63.7031 I-0.1031 J-4.8508
G3 X42.3281 Y59.7656 I4.2344 J-3.7321
G3 X43.2446 Y56.3719 I6.4635 J-0.075
G3 X45.7031 Y53.8594 I7.0146 J4.4045
G3 X49.8867 Y52.0386 I7.0167 J10.4057
G3 X54.4219 Y51.5391 I4.3618 J18.7623
G1 X55.8984
G1 X56.8828
G1 Y19.3786
G0 Z5.0
G0 X246.0996 Y6.467
G0 Z1.0
G1 F300.0 Z-5.0
G2 F2000.0 X246.8195 Y8.1089 I2.6434 J-0.1804
G2 X248.3438 Y9.2813 I4.2962 J-4.0085
G2 X254.0391 Y10.5469 I5.2917 J-10.3652
G2 X258.2001 Y9.9598 I-0.4945 J-18.5453
G2 X262.2271 Y8.7592 I-10.6725 J-43.1501
G2 X270.0 Y5.625 I-32.0316 J-90.6449
G2 X273.3047 Y4.1484 I-66.1272 J-152.4354
G2 X267.0469 Y2.1797 I-9.9455 J20.6828
G2 X258.3281 Y1.6172 I-8.0559 J57.0146
G2 X249.4688 Y2.9531 I-0.7179 J25.2831
G2 X247.29 Y4.1494 I2.9703 J7.9918
G2 X246.0938 Y6.3281 I1.6034 J2.2982
G2 X246.0996 Y6.467 I2.6492 J-0.0415
G0 Z5.0
G0 X361.8984 Y60.0469
G0 Z1.0
G1 F300.0 Z-5.0
G2 F2000.0 X366.6094 Y61.1016 I9.2044 J-30.0647
G2 X370.6875 Y61.4531 I4.1635 J-24.4682
G2 X376.8047 Y60.3281 I0.5168 J-14.3836
G2 X378.4424 Y59.2536 I-1.9644 J-4.7792
G2 X379.1953 Y57.4453 I-1.7788 J-1.8015
G2 X377.5781 Y55.1953 I-2.8057 J0.3104
G2 X373.5703 Y54.2813 I-3.7495 J7.1966
G2 X368.0156 Y55.6875 I0.2615 J12.7067
G2 X361.8984 Y60.0469 I13.8044 J25.8423
G0 Z5.0
G0 X361.4761 Y61.1913
G0 Z1.0
G1 F300.0 Z-5.0
G3 F2000.0 X361.0547 Y61.0313 I8.2326 J-22.3088
G2 X356.0625 Y68.1328 I17.584 J17.6665
G2 X354.375 Y75.7266 I16.5604 J7.6645
G2 X357.6094 Y85.4297 I14.9774 J0.3981
G2 X365.3438 Y89.4375 I7.926 J-5.8289
G2 X367.9454 Y88.9246 I-0.3208 J-8.4818
G2 X370.3906 Y87.8985 I-7.0232 J-20.163
G2 X374.9766 Y85.2891 I-21.4664 J-43.0606
G3 X382.0135 Y81.7132 I19.8895 J30.4288
G3 X384.6094 Y81.2109 I2.9131 J8.096
G3 X387.6023 Y81.9213 I-0.2835 J7.8546
G3 X390.3047 Y83.3906 I-7.366 J16.7673
G3 X397.4766 Y89.5781 I-22.9282 J33.8261
G1 Y91.125
G2 X392.7656 Y87.1172 I-27.3382 J27.3618
G2 X391.2403 Y86.2028 I-7.0786 J10.0792
G2 X389.5313 Y85.7109 I-1.9749 J3.6468
G2 X387.6428 Y86.3333 I1.9019 J8.9472
G2 X385.8189 Y87.1252 I23.7975 J57.3063
G2 X382.2188 Y88.8047 I71.6573 J158.3035
G3 X376.6217 Y90.98 I-16.0715 J-33.0639
G3 X370.6875 Y91.8984 I-6.2267 J-20.6011
G3 X354.4453 Y85.9219 I-0.4534 J-23.8264
G3 X347.625 Y71.7188 I11.3681 J-14.1981
G3 X349.4531 Y64.4766 I14.9734 J-0.0721
G3 X355.0078 Y58.1484 I18.2918 J10.4542
G3 X346.6141 Y52.5817 I24.2421 J-45.6647
G3 X339.75 Y45.2109 I23.0351 J-28.3332
G3 X334.5469 Y28.8281 I22.8012 J-16.2592
G3 X343.2656 Y8.1563 I27.0821 J-0.7522
G3 X353.7206 Y1.8849 I19.9446 J21.3993
G3 X365.7656 Y0.0 I11.6276 J34.8755
G3 X377.7514 Y1.8353 I0.385 J37.5405
G3 X388.2656 Y7.875 I-9.6819 J29.0266
G3 X397.3359 Y27.3516 I-15.8552 J19.2341
G3 X393.1172 Y38.8125 I-15.8292 J0.6802
G3 X388.0572 Y42.1558 I-9.9094 J-9.4968
G3 X382.0781 Y43.1719 I-5.7625 J-15.8093
G3 X369.3516 Y38.0391 I-0.1154 J-18.0577
G3 X363.9375 Y26.3672 I10.1778 J-11.8126
G3 X366.3281 Y19.7578 I9.4054 J-0.3351
G3 X372.2344 Y17.1563 I5.7722 J5.0993
G3 X374.6953 Y17.5078 I0.226 J7.2072
G3 X376.3125 Y18.7734 I-1.4196 J3.48
G1 X379.3359 Y23.3438
G2 X376.6641 Y22.2188 I-8.6339 J16.7701
G2 X374.5547 Y21.8672 I-2.212 J6.7682
G2 X369.3516 Y24.2578 I-0.021 J6.8118
G2 X367.2422 Y30.0938 I6.4047 J5.6141
G2 X370.125 Y36.9141 I9.0281 J0.2034
G2 X377.1563 Y39.7266 I6.8288 J-6.8767
G2 X387.9141 Y34.875 I0.3306 J-13.6199
G2 X391.1753 Y29.0428 I-12.3784 J-10.7496
G2 X392.1328 Y22.4297 I-20.7304 J-6.3775
G2 X386.1563 Y8.0859 I-19.1177 J-0.4513
G2 X371.3906 Y2.3203 I-14.2413 J14.6815
G2 X360.68 Y4.8274 I-0.1838 J23.347
G2 X352.125 Y11.7422 I13.0745 J24.9253
G2 X346.0002 Y22.319 I25.1142 J21.605
G2 X344.0391 Y34.3828 I34.259 J11.7605
G2 X347.2031 Y48.0938 I28.9271 J0.5451
G2 X356.2734 Y57.3047 I19.5421 J-10.1724
G3 X364.1484 Y53.8594 I22.5164 J40.7434
G3 X371.1094 Y52.7344 I7.3111 J23.1395
G3 X378.0 Y54.0703 I0.584 J15.4265
G3 X379.7867 Y55.3832 I-2.658 J5.4895
G3 X380.6016 Y57.4453 I-2.2219 J2.07
G3 X379.8812 Y59.7358 I-3.863 J0.0436
G3 X378.0703 Y61.3125 I-4.5743 J-3.4255
G3 X371.3906 Y62.7891 I-6.1359 J-11.9107
G3 X365.9766 Y62.3672 I-0.0911 J-33.7814
G3 X361.4761 Y61.1913 I3.7322 J-23.4847
G0 Z5.0
G0 X322.8604 Y56.6966
G0 Z1.0
G1 F300.0 Z-5.0
G3 F2000.0 X321.3206 Y65.1097 I-65.2418 J-7.5939
G3 X313.875 Y80.2266 I-38.679 J-9.6587
G3 X302.4754 Y89.1265 I-23.6505 J-18.5425
G3 X288.2813 Y91.8984 I-13.6398 J-32.1166
G3 X269.0859 Y87.6797 I-0.1097 J-45.2794
G3 X253.4766 Y76.0078 I18.3083 J-40.7581
G3 X247.1484 Y65.8125 I27.8228 J-24.3309
G3 X244.9688 Y54.9844 I26.6436 J-10.9968
G3 X249.5391 Y41.9766 I18.8718 J-0.6762
G3 X261.2109 Y36.8438 I11.3318 J9.931
G3 X268.875 Y38.6016 I-0.0451 J17.7834
G3 X276.1875 Y43.8047 I-11.4401 J23.818
G1 Y45.0703
G2 X271.3359 Y41.9063 I-13.2447 J15.0069
G2 X266.4141 Y40.9219 I-4.9253 J11.8294
G2 X260.8349 Y42.3789 I-0.125 J10.9317
G2 X256.6406 Y46.3359 I7.0458 J11.6695
G2 X253.619 Y52.9579 I16.1545 J11.3718
G2 X252.7734 Y60.1875 I28.2053 J6.963
G2 X261.6328 Y81.2109 I27.8388 J0.647
G2 X271.7469 Y87.6685 I20.7278 J-21.3152
G2 X283.5703 Y89.7188 I11.4766 J-31.0672
G2 X295.6641 Y87.0469 I0.0603 J-28.4329
G2 X306.0 Y79.4531 I-13.1282 J-28.7
G2 X316.3359 Y62.0859 I-35.7563 J-33.0393
G2 X319.8516 Y40.0078 I-62.7334 J-21.3084
G2 X318.2344 Y25.5402 I-60.5244 J-0.5589
G2 X312.3281 Y12.2344 I-38.2083 J8.9965
G2 X304.1304 Y4.4674 I-21.8915 J14.8958
G2 X293.2031 Y1.6172 I-10.673 J18.5469
G2 X286.875 Y2.4609 I0.3684 J26.9151
G2 X279.3516 Y5.2031 I14.7754 J52.2293
G3 X285.977 Y10.86 I-26.544 J37.7975
G3 X291.1641 Y17.8594 I-23.6909 J22.9783
G3 X294.9609 Y33.9609 I-29.621 J15.4833
G3 X293.8359 Y48.9375 I-130.7486 J-2.291
G2 X292.7813 Y61.4531 I148.5836 J18.8233
G2 X294.1875 Y70.3828 I26.9095 J0.3379
G2 X298.6875 Y78.1875 I24.5446 J-8.9522
G1 Y79.4531
G3 X287.6484 Y65.6016 I25.2332 J-31.4343
G3 X284.1328 Y48.0938 I37.8884 J-16.715
G3 X284.6953 Y38.5313 I140.6473 J3.4756
G2 X285.2578 Y28.0547 I-137.4321 J-12.6323
G2 X284.8432 Y21.6033 I-46.8419 J-0.2286
G2 X283.2891 Y15.3281 I-28.4259 J3.7101
G2 X277.1016 Y6.3281 I-21.6828 J8.28
G3 X265.4297 Y11.1094 I-35.4283 J-69.8495
G3 X257.3438 Y12.375 I-8.4383 J-27.4486
G3 X248.4141 Y10.6172 I-0.569 J-20.6699
G3 X246.0459 Y9.0401 I3.9436 J-8.4884
G3 X244.8281 Y6.4688 I2.3341 J-2.6795
G3 X246.1042 Y3.5735 I4.1049 J0.0805
G3 X248.6953 Y1.7578 I6.853 J7.0228
G3 X258.3281 Y-0.1406 I8.9669 J20.1106
G3 X266.0625 Y0.5625 I-0.339 J46.6199
G3 X275.7656 Y3.0234 I-16.6645 J86.0653
G3 X284.2734 Y0.3516 I26.5172 J69.5551
G3 X290.7422 Y-0.4219 I7.0164 J31.245
G3 X304.2357 Y3.2297 I0.3238 J25.5603
G3 X314.1563 Y13.0781 I-17.2998 J27.3473
G3 X321.3553 Y30.0458 I-42.2182 J27.9234
G3 X323.2969 Y48.375 I-78.7225 J17.6063
G3 X322.8604 Y56.6966 I-65.6782 J0.7276
G0 Z5.0
G0 X255.3047 Y22.4297
G0 Z1.0
G1 F300.0 Z-5.0
G1 F2000.0 X254.1797 Y22.9219
G2 X248.88 Y14.221 I-55.4419 J27.8052
G2 X241.8047 Y6.8906 I-28.9153 J20.8295
G2 X226.1953 Y1.7578 I-15.2708 J20.1389
G2 X212.6674 Y4.8577 I-0.4352 J29.1686
G2 X202.2188 Y13.9922 I14.2225 J26.8119
G2 X195.1108 Y29.6953 I35.7218 J25.6296
G2 X193.2188 Y46.8281 I70.142 J16.4169
G2 X195.0038 Y62.0773 I61.4514 J0.5358
G2 X201.3047 Y76.0781 I41.6525 J-10.3271
G2 X209.8373 Y84.4472 I24.7054 J-16.6541
G2 X221.3438 Y87.6797 I11.3322 J-18.2428
G2 X233.2969 Y82.6875 I0.3329 J-16.0091
G2 X238.1484 Y70.3828 I-11.9749 J-11.8303
G2 X233.7188 Y58.7109 I-16.8652 J-0.2759
G2 X223.3125 Y53.8594 I-10.3864 J8.692
G2 X217.4766 Y55.8984 I-0.3952 J8.2399
G2 X215.2969 Y61.3125 I4.8937 J5.116
G2 X215.5781 Y63.7734 I10.7174 J0.0217
G2 X216.4219 Y66.2344 I13.5801 J-3.2809
G1 X211.9922 Y63.2109
G3 X210.5156 Y61.3125 I2.2425 J-3.2676
G3 X209.9531 Y58.1484 I7.6123 J-2.9853
G3 X212.4844 Y51.6797 I8.7671 J-0.299
G3 X219.0234 Y49.2188 I6.1945 J6.5416
G3 X226.4766 Y51.1875 I-0.3684 J16.4869
G3 X233.8594 Y56.8828 I-12.9982 J24.4824
G3 X240.1875 Y66.375 I-22.3447 J21.7519
G3 X242.3672 Y77.2031 I-25.2403 J10.7143
G3 X238.1484 Y87.8906 I-13.9481 J0.6706
G3 X232.8467 Y91.0132 I-9.4692 J-10.0152
G3 X226.7578 Y91.8984 I-5.8402 J-18.7877
G3 X213.9609 Y88.5234 I0.5102 J-27.8827
G3 X201.8672 Y79.0313 I19.9379 J-37.8527
G3 X188.9297 Y59.0625 I52.1071 J-47.9349
G3 X184.4297 Y37.7578 I50.0983 J-21.7094
G3 X186.9564 Y22.949 I41.7801 J-0.4913
G3 X195.1172 Y10.3359 I33.2102 J12.5407
G3 X207.6112 Y2.1458 I25.3295 J25.0152
G3 X222.3281 Y-0.4219 I14.2468 J38.1977
G3 X232.1651 Y0.7863 I0.3136 J38.0955
G3 X241.1719 Y4.9219 I-7.1889 J27.5324
G3 X249.2638 Y12.8479 I-21.4995 J30.0432
G3 X255.3047 Y22.4297 I-52.9986 J40.1082
G0 Z5.0
G0 X168.7345 Y25.5216
G0 Z1.0
G1 F300.0 Z-5.0
G3 F2000.0 X168.75 Y26.9297 I-28.5076 J1.0182
G3 X167.4415 Y34.895 I-22.9413 J0.3215
G3 X162.9844 Y41.625 I-16.3004 J-5.9545
G3 X155.6827 Y45.9059 I-12.919 J-13.6677
G3 X147.3047 Y47.1094 I-8.029 J-26.1304
G1 X145.8984
G3 X153.3703 Y51.0245 I-20.2733 J47.7787
G3 X159.8203 Y56.4609 I-15.8995 J25.4081
G3 X164.4609 Y68.5547 I-13.3141 J12.0461
G3 X162.1762 Y77.9452 I-19.5547 J0.2155
G3 X155.8125 Y85.2188 I-20.1469 J-11.2062
G3 X145.4414 Y90.4001 I-18.5821 J-24.2242
G3 X133.9453 Y91.8984 I-11.0956 J-40.2796
G3 X116.7891 Y89.0156 I-0.1659 J-51.5046
G3 X102.375 Y80.9297 I14.3387 J-42.4505
G3 X91.5469 Y68.3438 I30.545 J-37.2298
G3 X87.9609 Y54.9844 I23.647 J-13.5083
G3 X88.9546 Y47.9612 I23.1958 J-0.3001
G3 X92.5313 Y41.8359 I14.8658 J4.5736
G3 X98.3334 Y38.1692 I10.5095 J10.2058
G3 X105.1172 Y37.125 I6.4971 J19.6518
G3 X113.0625 Y38.8828 I0.0978 J18.3931
G3 X120.0938 Y44.0859 I-9.8291 J20.635
G1 X119.9531 Y45.3516
G2 X114.5391 Y41.9063 I-14.0633 J16.1228
G2 X109.4063 Y40.7813 I-5.2668 J11.7581
G2 X103.9308 Y42.1167 I-0.1297 J11.3608
G2 X99.7031 Y45.8438 I6.5053 J11.6405
G2 X96.7448 Y52.0751 I14.8806 J10.8823
G2 X95.9063 Y58.9219 I25.5144 J6.5997
G2 X99.0703 Y71.5078 I27.3919 J-0.1956
G2 X108.1406 Y82.6875 I32.3868 J-17.0068
G2 X118.4766 Y88.2422 I19.4098 J-23.7233
G2 X131.0625 Y90.4219 I12.7677 J-36.2967
G2 X140.9821 Y88.9645 I0.3928 J-31.8148
G2 X149.625 Y83.8828 I-6.9798 J-21.7618
G2 X155.0202 Y76.0367 I-14.0278 J-15.424
G2 X156.6563 Y66.6563 I-24.0419 J-9.026
G2 X152.4375 Y53.4375 I-20.5565 J-0.722
G2 X147.1084 Y48.9362 I-14.0929 J11.2793
G2 X140.5547 Y46.5469 I-11.1053 J20.2781
G1 Y45.2109
G1 X141.5391
G2 X155.25 Y38.6719 I0.5273 J-16.5384
G2 X159.2884 Y30.3495 I-18.0633 J-13.906
G2 X160.3828 Y21.1641 I-34.8191 J-8.8067
G2 X159.4688 Y13.6723 I-29.1074 J-0.2504
G2 X156.3047 Y6.8203 I-20.5349 J5.326
G2 X152.1031 Y2.7277 I-12.3844 J8.511
G2 X146.4609 Y1.125 I-5.5762 J8.8978
G2 X142.2422 Y2.5313 I-0.3165 J6.0818
G2 X140.6953 Y6.3281 I3.4721 J3.6281
G2 X141.1172 Y8.6484 I6.2032 J0.0706
G2 X142.6641 Y11.1094 I10.6315 J-4.966
G1 X139.7813 Y12.5156
G3 X139.2891 Y12.7266 I-0.855 J-1.3154
G3 X138.7969 Y12.7969 I-0.5396 J-2.0191
G3 X136.5469 Y11.5313 I0.045 J-2.7128
G3 X135.6328 Y8.3672 I4.2063 J-2.9292
G3 X138.5859 Y2.3203 I7.7304 J0.0307
G3 X146.0391 Y-0.1406 I7.0991 J8.9836
G3 X154.8715 Y2.0979 I0.0696 J18.2692
G3 X161.8594 Y7.9453 I-12.2022 J21.6813
G3 X168.7345 Y25.5216 I-21.6325 J18.5945
G0 Z5.0
G0 X137.6943 Y29.2958
G0 Z1.0
G1 F300.0 Z-5.0
G3 F2000.0 X137.9531 Y33.9609 I-35.3875 J4.3028
G3 X137.1094 Y46.2656 I-172.6637 J-5.6585
G2 X136.3359 Y60.8906 I182.0466 J16.9604
G2 X138.0234 Y73.0547 I39.4335 J0.7285
G2 X143.1563 Y81.0703 I17.1522 J-5.3322
G1 X142.5234 Y81.9141
G3 X131.4141 Y67.4297 I21.5058 J-27.9973
G3 X128.7293 Y56.8283 I42.0712 J-16.2952
G3 X128.0391 Y45.9141 I79.2345 J-10.4897
G3 X128.25 Y35.7891 I274.8849 J0.6621
G2 X128.4609 Y29.1094 I-381.6361 J-15.3948
G2 X127.2966 Y18.0791 I-47.5039 J-0.5622
G2 X122.4844 Y8.0859 I-23.1463 J4.9909
G2 X114.2975 Y2.6016 I-14.1058 J12.2041
G2 X104.5547 Y1.125 I-9.2624 J28.2338
G2 X100.3695 Y1.5252 I-0.1847 J20.1534
G2 X96.4688 Y3.0938 I2.1634 J11.0143
G2 X93.5859 Y8.6484 I3.5656 J5.3759
G2 X94.8516 Y12.5859 I6.7874 J-0.0095
G2 X99.2109 Y16.875 I16.4324 J-12.3418
G1 X93.7266 Y19.125
G3 X93.4453 Y19.2656 I-0.5016 J-0.6517
G3 X92.9332 Y19.3786 I-0.9442 J-3.0635
G3 X94.6406 Y22.4297 I-57.5996 J34.2367
G1 X93.3047 Y22.9219
G2 X91.2228 Y19.1492 I-56.8606 J28.9169
G3 X88.9453 Y17.3672 I1.5106 J-4.2769
G3 X87.4327 Y13.5166 I6.0821 J-4.6116
G2 X82.0547 Y7.7344 I-33.3956 J25.6688
G2 X76.4966 Y3.9354 I-17.158 J19.1377
G2 X69.9609 Y2.3203 I-6.7382 J13.2356
G2 X66.5156 Y4.0781 I-0.3227 J3.6229
G2 X65.6833 Y7.4035 I8.6095 J3.9217
G2 X65.5313 Y10.8281 I33.8909 J3.2206
G1 Y53.5781
G3 X70.9397 Y57.1493 I-16.4704 J30.8245
G3 X75.375 Y61.875 I-14.2232 J17.7937
G3 X78.6094 Y72.7031 I-15.4425 J10.5098
G3 X76.716 Y80.5052 I-16.2836 J0.1791
G3 X71.4375 Y86.5547 I-16.7549 J-9.292
G3 X62.9181 Y90.905 I-15.515 J-19.8666
G3 X53.4375 Y92.1797 I-9.1607 J-32.2401
G3 X38.1094 Y88.875 I0.1999 J-38.1278
G3 X25.0313 Y79.8047 I16.1944 J-37.3137
G3 X11.6719 Y59.2734 I45.1655 J-44.0005
G3 X7.1719 Y34.7344 I61.3843 J-23.9388
G3 X8.5739 Y21.5668 I57.4226 J-0.5444
G3 X13.8516 Y9.4219 I34.0552 J7.5798
G3 X21.4945 Y2.4234 I18.7315 J12.7837
G3 X31.5703 Y0.0 I9.7602 J18.4224
G3 X44.5078 Y3.3047 I-0.0323 J27.1034
G3 X56.8828 Y13.5 I-23.4581 J41.0813
G3 X57.4553 Y8.2504 I27.2696 J0.3176
G3 X59.4844 Y3.375 I13.0573 J2.5745
G3 X62.6439 Y0.7813 I6.373 J4.542
G3 X66.6563 Y0.0 I3.8324 J8.9879
G3 X74.6424 Y1.5895 I-0.0503 J21.1107
G3 X81.6328 Y5.7656 I-10.9386 J26.2483
G3 X87.4328 Y11.5078 I-27.765 J33.845
G3 X88.6285 Y7.3346 I10.9439 J0.8777
G3 X92.1094 Y3.3047 I10.9801 J5.966
G3 X97.9684 Y0.5053 I10.1435 J13.6991
G3 X104.4141 Y-0.2813 I6.2059 J24.0518
G3 X128.25 Y9.6328 I0.6498 J32.0486
G3 X135.5812 Y20.8079 I-23.667 J23.5187
G3 X137.6943 Y29.2958 I-33.2744 J12.7908
G0 Z5.0
M5
M30
