( Made using CamBam - http://www.cambam.co.uk )
( Untitled 1/2/2014 3:29:43 PM )
( T0 : 0.0 )
G21 G90 G64 G40
G0 Z3.0
( T0 : 0.0 )
T0 M6
( Profile1 )
G17
M3 S1000
G0 X5.3203 Y45.8789
G0 Z3.0
G1 F300.0 Z0.0
G1 F800.0 X11.5078
G2 X15.9627 Y45.4219 I0.2102 J-19.8925
G2 X20.0508 Y43.5938 I-2.1919 J-10.3865
G2 X22.3668 Y40.755 I-4.2233 J-5.8098
G2 X23.0742 Y37.1602 I-7.9924 J-3.4397
G2 X22.328 Y33.4244 I-8.935 J-0.1575
G2 X19.9102 Y30.4805 I-6.8528 J3.1632
G2 X15.5899 Y28.623 I-6.5981 J9.3932
G2 X10.9102 Y28.1602 I-4.4609 J21.2156
G1 X5.3203
G1 Y45.8789
G0 Z3.0
G0 Y23.9766
G1 F300.0 Z0.0
G1 F800.0 X11.6484
G2 X16.6641 Y23.4976 I0.2544 J-23.8386
G2 X21.2813 Y21.4805 I-2.144 J-11.2003
G2 X23.8063 Y18.1479 I-4.6228 J-6.1256
G2 X24.5156 Y14.0273 I-10.4365 J-3.9178
G2 X20.8945 Y6.8555 I-8.2881 J-0.3154
G2 X15.9499 Y4.8268 I-7.4902 J11.2158
G2 X10.6289 Y4.3242 I-5.0724 J25.2864
G1 X5.3203
G1 Y23.9766
G0 Z3.0
G0 X0.6797
G1 F300.0 Z0.0
G1 F800.0 Y0.0
G1 X12.0
G3 X18.7199 Y0.7616 I0.2936 J27.4372
G3 X24.832 Y3.6563 I-3.7854 J15.8932
G3 X28.3741 Y8.0649 I-7.3132 J9.5029
G3 X29.5078 Y13.6055 I-11.9777 J5.3372
G3 X28.8987 Y17.9968 I-14.9978 J0.1577
G3 X26.8008 Y21.9023 I-10.5922 J-3.1736
G3 X23.1919 Y24.8327 I-9.4321 J-7.9285
G3 X18.8555 Y26.5078 I-8.9015 J-16.5935
G3 X22.6088 Y27.9772 I-3.7369 J15.0734
G3 X25.7109 Y30.5508 I-5.2315 J9.4625
G3 X27.5234 Y33.9282 I-7.7517 J6.3349
G3 X28.0664 Y37.7227 I-12.1327 J3.6723
G3 X23.6367 Y46.6875 I-10.5332 J0.3722
G3 X17.8319 Y49.2856 I-9.1998 J-12.771
G3 X11.5078 Y49.957 I-6.0436 J-26.804
G1 X0.6797
G1 Y23.9766
G0 Z3.0
M5
M30
