( Made using CamBam - http://www.cambam.co.uk )
( body_girl_A3 1/3/2014 4:20:55 PM )
( T0 : 0.0 )
G21 G90 G64 G40
G0 Z3.0
( T0 : 0.0 )
T0 M6
( Profile2 )
G17
M3 S1000
G0 X62.7935 Y177.1844
G0 Z1.4
G1 F300.0 Z0.0
G1 F800.0 X62.5818 Y177.3582
G1 X62.3492 Y177.545
G2 X62.7927 Y177.185 I-35.5973 J-44.3126
G1 X62.7935 Y177.1844
G0 Z3.0
G0 X51.4303 Y181.3104
G0 Z1.4
G1 F300.0 Z0.0
G2 F800.0 X51.3872 Y181.2272 I-0.341 J0.1238
G2 X51.2965 Y181.1235 I-0.3959 J0.2549
G2 X51.2843 Y181.1131 I-0.5006 J0.5738
G2 X51.2414 Y181.0797 I-0.3852 J0.4508
G2 X51.2392 Y181.0782 I-0.4791 J0.6809
G2 X51.0598 Y180.983 I-0.4434 J0.6191
G2 X50.601 Y180.8454 I-1.0815 J2.7717
G2 X50.4879 Y180.8203 I-1.1441 J4.8905
G2 X50.2459 Y180.7724 I-1.5439 J7.1643
G3 X50.2413 Y180.7716 I1.6 J-8.7236
G1 X50.2358 Y180.7705
G1 X49.9571 Y180.7166
G3 X49.9405 Y180.7132 I1.1792 J-5.8967
G3 X49.9395 Y180.713 I0.1353 J-0.5528
G1 X49.7985 Y180.6826
G2 X49.4057 Y180.717 I0.0126 J2.402
G2 X49.3833 Y180.7207 I0.4384 J2.744
G2 X49.1742 Y180.7686 I0.3015 J1.7959
G2 X48.8499 Y180.8981 I0.4581 J1.6182
G2 X48.3343 Y181.318 I0.7588 J1.4583
G2 X48.236 Y181.4483 I1.3766 J1.1406
G2 X48.1691 Y181.5515 I1.849 J1.272
G2 X48.0319 Y181.8124 I1.8849 J1.158
G1 X47.9336 Y182.0244
G2 X47.7079 Y182.5148 I19.5265 J9.2843
G2 X47.6775 Y182.5836 I0.9952 J0.4809
G2 X47.6061 Y182.7514 I6.2028 J2.7384
G1 X47.606 Y182.7516
G2 X47.4838 Y183.073 I6.2132 J2.5471
G2 X47.4546 Y183.2989 I0.6521 J0.199
G2 X47.4904 Y183.5023 I0.7205 J-0.0218
G2 X47.5544 Y183.6327 I0.4356 J-0.133
G2 X47.6003 Y183.6692 I0.1093 J-0.0901
G2 X47.6372 Y183.6846 I0.0869 J-0.1562
G2 X47.7216 Y183.705 I0.129 J-0.3488
G2 X47.813 Y183.7126 I0.0897 J-0.5315
G2 X47.8384 I0.013 J-0.678
G2 X47.9401 Y183.7033 I0.0072 J-0.4828
G2 X48.0484 Y183.668 I-0.0591 J-0.365
G1 X48.4459 Y183.4458
G1 X48.6868 Y183.3103
G1 X48.9465 Y183.1649
G1 X49.0963 Y183.08
G1 X49.1404 Y183.0553
G2 X49.4 Y182.9074 I-6.1366 J-11.0801
G2 X49.6267 Y182.7772 I-4.1909 J-7.5552
G2 X49.8245 Y182.6624 I-3.4056 J-6.0978
G2 X49.9973 Y182.5612 I-2.9607 J-5.2526
G2 X50.1481 Y182.4721 I-2.6672 J-4.6841
G2 X50.2797 Y182.3936 I-2.4549 J-4.2664
G2 X50.3946 Y182.3245 I-2.2911 J-3.9414
G2 X50.5951 Y182.2026 I-3.018 J-5.191
G2 X50.745 Y182.1103 I-2.723 J-4.589
G2 X50.9688 Y181.9703 I-3.5213 J-5.8806
G2 X51.1914 Y181.8285 I-4.0752 J-6.6374
G2 X51.3379 Y181.7056 I-0.3121 J-0.5209
G2 X51.393 Y181.6328 I-0.4723 J-0.4143
G2 X51.4303 Y181.3104 I-0.3037 J-0.1985
G0 Z3.0
G0 X51.9376 Y182.5838
G0 Z1.4
G1 F300.0 Z0.0
G1 F800.0 X51.1684 Y183.0277
G1 X51.1577 Y183.034
G1 X50.856 Y183.2079
G1 X50.5166 Y183.4049
G1 X50.0156 Y183.6948
G2 X49.9436 Y183.7368 I0.4033 J0.7744
G1 X49.7987 Y183.8215
G1 X49.7759 Y183.8348
G2 X49.4643 Y184.0172 I29.9147 J51.4516
G2 X48.8687 Y184.3723 I29.0616 J49.4215
G2 X48.7891 Y184.453 I0.1325 J0.2103
G2 X48.76 Y184.5047 I0.5365 J0.3362
G2 X48.7374 Y184.5538 I0.6137 J0.3116
G2 X48.6927 Y184.7732 I0.5734 J0.2313
G2 X48.714 Y184.8167 I0.073 J-0.0088
G2 X48.7495 Y184.8497 I0.1497 J-0.1253
G2 X48.7678 Y184.863 I0.3784 J-0.5016
G2 X48.8398 Y184.9067 I0.2788 J-0.378
G2 X49.0072 Y184.9619 I0.2426 J-0.4537
G2 X49.146 Y184.9587 I0.0497 J-0.8439
G2 X49.2922 Y184.9313 I-0.0901 J-0.8846
G2 X49.3644 Y184.9104 I-0.2535 J-1.0104
G2 X49.5436 Y184.8447 I-0.8156 J-2.5022
G2 X49.5963 Y184.8225 I-0.9166 J-2.2517
G2 X49.597 Y184.8222 I-1.578 J-3.5256
G2 X49.7672 Y184.741 I-1.0482 J-2.4141
G2 X49.783 Y184.7329 I-1.7489 J-3.4441
G2 X49.7935 Y184.7275 I-0.5148 J-1.0114
G2 X50.1278 Y184.5326 I-1.7752 J-3.4306
G2 X50.1509 Y184.5177 I-3.4805 J-5.4222
G2 X50.444 Y184.3162 I-2.8929 J-4.5195
G2 X50.5062 Y184.2702 I-3.7967 J-5.2058
G2 X51.0891 Y183.7781 I-3.7553 J-5.0396
G2 X51.3821 Y183.4788 I-3.2782 J-3.5022
G2 X51.527 Y183.3095 I-3.0934 J-2.7939
G2 X51.6114 Y183.203 I-3.7161 J-3.0336
G2 X51.8128 Y182.896 I-1.7411 J-1.3617
G2 X51.835 Y182.8546 I-1.976 J-1.0864
G2 X51.862 Y182.7999 I-1.0576 J-0.5554
G2 X51.9376 Y182.5838 I-0.9635 J-0.4584
G0 Z3.0
G0 X46.7929 Y182.1755
G0 Z1.4
G1 F300.0 Z0.0
G2 F800.0 X46.7972 Y182.1176 I-5.5239 J-0.4383
G2 X46.8154 Y181.7856 I-5.2183 J-0.4529
G2 X46.8041 Y181.7677 I-0.0269 J0.0045
G2 X46.8038 Y181.7674 I-0.0224 J0.0267
G2 X46.7901 Y181.757 I-0.1848 J0.2284
G1 X46.7872 Y181.7548
G2 X46.7617 Y181.739 I-0.1167 J0.1603
G2 X46.743 Y181.7295 I-0.1427 J0.2568
G2 X46.6757 Y181.7001 I-0.2181 J0.4082
G2 X46.6242 Y181.6809 I-0.1705 J0.3792
G2 X46.4492 Y181.6318 I-0.3879 J1.0455
G2 X46.3274 Y181.615 I-0.1624 J0.7285
G2 X46.2539 Y181.6155 I-0.0346 J0.3055
G2 X46.1863 Y181.6321 I0.0239 J0.2438
G2 X46.0323 Y181.7394 I0.2425 J0.5124
G2 X46.0129 Y181.7584 I0.444 J0.4732
G2 X45.8949 Y181.8951 I0.7727 J0.7861
G1 X45.8946 Y181.8955
G2 X45.7789 Y182.0505 I6.8151 J5.2084
G1 X45.6622 Y182.2068
G1 X45.6295 Y182.2481
G1 X45.5893 Y182.2968
G1 X45.7663 Y182.5797
G1 X45.7994 Y182.6328
G1 X45.8318 Y182.6841
G1 X45.9435 Y182.8624
G2 X46.3128 Y183.4182 I9.1498 J-5.6784
G2 X46.3293 Y183.4229 I0.0158 J-0.024
G2 X46.3337 Y183.4228 I0.0009 J-0.0346
G2 X46.3517 Y183.421 I0.0016 J-0.0791
G2 X46.3901 Y183.4138 I-0.0351 J-0.2899
G2 X46.4559 Y183.3956 I-0.1047 J-0.507
G2 X46.4714 Y183.3904 I-0.208 J-0.6467
G2 X46.505 Y183.3786 I-0.1581 J-0.5064
G2 X46.525 Y183.3704 I-0.0587 J-0.1712
G2 X46.5429 Y183.3622 I-0.2117 J-0.4864
G2 X46.5888 Y183.3379 I-0.1305 J-0.3014
G2 X46.599 Y183.331 I-0.1832 J-0.2818
G2 X46.6042 Y183.3276 I-0.2857 J-0.447
G2 X46.6173 Y183.317 I-0.0393 J-0.0617
G2 X46.6328 Y183.2931 I-0.0391 J-0.0425
G2 X46.7264 Y182.7341 I-11.3846 J-2.1932
G2 X46.7644 Y182.4485 I-11.9477 J-1.7355
G2 X46.7929 Y182.1755 I-5.4954 J-0.7113
G0 Z3.0
G0 X46.0965 Y192.1721
G0 Z1.4
G1 F300.0 Z0.0
G1 F800.0 X45.4043 Y192.1239
G2 X44.9633 Y192.0932 I-3.6151 J48.754
G2 X44.6326 Y192.0702 I-2.0122 J26.5262
G2 X44.3845 Y192.0529 I-1.4504 J19.051
G2 X44.0125 Y192.027 I-1.5921 J20.1929
G3 X44.0109 Y192.0269 I1.0467 J-17.7279
G1 X43.6404 Y192.0011
G2 X43.6282 Y192.1686 I4.5569 J0.4159
G2 X43.6163 Y192.336 I7.9926 J0.6536
G1 X47.1434 Y192.593
G1 X47.1682 Y192.2468
G1 X46.0965 Y192.1721
G0 Z3.0
G0 X74.8867 Y160.9695
G0 Z1.4
G1 F300.0 Z0.0
G2 F800.0 X74.9082 Y160.9845 I0.0657 J-0.0712
G2 X74.9459 Y161.0022 I0.1288 J-0.2258
G2 X75.0004 Y161.0183 I0.1203 J-0.3057
G2 X75.2933 Y161.0366 I0.2035 J-0.9053
G1 X75.4267 Y161.0227
G3 X75.4328 Y161.0222 I0.3901 J4.3962
G2 X75.5723 Y161.0078 I-0.4507 J-5.0381
G2 X75.8514 Y160.9787 I-0.8715 J-9.7117
G1 X75.882 Y160.9753
G1 X75.9412 Y160.9692
G2 X76.1841 Y160.9431 I-1.4885 J-15.0093
G2 X76.3965 Y160.9196 I-0.7708 J-7.9418
G2 X76.5823 Y160.8984 I-0.597 J-6.0511
G2 X76.7449 Y160.8792 I-0.5176 J-5.085
G2 X77.8795 Y160.7224 I-2.8091 J-24.5123
G2 X78.0533 Y160.6636 I-0.1059 J-0.599
G2 X78.0657 Y160.6572 I-0.3035 J-0.6105
G2 X78.1655 Y160.5989 I-0.4121 J-0.8188
G2 X78.2588 Y160.5342 I-0.8032 J-1.2574
G1 X78.2654 Y160.5294
G1 X78.2681 Y160.5274
G3 X78.2723 Y160.5243 I2.7589 J3.6602
G1 X78.3732 Y160.4506
G3 X78.3754 Y160.449 I2.3822 J3.3371
G3 X78.5292 Y160.3445 I2.6516 J3.7386
G1 X78.4974 Y160.3139
G3 X78.4783 Y160.295 I1.3214 J-1.351
G3 X78.4749 Y160.2912 I0.4091 J-0.3702
G3 X78.4228 Y160.2357 I1.0525 J-1.041
G3 X78.3987 Y160.2098 I3.0582 J-2.8645
G3 X78.3843 Y160.1932 I1.42 J-1.2469
G2 X78.267 Y160.0654 I-1.6839 J1.4268
G2 X78.2509 Y160.0492 I-1.0739 J1.0589
G1 X78.2499 Y160.0483
G2 X78.2131 Y160.0129 I-1.5495 J1.5718
G2 X78.2067 Y160.0068 I-0.4922 J0.5133
G2 X78.1658 Y159.9713 I-0.2856 J0.2884
G2 X78.1156 Y159.9346 I-0.4449 J0.5549
G2 X78.0042 Y159.878 I-0.3018 J0.4563
G2 X77.9194 Y159.8491 I-1.1279 J3.1682
G2 X77.7487 Y159.7966 I-1.3926 J4.2221
G2 X77.4903 Y159.7245 I-2.6652 J9.0497
G1 X77.317 Y159.6804
G1 X77.305 Y159.6776
G2 X77.2301 Y159.6593 I-2.6983 J10.8891
G1 X77.0778 Y159.6236
G3 X76.9973 Y159.6058 I4.272 J-19.5139
G1 X76.6207 Y159.5178
G2 X76.3387 Y159.534 I0.0257 J2.9238
G2 X76.1725 Y159.5561 I0.3118 J2.982
G2 X76.0614 Y159.5767 I0.3087 J1.9659
G2 X75.7376 Y159.6761 I0.3702 J1.7836
G2 X75.7365 Y159.6766 I0.6154 J1.5224
G2 X75.3385 Y159.9073 I0.5966 J1.4876
G2 X75.0317 Y160.2236 I1.0145 J1.2912
G2 X74.8871 Y160.4398 I1.5828 J1.215
G2 X74.8409 Y160.5591 I0.4233 J0.2324
G2 X74.8239 Y160.6899 I0.5267 J0.1352
G2 X74.8251 Y160.7637 I0.611 J0.027
G2 X74.8671 Y160.9443 I0.5305 J-0.0284
G2 X74.8867 Y160.9695 I0.0853 J-0.0461
G0 Z3.0
G0 X77.8581 Y155.4788
G0 Z1.4
G1 F300.0 Z0.0
G3 F800.0 X78.0913 Y155.5028 I-0.2048 J3.1316
G3 X78.1016 Y155.5045 I-0.324 J1.9929
G1 X78.1432 Y155.5106
G3 X78.151 Y155.5118 I-0.4899 J3.0998
G2 X78.277 Y155.5302 I0.4705 J-2.7795
G2 X78.4479 Y155.5461 I0.2177 J-1.4212
G2 X78.5164 Y155.5469 I0.0412 J-0.6011
G2 X78.5769 Y155.5436 I0.0019 J-0.5241
G2 X78.748 Y155.4938 I-0.0513 J-0.4957
G2 X80.1516 Y154.4966 I-3.2307 J-6.0341
G2 X80.1521 Y154.4962 I-4.9932 J-5.3834
G2 X80.5587 Y154.0895 I-4.6432 J-5.0484
G2 X80.6906 Y153.9411 I-5.749 J-5.2428
G2 X81.268 Y153.1858 I-5.5322 J-4.8278
G2 X81.8393 Y152.1893 I-7.0483 J-4.7025
G2 X81.8795 Y152.1037 I-1.2899 J-0.6585
G2 X81.9173 Y152.017 I-0.8693 J-0.4306
G1 X81.9276 Y151.9909
G2 X82.0265 Y151.7338 I-4.3838 J-1.8334
G2 X82.1112 Y151.4843 I-6.7267 J-2.422
G1 X82.1564 Y151.3503
G1 X82.24 Y151.1099
G1 X82.202 Y151.0748
G3 X82.2018 Y151.0745 I0.2912 J-0.2765
G1 X82.0873 Y150.9687
G1 X81.9599 Y151.0691
G3 X81.9242 Y151.0969 I-11.376 J-14.5657
G1 X81.7257 Y151.2497
G3 X81.7034 Y151.2664 I-2.3688 J-3.1547
G2 X81.4159 Y151.488 I6.9461 J9.3087
G2 X81.3703 Y151.5245 I0.6677 J0.8813
G2 X81.361 Y151.532 I7.2792 J9.0506
G2 X81.31 Y151.5732 I0.5971 J0.7893
G2 X81.1201 Y151.7328 I2.5849 J3.2709
G2 X81.0275 Y151.8154 I0.97 J1.1801
G2 X80.937 Y151.9002 I1.66 J1.8607
G2 X80.7855 Y152.0465 I6.5633 J6.9534
G2 X80.6341 Y152.1929 I7.4402 J7.8407
G2 X80.332 Y152.4866 I13.4588 J14.1469
G1 X80.284 Y152.5338
G1 X80.235 Y152.5814
G2 X79.7122 Y153.096 I29.9233 J30.9192
G2 X79.5171 Y153.2901 I10.7522 J11.0035
G2 X78.1716 Y154.6678 I44.5976 J44.8976
G2 X78.068 Y154.8182 I0.4761 J0.4389
G2 X78.0234 Y154.9224 I0.6617 J0.345
G2 X78.0229 Y154.9239 I2.9512 J1.0342
G2 X77.9948 Y155.006 I1.2866 J0.4864
G1 X77.9857 Y155.0355
G1 X77.982 Y155.0494
G2 X77.9392 Y155.2047 I2.9927 J0.9072
G1 X77.9234 Y155.2641
G1 X77.8941 Y155.3692
G1 X77.8581 Y155.4788
G0 Z3.0
G0 X82.6537 Y148.1582
G0 Z1.4
G1 F300.0 Z0.0
G2 F800.0 X82.824 Y147.9061 I-0.9383 J-0.8173
G2 X82.8687 Y147.8149 I-0.8522 J-0.4739
G2 X83.0097 Y147.4351 I-2.4415 J-1.1226
G2 X83.032 Y147.3583 I-4.8046 J-1.438
G2 X83.0839 Y147.1588 I-4.7856 J-1.3527
G2 X83.1532 Y146.8232 I-4.6926 J-1.1433
G2 X83.2276 Y146.3012 I-8.3509 J-1.4566
G2 X83.2782 Y145.4998 I-8.2414 J-0.9231
G2 X83.2789 Y145.4443 I-8.476 J-0.1332
G2 X83.2791 Y145.4208 I-0.1868 J-0.0132
G2 Y145.4134 I-8.4768 J-0.0543
G2 X83.2793 Y145.3966 I-7.0957 J-0.0636
G2 X83.2572 Y144.7884 I-6.3723 J-0.0731
G2 X83.2441 Y144.6423 I-7.0738 J0.5614
G2 X83.22 Y144.453 I-2.5582 J0.2293
G2 X83.2111 Y144.3964 I-0.9365 J0.1189
G2 X83.1626 Y144.1562 I-2.3605 J0.3511
G2 X83.0733 Y143.8823 I-1.4809 J0.3312
G2 X83.0168 Y143.8827 I-0.0194 J1.1995
G2 X82.9744 Y143.883 I-0.0161 J0.6204
G1 X82.8473 Y143.8842
G1 X82.8231 Y144.4184
G1 X82.6537 Y148.1582
G0 Z3.0
G0 X57.57 Y135.6527
G0 Z1.4
G1 F300.0 Z0.0
G2 F800.0 X57.5792 Y135.6332 I-0.484 J-0.2413
G2 X57.5802 Y135.631 I-0.8971 J-0.3879
G2 X57.6241 Y135.506 I-0.6158 J-0.2865
G3 X58.3937 Y133.5928 I8.644 J2.3659
G3 X59.5785 Y131.9047 I8.1964 J4.4927
G2 X59.685 Y131.7517 I-0.5121 J-0.4701
G2 X59.6935 Y131.7352 I-0.6928 J-0.3688
G2 X59.7053 Y131.7087 I-0.3489 J-0.171
G2 X59.7323 Y131.5901 I-0.2799 J-0.1261
G2 X59.7327 Y131.5827 I-0.3876 J-0.0259
G2 X59.7182 Y131.4904 I-0.2779 J-0.0036
G2 X59.7159 Y131.4834 I-0.2928 J0.0922
G2 X59.7139 Y131.4783 I-0.2951 J0.1183
G2 X59.6485 Y131.3798 I-0.259 J0.1008
G2 X59.6229 Y131.3562 I-0.2277 J0.2219
G2 X59.5937 Y131.3338 I-0.4363 J0.5394
G2 X59.4444 Y131.2515 I-0.3763 J0.506
G3 X59.3312 Y131.1965 I0.2845 J-0.7303
G3 X59.2156 Y131.1121 I0.3842 J-0.6474
G3 X59.2074 Y131.1049 I0.167 J-0.1983
G3 X59.133 Y130.9839 I0.2235 J-0.2209
G3 X59.1293 Y130.8584 I0.2496 J-0.0701
G3 X59.1504 Y130.7993 I0.3957 J0.108
G3 X59.192 Y130.7269 I0.4119 J0.1885
G3 X59.2182 Y130.6942 I0.333 J0.2394
G3 X59.3993 Y130.5377 I0.6282 J0.5442
G2 X59.527 Y130.4409 I-0.502 J-0.7949
G2 X59.6215 Y130.3423 I-0.4134 J-0.4908
G2 X59.6288 Y130.3334 I-0.7243 J-0.5995
G2 X59.734 Y130.0499 I-0.386 J-0.3045
G2 X59.7347 Y130.0219 I-0.5139 J-0.0263
G2 X59.7249 Y129.8989 I-0.6754 J-0.0081
G2 X59.7157 Y129.8507 I-0.7778 J0.1228
G2 X59.6937 Y129.759 I-1.0206 J0.1967
G1 X59.6809 Y129.714
G2 X59.6713 Y129.68 I-3.1803 J0.883
G1 X59.6703 Y129.6766
G1 X59.67 Y129.6755
G2 X59.6399 Y129.5776 I-3.1693 J0.9215
G1 X59.5943 Y129.4313
G3 X59.4675 Y128.9438 I7.241 J-2.1439
G3 X59.4564 Y128.893 I4.3214 J-0.9687
G3 X59.4202 Y128.6959 I5.3784 J-1.0909
G3 X59.4035 Y128.5925 I3.816 J-0.6685
G3 X59.3657 Y128.1948 I4.3854 J-0.6173
G3 X59.3656 Y128.1936 I2.8649 J-0.1623
G3 X59.363 Y127.9423 I3.8706 J-0.1661
G3 X59.4227 Y127.4409 I2.8429 J0.0844
G3 X60.0396 Y125.4852 I11.9767 J2.7027
G3 X60.7027 Y124.0985 I12.8929 J5.3129
G3 X61.1433 Y123.3486 I14.1486 J7.8084
G3 X61.9398 Y122.1886 I14.5902 J9.1656
G3 X61.9416 Y122.1862 I1.0953 J0.7643
G3 X61.9568 Y122.166 I12.9097 J9.7208
G3 X62.1472 Y121.9169 I17.6243 J13.2746
G3 X63.2641 Y120.5894 I17.4852 J13.5788
G1 X63.437 Y120.4007
G1 X63.8252 Y119.9764
G2 X63.9538 Y119.8342 I-3.3224 J-3.1352
G2 X64.0272 Y119.7529 I-2.7359 J-2.5408
G2 X64.111 Y119.6598 I-3.151 J-2.9194
G2 X64.2066 Y119.5533 I-3.7405 J-3.4548
G2 X64.3157 Y119.4315 I-4.6901 J-4.3135
G2 X64.4404 Y119.2922 I-6.6789 J-6.1036
G1 X64.6948 Y119.0079
G1 X65.288 Y118.3495
G1 X65.4733 Y118.1463
G1 X65.742 Y117.8557
G3 X66.4078 Y117.159 I30.1244 J28.1242
G3 X66.8678 Y116.7022 I15.3845 J15.0301
G3 X67.3041 Y116.2933 I15.3944 J15.9881
G2 X67.5648 Y116.0515 I-7.8517 J-8.7277
G2 X67.7493 Y115.8713 I-4.0266 J-4.3058
G2 X67.9887 Y115.6119 I-2.9159 J-2.9316
G2 X68.2464 Y115.2678 I-2.2145 J-1.9274
G2 X68.3487 Y115.0946 I-2.0656 J-1.3373
G2 X68.5291 Y114.666 I-2.1287 J-1.1477
G2 X68.5297 Y114.6638 I-2.7025 J-0.832
G2 X68.5328 Y114.6539 I-2.3489 J-0.7334
G2 X68.6501 Y113.9866 I-2.7022 J-0.819
G3 X68.7367 Y113.634 I1.0698 J0.0757
G3 X68.7401 Y113.6261 I0.972 J0.4256
G3 X68.8967 Y113.3645 I1.2104 J0.5467
G3 X68.9152 Y113.3412 I1.0105 J0.7825
G3 X68.9814 Y113.2649 I1.4149 J1.1607
G3 X69.2378 Y113.0336 I1.4199 J1.3159
G3 X69.3394 Y112.9632 I1.0923 J1.4683
G3 X69.951 Y112.6816 I1.2876 J1.9918
G3 X69.9681 Y112.6767 I0.634 J2.1745
G3 X69.9791 Y112.6734 I0.6115 J2.0461
G3 X70.1236 Y112.6373 I0.6479 J2.2815
G3 X70.3523 Y112.5994 I0.4549 J2.0379
G3 X70.6066 Y112.5874 I0.2273 J2.1234
G3 X70.9728 Y112.6341 I-0.0237 J1.6474
G3 X71.1009 Y112.6927 I-0.1315 J0.4567
G3 X71.123 Y112.7078 I-0.509 J0.7689
G3 X71.1885 Y112.7588 I-0.5102 J0.7221
G1 X71.3075 Y112.8667
G1 X71.3097 Y112.8686
G1 X71.3208 Y112.8789
G2 X71.3366 Y112.8931 I2.1265 J-2.3651
G1 X71.367 Y112.9206
G1 X71.4113 Y112.9573
G2 X71.4289 Y112.9718 I2.036 J-2.4434
G2 X71.3977 Y113.0092 I0.6884 J0.6067
G1 X71.3677 Y113.0476
G1 X71.3446 Y113.0786
G2 X71.2786 Y113.1662 I4.4207 J3.4038
G3 X71.1849 Y113.2756 I-1.3926 J-1.0963
G3 X71.082 Y113.3555 I-0.3669 J-0.3669
G3 X70.7616 Y113.5229 I-3.7023 J-6.6922
G1 X70.5175 Y113.6412
G2 X70.3174 Y113.737 I6.5303 J13.8959
G2 X70.1469 Y113.8213 I3.3064 J6.9039
G2 X70.0611 Y113.8654 I0.5265 J1.1291
G2 X69.9936 Y113.901 I0.4808 J0.9937
G2 X69.8933 Y113.9559 I0.6652 J1.3337
G2 X69.7942 Y114.0131 I1.0896 J2.0017
G2 X69.6125 Y114.1736 I0.4437 J0.6854
G2 X69.5625 Y114.2378 I0.6629 J0.5675
G2 X69.5294 Y114.2881 I0.5776 J0.416
G2 X69.4784 Y114.4006 I0.3582 J0.2303
G2 X69.4766 Y114.4748 I0.1276 J0.0402
G2 X69.5549 Y114.6157 I0.4316 J-0.1477
G2 X69.6581 Y114.725 I0.6782 J-0.537
G2 X69.6663 Y114.7324 I0.7058 J-0.7698
G2 X69.9427 Y114.8935 I0.5483 J-0.6229
G2 X70.2233 Y114.9594 I0.4948 J-1.4762
G2 X70.3476 Y114.9724 I0.2302 J-1.6105
G2 X70.6008 Y114.9649 I0.0924 J-1.1676
G2 X70.9234 Y114.8716 I-0.1382 J-1.082
G2 X70.9541 Y114.8572 I-0.4834 J-1.0668
G2 X70.9824 Y114.8419 I-0.55 J-1.0546
G2 X71.1291 Y114.7465 I-0.5198 J-0.959
G2 X71.1695 Y114.7129 I-0.8078 J-1.0162
G2 X71.4086 Y114.4395 I-0.7655 J-0.9103
G2 X72.1396 Y113.0408 I-6.3502 J-4.2094
G2 X72.5136 Y112.0943 I-130.6546 J-52.1798
G2 X72.8864 Y111.1474 I-130.6929 J-51.9934
G2 X73.1343 Y110.5159 I-115.2882 J-45.6331
G2 X73.4645 Y109.6738 I-153.2121 J-60.5445
G1 X73.5237 Y109.5225
G1 X73.5273 Y109.5133
G1 X73.5454 Y109.4672
G1 X74.7839 Y106.3046
G1 X75.6677 Y104.0602
G1 X76.1762 Y102.779
G2 X76.3349 Y102.2884 I-3.2388 J-1.3186
G2 X76.3689 Y102.1339 I-3.0105 J-0.7437
G2 X76.3716 Y102.1206 I-3.5897 J-0.7209
G2 X76.4216 Y101.6978 I-2.6221 J-0.5243
G2 X76.2853 Y100.7596 I-2.513 J-0.1141
G2 X76.1085 Y100.3597 I-2.5426 J0.8853
G2 X75.9775 Y100.1433 I-2.3338 J1.2658
G1 X75.89 Y100.0107
G1 X75.8059 Y99.8818
G3 X75.6266 Y99.6039 I78.3816 J-50.7528
G3 X75.6262 Y99.6032 I1.0614 J-0.6339
G1 X75.2803 Y99.0596
G2 X75.2342 Y98.987 I-2.2416 J1.3721
G2 X75.1455 Y98.8468 I-5.5444 J3.4096
G2 X75.0751 Y98.736 I-6.9871 J4.3658
G2 X74.6295 Y98.0522 I-26.1117 J16.5249
G1 X74.6142 Y98.029
G2 X74.0134 Y97.1748 I-14.4343 J9.5152
G1 X74.0045 Y97.1627
G1 X73.9946 Y97.1498
G2 X73.8677 Y96.9833 I-13.8147 J10.3943
G2 X73.8198 Y96.9217 I-0.8449 J0.6078
G2 X73.7949 Y96.89 I-8.7112 J6.8222
G2 X73.025 Y96.0135 I-8.3781 J6.583
G3 X67.3944 Y89.0663 I32.034 J-31.7188
G2 X67.2248 Y88.8139 I-13.0686 J8.5942
G2 X66.6327 Y88.0071 I-12.6884 J8.692
G2 X66.4803 Y87.816 I-12.3069 J9.6534
G2 X66.4179 Y87.7398 I-11.517 J9.3735
G2 X66.3158 Y87.6169 I-11.8815 J9.766
G2 X65.4448 Y86.6708 I-10.7069 J8.9831
G2 X65.4413 Y86.6674 I-10.4815 J10.5187
G1 X65.4398 Y86.6658
G2 X65.3078 Y86.537 I-9.8308 J9.9343
G1 X65.2935 Y86.523
G2 X65.121 Y86.3602 I-9.7283 J10.1359
G2 X62.6618 Y84.534 I-9.5121 J10.2399
G3 X62.195 Y84.2593 I32.7604 J-56.2054
G3 X61.552 Y83.8716 I31.1292 J-52.3655
G1 X61.1384 Y83.6189
G3 X60.9841 Y83.524 I44.4214 J-72.3793
G3 X60.9664 Y83.5129 I7.5702 J-12.0917
G3 X60.9381 Y83.4956 I9.7211 J-15.9443
G3 X60.7781 Y83.3965 I44.6217 J-72.2559
G3 X60.7261 Y83.3639 I9.9095 J-15.8279
G3 X60.4521 Y83.1927 I16.411 J-26.5758
G3 X58.6806 Y82.0554 I55.9689 J-89.124
G3 X58.6802 Y82.0551 I3.6682 J-5.4523
G3 X58.6799 Y82.0549 I4.0961 J-6.4436
G3 X58.481 Y81.9241 I57.741 J-87.9862
G3 X58.48 Y81.9233 I4.2953 J-6.3126
G3 X58.4789 Y81.9227 I3.8777 J-6.0834
G3 X58.28 Y81.7912 I57.942 J-87.854
G2 X57.9396 Y81.5929 I-1.7542 J2.6213
G1 X57.916 Y81.5813
G1 X57.8907 Y81.5691
G2 X57.7346 Y81.5009 I-1.0047 J2.0879
G2 X57.4387 Y81.4068 I-0.7713 J1.913
G2 X57.2349 Y81.3692 I-0.4378 J1.7981
G2 X56.6888 Y81.3808 I-0.2349 J1.7932
G2 X56.5767 Y81.4036 I0.3121 J1.8241
G2 X56.0166 Y81.617 I0.5145 J2.1919
G2 X55.254 Y82.0187 I51.9822 J99.6234
G2 X54.4913 Y82.4204 I54.3616 J104.1303
G2 X53.9829 Y82.6882 I46.2702 J88.4485
G2 X53.3051 Y83.0453 I55.5824 J106.3125
G2 X52.4013 Y83.5216 I67.9903 J130.0974
G2 X51.885 Y83.7939 I54.5605 J104.1131
G2 X51.2948 Y84.1051 I61.2568 J116.8694
G2 X50.6205 Y84.4609 I69.6251 J132.789
G2 X49.8498 Y84.8677 I80.4981 J153.4397
G2 X48.9692 Y85.3328 I95.4278 J181.7422
G2 X47.963 Y85.8647 I117.7456 J223.9646
G2 X46.8134 Y86.473 I156.5361 J297.2031
G2 X46.5434 Y86.6169 I4.9242 J9.5654
G2 X46.2741 Y86.762 I5.1472 J9.8755
G2 X46.0949 Y86.8593 I4.6821 J8.8424
G2 X45.8561 Y86.9894 I6.3631 J11.9551
G1 X44.9018 Y87.5113
G1 X44.2635 Y87.8555
G1 X43.9631 Y88.014
G3 X43.835 Y88.0807 I-24.6325 J-47.088
G1 X43.4761 Y88.2655
G2 X43.034 Y88.5294 I1.4746 J2.9725
G2 X42.8625 Y88.6601 I1.2967 J1.88
G2 X42.6454 Y88.8671 I1.4954 J1.785
G2 X42.3842 Y89.2213 I1.3739 J1.2865
G2 X42.1749 Y89.7784 I1.6134 J0.9242
G2 X42.1214 Y90.0415 I125.5864 J25.6878
G1 X42.0479 Y90.4027
G1 X41.9402 Y90.9496
G1 X41.9016 Y91.1524
G2 X41.7587 Y91.9045 I125.8597 J24.3138
G1 X41.7581 Y91.9078
G1 X41.7573 Y91.912
G2 X41.7535 Y91.9323 I126.004 J23.5542
G2 X41.6963 Y92.2406 I21.9264 J4.2254
G2 X41.6316 Y92.5931 I28.1146 J5.3458
G1 X41.6283 Y92.6113
G1 X41.6253 Y92.6273
G1 X41.5272 Y93.1672
G2 X41.4541 Y93.5722 I36.931 J6.8726
G2 X41.4003 Y93.8716 I22.3293 J4.1745
G1 X41.3986 Y93.8806
G2 X41.3606 Y94.0918 I16.3763 J3.0575
G1 X41.2354 Y94.7873
G2 X41.2314 Y94.8327 I0.3176 J0.0512
G2 X41.2438 Y94.9347 I0.3541 J0.0086
G2 X41.2459 Y94.9428 I3.2034 J-0.8364
G2 X41.2698 Y95.0295 I0.9369 J-0.212
G1 X41.287 Y95.0861
G3 X41.3095 Y95.1717 I-2.1061 J0.5994
G1 X41.5448 Y95.3083
G1 X41.5989 Y95.2367
G1 X41.7021 Y95.1038
G1 X41.8851 Y94.8732
G2 X41.8916 Y94.8649 I-39.4803 J-31.1042
G1 X41.9077 Y94.8446
G2 X42.0917 Y94.6065 I-6.4018 J-5.1354
G1 X42.1213 Y94.5673
G2 X42.2647 Y94.3645 I-2.8984 J-2.2023
G2 X42.299 Y94.3126 I-0.5935 J-0.4294
G2 X42.3489 Y94.2338 I-0.8306 J-0.5813
G2 X42.3967 Y94.1539 I-1.2366 J-0.794
G3 X42.4474 Y94.0666 I52.1993 J30.2308
G3 X42.4475 Y94.0663 I2.7971 J1.6814
G3 X42.4477 Y94.0661 I2.6983 J1.5128
G3 X43.0902 Y92.987 I52.1484 J30.3186
G1 X43.3291 Y92.6028
G3 X44.3236 Y91.1343 I21.9258 J13.7765
G3 X44.5765 Y90.798 I16.5536 J12.1855
G3 X45.0915 Y90.1567 I15.6925 J12.076
G1 X45.3018 Y89.9129
G3 X45.5317 Y89.6577 I11.7616 J10.3622
G3 X45.6466 Y89.5336 I9.125 J8.3371
G3 X46.0885 Y89.0865 I10.4643 J9.8997
G1 X46.226 Y88.9551
G1 X46.4118 Y88.7828
G3 X46.811 Y88.4241 I17.3006 J18.852
G3 X46.8125 Y88.4228 I1.7792 J1.9629
G3 X46.8959 Y88.3504 I12.9608 J14.8505
G3 X46.8962 Y88.3501 I1.6943 J2.0366
G3 X46.8967 Y88.3497 I2.345 J2.6358
G3 X46.9289 Y88.322 I12.8766 J14.9236
G3 X46.9818 Y88.2763 I10.6507 J12.3107
G3 X46.9942 Y88.2661 I2.2594 J2.7096
G3 X47.2581 Y88.0455 I23.683 J28.0689
G3 X47.4811 Y87.8651 I9.8153 J11.9012
G3 X48.3574 Y87.2184 I10.0985 J12.7676
G3 X48.663 Y87.0356 I1.7625 J2.5992
G3 X48.8323 Y86.959 I1.0626 J2.123
G3 X48.9986 Y86.9 I0.8009 J1.9962
G3 X49.7136 Y86.8642 I0.4296 J1.4203
G3 X49.8941 Y86.9112 I-0.3697 J1.7903
G3 X50.1834 Y87.0306 I-0.6905 J2.0834
G3 X50.355 Y87.1259 I-1.3957 J2.7136
G3 X50.7015 Y87.3674 I-1.7784 J2.9211
G3 X51.0953 Y87.7108 I-2.834 J3.6475
G3 X51.414 Y88.0598 I-3.0722 J3.1256
G3 X51.4479 Y88.1017 I-2.2672 J1.8663
G3 X51.5144 Y88.1906 I-2.6951 J2.0867
G3 X51.7247 Y88.5198 I-2.4965 J1.8265
G3 X51.9066 Y88.9227 I-2.578 J1.4062
G3 X51.9116 Y88.937 I-2.2992 J0.8118
G3 X52.0009 Y89.2693 I-2.379 J0.8175
G3 X52.0295 Y89.4541 I-2.3936 J0.4652
G3 X52.0285 Y90.008 I-2.4602 J0.2726
G3 X51.9357 Y90.4584 I-2.8814 J-0.3589
G3 X51.9356 Y90.4589 I-2.4287 J-0.7358
G3 X51.7681 Y90.8987 I-3.1362 J-0.9422
G3 X51.7679 Y90.8992 I-2.621 J-1.2496
G3 X51.7052 Y91.0259 I-3.7738 J-1.7877
G3 X51.4607 Y91.4383 I-3.7328 J-1.9351
G3 X51.3522 Y91.5935 I-3.1386 J-2.0771
G3 X51.2796 Y91.6889 I-3.3581 J-2.4821
G3 X49.3602 Y93.6619 I-9.6056 J-7.4246
G3 X47.0597 Y95.1731 I-8.5443 J-10.5001
G1 X46.543 Y95.4434
G1 X46.3711 Y95.534
G1 X46.2746 Y95.5854
G1 X46.2441 Y95.6015
G2 X45.7962 Y95.8453 I8.729 J16.5713
G2 X45.1287 Y96.2388 I6.7747 J12.2532
G2 X45.0456 Y96.2905 I9.8444 J15.9339
G1 X44.9727 Y96.3371
G1 X44.9048 Y96.3813
G1 X44.8413 Y96.4231
G2 X44.7388 Y96.4926 I7.0672 J10.533
G2 X44.6614 Y96.5452 I7.832 J11.6059
G2 X44.1152 Y96.9528 I5.1222 J7.4341
G2 X43.9298 Y97.1065 I2.5921 J3.3156
G3 X43.5242 Y97.4233 I-3.5973 J-4.1879
G1 X43.4312 Y97.4878
G3 X43.4269 Y97.4909 I-1.5591 J-2.2127
G3 X43.3982 Y97.51 I-2.9099 J-4.3286
G3 X43.2628 Y97.5974 I-2.3712 J-3.5266
G3 X43.2468 Y97.6069 I-1.3908 J-2.3222
G3 X42.902 Y97.797 I-2.6615 J-4.4176
G3 X42.8167 Y97.8378 I-1.875 J-3.8136
G3 X42.8035 Y97.8441 I-0.9201 J-1.9053
G3 X42.6475 Y97.9107 I-1.3755 J-3.0109
G3 X42.6412 Y97.913 I-0.7509 J-1.9781
G3 X42.1544 Y98.0624 I-1.1928 J-3.0201
G3 X41.4765 Y98.1197 I-0.5589 J-2.5705
G3 X40.6294 Y97.9274 I0.1416 J-2.5844
G3 X40.6084 Y97.9185 I0.9848 J-2.3671
G3 X40.1295 Y97.6639 I1.2713 J-2.969
G2 X40.0933 Y97.6413 I-0.3785 J0.5659
G2 X39.9996 Y97.5953 I-0.364 J0.6232
G2 X39.8858 Y97.5625 I-0.1911 J0.4486
G2 X39.7903 Y97.5577 I-0.0656 J0.3529
G2 X39.6923 Y97.58 I0.0279 J0.3489
G2 X39.5321 Y97.7013 I0.1279 J0.3354
G2 X39.473 Y97.7926 I0.3892 J0.3165
G2 X39.439 Y97.8709 I0.5255 J0.2753
G2 X39.433 Y97.888 I0.9502 J0.3368
G2 X39.3923 Y98.0575 I0.8173 J0.2862
G2 X39.3695 Y98.2786 I3.7277 J0.4963
G2 X39.3573 Y98.6117 I4.1799 J0.3196
G1 X39.3553 Y98.7627
G1 X39.3521 Y98.9238
G3 X39.3515 Y98.9574 I-2.9917 J-0.0395
G3 X39.3483 Y99.0233 I-2.3354 J-0.0798
G3 X39.3228 Y99.3037 I-3.8821 J-0.2112
G3 X39.3097 Y99.3876 I-2.9625 J-0.4193
G1 X39.3024 Y99.429
G1 X39.2772 Y99.553
G3 X39.1755 Y100.0166 I-15.8214 J-3.2265
G3 X39.1739 Y100.0233 I-11.1619 J-2.6126
G3 X39.0562 Y100.482 I-13.7065 J-3.2727
G3 X39.0212 Y100.6051 I-11.0426 J-3.078
G1 X38.9872 Y100.7194
G1 X38.9294 Y100.9003
G3 X38.7532 Y101.375 I-6.3322 J-2.0809
G2 X38.7235 Y101.4507 I1.3906 J0.5884
G2 X38.6987 Y101.5244 I0.5114 J0.2133
G2 X38.684 Y101.5754 I0.2767 J0.1074
G2 X38.6687 Y101.6408 I0.912 J0.248
G2 X38.6679 Y101.6447 I1.4751 J0.3226
G2 X38.6516 Y101.7859 I0.6774 J0.1494
G2 X38.684 Y101.982 I0.4338 J0.0291
G2 X38.7975 Y102.1407 I0.3885 J-0.1578
G2 X38.8181 Y102.1578 I0.2879 J-0.3258
G2 X38.9368 Y102.2296 I0.3382 J-0.4255
G2 X39.0963 Y102.2859 I0.3325 J-0.6879
G2 X39.5479 Y102.3659 I0.7547 J-2.9439
G2 X39.5728 Y102.3683 I0.9428 J-9.5885
G2 X39.9341 Y102.396 I0.6449 J-6.0333
G2 X40.0052 Y102.3999 I0.5566 J-9.6186
G1 X40.0761 Y102.4037
G1 X40.2174 Y102.4118
G1 X40.2855 Y102.4158
G1 X40.4561 Y102.4287
G2 X40.8741 Y102.4616 I2.7257 J-31.8732
G1 X40.8782 Y102.462
G1 X40.8832 Y102.4623
G2 X40.9439 Y102.4666 I2.2986 J-31.9069
G1 X41.0175 Y102.4712
G1 X41.3007 Y102.4901
G1 X41.8789 Y102.5256
G1 X42.3709 Y102.5575
G3 X42.709 Y102.5822 I-4.1294 J58.627
G1 X42.859 Y102.5948
G1 X43.019 Y102.6092
G3 X43.0636 Y102.6132 I-1.0983 J12.3091
G3 X43.0944 Y102.6164 I-1.3069 J12.8037
G1 X43.4103 Y102.6503
G3 X43.4136 Y102.6506 I-0.1472 J1.7138
G3 X43.5171 Y102.6628 I-1.3538 J11.869
G3 X43.5286 Y102.6646 I-0.2541 J1.7012
G3 X43.5431 Y102.6661 I-0.1589 J1.6414
G3 X43.6158 Y102.6754 I-1.4834 J11.8535
G3 X43.632 Y102.6779 I-0.2461 J1.6306
G3 X43.729 Y102.6908 I-1.3477 J10.507
G3 X44.3518 Y102.7956 I-1.6693 J11.8288
G3 X44.8565 Y102.9416 I-0.6065 J3.0405
G3 X45.1852 Y103.1001 I-0.8538 J2.1911
G3 X45.5115 Y103.3317 I-1.1581 J1.977
G3 X45.9097 Y103.7979 I-1.3086 J1.521
G3 X46.0682 Y104.1076 I-2.0215 J1.23
G3 X46.2227 Y104.6421 I-2.2732 J0.9466
G3 X46.2484 Y105.5685 I-3.3916 J0.5576
G3 X46.1996 Y105.8555 I-1.7791 J-0.1547
G3 X46.1977 Y105.8634 I-1.3194 J-0.3075
G3 X46.1363 Y106.0547 I-1.7213 J-0.4474
G3 X46.1318 Y106.0665 I-1.0347 J-0.386
G3 X45.994 Y106.3192 I-1.2516 J-0.5185
G3 X45.8608 Y106.4707 I-0.8924 J-0.6505
G3 X45.5753 Y106.6483 I-0.62 J-0.6782
G3 X45.3705 Y106.702 I-0.3629 J-0.9671
G3 X45.3414 Y106.7056 I-0.1253 J-0.9033
G3 X44.9617 Y106.6898 I-0.1359 J-1.3049
G3 X44.8297 Y106.6592 I0.3612 J-1.8602
G3 X44.5978 Y106.5803 I0.5613 J-2.03
G3 X44.3257 Y106.4517 I1.421 J-3.3586
G3 X44.1973 Y106.3803 I1.5777 J-2.9858
G3 X44.081 Y106.3112 I3.9326 J-6.7481
G3 X44.0794 Y106.3101 I1.9378 J-3.0894
G3 X44.0582 Y106.2972 I3.6931 J-6.107
G3 X43.9135 Y106.2067 I4.0717 J-6.665
G3 X43.8324 Y106.1538 I3.859 J-6.0035
G1 X43.8186 Y106.1448
G3 X43.8172 Y106.1439 I4.3113 J-6.5126
G1 X43.7099 Y106.0742
G1 X43.587 Y105.995
G2 X43.4028 Y105.8834 I-2.4099 J3.77
G2 X41.4463 Y105.2976 I-2.2307 J3.8899
G2 X40.689 Y105.3015 I-0.3522 J5.0656
G2 X40.4268 Y105.3419 I0.0635 J1.2825
G2 X40.4049 Y105.3475 I0.3594 J1.4606
G2 X40.2469 Y105.4105 I0.1443 J0.5917
G2 X40.2307 Y105.4192 I0.3981 J0.7581
G2 X40.1501 Y105.4791 I0.1998 J0.3528
G2 X40.1492 Y105.4799 I0.399 J0.4601
G2 X40.0738 Y105.5792 I0.2541 J0.2713
G2 X40.071 Y105.5845 I0.3567 J0.1928
G2 X40.0679 Y105.591 I0.3797 J0.1837
G2 X40.0467 Y105.6465 I0.3354 J0.1602
G2 X40.0459 Y105.6497 I0.5676 J0.1453
G2 X40.0293 Y105.7486 I0.4048 J0.1186
G2 X40.0291 Y105.7635 I0.8406 J0.0222
G2 X40.0405 Y105.9102 I0.5852 J0.0283
G2 X40.0418 Y105.9171 I1.3996 J-0.2772
G2 X40.0604 Y105.9983 I0.828 J-0.1463
G2 X40.0651 Y106.014 I1.9656 J-0.5811
G2 X40.1464 Y106.2348 I1.375 J-0.381
G2 X40.6089 Y107.2737 I115.9716 J-51.0095
G2 X41.0732 Y108.3118 I138.7958 J-61.456
G1 X42.0022 Y110.3879
G1 X42.6176 Y111.7736
G2 X42.846 Y112.2103 I3.1013 J-1.3443
G2 X42.9217 Y112.3282 I3.0411 J-1.8689
G2 X43.1009 Y112.5675 I2.479 J-1.6703
G2 X43.1119 Y112.5809 I2.618 J-2.1381
G2 X43.1644 Y112.6415 I2.3188 J-1.9564
G2 X43.5682 Y113.0195 I2.2362 J-1.9836
G2 X43.5835 Y113.0312 I2.12 J-2.7723
G2 X43.8278 Y113.2003 I1.8473 J-2.4066
G2 X43.8476 Y113.2124 I2.0916 J-3.4104
G2 X44.3911 Y113.4872 I1.8406 J-2.9652
G1 X44.8296 Y113.6692
G1 X45.2668 Y113.8543
G3 X45.3717 Y113.8992 I-12.5142 J29.3656
G3 X45.4806 Y113.9467 I-15.0613 J34.7024
G3 X45.4954 Y113.9528 I-1.2576 J3.0823
G3 X45.6209 Y114.0078 I-12.7427 J29.2671
G3 X45.6361 Y114.0148 I-1.398 J3.0212
G3 X45.6507 Y114.0209 I-1.2004 J2.909
G3 X45.7755 Y114.0764 I-12.8981 J29.1989
G3 X45.7864 Y114.0815 I-1.3398 J2.8475
G3 X45.9199 Y114.1413 I-10.6122 J23.8697
G3 X46.1347 Y114.2395 I-13.1672 J29.0786
G3 X46.1537 Y114.2482 I-8.4923 J18.6147
G3 X46.9381 Y114.6276 I-10.9794 J23.703
G3 X47.5369 Y114.9454 I-9.5231 J18.663
G3 X47.8 Y115.0934 I-9.8945 J17.9088
G1 X47.9309 Y115.1697
G3 X48.2887 Y115.3875 I-7.871 J13.3327
G3 X49.4112 Y116.1777 I-6.8856 J10.9727
G3 X50.0969 Y116.7663 I-7.3017 J9.1999
G3 X51.6946 Y118.6104 I-7.6779 J8.2665
G3 X52.8388 Y120.7655 I-8.9032 J6.1081
G2 X52.8687 Y120.8394 I15.3856 J-6.1752
G1 X52.9142 Y120.952
G1 X52.9876 Y121.1258
G1 X53.0148 Y121.187
G2 X53.13 Y121.4465 I15.2097 J-6.5967
G1 X53.1311 Y121.449
G1 X53.1323 Y121.4516
G2 X53.2188 Y121.6387 I15.0922 J-6.8613
G2 X53.2767 Y121.7618 I2.4668 J-1.0865
G2 X53.3437 Y121.9022 I2.8118 J-1.2547
G2 X53.4208 Y122.0622 I3.3919 J-1.5361
G2 X53.5091 Y122.2441 I4.6073 J-2.1247
G1 X53.7719 Y122.7863
G1 X53.8791 Y123.0114
G1 X54.027 Y123.3326
G1 X54.1033 Y123.5051
G1 X54.1824 Y123.6901
G3 X54.2467 Y123.9339 I-0.9835 J0.3896
G3 X54.2595 Y124.3107 I-2.238 J0.2648
G1 X54.2368 Y124.6871
G1 X54.147 Y126.2145
G1 X54.0765 Y127.3599
G2 X54.0238 Y128.219 I84.0106 J5.5844
G2 X53.9852 Y128.8633 I56.762 J3.7233
G2 X53.9571 Y129.3466 I47.3763 J2.9951
G2 X53.9169 Y130.0708 I63.8568 J3.9053
G2 X53.8796 Y130.7969 I159.1578 J8.5442
G2 X53.9049 Y131.2154 I1.8051 J0.101
G2 X54.1045 Y131.7774 I1.785 J-0.3178
G2 X54.1938 Y131.9261 I1.7388 J-0.9424
G2 X54.2677 Y132.0323 I2.8409 J-1.8987
G2 X54.4325 Y132.242 I2.4263 J-1.7372
G2 X54.797 Y132.6203 I3.8676 J-3.3623
G3 X55.1221 Y132.956 I-4.5516 J4.733
G3 X55.1664 Y133.006 I-0.5715 J0.5512
G1 X55.2822 Y133.1413
G3 X55.2875 Y133.1476 I-7.3415 J6.133
G1 X55.2876 Y133.1477
G3 X55.6209 Y133.5724 I-7.5436 J6.2633
G3 X55.709 Y133.6917 I-12.4716 J9.3035
G3 X55.718 Y133.7043 I-7.7683 J5.5825
G3 X55.7202 Y133.707 I-0.8756 J0.6928
G3 X55.7711 Y133.7773 I-12.5709 J9.1688
G3 X55.7737 Y133.7812 I-0.9287 J0.6198
G3 X55.7768 Y133.7852 I-0.9928 J0.7738
G3 X55.8312 Y133.8612 I-12.6275 J9.0906
G3 X55.8328 Y133.8636 I-1.0503 J0.6939
G1 X56.0411 Y134.16
G1 X56.1526 Y134.3191
G2 X56.5609 Y134.8911 I17.0023 J-11.7044
G3 X56.6485 Y135.0228 I-1.481 J1.0796
G3 X56.6639 Y135.0502 I-1.1012 J0.6372
G1 X56.6986 Y135.1122
G3 X56.7056 Y135.1246 I-1.6091 J0.9224
G3 X56.7127 Y135.1383 I-1.6257 J0.8461
G1 X56.754 Y135.2164
G3 X56.7568 Y135.2221 I-1.6645 J0.8182
G1 X56.844 Y135.387
G2 X56.8669 Y135.4277 I0.3719 J-0.1824
G2 X56.9406 Y135.5465 I1.3297 J-0.7418
G2 X57.0674 Y135.7021 I0.7807 J-0.5072
G2 X57.2319 Y135.8173 I0.3672 J-0.3491
G2 X57.2561 Y135.8262 I0.1004 J-0.236
G2 X57.3601 Y135.8363 I0.0731 J-0.2124
G2 X57.3666 Y135.8355 I-0.0278 J-0.255
G2 X57.3729 Y135.8341 I-0.0493 J-0.2428
G2 X57.4943 Y135.766 I-0.0437 J-0.2203
G2 X57.5231 Y135.7306 I-0.1771 J-0.1733
G2 X57.5346 Y135.7134 I-0.5587 J-0.3862
G2 X57.57 Y135.6527 I-0.4487 J-0.302
G0 Z3.0
G0 X65.1885 Y125.121
G0 Z1.4
G1 F300.0 Z0.0
G1 F800.0 X65.5372 Y125.0099
G2 X65.8799 Y124.8814 I-0.8838 J-2.8767
G2 X65.9474 Y124.836 I-0.1051 J-0.2292
G2 X66.0089 Y124.7683 I-0.2332 J-0.2738
G2 X66.0331 Y124.7363 I-0.2052 J-0.18
G2 X66.1076 Y124.6278 I-1.544 J-1.1405
G1 X66.4165 Y124.1878
G2 X66.5612 Y123.9814 I-12.2474 J-8.7388
G1 X66.5701 Y123.9685
G1 X66.5986 Y123.9279
G1 X67.0869 Y123.2262
G1 X67.1048 Y123.2001
G1 X67.119 Y123.1797
G2 X67.2401 Y123.0036 I-4.8456 J-3.4637
G2 X67.3571 Y122.8328 I-4.5417 J-3.2335
G2 X67.4641 Y122.6757 I-4.3095 J-3.053
G2 X67.477 Y122.6568 I-38.9724 J-26.5231
G2 X67.5669 Y122.5241 I-4.1372 J-2.8991
G2 X67.6382 Y122.4181 I-39.0751 J-26.3715
G2 X68.4016 Y121.2447 I-33.6081 J-22.7015
G2 X68.8223 Y120.5577 I-26.3226 J-16.5901
G2 X69.0779 Y120.1209 I-17.9295 J-10.7844
G2 X69.653 Y119.0593 I-20.3023 J-11.6848
G2 X69.9872 Y118.3753 I-17.9979 J-9.2162
G2 X70.4753 Y117.2365 I-16.3975 J-7.703
G2 X70.5456 Y116.9722 I-1.2576 J-0.4758
G2 X70.573 Y116.7292 I-2.1755 J-0.369
G2 X70.5818 Y116.5622 I-3.4042 J-0.2617
G1 X70.584 Y116.5131
G1 X70.5942 Y116.3069
G1 X70.5961 Y116.2773
G1 X70.6069 Y116.1522
G1 X70.4556 Y116.2395
G1 X70.3448 Y116.3015
G2 X70.0973 Y116.4395 I6.5956 J12.1218
G1 X70.0463 Y116.4682
G2 X69.7909 Y116.6228 I1.8122 J3.2812
G2 X69.5117 Y116.8266 I1.5058 J2.3567
G2 X69.4127 Y116.9652 I0.2516 J0.2842
G2 X69.3429 Y117.209 I0.903 J0.3905
G1 X69.3409 Y117.2232
G2 X69.3136 Y117.4608 I2.141 J0.3664
G3 X69.1439 Y118.4867 I-6.0984 J-0.4818
G3 X68.8886 Y119.2764 I-7.1032 J-1.8607
G3 X68.8685 Y119.3278 I-7.9394 J-3.0776
G3 X68.8099 Y119.4714 I-6.8277 J-2.7018
G3 X68.5474 Y120.0422 I-9.7368 J-4.1308
G3 X68.0534 Y120.9457 I-14.5679 J-7.3796
G3 X68.0135 Y121.0122 I-12.0778 J-7.1939
G3 X67.9826 Y121.0642 I-1.0553 J-0.5922
G3 X67.9752 Y121.0771 I-1.0888 J-0.615
G3 X67.9538 Y121.1125 I-13.9956 J-8.4145
G3 X67.951 Y121.117 I-1.0601 J-0.6633
G3 X67.9493 Y121.1201 I-1.1276 J-0.6411
G3 X67.9406 Y121.1344 I-13.9697 J-8.4575
G3 X67.9198 Y121.169 I-29.4076 J-17.6161
G3 X67.9188 Y121.1706 I-1.0965 J-0.693
G1 X67.6211 Y121.6569
G1 X67.6113 Y121.6728
G1 X67.611 Y121.6732
G1 X67.4446 Y121.9417
G2 X67.3614 Y122.076 I3.3272 J2.1525
G2 X67.2786 Y122.2104 I2.4975 J1.6323
G3 X67.2495 Y122.2442 I-0.1624 J-0.1105
G3 X67.2212 Y122.2655 I-0.1271 J-0.139
G3 X67.1903 Y122.2846 I-0.407 J-0.6245
G3 X67.187 Y122.286 I-0.0401 J-0.0913
G1 X67.1101 Y122.3257
G1 X67.0903 Y122.3359
G1 X67.0888 Y122.3367
G1 X67.0814 Y122.3405
G1 X67.0126 Y122.3795
G2 X66.8173 Y122.0752 I-5.8286 J3.5266
G2 X66.613 Y121.7909 I-3.1257 J2.0299
G1 X66.5834 Y121.7538
G1 X66.5785 Y121.7479
G1 X66.5686 Y121.7357
G2 X66.3755 Y121.534 I-1.1209 J0.8801
G2 X66.2928 Y121.4707 I-0.4437 J0.494
G2 X66.1677 Y121.4074 I-0.2917 J0.4207
G2 X66.1667 Y121.407 I-0.2359 J0.6207
G2 X65.9627 Y121.3931 I-0.1274 J0.3645
G2 X65.961 Y121.3934 I0.1142 J0.5156
G2 X65.9524 Y121.3953 I0.0781 J0.3821
G2 X65.9456 Y121.3971 I0.1591 J0.5984
G2 X65.8135 Y121.4509 I0.1312 J0.5116
G2 X65.7401 Y121.4982 I0.298 J0.5427
G2 X65.7264 Y121.5087 I1.0033 J1.326
G2 X65.5703 Y121.6457 I0.6961 J0.9505
G2 X65.5313 Y121.6859 I0.8497 J0.8636
G1 X65.4607 Y121.7636
G2 X65.231 Y122.0497 I2.9314 J2.5889
G1 X65.2172 Y122.0681
G2 X65.0365 Y122.3176 I5.3958 J4.0979
G2 X65.0162 Y122.3472 I0.3192 J0.2407
G1 X64.8994 Y122.5172
G2 X64.8612 Y122.5744 I1.064 J0.7521
G2 X64.7638 Y122.7249 I9.99 J6.5694
G1 X64.7491 Y122.7478
G2 X64.4419 Y123.2851 I5.0791 J3.2598
G2 X64.406 Y123.3913 I0.4135 J0.199
G2 X64.3975 Y123.4353 I0.7428 J0.166
G2 X64.3876 Y123.5604 I0.6681 J0.1158
G2 X64.3952 Y123.6444 I0.3342 J0.0121
G2 X64.4054 Y123.6825 I0.1236 J-0.0128
G2 X64.4329 Y123.7214 I0.0882 J-0.0331
G2 X64.5183 Y123.7651 I0.2856 J-0.4525
G2 X64.6496 Y123.8005 I0.2087 J-0.5127
G2 X64.6898 Y123.8056 I0.0981 J-0.6153
G2 X64.8214 Y123.8039 I0.059 J-0.5126
G2 X64.9228 Y123.7788 I-0.0586 J-0.4545
G2 X65.3827 Y123.5457 I-1.4223 J-3.3763
G1 X65.4939 Y123.4806
G3 X65.5164 Y123.4667 I2.2915 J3.6887
G1 X65.6733 Y123.3748
G1 X65.8282 Y123.2863
G3 X66.1429 Y123.1163 I12.1331 J22.0828
G1 X66.2956 Y123.0351
G3 X66.3009 Y123.0324 I2.3715 J4.6426
G2 X66.4587 Y122.9483 I-1.6986 J-3.3792
G1 X66.5975 Y123.0875
G2 X66.5207 Y123.2139 I1.4934 J0.9937
G1 X66.5107 Y123.2311
G1 X66.5101 Y123.2321
G1 X66.5041 Y123.2424
G1 X66.4463 Y123.3417
G3 X66.4287 Y123.3724 I-1.7168 J-0.9656
G3 X66.3629 Y123.4764 I-2.5142 J-1.5168
G3 X66.3495 Y123.4965 I-1.1764 J-0.7693
G3 X66.2988 Y123.5664 I-1.62 J-1.1204
G3 X66.2756 Y123.5957 I-1.1123 J-0.8592
G1 X66.2272 Y123.652
G3 X66.1332 Y123.748 I-1.9708 J-1.8347
G3 X66.1077 Y123.7717 I-1.2275 J-1.2953
G1 X66.0013 Y123.8684
G1 X65.8748 Y123.9794
G2 X65.6602 Y124.1711 I3.4792 J4.1081
G1 X65.6569 Y124.1742
G1 X65.6532 Y124.1777
G2 X65.6445 Y124.1861 I3.7008 J3.9097
G2 X65.4355 Y124.4142 I1.3894 J1.4826
G2 X65.4313 Y124.4198 I0.6065 J0.4524
G2 X65.3221 Y124.6337 I0.6106 J0.4468
G2 X65.3058 Y124.6835 I2.2275 J0.754
G2 X65.297 Y124.712 I1.6453 J0.5244
G2 X65.2442 Y124.9169 I2.8129 J0.8343
G3 X65.2341 Y124.9586 I-2.8148 J-0.6592
G3 X65.2206 Y125.0105 I-4.3812 J-1.1104
G3 X65.2134 Y125.0367 I-2.7912 J-0.7528
G1 X65.1885 Y125.121
G0 Z3.0
G0 X41.2022 Y112.3818
G0 Z1.4
G1 F300.0 Z0.0
G2 F800.0 X41.2543 Y112.2714 I-1.1345 J-0.6025
G2 X41.3231 Y111.7173 I-0.8971 J-0.3928
G2 X41.2674 Y111.5173 I-0.9615 J0.1601
G2 X41.1514 Y111.2105 I-13.4021 J4.8928
G2 X41.035 Y110.9039 I-15.1183 J5.5643
G2 X40.9631 Y110.7148 I-13.9646 J5.204
G2 X40.9504 Y110.6815 I-146.5313 J55.8296
G2 X40.8638 Y110.4549 I-18.5929 J6.9755
G2 X40.84 Y110.393 I-146.4321 J56.0895
G2 X40.7231 Y110.0891 I-28.0489 J10.6165
G2 X40.6783 Y109.9729 I-146.2914 J56.4553
G2 X40.526 Y109.5809 I-85.4967 J32.9664
G1 X40.5167 Y109.557
G2 X40.2985 Y109.0009 I-146.085 J56.9874
G1 X40.2736 Y108.9375
G1 X40.2596 Y108.9024
G2 X40.1518 Y108.6303 I-145.8279 J57.642
G2 X40.0401 Y108.3509 I-17.5695 J6.8606
G2 X39.9418 Y108.1066 I-15.5172 J6.1043
G2 X39.7342 Y107.5964 I-90.5562 J36.55
G1 X39.7332 Y107.594
G1 X39.7323 Y107.5917
G2 X39.5193 Y107.0768 I-90.3467 J37.0648
G1 X39.5032 Y107.0379
G1 X39.4889 Y107.004
G2 X39.2359 Y106.4041 I-90.1033 J37.6525
G2 X39.1591 Y106.2857 I-0.3798 J0.1622
G2 X39.0696 Y106.2017 I-0.5329 J0.4777
G2 X38.996 Y106.1481 I-0.5332 J0.6549
G2 X38.9528 Y106.1204 I-1.6078 J2.4584
G2 X38.8763 Y106.0738 I-1.0527 J1.6445
G2 X38.7046 Y105.9805 I-1.488 J2.5327
G3 X38.7009 Y105.9786 I1.2457 J-2.4814
G1 X38.654 Y105.9534
G3 X38.4705 Y105.8484 I1.4777 J-2.794
G3 X38.4139 Y105.8117 I1.4798 J-2.3493
G3 X38.316 Y106.0443 I-3.1589 J-1.1928
G2 X38.2312 Y106.2234 I7.9922 J3.8916
G2 X38.1787 Y106.3418 I1.9373 J0.9298
G2 X38.1165 Y106.5205 I1.0188 J0.4548
G2 X38.0987 Y106.6009 I0.5708 J0.1689
G2 X38.0986 Y106.7779 I0.538 J0.0886
G2 X38.8779 Y110.8179 I194.3016 J-35.3818
G2 X38.9945 Y111.394 I57.2154 J-11.2858
G2 X39.1289 Y112.0522 I86.0187 J-17.22
G1 X39.1731 Y112.2661
G1 X39.2177 Y112.4845
G2 X39.3542 Y113.1456 I77.9815 J-15.7497
G2 X39.4226 Y113.4761 I39.9094 J-8.092
G2 X39.4911 Y113.8066 I34.5426 J-6.9924
G2 X39.5422 Y113.9648 I0.7622 J-0.1587
G2 X39.5829 Y114.0478 I0.8309 J-0.3556
G2 X39.6056 Y114.0882 I2.8479 J-1.5742
G2 X39.625 Y114.1227 I2.3113 J-1.2776
G2 X39.6537 Y114.17 I0.7495 J-0.4226
G2 X39.7028 Y114.2475 I1.0858 J-0.6333
G2 X39.7166 Y114.2686 I2.7279 J-1.7739
G1 X39.809 Y114.4134
G3 X39.8501 Y114.4833 I-1.9128 J1.171
G3 X39.8584 Y114.4982 I-2.6317 J1.4798
G2 X39.9726 Y114.4871 I-0.4753 J-5.4672
G2 X40.0868 Y114.4758 I-0.2518 J-3.1387
G2 X40.1728 Y114.2015 I-6.5426 J-2.2027
G3 X40.2766 Y113.9334 I1.8916 J0.5781
G1 X40.295 Y113.8959
G2 X40.3049 Y113.8753 I-14.6029 J-6.9573
G1 X40.3177 Y113.8489
G2 X40.3311 Y113.8206 I-0.2217 J-0.1223
G1 X40.3837 Y113.7069
G1 X40.4878 Y113.4789
G3 X40.5327 Y113.3823 I3.8829 J1.748
G3 X40.5932 Y113.2615 I5.313 J2.5826
G3 X40.6976 Y113.0727 I3.7775 J1.9654
G3 X40.767 Y112.9628 I2.7167 J1.6387
G3 X40.9205 Y112.7669 I1.5861 J1.0847
G2 X41.1314 Y112.4995 I-1.4847 J-1.388
G2 X41.2022 Y112.3818 I-1.0636 J-0.7202
G0 Z3.0
G0 X37.626 Y113.1403
G0 Z1.4
G1 F300.0 Z0.0
G1 F800.0 X37.6247 Y113.1343
G1 X37.5512 Y112.7894
G2 X37.3606 Y112.2921 I-1.6238 J0.3374
G2 X37.2777 Y112.1638 I-1.4072 J0.8179
G2 X37.0855 Y112.0043 I-0.4555 J0.3532
G2 X36.846 Y111.9333 I-0.2716 J0.4772
G2 X36.845 Y111.9334 I0.008 J0.0818
G2 X36.7953 Y111.9563 I0.0094 J0.086
G2 X36.7733 Y111.9767 I0.1166 J0.1473
G2 X36.7302 Y112.0296 I0.3835 J0.3573
G2 X36.7296 Y112.0304 I0.3974 J0.2876
G2 X36.7293 Y112.0308 I0.658 J0.4527
G2 X36.7208 Y112.0432 I0.4275 J0.3032
G2 X36.6549 Y112.1648 I0.5571 J0.3805
G2 X36.6288 Y112.2395 I0.3935 J0.1794
G2 X36.6183 Y112.299 I0.382 J0.0981
G2 X36.6118 Y112.5394 I2.439 J0.1865
G2 X36.6119 Y112.5467 I8.9676 J-0.211
G2 X36.6171 Y112.7214 I3.8387 J-0.0254
G2 X36.6202 Y112.7817 I0.6865 J-0.005
G2 X36.6243 Y112.8507 I0.8329 J-0.0151
G2 X36.6295 Y112.9294 I1.1447 J-0.0367
G1 X36.6313 Y112.9548
G2 X36.6391 Y113.0629 I49.3624 J-3.4748
G1 X36.6406 Y113.0844
G1 X36.6524 Y113.259
G1 X37.0331 Y119.6469
G3 X37.0348 Y119.7026 I-1.2635 J0.0681
G3 X37.0346 Y119.7155 I-0.6656 J-0.0067
G3 X37.0296 Y119.8355 I-55.6884 J-2.2418
G2 X37.0276 Y119.8701 I2.6297 J0.168
G1 X37.0272 Y119.8785
G1 X37.024 Y119.9558
G2 X37.0255 Y120.0443 I0.6031 J0.0344
G2 X37.0285 Y120.0747 I0.509 J-0.0354
G2 X37.0586 Y120.1929 I0.4521 J-0.052
G2 X37.224 Y120.5125 I2.7812 J-1.2376
G2 X37.3194 Y120.6653 I2.9167 J-1.713
G2 X37.3609 Y120.7304 I0.8425 J-0.4921
G2 X37.4085 Y120.8046 I5.209 J-3.2912
G1 X37.5333 Y121.0037
G3 X37.6475 Y120.899 I1.7301 J1.7718
G3 X37.6495 Y120.8974 I0.7709 J0.9551
G1 X37.7713 Y120.7972
G2 X37.8419 Y120.7397 I-2.3481 J-2.9563
G1 X37.8522 Y120.7314
G2 X38.0019 Y120.5983 I-1.1256 J-1.4178
G2 X38.0097 Y120.591 I-2.5787 J-2.7574
G2 X38.0465 Y120.5525 I-0.8448 J-0.8432
G2 X38.0513 Y120.5474 I-1.3199 J-1.2389
G2 X38.0625 Y120.5346 I-0.627 J-0.562
G2 X38.071 Y120.5248 I-0.8975 J-0.7869
G2 X38.1459 Y120.4175 I-0.3906 J-0.3528
G2 X38.1875 Y120.3128 I-0.4268 J-0.2301
G2 X38.3149 Y119.6708 I-7.4994 J-1.8217
G2 X38.3475 Y119.4601 I-4.5784 J-0.8167
G1 X38.3505 Y119.439
G1 X38.3535 Y119.4194
G1 X38.3611 Y119.363
G1 X38.3875 Y119.1737
G1 X38.4001 Y119.0735
G1 X38.4115 Y118.9896
G3 X38.4571 Y118.6205 I132.5757 J16.2202
G1 X38.4784 Y118.4517
G3 X38.5758 Y117.6987 I132.5088 J16.758
G1 X38.3217 Y116.4709
G1 X38.3092 Y116.4105
G1 X38.147 Y115.6269
G1 X38.0036 Y114.9364
G1 X37.9639 Y114.7467
G1 X37.9396 Y114.6295
G1 X37.8803 Y114.3469
G1 X37.8111 Y114.0159
G1 X37.7882 Y113.9079
G1 X37.7465 Y113.7093
G1 X37.6979 Y113.4792
G1 X37.626 Y113.1403
G0 Z3.0
G0 X47.3611 Y91.8646
G0 Z1.4
G1 F300.0 Z0.0
G2 F800.0 X47.4603 Y91.8608 I0.0081 J-1.0735
G2 X47.8081 Y91.7723 I-0.0918 J-1.0893
G2 X48.111 Y91.6033 I-0.6302 J-1.4849
G2 X48.2276 Y91.513 I-0.9353 J-1.3288
G2 X48.765 Y90.8567 I-1.4249 J-1.7148
G2 X48.7723 Y90.843 I-1.9625 J-1.0591
G2 X48.9263 Y90.4601 I-1.5431 J-0.8431
G2 X48.9459 Y90.3834 I-1.7853 J-0.4966
G2 X48.9789 Y90.061 I-1.2206 J-0.2878
G2 X48.9683 Y89.929 I-1.2323 J0.0328
G2 X48.4469 Y90.3002 I1.3879 J2.5009
G2 X48.1158 Y90.6464 I2.0696 J2.3113
G2 X48.1082 Y90.6557 I3.6234 J2.9467
G2 X47.845 Y91.0147 I2.9077 J2.4073
G2 X47.7072 Y91.2361 I3.8941 J2.5784
G1 X47.617 Y91.3913
G1 X47.606 Y91.4113
G2 X47.5441 Y91.5221 I7.7816 J4.4188
G1 X47.5137 Y91.5788
G1 X47.4872 Y91.6269
G1 X47.4238 Y91.7456
G1 X47.4021 Y91.7869
G1 X47.3982 Y91.7941
G1 X47.3611 Y91.8646
G0 Z3.0
G0 X42.563 Y83.0916
G0 Z1.4
G1 F300.0 Z0.0
G1 F800.0 X43.4393 Y82.6123
G3 X43.7063 Y82.4665 I9.0187 J16.202
G3 X43.8877 Y82.368 I7.2499 J13.1379
G3 X44.1808 Y82.21 I7.8029 J14.1243
G3 X44.4927 Y82.0441 I7.5568 J13.8284
G3 X45.6247 Y81.4451 I160.0064 J301.0236
G3 X46.6329 Y80.9122 I121.0901 J227.8522
G3 X47.5151 Y80.4462 I98.6447 J185.6977
G3 X48.2869 Y80.0389 I83.6035 J157.4544
G3 X48.9621 Y79.6826 I72.6331 J136.8553
G3 X49.5529 Y79.371 I64.1796 J120.9807
G3 X50.0675 Y79.0997 I57.4089 J108.2638
G3 X50.9747 Y78.6216 I71.2279 J134.043
G3 X51.6531 Y78.2642 I58.5906 J110.3791
G3 X52.1593 Y77.9975 I49.1085 J92.6047
G3 X52.9235 Y77.5949 I57.4563 J108.1515
G3 X53.6768 Y77.1981 I55.0753 J103.6454
G3 X55.4323 Y76.5363 I3.4144 J6.3973
G3 X55.8371 Y76.4539 I1.5686 J6.6686
G3 X57.8756 Y76.4104 I1.1629 J6.7085
G3 X58.6061 Y76.545 I-0.8747 J6.7945
G3 X59.5847 Y76.8558 I-1.6428 J6.8689
G3 X60.0588 Y77.0636 I-2.6987 J6.8013
G3 X60.0604 Y77.0644 I-2.1681 J4.5055
G1 X60.0857 Y77.0766
G3 X60.13 Y77.0982 I-2.1697 J4.5047
G1 X60.1537 Y77.1099
G3 X60.1808 Y77.1234 I-2.2141 J4.4831
G3 X61.0493 Y77.6281 I-3.655 J7.2891
G2 X61.2214 Y77.7419 I55.3716 J-83.5594
G3 X61.244 Y77.7568 I-2.7415 J4.1814
G2 X61.4173 Y77.8708 I55.1769 J-83.6881
G3 X61.4296 Y77.8789 I-2.7371 J4.1843
G2 X63.1111 Y78.9584 I54.9913 J-83.8102
G3 X63.123 Y78.9658 I-2.6591 J4.2343
G2 X63.3532 Y79.1096 I14.0142 J-22.1778
G3 X63.3933 Y79.1347 I-2.6271 J4.2542
G2 X63.4235 Y79.1537 I7.2942 J-11.5661
G2 X63.5564 Y79.2359 I42.1363 J-67.914
G2 X63.5693 Y79.2438 I7.1312 J-11.6673
G3 X63.6243 Y79.2778 I-2.6028 J4.2691
G2 X63.7497 Y79.355 I41.9356 J-68.0382
G1 X64.1591 Y79.6051
G1 X64.1597 Y79.6055
G2 X64.7493 Y79.961 I29.1645 J-47.7117
G2 X65.1797 Y80.2142 I30.6729 J-51.6324
G3 X65.185 Y80.2173 I-2.5179 J4.3198
G3 X68.5229 Y82.6959 I-9.5761 J16.3828
G3 X68.7558 Y82.9157 I-12.9577 J13.963
G3 X68.787 Y82.9459 I-3.4623 J3.6073
G1 X68.7904 Y82.9492
G3 X68.9489 Y83.104 I-13.1815 J13.6509
G3 X68.9689 Y83.1238 I-3.5075 J3.5633
G3 X70.1458 Y84.4026 I-13.3599 J13.4762
G3 X70.2777 Y84.5615 I-15.6093 J13.1032
G3 X70.3582 Y84.6598 I-15.3144 J12.628
G3 X70.3657 Y84.669 I-3.8779 J3.1562
G3 X70.5659 Y84.9201 I-16.04 J12.9916
G3 X71.349 Y85.9871 I-16.0295 J12.5857
G3 X71.5719 Y86.3189 I-17.0233 J11.6735
G2 X76.578 Y92.4955 I33.4871 J-22.0242
G3 X76.5953 Y92.5131 I-3.553 J3.518
G3 X77.7212 Y93.7942 I-11.1785 J10.96
G3 X77.8592 Y93.9715 I-4.6984 J3.7969
G3 X77.9795 Y94.1298 I-17.6793 J13.5726
G1 X77.9801 Y94.1305
G3 X78.0256 Y94.1911 I-3.9756 J3.0323
G3 X78.7887 Y95.2769 I-17.8457 J13.3531
G1 X78.7888 Y95.2771
G1 X78.7886 Y95.2767
G1 X78.7887 Y95.2769
G1 X78.7936 Y95.2844
G3 X79.2876 Y96.0425 I-29.8303 J19.9765
G3 X79.362 Y96.1593 I-11.1292 J7.1701
G3 X79.458 Y96.3107 I-9.6722 J6.2373
G3 X79.516 Y96.4026 I-6.4192 J4.121
G1 X79.8415 Y96.9142
G2 X79.9978 Y97.1565 I74.3459 J-47.7852
G1 X80.0706 Y97.2679
G1 X80.1422 Y97.3766
G3 X80.5029 Y97.9744 I-6.3676 J4.2489
G3 X81.0073 Y99.1155 I-6.7602 J3.6704
G3 X81.0094 Y99.1216 I-4.722 J1.644
G3 X81.4172 Y101.9061 I-7.1009 J2.4622
G3 X81.276 Y103.0936 I-7.6677 J-0.3098
G3 X81.2744 Y103.1016 I-8.4967 J-1.6806
G3 X81.1909 Y103.4798 I-7.95 J-1.5569
G3 X80.8172 Y104.6396 I-8.2535 J-2.0194
G1 X80.3175 Y105.8985
G1 X79.4379 Y108.1322
G1 X78.2012 Y111.2901
G1 X78.1833 Y111.3358
G3 X78.1816 Y111.3403 I-4.656 J-1.8225
G1 X78.1787 Y111.3476
G1 X78.1224 Y111.4914
G3 X77.7889 Y112.3421 I-158.2001 J-61.52
G3 X77.5405 Y112.9748 I-120.1908 J-46.8278
G3 X77.1649 Y113.9289 I-135.7198 J-52.8739
G3 X76.7847 Y114.8909 I-135.6799 J-53.068
G3 X75.5963 Y117.1714 I-11.7263 J-4.6608
G3 X75.548 Y117.2447 I-5.1923 J-3.3689
G3 X75.4789 Y117.7859 I-7.1779 J-0.6415
G3 X75.1518 Y119.0058 I-6.2612 J-1.0251
G3 X75.1356 Y119.0482 I-4.6765 J-1.7693
G3 X74.5165 Y120.4931 I-21.5459 J-8.3759
G3 X74.1064 Y121.3325 I-22.8614 J-10.65
G3 X73.4175 Y122.6044 I-25.3308 J-12.8964
G3 X73.1135 Y123.1239 I-22.5247 J-12.8311
G3 X72.6354 Y123.9047 I-31.0345 J-18.4693
G3 X71.7859 Y125.2104 I-38.6053 J-24.1881
G3 X71.7282 Y125.2961 I-43.2942 J-29.0578
G3 X71.6083 Y125.4736 I-8.3884 J-5.5385
G3 X71.4873 Y125.6515 I-8.5607 J-5.6938
G3 X71.3627 Y125.8336 I-8.7889 J-5.8813
G3 X71.2125 Y126.051 I-9.0893 J-6.1176
G1 X71.2103 Y126.0541
G3 X71.191 Y126.0822 I-4.1234 J-2.828
G1 X70.7026 Y126.7839
G3 X70.6919 Y126.7993 I-4.1041 J-2.856
G1 X70.6704 Y126.8299
G3 X70.4987 Y127.075 I-16.5014 J-11.3809
G1 X70.2441 Y127.4377
G3 X70.1108 Y127.6302 I-5.755 J-3.8419
G3 X69.9542 Y127.8406 I-4.307 J-3.0419
G3 X69.2733 Y128.5695 I-4.24 J-3.2785
G3 X67.9643 Y129.4262 I-3.4986 J-3.9173
G3 X67.9176 Y129.4473 I-2.0844 J-4.5448
G3 X67.0358 Y129.7801 I-3.2642 J-7.3141
G1 X66.7055 Y129.8853
G3 X64.7341 Y130.1003 I-1.517 J-4.7643
G3 X64.7285 Y130.2845 I-5.5141 J-0.0768
G3 X64.6775 Y130.8174 I-5.4857 J-0.2556
G3 X64.7323 Y131.6481 I-5.2226 J0.7616
G3 X64.7271 Y131.821 I-4.9996 J-0.0654
G3 X64.7269 Y131.824 I-5.3824 J-0.2568
G3 X64.3088 Y133.6602 I-5.3015 J-0.2414
G3 X64.1832 Y133.9359 I-4.9641 J-2.096
G3 X64.1615 Y133.9795 I-4.4897 J-2.2007
G3 X64.1163 Y134.0678 I-5.1693 J-2.5966
G3 X63.3164 Y135.2257 I-5.0499 J-2.6332
G2 X62.7827 Y135.988 I3.2737 J2.8598
G2 X62.4534 Y136.8018 I3.4854 J1.8839
G3 X62.1379 Y137.6871 I-5.4891 J-1.4573
G3 X61.7091 Y138.4654 I-5.052 J-2.2757
G3 X61.6518 Y138.551 I-4.7448 J-3.121
G3 X61.1191 Y139.21 I-4.3345 J-2.9583
G3 X58.4219 Y140.7229 I-3.7899 J-3.5962
G3 X58.3607 Y140.7357 I-1.1046 J-5.1302
G3 X58.0341 Y140.7907 I-0.9942 J-4.9002
G3 X57.9729 Y140.7986 I-0.7018 J-5.2094
G3 X55.702 Y140.5786 I-0.6437 J-5.1848
G3 X55.274 Y140.418 I1.6303 J-4.9972
G3 X55.2313 Y140.3996 I1.9579 J-4.6007
G3 X53.507 Y139.2127 I2.2033 J-5.0466
G3 X52.7848 Y138.3269 I4.2142 J-4.1733
G3 X52.5541 Y137.958 I5.4117 J-3.6411
G3 X52.4088 Y137.6957 I4.6619 J-2.7534
G1 X52.3861 Y137.6527
G3 X52.0472 Y137.1732 I20.7689 J-15.0379
G1 X51.9487 Y137.0328
G1 X51.7417 Y136.7382
G2 X51.7374 Y136.7322 I-8.5925 J6.1376
G3 X51.6966 Y136.6755 I4.0363 J-2.951
G3 X51.6614 Y136.6273 I4.0214 J-2.9712
G2 X51.6131 Y136.562 I-8.5121 J6.2485
G3 X51.604 Y136.5498 I4.0077 J-2.9897
G2 X51.4571 Y136.3615 I-3.8601 J2.8612
G1 X51.3975 Y136.292
G2 X51.3435 Y136.2361 I-1.1521 J1.0613
G3 X50.6591 Y135.5224 I6.9566 J-7.3563
G3 X50.6433 Y135.5042 I3.7734 J-3.2804
G3 X50.2107 Y134.9547 I6.0507 J-5.2091
G3 X50.0367 Y134.7044 I6.824 J-4.9273
G3 X50.0235 Y134.6844 I4.1571 J-2.7783
G3 X49.7203 Y134.1813 I5.8198 J-3.8494
G3 X48.9824 Y132.0925 I5.9696 J-3.2837
G3 X48.8862 Y130.54 I6.7023 J-1.1945
G3 X48.9236 Y129.8124 I164.1885 J8.075
G3 X48.9652 Y129.0616 I68.8903 J3.4396
G3 X48.9937 Y128.5704 I52.3962 J2.7968
G3 X49.0329 Y127.9152 I61.792 J3.3719
G3 X49.0866 Y127.0406 I89.0542 J5.0291
G1 X49.156 Y125.914
G1 X49.2183 Y124.8551
G1 X49.0284 Y124.4634
G3 X48.9218 Y124.2449 I8.9997 J-4.5258
G3 X48.8347 Y124.0641 I7.8138 J-3.8789
G3 X48.7569 Y123.901 I7.2539 J-3.557
G3 X48.6724 Y123.7202 I6.9286 J-3.3488
G3 X48.5864 Y123.5336 I19.552 J-9.1299
G3 X48.5718 Y123.5015 I4.5447 J-2.0846
G3 X48.4367 Y123.1975 I19.6527 J-8.9112
G1 X48.4177 Y123.1545
G3 X48.3816 Y123.0713 I4.5699 J-2.0287
G1 X48.3082 Y122.8975
G3 X48.2785 Y122.8256 I4.606 J-1.9455
G1 X48.2351 Y122.7182
G3 X48.1986 Y122.6279 I19.9894 J-8.1279
G3 X48.186 Y122.5961 I4.6402 J-1.8624
G2 X47.5777 Y121.4478 I-5.3945 J2.1224
G2 X46.6954 Y120.431 I-5.1587 J3.585
G2 X46.3114 Y120.1009 I-4.5859 J4.9466
G2 X45.6312 Y119.6227 I-4.9082 J6.2592
G1 X45.6311 Y119.6226
G1 X45.6313 Y119.6228
G1 X45.6312 Y119.6227
G2 X45.4001 Y119.4818 I-5.5712 J8.8796
G1 X45.3013 Y119.4243
G2 X45.1202 Y119.3226 I-7.659 J13.43
G2 X44.6758 Y119.0865 I-7.7052 J13.968
G2 X44.0631 Y118.7902 I-9.5015 J18.8647
G2 X44.0594 Y118.7885 I-6.4207 J14.0641
G3 X44.0386 Y118.779 I2.0753 J-4.549
G2 X43.8603 Y118.6974 I-11.2859 J24.4409
G2 X43.7552 Y118.6503 I-8.686 J19.2538
G3 X43.7024 Y118.6265 I2.0312 J-4.5688
G2 X43.6676 Y118.611 I-10.9498 J24.5934
G3 X43.5687 Y118.5674 I1.9685 J-4.5962
G2 X43.5353 Y118.5528 I-10.8161 J24.6525
G3 X43.508 Y118.5412 I1.9453 J-4.6061
G2 X43.4391 Y119.0775 I127.4791 J16.6685
G1 X43.4182 Y119.2431
G2 X43.3745 Y119.5968 I127.5689 J15.9666
G3 X43.3666 Y119.6579 I-4.963 J-0.6072
G1 X43.3583 Y119.7198
G1 X43.3484 Y119.7979
G3 X43.3395 Y119.8653 I-4.9609 J-0.6242
G1 X43.3147 Y120.043
G1 X43.3086 Y120.0877
G3 X43.2993 Y120.1533 I-4.9551 J-0.6683
G3 X43.2477 Y120.4888 I-9.5628 J-1.2992
G3 X43.0462 Y121.4931 I-12.5596 J-1.9977
G3 X43.0174 Y121.6059 I-4.8587 J-1.1802
G3 X42.5583 Y122.7694 I-5.2983 J-1.4184
G3 X41.833 Y123.8185 I-4.8779 J-2.5974
G3 X41.7745 Y123.8846 I-4.4086 J-3.8331
G3 X41.7141 Y123.9509 I-3.7233 J-3.3373
G3 X41.5485 Y124.1233 I-4.5492 J-4.2031
G3 X41.4729 Y124.1974 I-3.5388 J-3.5323
G3 X41.0067 Y124.6108 I-4.7463 J-4.8839
G3 X40.9263 Y124.6763 I-5.5835 J-6.7698
G3 X33.2961 Y123.6583 I-3.393 J-3.6726
G1 X33.1919 Y123.4919
G3 X33.1758 Y123.4668 I9.378 J-6.0527
G3 X33.0898 Y123.3327 I4.9861 J-3.2935
G3 X32.92 Y123.0572 I7.051 J-4.5333
G3 X32.4904 Y122.2257 I6.9197 J-4.1019
G3 X32.4217 Y122.0636 I4.5681 J-2.0328
G3 X32.0657 Y120.6837 I5.0589 J-2.0409
G3 X32.0414 Y120.4438 I5.4688 J-0.6748
G3 X32.029 Y119.7323 I5.5857 J-0.4537
G1 X32.0291 Y119.7291
G1 X31.6624 Y113.5762
G1 X31.6526 Y113.4312
G1 X31.652 Y113.4221
G3 X31.6453 Y113.3291 I54.3417 J-3.9421
G3 X31.6341 Y113.1718 I6.1236 J-0.5151
G3 X31.6272 Y113.057 I5.8189 J-0.4051
G3 X31.6202 Y112.9046 I5.6763 J-0.3405
G3 X31.6124 Y112.6229 I8.8305 J-0.3834
G3 X31.6328 Y111.9178 I7.4448 J-0.1374
G3 X31.6422 Y111.8103 I4.9854 J0.3813
G3 X31.7816 Y111.0129 I5.3686 J0.5272
G3 X32.0676 Y110.1755 I5.2668 J1.3312
G3 X32.5775 Y109.2445 I5.2103 J2.2482
G3 X32.6382 Y109.1563 I4.5794 J3.0896
G3 X32.6694 Y109.1124 I4.0914 J2.8742
G3 X33.1034 Y108.5809 I4.4874 J3.2217
G3 X33.3079 Y108.3719 I3.8085 J3.5226
G3 X33.1795 Y107.6737 I199.0923 J-36.9758
G3 X33.1649 Y107.589 I4.9191 J-0.8958
G3 X33.1595 Y105.8232 I5.4718 J-0.8996
G3 X33.2927 Y105.2043 I5.5278 J0.8663
G3 X33.5762 Y104.3876 I5.9048 J1.5924
G3 X33.7023 Y104.1045 I6.5923 J2.7656
G3 X33.7655 Y103.9698 I12.6059 J5.8314
G3 X33.9429 Y103.5732 I4.6484 J1.8419
G3 X33.6548 Y101.6032 I5.1425 J-1.7583
G3 X33.7749 Y100.6156 I5.6905 J0.1909
G3 X33.8245 Y100.3974 I5.8211 J1.2078
G3 X33.9277 Y100.0265 I5.151 J1.2343
G3 X34.0539 Y99.6628 I5.3072 J1.6375
G3 X34.1378 Y99.4518 I6.0899 J2.3006
G2 X34.175 Y99.3524 I-1.5406 J-0.6324
G1 X34.2088 Y99.2466
G1 X34.2235 Y99.197
G2 X34.2373 Y99.1484 I-6.2099 J-1.793
G2 X34.3085 Y98.8709 I-8.7699 J-2.3978
G2 X34.3562 Y98.6581 I-10.8528 J-2.5444
G1 X34.3573 Y98.579
G3 X34.3834 Y97.9049 I9.192 J0.0191
G3 X34.436 Y97.3976 I8.7365 J0.6489
G3 X34.4379 Y97.3835 I4.9563 J0.6599
G3 X34.702 Y96.2702 I5.8124 J0.7908
G3 X34.7248 Y96.2046 I5.6872 J1.9375
G3 X35.0251 Y95.5088 I5.2737 J1.8633
G3 X35.5902 Y94.6252 I4.8962 J2.509
G3 X36.3229 Y93.855 I4.23 J3.2902
G1 X36.4371 Y93.2207
G3 X36.4783 Y92.991 I21.3379 J3.7174
G3 X36.5338 Y92.6829 I27.3051 J4.7558
G3 X36.6096 Y92.2632 I41.9244 J7.357
G1 X36.7059 Y91.7334
G3 X36.7083 Y91.7203 I4.9194 J0.8939
G1 X36.7098 Y91.7119
G1 X36.7101 Y91.7106
G3 X36.779 Y91.3348 I33.1008 J5.8758
G3 X36.841 Y91.0009 I26.9009 J4.8229
G1 X36.8413 Y90.999
G3 X36.8451 Y90.9789 I4.9167 J0.9088
G3 X36.991 Y90.2115 I130.9162 J24.4873
G1 X37.0282 Y90.0159
G3 X37.0344 Y89.9838 I4.912 J0.9337
G1 X37.142 Y89.4369
G3 X37.1482 Y89.4058 I4.9058 J0.9658
G1 X37.2212 Y89.0472
G3 X37.2753 Y88.7816 I130.5401 J26.419
G3 X38.0432 Y86.7402 I6.7224 J1.364
G3 X38.9815 Y85.4648 I5.9761 J3.4134
G3 X39.6497 Y84.8289 I5.3764 J4.9803
G3 X40.1689 Y84.4317 I4.681 J5.5806
G3 X41.2131 Y83.8069 I4.7818 J6.8063
G1 X41.5376 Y83.6398
G2 X41.638 Y83.5875 I-22.2071 J-42.7138
G1 X41.9106 Y83.4436
G1 X42.5158 Y83.1173
G1 X42.563 Y83.0916
G0 Z3.0
G0 X40.1638 Y78.7048
G0 Z1.4
G1 F300.0 Z0.0
G1 F800.0 X40.1298 Y78.7233
G1 X39.5577 Y79.0318
G1 X39.3133 Y79.1607
G3 X39.2398 Y79.199 I-19.9827 J-38.2348
G1 X38.9429 Y79.3519
G2 X37.3032 Y80.3344 I6.0078 J11.8861
G2 X36.437 Y80.9976 I7.0276 J10.075
G2 X35.3175 Y82.0626 I7.9209 J9.4475
G2 X33.7022 Y84.2592 I8.7018 J8.0911
G2 X32.376 Y87.7831 I10.2954 J5.8864
G2 X32.3211 Y88.0529 I135.3854 J27.6831
G1 X32.2486 Y88.409
G2 X32.2362 Y88.4711 I9.7992 J1.9937
G1 X32.1285 Y89.018
G2 X32.1161 Y89.0822 I9.8117 J1.9316
G1 X32.0803 Y89.2706
G2 X31.9311 Y90.0555 I135.681 J26.1956
G2 X31.9279 Y90.0724 I9.8269 J1.8523
G2 X31.8618 Y90.4285 I31.7519 J6.0853
G2 X31.7899 Y90.8206 I37.9491 J7.1579
G2 X31.7864 Y90.8396 I9.8354 J1.8067
G1 X31.6919 Y91.3598
G2 X31.6598 Y91.5345 I46.7663 J8.6801
G2 X31.6488 Y91.5486 I8.1604 J6.3809
G2 X30.5772 Y93.2248 I8.2725 J6.4692
G2 X30.0106 Y94.5383 I9.4212 J4.8432
G2 X29.9709 Y94.6525 I10.3786 J3.6694
G2 X29.4836 Y96.7094 I10.2794 J3.5217
G2 X29.4798 Y96.7377 I9.9094 J1.3482
G2 X29.3974 Y97.5312 I13.6402 J1.8162
G2 X29.3744 Y97.9012 I14.1519 J1.067
G2 X29.1563 Y98.5319 I9.8606 J3.7627
G2 X28.9663 Y99.2149 I9.8191 J3.0998
G2 X28.8811 Y99.5903 I10.6298 J2.6084
G2 X28.6581 Y101.4221 I10.4641 J2.2038
G2 X28.7261 Y103.0673 I10.4274 J0.3928
G2 X28.4686 Y103.8899 I10.4714 J3.7294
G2 X28.2203 Y105.0456 I10.2187 J2.7996
G2 X28.0954 Y106.9803 I10.4164 J1.6438
G2 X27.48 Y108.1871 I9.1824 J5.4434
G2 X26.9343 Y109.7864 I9.5684 J4.1571
G2 X26.6662 Y111.3216 I10.0765 J2.5512
G2 X26.6474 Y111.5365 I9.9522 J0.9774
G2 X26.613 Y112.6975 I12.4099 J0.949
G2 X26.6238 Y113.097 I13.8377 J-0.1762
G2 X26.6347 Y113.331 I10.6797 J-0.3806
G2 X26.6443 Y113.4908 I10.8183 J-0.5644
G2 X26.6598 Y113.7111 I11.1247 J-0.6769
G2 X26.6647 Y113.7785 I59.3338 J-4.2311
G1 X26.6724 Y113.8933
G1 X27.0247 Y119.8037
G2 X27.0574 Y120.8435 I10.6025 J0.1864
G2 X27.103 Y121.2928 I10.4771 J-0.8345
G2 X27.7848 Y123.9342 I10.3776 J-1.2701
G2 X27.9223 Y124.2585 I9.2738 J-3.7413
G2 X28.6159 Y125.6018 I11.9174 J-5.3032
G2 X28.8654 Y126.0077 I11.5248 J-6.8023
G2 X28.9764 Y126.1809 I9.2965 J-5.8344
G1 X29.059 Y126.3128
G2 X43.9803 Y128.6481 I8.4743 J-5.3091
G2 X43.9733 Y128.7764 I57.3811 J3.2104
G2 X43.9303 Y129.5537 I73.8406 J4.4755
G2 X43.8926 Y130.2868 I169.1444 J9.0613
G2 X44.0599 Y132.9696 I11.7921 J0.6111
G2 X45.3361 Y136.5852 I11.63 J-2.0719
G2 X45.8532 Y137.4428 I10.5072 J-5.7502
G2 X45.8796 Y137.4826 I8.3406 J-5.5167
G2 X46.1538 Y137.8773 I11.155 J-7.4553
G2 X46.854 Y138.7663 I10.5403 J-7.5822
G2 X46.8856 Y138.8029 I7.5785 J-6.5243
G2 X47.6663 Y139.6352 I11.4144 J-9.9231
G2 X47.6713 Y139.6422 I8.1074 J-5.854
G1 X47.8563 Y139.9055
G1 X47.9429 Y140.0289
G2 X48.1374 Y140.3073 I25.2121 J-17.4141
G2 X48.2386 Y140.4832 I9.0785 J-5.1026
G2 X48.6299 Y141.1084 I9.958 J-5.7974
G2 X49.9476 Y142.7242 I9.0914 J-6.069
G2 X53.2307 Y144.9819 I7.487 J-7.3712
G2 X53.316 Y145.0187 I4.0012 J-9.1646
G2 X54.1479 Y145.3309 I4.0163 J-9.4374
G2 X58.5856 Y145.7609 I3.1812 J-9.7171
G2 X58.7016 Y145.746 I-1.2533 J-10.1796
G2 X59.3549 Y145.6358 I-1.3351 J-9.9105
G2 X59.471 Y145.6116 I-2.0376 J-10.0431
G2 X64.7438 Y142.6541 I-2.1419 J-9.9977
G2 X65.7801 Y141.3718 I-7.4265 J-7.0614
G2 X65.8838 Y141.2172 I-8.8157 J-6.0273
G2 X66.6947 Y139.7451 I-8.7979 J-5.8058
G2 X67.2049 Y138.3736 I-9.7304 J-4.4007
G2 X68.5474 Y136.3839 I-8.1385 J-6.9391
G2 X68.6295 Y136.2238 I-9.5552 J-5.001
G2 X68.6729 Y136.1365 I-8.936 J-4.4886
G2 X68.9124 Y135.6114 I-9.3282 J-4.5723
G2 X69.3803 Y134.2535 I-9.4869 J-4.0288
G2 X69.9553 Y134.0133 I-4.7269 J-12.1203
G2 X70.0487 Y133.971 I-4.0755 J-9.1321
G2 X72.5988 Y132.3033 I-4.2739 J-9.3188
G2 X73.8998 Y130.9119 I-6.8846 J-7.7412
G2 X74.1836 Y130.5306 I-8.096 J-6.3236
G2 X74.3657 Y130.2688 I-9.6945 J-6.9348
G1 X74.5821 Y129.9604
G2 X74.7745 Y129.6859 I-20.413 J-14.5114
G1 X74.7852 Y129.6707
G2 X74.8067 Y129.6399 I-8.1866 J-5.7427
G1 X75.295 Y128.9382
G2 X75.3133 Y128.9118 I-8.2081 J-5.712
G2 X75.4853 Y128.663 I-13.0399 J-9.1958
G2 X75.6176 Y128.4697 I-12.7869 J-8.8928
G2 X75.7467 Y128.2798 I-12.57 J-8.6899
G2 X75.8866 Y128.0726 I-12.4069 J-8.5222
G2 X75.9336 Y128.0026 I-47.3948 J-31.9199
G2 X76.8692 Y126.5646 I-41.9035 J-28.286
G2 X77.4049 Y125.6899 I-34.7902 J-21.91
G2 X77.7571 Y125.088 I-26.5121 J-15.9166
G2 X78.5598 Y123.6056 I-28.9815 J-16.6519
G2 X79.0459 Y122.6109 I-26.9047 J-13.7625
G2 X79.7958 Y120.8598 I-25.4562 J-11.9386
G2 X79.8283 Y120.7751 I-9.3205 J-3.6233
G2 X80.339 Y119.0004 I-10.6106 J-4.0144
G2 X81.4296 Y116.7417 I-15.2806 J-8.7704
G2 X81.8162 Y115.7634 I-139.9445 J-55.8808
G2 X82.1946 Y114.8022 I-139.9955 J-55.6625
G2 X82.4435 Y114.1683 I-124.5965 J-49.2878
G2 X82.7803 Y113.3092 I-162.5212 J-64.1969
G1 X82.8337 Y113.1728
G1 X82.8358 Y113.1673
G2 X82.8393 Y113.1583 I-9.3085 J-3.654
G1 X82.8571 Y113.1129
G1 X84.0919 Y109.9598
G1 X84.9673 Y107.7368
G1 X85.4599 Y106.4958
G2 X86.0469 Y104.6712 I-12.5225 J-5.0354
G2 X86.1798 Y104.0695 I-12.7225 J-3.1265
G2 X86.1804 Y104.0665 I-13.4006 J-2.6565
G2 X86.4129 Y102.1142 I-12.4309 J-2.4702
G2 X85.7335 Y97.4835 I-12.5044 J-0.5305
G2 X85.7293 Y97.4715 I-9.4481 J3.276
G2 X84.8972 Y95.5891 I-11.9866 J4.1733
G2 X84.3099 Y94.6142 I-11.1226 J6.0364
G1 X84.2512 Y94.5251
G1 X84.19 Y94.4314
G3 X84.0538 Y94.2202 I69.9975 J-45.3024
G1 X83.7465 Y93.7373
G2 X83.6845 Y93.6391 I-10.7077 J6.6944
G2 X83.5789 Y93.4727 I-13.9946 J8.7575
G2 X83.5014 Y93.3509 I-15.4206 J9.7399
G2 X82.9584 Y92.5176 I-34.538 J21.91
G2 X82.0368 Y91.206 I-22.7785 J15.0266
G2 X81.9647 Y91.1101 I-8.0323 J5.9567
G2 X81.842 Y90.9487 I-21.7848 J16.4341
G2 X81.6324 Y90.6791 I-8.8191 J6.6424
G2 X80.1655 Y89.0126 I-16.2156 J12.7939
G2 X80.131 Y88.9775 I-7.1404 J7.0009
G3 X75.7494 Y83.5715 I24.9281 J-24.6827
G2 X75.4732 Y83.1602 I-21.4237 J14.089
G2 X74.4992 Y81.8332 I-20.9368 J14.3457
G2 X74.2511 Y81.522 I-20.1735 J15.8274
G2 X74.2362 Y81.5035 I-7.7708 J6.294
G2 X74.1375 Y81.3831 I-19.2728 J15.6859
G2 X73.9757 Y81.1883 I-19.6011 J16.1228
G2 X72.4923 Y79.5763 I-18.3667 J15.4117
G2 X72.4605 Y79.5448 I-7.051 J7.0911
G2 X72.2737 Y79.3622 I-16.8516 J17.0553
G2 X72.218 Y79.3084 I-6.9801 J7.1608
G2 X71.9248 Y79.0316 I-16.6528 J17.3506
G2 X67.7082 Y75.9006 I-16.3159 J17.5685
G2 X67.6975 Y75.8944 I-5.0461 J8.6329
G3 X67.3037 Y75.6627 I27.7247 J-47.5659
G3 X66.7674 Y75.3394 I26.0205 J-43.7689
G1 X66.7663 Y75.3387
G1 X66.3612 Y75.0911
G3 X66.2617 Y75.03 I39.1986 J-63.8515
G2 X66.173 Y74.9753 I-5.2953 J8.4829
G3 X66.0706 Y74.9118 I39.3868 J-63.7356
G3 X66.0605 Y74.9055 I4.6169 J-7.3433
G2 X65.9803 Y74.8554 I-5.3343 J8.4584
G3 X65.7939 Y74.739 I11.1569 J-18.0673
G2 X65.7702 Y74.7241 I-5.3419 J8.4537
G3 X64.1752 Y73.7001 I50.6507 J-80.6554
G2 X64.1583 Y73.689 I-5.495 J8.3549
G3 X64.0011 Y73.5856 I52.2626 J-79.6204
G2 X63.9699 Y73.5651 I-5.5212 J8.3377
G3 X63.8164 Y73.4636 I52.451 J-79.4964
G2 X62.422 Y72.6538 I-7.2906 J10.9489
G2 X62.3677 Y72.6268 I-4.4824 J8.9391
G1 X62.3441 Y72.6151
G2 X62.2553 Y72.5718 I-4.4281 J8.9661
G1 X62.23 Y72.5597
G2 X62.2269 Y72.5581 I-4.3393 J9.0094
G2 X61.4346 Y72.2106 I-5.3409 J11.0989
G2 X59.7734 Y71.6832 I-4.4713 J11.2033
G2 X58.5163 Y71.4516 I-2.7725 J11.5217
G2 X54.9854 Y71.5269 I-1.5163 J11.7108
G2 X54.288 Y71.669 I2.0155 J11.678
G2 X51.345 Y72.7751 I2.8032 J11.9265
G2 X50.5931 Y73.1712 I56.6538 J108.4652
G2 X49.8271 Y73.5747 I59.0225 J112.9777
G2 X49.3233 Y73.8401 I50.9344 J97.2942
G2 X48.6444 Y74.1978 I60.2421 J115.1605
G2 X47.7337 Y74.6778 I72.651 J138.945
G2 X47.2209 Y74.9481 I59.2281 J112.957
G2 X46.6294 Y75.2601 I65.9208 J125.7152
G2 X45.9533 Y75.6168 I74.2905 J141.6341
G2 X45.1803 Y76.0248 I85.1653 J162.2838
G2 X44.2967 Y76.4915 I100.0973 J190.585
G2 X43.2864 Y77.0256 I122.4182 J232.8058
G2 X42.1684 Y77.6171 I161.2128 J306.0421
G2 X41.8184 Y77.8032 I9.5692 J18.4213
G2 X41.5009 Y77.9744 I9.8722 J18.6892
G2 X41.3188 Y78.0733 I9.4553 J17.63
G2 X41.0247 Y78.2339 I11.1392 J20.741
G1 X40.1638 Y78.7048
G0 Z3.0
G0 X4.9015 Y95.1177
G0 Z1.4
G1 F300.0 Z0.0
G3 F800.0 X4.9172 Y95.1517 I-6.4825 J3.0173
G3 X4.9299 Y95.1792 I-7.2148 J3.3556
G3 X5.1281 Y95.6637 I-5.009 J2.3311
G3 X5.3087 Y96.2873 I-4.8511 J1.7435
G3 X5.331 Y96.3901 I-5.3878 J1.223
G3 X5.4085 Y96.9969 I-4.1071 J0.8325
G3 X5.4147 Y97.2498 I-4.2084 J0.2306
G3 X5.2878 Y98.2 I-3.7562 J-0.0181
G3 X5.2845 Y98.2124 I-4.2149 J-1.137
G3 X5.1012 Y98.7461 I-3.7958 J-1.0047
G1 X5.0968 Y98.7562
G3 X4.823 Y99.2979 I-4.0238 J-1.6933
G3 X4.7338 Y99.4426 I-3.9756 J-2.3504
G3 X4.3536 Y99.9697 I-4.5843 J-2.9065
G2 X4.1472 Y100.2457 I5.0343 J3.9801
G1 X4.0181 Y100.4354
G1 X3.873 Y100.6541
G1 X3.7879 Y100.7828
G3 X3.5657 Y101.1004 I-5.1128 J-3.3413
G3 X3.3284 Y101.4188 I-35.2609 J-26.0329
G3 X3.0907 Y101.7369 I-35.9492 J-26.6125
G3 X2.6145 Y102.3724 I-56.1546 J-41.5812
G3 X2.2966 Y102.7958 I-59.6294 J-44.4451
G1 X1.0249 Y104.4892
G1 X0.1807 Y105.6208
G1 X-0.299 Y106.2694
G2 X-0.844 Y107.013 I130.4338 J96.164
G1 X-1.3547 Y107.7182
G1 X-1.7645 Y108.2897
G1 X-2.0681 Y108.7176
G1 X-2.47 Y109.2901
G2 X-2.6295 Y109.5182 I50.5451 J35.5094
G2 X-2.9318 Y109.9567 I86.2445 J59.7841
G2 X-3.0004 Y110.0574 I51.0068 J34.8428
G2 X-3.157 Y110.2865 I72.5049 J49.7225
G2 X-3.5822 Y110.9165 I86.7721 J59.0158
G2 X-5.0447 Y113.1783 I73.0867 J48.8634
G1 X-5.3062 Y113.6015
G2 X-5.5819 Y114.0549 I40.3267 J24.8295
G2 X-6.9892 Y116.5104 I56.277 J33.8849
G2 X-8.6713 Y119.8889 I46.2612 J25.1402
G3 X-8.7785 Y120.0866 I-1.7616 J-0.8278
G3 X-8.8598 Y120.2095 I-1.8207 J-1.1158
G3 X-8.8898 Y120.2535 I-0.6225 J-0.3921
G1 X-8.9346 Y120.3196
G1 X-9.0136 Y120.4389
G1 X-9.288 Y120.3481
G1 X-9.2428 Y119.9888
G1 X-9.2177 Y119.7784
G3 X-9.1529 Y119.2616 I18.6152 J2.0706
G1 X-9.1528 Y119.2605
G1 X-9.1526 Y119.259
G3 X-9.1492 Y119.2346 I18.5501 J2.59
G1 X-9.1465 Y119.2172
G1 X-9.1301 Y119.1055
G3 X-9.1001 Y118.9177 I5.9986 J0.8631
G3 X-9.0912 Y118.8687 I1.9292 J0.3226
G3 X-9.0752 Y118.7849 I5.9598 J1.0998
G3 X-9.0565 Y118.6945 I2.6325 J0.498
G3 X-8.8265 Y117.6655 I33.5778 J6.9646
G3 X-8.5355 Y116.5302 I34.8984 J8.3402
G3 X-8.1189 Y115.0905 I42.2381 J11.44
G3 X-7.7722 Y114.0105 I43.1626 J13.2616
G3 X-7.6822 Y113.7419 I12.15 J3.9233
G3 X-7.6068 Y113.5208 I61.4651 J20.8311
G1 X-7.5902 Y113.472
G3 X-7.3336 Y112.7403 I37.1249 J12.6088
G3 X-7.1931 Y112.3514 I15.9531 J5.541
G3 X-7.1641 Y112.272 I79.175 J28.9403
G1 X-7.1575 Y112.2538
G1 X-7.1457 Y112.2219
G3 X-7.0247 Y111.8947 I79.1276 J29.0698
G1 X-7.0013 Y111.8315
G3 X-6.9701 Y111.7483 I99.5465 J37.3549
G3 X-6.4561 Y110.4094 I78.952 J29.5434
G3 X-6.4012 Y110.2697 I99.0012 J38.7769
G3 X-6.3213 Y110.067 I9.1467 J3.4912
G3 X-6.2848 Y109.9749 I98.8664 J39.1193
G3 X-6.2233 Y109.8202 I9.3736 J3.6379
G3 X-5.825 Y108.8354 I98.7684 J39.3662
G3 X-5.7931 Y108.7577 I7.8325 J3.1711
G3 X-5.7804 Y108.7268 I98.3382 J40.4287
G3 X-5.7217 Y108.5835 I8.1301 J3.2494
G1 X-5.6758 Y108.4726
G1 X-5.4438 Y107.9086
G1 X-5.26 Y107.4664
G1 X-5.1402 Y107.1763
G1 X-4.4719 Y105.5701
G3 X-4.4232 Y105.4626 I1.5349 J0.6302
G3 X-4.4057 Y105.4273 I0.3294 J0.1417
G3 X-4.3317 Y105.2886 I3.1434 J1.5873
G2 X-4.3209 Y105.2697 I-5.6311 J-3.2398
G1 X-4.2175 Y105.0814
G2 X-4.1816 Y105.0124 I-5.7453 J-3.0327
G2 X-4.1725 Y104.9947 I-1.388 J-0.7253
G2 X-4.0827 Y104.7785 I-1.7492 J-0.8528
G1 X-4.079 Y104.7675
G2 X-4.0589 Y104.6362 I-0.5413 J-0.1498
G2 X-4.0591 Y104.6247 I-0.4439 J-0.0005
G2 X-4.0621 Y104.5557 I-1.2024 J0.0177
G2 X-4.0624 Y104.5527 I-0.5582 J0.062
G2 X-4.0804 Y104.4164 I-3.1112 J0.3407
G2 X-4.0815 Y104.4106 I-1.1811 J0.2261
G3 X-4.0963 Y104.3232 I2.35 J-0.4416
G3 X-4.1117 Y104.1974 I1.137 J-0.2035
G3 X-4.4044 Y104.2975 I-3.4248 J-9.5309
G2 X-4.6893 Y104.4178 I0.7207 J2.1037
G2 X-4.7664 Y104.4819 I0.187 J0.3033
G2 X-4.7843 Y104.505 I0.2284 J0.1964
G2 X-4.8033 Y104.5304 I0.573 J0.4467
G2 X-4.8093 Y104.5404 I0.301 J0.1908
G1 X-4.8982 Y104.6871
G2 X-6.1301 Y106.8102 I28.9574 J18.2206
G1 X-6.293 Y107.1209
G1 X-6.4746 Y107.4783
G2 X-6.5428 Y107.6148 I21.7164 J10.9364
G2 X-7.3097 Y109.3241 I24.1869 J11.8777
G2 X-7.7246 Y110.4302 I22.5515 J9.0907
G2 X-7.7937 Y110.6333 I18.9588 J6.5585
G2 X-7.8926 Y110.9383 I20.2414 J6.7373
G2 X-8.3151 Y112.4857 I19.2434 J6.0845
G1 X-8.4778 Y113.2055
G2 X-8.808 Y114.6977 I239.622 J53.8
G1 X-8.9547 Y115.3758
G1 X-9.1349 Y116.2228
G1 X-9.3016 Y117.0173
G1 X-9.609 Y118.5082
G1 X-9.8737 Y119.8135
G1 X-10.7869 Y124.385
G3 X-10.9013 Y124.9564 I-65.978 J-12.9134
G3 X-11.0017 Y125.4563 I-52.2957 J-10.2456
G3 X-11.0899 Y125.8937 I-44.2025 J-8.6838
G3 X-11.1673 Y126.2763 I-38.6574 J-7.6223
G3 X-11.2353 Y126.6111 I-34.5156 J-6.8338
G3 X-11.3548 Y127.1968 I-43.5207 J-8.5762
G3 X-11.445 Y127.636 I-36.3768 J-7.241
G3 X-11.513 Y127.9653 I-30.9823 J-6.2232
G3 X-11.6155 Y128.4591 I-37.5073 J-7.5302
G3 X-11.7188 Y128.9528 I-37.5133 J-7.5914
G3 X-11.7445 Y129.0679 I-9.4092 J-2.0355
G1 X-11.7599 Y129.137
G1 X-11.8022 Y129.3089
G3 X-11.8723 Y129.5644 I-10.1571 J-2.6472
G3 X-11.9832 Y129.9254 I-9.2557 J-2.6472
G3 X-11.9898 Y129.9455 I-9.9761 J-3.2637
G3 X-12.0699 Y130.1811 I-7.7059 J-2.4889
G1 X-12.0746 Y130.1942
G3 X-12.3327 Y130.878 I-14.4886 J-5.0777
G1 X-12.3592 Y130.9433
G3 X-12.4208 Y131.0957 I-23.7834 J-9.5238
G3 X-12.457 Y131.1838 I-1.648 J-0.6261
G3 X-12.4889 Y131.2608 I-1.3467 J-0.5126
G1 X-12.5174 Y131.3283
G1 X-12.5683 Y131.4507
G1 X-12.7153 Y131.7983
G3 X-12.8627 Y132.0463 I-1.0534 J-0.4582
G3 X-12.955 Y132.1568 I-1.3076 J-0.9974
G3 X-13.1651 Y132.3542 I-1.3221 J-1.197
G3 X-13.5208 Y132.5984 I-1.6083 J-1.9615
G3 X-13.6533 Y132.6618 I-0.5291 J-0.9352
G3 X-13.8045 Y132.7013 I-0.2187 J-0.528
G3 X-13.8273 Y132.7042 I-0.1002 J-0.6937
G3 X-14.0007 Y132.6832 I-0.0465 J-0.3417
G3 X-14.0911 Y132.6312 I0.1197 J-0.313
G3 X-14.1138 Y132.6102 I0.2441 J-0.2858
G3 X-14.1315 Y132.5916 I0.24 J-0.2477
G3 X-14.1422 Y132.578 I0.3502 J-0.2861
G3 X-14.1807 Y132.5184 I0.2953 J-0.2326
G3 X-14.1879 Y132.5035 I0.4844 J-0.2442
G3 X-14.2191 Y132.4191 I0.4066 J-0.198
G3 X-14.2375 Y132.312 I0.5227 J-0.1449
G3 X-14.2383 Y132.2986 I1.1693 J-0.0811
G3 X-14.2327 Y132.098 I0.8792 J-0.0758
G3 X-14.2214 Y132.0157 I15.9371 J2.1397
G1 X-14.2047 Y131.8932
G3 X-14.1831 Y131.7564 I9.8205 J1.4781
G3 X-14.1825 Y131.7528 I15.8875 J2.4812
G3 X-14.1629 Y131.6384 I1.6036 J0.2161
G3 X-14.1443 Y131.5364 I9.7788 J1.7329
G1 X-14.1323 Y131.4759
G3 X-14.0998 Y131.3129 I16.2979 J3.1587
G1 X-14.0913 Y131.2702
G1 X-14.0843 Y131.2379
G3 X-14.0725 Y131.1818 I16.25 J3.3967
G3 X-14.0122 Y130.9122 I10.935 J2.3043
G3 X-13.9883 Y130.811 I2.5881 J0.5573
G1 X-13.9077 Y130.4772
G3 X-13.5083 Y128.8543 I426.4148 J104.0629
G3 X-13.1583 Y127.4343 I505.1043 J123.7386
G3 X-12.0541 Y122.9585 I3228.1796 J794.0544
G1 X-11.6241 Y121.2144
G1 X-10.7085 Y117.4944
G2 X-10.6613 Y117.2682 I-4.2174 J-0.9982
G2 X-10.6604 Y117.2613 I-0.6729 J-0.0984
G2 X-10.6253 Y117.026 I-4.7498 J-0.8289
G1 X-10.6116 Y116.9105
G3 X-10.5518 Y116.4188 I18.2324 J1.9696
G3 X-10.6203 Y116.3971 I0.2998 J-1.0625
G1 X-10.8267 Y116.3315
G3 X-10.9324 Y116.5092 I-2.5953 J-1.423
G3 X-10.9535 Y116.5433 I-6.8147 J-4.1976
G1 X-11.0419 Y116.6861
G2 X-11.0513 Y116.7011 I2.0981 J1.3293
G2 X-11.1223 Y116.8234 I4.6687 J2.7923
G2 X-11.1362 Y116.8483 I1.6268 J0.927
G2 X-11.2253 Y117.0337 I2.1924 J1.1671
G2 X-11.2417 Y117.0746 I1.7298 J0.7167
G1 X-11.2534 Y117.1056
G1 X-11.9919 Y119.1984
G1 X-13.094 Y122.3396
G3 X-13.3691 Y123.125 I-170.9586 J-59.4576
G3 X-13.5756 Y123.714 I-120.7474 J-41.991
G3 X-13.8855 Y124.5975 I-127.758 J-44.3202
G3 X-14.1958 Y125.4808 I-113.3415 J-39.3248
G3 X-14.2277 Y125.5513 I-0.7153 J-0.2814
G3 X-14.2394 Y125.5733 I-0.7468 J-0.3805
G1 X-14.2419 Y125.5776
G3 X-14.2659 Y125.6171 I-0.6692 J-0.3781
G1 X-14.3478 Y125.7465
G2 X-14.392 Y125.8386 I0.8614 J0.4702
G1 X-14.4226 Y125.9273
G2 X-14.4365 Y125.9695 I4.778 J1.5958
G1 X-14.4598 Y126.0434
G1 X-14.5008 Y126.1814
G3 X-14.5864 Y126.4602 I-5.3816 J-1.5005
G3 X-14.5879 Y126.4649 I-13.6788 J-4.3549
G3 X-14.6838 Y126.7112 I-2.3193 J-0.7615
G3 X-14.8583 Y127.0299 I-2.9807 J-1.425
G3 X-14.9453 Y127.1648 I-3.1325 J-1.9223
G3 X-14.9863 Y127.2274 I-0.9201 J-0.5592
G1 X-15.0334 Y127.2989
G2 X-15.1567 Y127.4907 I6.9863 J4.6252
G2 X-15.2561 Y127.3481 I-2.5629 J1.6812
G2 X-15.2829 Y127.3136 I-1.7235 J1.3078
G1 X-15.3472 Y127.2311
G2 X-15.3506 Y127.227 I-2.3723 J1.9408
G3 X-15.4434 Y127.1047 I1.3721 J-1.1381
G3 X-15.5227 Y126.9809 I1.3628 J-0.9599
G3 X-15.538 Y126.9523 I0.555 J-0.3172
G3 X-15.5756 Y126.8615 I0.406 J-0.2212
G3 X-15.5942 Y126.745 I0.3368 J-0.1134
G3 X-15.5471 Y125.5067 I16.9753 J0.0255
G3 X-15.4733 Y124.7671 I13.2687 J0.9503
G3 X-15.4695 Y124.7359 I18.5011 J2.2706
G3 X-15.454 Y124.6206 I1.6426 J0.1617
G3 X-15.4011 Y124.2761 I8.1634 J1.077
G3 X-15.2922 Y123.6371 I94.693 J15.803
G3 X-15.1359 Y122.7478 I145.2142 J25.0673
G3 X-15.045 Y122.2388 I50.2215 J8.7078
G3 X-14.9224 Y121.5604 I55.978 J9.7641
G3 X-14.8519 Y121.1728 I44.7737 J7.9515
G3 X-14.7709 Y120.7299 I52.4678 J9.3614
G3 X-14.6782 Y120.2238 I66.8767 J11.9933
G2 X-14.6723 Y120.1919 I-103.7516 J-19.3168
G1 X-14.5652 Y119.6072
G1 X-14.2916 Y118.1025
G1 X-14.1345 Y117.2203
G2 X-14.1101 Y116.9841 I-2.261 J-0.3529
G2 X-14.1099 Y116.978 I-1.8123 J-0.0678
G1 X-14.1085 Y116.9324
G2 X-14.1081 Y116.802 I-4.1838 J-0.0795
G2 X-14.1091 Y116.7722 I-2.2874 J0.0654
G2 X-14.1146 Y116.6225 I-2.5354 J0.0171
G1 X-14.1159 Y116.5921
G2 X-14.116 Y116.5903 I-4.1764 J0.2608
G3 X-14.12 Y116.5048 I2.4391 J-0.1552
G3 X-14.1227 Y116.4406 I0.6773 J-0.0611
G3 X-14.1234 Y116.4235 I5.5845 J-0.2243
G1 Y116.4232
G1 Y116.4229
G3 X-14.1262 Y116.3245 I5.5852 J-0.2066
G1 X-14.1266 Y116.3091
G1 X-14.1268 Y116.2804
G3 X-14.1271 Y116.2483 I5.5887 J-0.064
G3 X-14.2177 Y116.2358 I0.1234 J-1.2327
G3 X-14.3083 Y116.2233 I0.2298 J-1.9946
G1 X-14.4895 Y116.1982
G3 X-14.5317 Y116.3102 I-12.115 J-4.4962
G1 X-14.5588 Y116.3822
G1 X-14.5905 Y116.4622
G1 X-14.6089 Y116.5076
G3 X-14.6524 Y116.6148 I-11.9956 J-4.8056
G1 X-14.7299 Y116.8051
G2 X-14.8219 Y117.0383 I19.2694 J7.7364
G2 X-14.8662 Y117.1596 I3.5455 J1.363
G1 X-14.913 Y117.2995
G2 X-14.9411 Y117.3895 I2.5338 J0.8403
G2 X-15.0091 Y117.6813 I2.6965 J0.7817
G3 X-15.3239 Y119.4333 I-378.4823 J-67.1059
G3 X-15.3691 Y119.6835 I-20.4264 J-3.5596
G2 X-15.3843 Y119.7667 I316.5899 J57.8584
G1 X-15.436 Y120.0543
G1 X-15.5961 Y120.9442
G2 X-15.6658 Y121.3336 I42.8119 J7.8584
G2 X-15.679 Y121.406 I30.667 J5.6451
G2 X-15.7285 Y121.6859 I316.8999 J56.1359
G1 X-15.9624 Y123.0218
G2 X-15.9943 Y123.2077 I175.755 J30.3096
G2 X-15.9947 Y123.2102 I16.6622 J2.732
G2 X-15.9952 Y123.2127 I15.597 J2.79
G2 X-16.037 Y123.4581 I175.7878 J30.1187
G1 X-16.0371 Y123.4584
G1 Y123.4587
G2 X-16.2606 Y124.8054 I175.8298 J29.8727
G2 X-16.6219 Y127.1894 I122.5632 J19.7909
G1 X-16.7298 Y127.9779
G2 X-16.747 Y128.1037 I67.2587 J9.2612
G2 X-16.7538 Y128.1583 I25.2275 J3.1983
G1 X-16.881 Y129.1279
G1 X-16.9652 Y129.7744
G3 X-17.0363 Y130.3176 I-97.9558 J-12.5451
G3 X-17.0415 Y130.3562 I-5.6172 J-0.7325
G3 X-17.0527 Y130.4398 I-97.8795 J-13.1269
G3 X-17.066 Y130.5378 I-5.4063 J-0.6826
G3 X-17.0697 Y130.5651 I-97.855 J-13.3085
G3 X-17.0879 Y130.6986 I-5.2216 J-0.6418
G3 X-17.1072 Y130.8411 I-5.0582 J-0.6147
G3 X-17.1264 Y130.9814 I-4.9127 J-0.6015
G3 X-17.1455 Y131.1194 I-4.7842 J-0.5907
G3 X-17.1645 Y131.2553 I-4.6703 J-0.5819
G3 X-17.1833 Y131.389 I-4.5694 J-0.5751
G3 X-17.202 Y131.5206 I-4.4802 J-0.5699
G3 X-17.2206 Y131.6501 I-4.4016 J-0.5662
G3 X-17.3192 Y132.3128 I-62.9915 J-9.0377
G1 X-17.3221 Y132.332
G1 X-17.3356 Y132.4183
G3 X-17.3447 Y132.4766 I-62.8765 J-9.8059
G1 X-17.3756 Y132.6739
G1 X-17.4348 Y133.0383
G1 X-17.5007 Y133.4265
G1 X-17.518 Y133.5236
G3 X-17.5462 Y133.6849 I-62.6942 J-10.9112
G3 X-17.5801 Y133.8716 I-6.4781 J-1.077
G3 X-17.5816 Y133.8802 I-36.3695 J-6.6255
G3 X-17.611 Y134.0392 I-6.914 J-1.1946
G3 X-17.63 Y134.14 I-36.3386 J-6.7931
G3 X-17.9741 Y135.7551 I-32.6839 J-6.1192
G3 X-18.0405 Y136.0311 I-35.9755 J-8.509
G3 X-18.3514 Y137.187 I-24.717 J-6.0299
G3 X-19.2128 Y139.6293 I-21.9088 J-6.3534
G1 X-19.2368 Y139.6896
G2 X-19.2948 Y139.8504 I3.295 J1.2791
G1 X-19.3024 Y139.8736
G2 X-19.3118 Y139.9026 I3.3606 J1.0952
G2 X-19.3839 Y140.1656 I4.5693 J1.3952
G2 X-19.391 Y140.1965 I3.4421 J0.8031
G2 X-19.453 Y140.5001 I7.1029 J1.6079
G2 X-19.4575 Y140.5275 I4.7105 J0.7977
G2 X-19.4991 Y140.7859 I18.6328 J3.1342
G1 X-19.5547 Y141.1732
G2 X-19.8199 Y145.0896 I26.2161 J3.7424
G2 X-19.476 Y148.9998 I24.8362 J-0.2142
G3 X-19.4471 Y149.4332 I-2.1824 J0.3629
G3 X-19.4499 Y149.5058 I-2.428 J-0.0561
G3 X-19.4675 Y149.6704 I-1.3426 J-0.0604
G3 X-19.4914 Y149.7817 I-0.7459 J-0.1016
G3 X-19.53 Y149.8845 I-0.565 J-0.1539
G3 X-19.6133 Y149.9854 I-0.2243 J-0.1002
G2 X-19.8588 Y150.1968 I0.4944 J0.8227
G2 X-19.8987 Y150.2516 I0.4813 J0.3918
G2 X-19.962 Y150.38 I0.5353 J0.3439
G2 X-19.9907 Y150.4927 I0.5845 J0.2086
G2 X-19.9988 Y150.5628 I0.8382 J0.1327
G2 X-19.999 Y150.5669 I0.6354 J0.0327
G2 X-19.9945 Y150.7334 I1.2384 J0.0499
G2 X-19.9813 Y150.8329 I2.0353 J-0.2194
G2 X-19.9809 Y150.8347 I0.5914 J-0.1149
G1 X-19.9663 Y150.914
G1 X-19.9495 Y150.9928
G2 X-19.8757 Y151.3168 I33.0491 J-7.3525
G2 X-19.871 Y151.3371 I29.1491 J-6.8056
G1 X-19.7268 Y151.9381
G1 X-19.6003 Y152.447
G3 X-19.5138 Y152.7952 I-70.0652 J17.591
G1 Y152.7954
G1 X-19.5032 Y152.838
G3 X-19.4476 Y153.063 I-14.7488 J3.7658
G3 X-19.3653 Y153.4009 I-15.1025 J3.8556
G3 X-19.2853 Y153.7392 I-17.0968 J4.2232
G3 X-19.2615 Y153.8475 I-2.9921 J0.7142
G1 X-19.2418 Y153.9506
G1 X-19.2377 Y153.9752
G1 Y153.9754
G1 X-19.2376 Y153.9755
G3 X-19.235 Y153.9922 I-2.3264 J0.3686
G1 X-19.2302 Y154.0237
G1 X-19.2186 Y154.1184
G1 X-19.2147 Y154.1754
G3 X-19.2138 Y154.1887 I-2.3494 J0.1686
G1 X-19.2124 Y154.2086
G3 X-19.2118 Y154.2203 I-0.8371 J0.0484
G3 X-19.211 Y154.267 I-0.4645 J0.0308
G3 X-19.2132 Y154.3183 I-0.8384 J-0.01
G3 X-19.2226 Y154.3959 I-0.6716 J-0.0421
G3 X-19.2266 Y154.416 I-0.5531 J-0.0983
G3 X-19.2394 Y154.4665 I-0.6583 J-0.1399
G3 X-19.3304 Y154.623 I-0.3523 J-0.1002
G3 X-19.4401 Y154.7004 I-0.2627 J-0.2559
G3 X-19.4406 Y154.7006 I-0.2821 J-0.6119
G3 X-19.5204 Y154.7314 I-0.216 J-0.4404
G3 X-19.5286 Y154.7338 I-0.2424 J-0.806
G3 X-19.5904 Y154.7492 I-0.1936 J-0.6454
G3 X-19.6867 Y154.7636 I-0.1723 J-0.8238
G3 X-19.7382 Y154.7673 I-0.2145 J-2.6326
G3 X-19.8947 Y154.7721 I-0.1319 J-1.7574
G1 X-19.8997 Y154.7719
G1 X-19.9257 Y154.7715
G1 X-19.9505 Y154.7708
G3 X-20.0821 Y154.7646 I0.0555 J-2.5526
G3 X-20.1717 Y154.7564 I0.1053 J-1.6503
G1 X-21.9397 Y154.5986
G3 X-22.6028 Y154.5405 I7.553 J-89.9358
G3 X-23.1831 Y154.4894 I3.9768 J-48.4813
G3 X-23.6907 Y154.4442 I3.0087 J-36.7002
G3 X-24.1349 Y154.4042 I2.5512 J-30.7727
G3 X-24.5234 Y154.3686 I2.2941 J-27.1853
G3 X-24.8634 Y154.3369 I2.1382 J-24.81
G3 X-25.1608 Y154.3088 I2.0409 J-23.1588
G3 X-25.6812 Y154.2584 I2.7647 J-31.2626
G3 X-26.0713 Y154.2195 I2.7419 J-29.4904
G3 X-27.241 Y154.0961 I7.209 J-73.9423
G1 X-28.7762 Y153.9313
G1 X-29.8012 Y153.8227
G3 X-30.1665 Y153.7837 I1.6113 J-16.8088
G3 X-30.3435 Y153.7646 I1.0273 J-10.3696
G3 X-30.5177 Y153.7458 I0.9591 J-9.6642
G3 X-30.6891 Y153.7271 I0.9057 J-9.0954
G3 X-31.2591 Y153.663 I31.9671 J-287.2033
G1 X-31.563 Y153.6292
G1 X-31.8613 Y153.5942
G3 X-32.0387 Y153.5736 I33.1393 J-287.0704
G3 X-33.2726 Y153.4201 I8.6875 J-74.8666
G3 X-34.4419 Y153.2559 I8.1496 J-62.2565
G3 X-34.5954 Y153.2326 I1.427 J-9.9474
G3 X-34.7586 Y153.2075 I9.4723 J-62.069
G1 X-34.7711 Y153.2055
G3 X-35.1845 Y153.1399 I8.6577 J-55.8825
G1 X-35.257 Y153.1284
G3 X-35.788 Y153.0389 I6.0588 J-37.5835
G3 X-36.3498 Y152.938 I7.3459 J-42.5129
G3 X-38.6016 Y152.4557 I6.9101 J-37.757
G3 X-38.6878 Y152.4344 I0.5077 J-2.2405
G1 X-38.688 Y152.4343
G3 X-38.7764 Y152.4123 I0.5023 J-2.2021
G3 X-39.1564 Y152.3147 I8.1091 J-32.3554
G1 X-39.1656 Y152.3123
G1 X-39.1776 Y152.3091
G3 X-39.4054 Y152.2481 I8.5103 J-32.2522
G1 X-39.4395 Y152.239
G3 X-40.0903 Y152.0543 I8.2335 J-30.2576
G3 X-40.3835 Y151.9665 I9.423 J-31.9974
G3 X-41.2305 Y151.6939 I8.7224 J-28.5477
G3 X-41.3367 Y151.6577 I0.4515 J-1.4985
G1 X-41.5677 Y151.5795
G2 X-42.5035 Y151.273 I-20.2908 J60.3691
G2 X-43.3496 Y151.0105 I-18.4861 J58.0747
G1 X-44.3285 Y150.7153
G1 X-45.0633 Y150.4961
G3 X-45.3388 Y150.4138 I8.7115 J-29.651
G3 X-45.5798 Y150.3415 I5.1712 J-17.6764
G3 X-45.7906 Y150.278 I4.0029 J-13.6638
G3 X-46.1592 Y150.166 I4.5356 J-15.5945
G3 X-46.4354 Y150.0812 I3.6528 J-12.3859
G3 X-46.6424 Y150.017 I3.1296 J-10.4559
G3 X-46.9526 Y149.9196 I3.8587 J-12.8331
G3 X-47.2622 Y149.8208 I4.2019 J-13.6993
G3 X-48.6234 Y149.3812 I76.2474 J-238.4647
G3 X-49.1032 Y149.2255 I809.1489 J-2493.7619
G1 X-49.3658 Y149.1406
G3 X-51.468 Y148.4561 I152.1326 J-470.7965
G3 X-52.8688 Y147.9978 I80.9408 J-249.7722
G3 X-53.6691 Y147.7353 I54.8663 J-168.6391
G3 X-54.5836 Y147.4349 I55.3457 J-170.0147
G3 X-55.6285 Y147.0911 I56.6426 J-173.9067
G3 X-56.8226 Y146.6976 I58.7521 J-180.3104
G3 X-57.4594 Y146.4876 I42.4542 J-129.7961
G3 X-58.1386 Y146.2635 I43.5647 J-133.1727
G3 X-58.4213 Y146.1585 I0.9198 J-2.9095
G3 X-58.5272 Y146.1105 I0.5257 J-1.3005
G3 X-58.6487 Y146.0414 I0.5108 J-1.0399
G3 X-58.6872 Y146.016 I0.7531 J-1.1835
G3 X-58.7365 Y145.9783 I0.3306 J-0.4823
G3 X-58.8254 Y145.8832 I0.2739 J-0.3454
G3 X-58.8317 Y145.8746 I0.4688 J-0.3495
G3 X-58.8644 Y145.8142 I0.2977 J-0.2
G3 X-58.8685 Y145.8048 I0.4018 J-0.1813
G3 X-58.8869 Y145.7388 I0.3286 J-0.127
G3 X-58.8852 Y145.6018 I0.3528 J-0.0642
G3 X-58.8765 Y145.564 I0.8154 J0.1669
G3 X-58.8206 Y145.4095 I0.6904 J0.1628
G3 X-58.6992 Y145.199 I1.5016 J0.7251
G1 X-57.9386 Y144.0429
G3 X-57.265 Y143.0278 I67.3011 J43.929
G1 X-57.262 Y143.0233
G1 X-57.2478 Y143.0024
G3 X-57.1603 Y142.873 I66.6103 J44.9695
G1 X-57.0532 Y142.7147
G1 X-56.9428 Y142.5538
G3 X-56.8608 Y142.4343 I66.3053 J45.4181
G1 X-56.8123 Y142.3637
G1 X-56.8025 Y142.3497
G3 X-56.7816 Y142.3193 I66.165 J45.6222
G3 X-56.7074 Y142.2128 I3.0955 J2.0751
G3 X-56.6377 Y142.1131 I2.9555 J1.9944
G3 X-56.572 Y142.0198 I2.8336 J1.9249
G3 X-56.3261 Y141.6742 I23.8344 J16.6974
G3 X-56.0508 Y141.2985 I24.8058 J17.8885
G3 X-55.9562 Y141.1722 I4.1389 J2.9997
G3 X-55.9293 Y141.1365 I24.436 J18.3905
G3 X-55.8529 Y141.0357 I3.8055 J2.8058
G3 X-55.8413 Y141.0205 I24.3326 J18.527
G3 X-55.7 Y140.8364 I5.0981 J3.7685
G3 X-55.552 Y140.6468 I6.1231 J4.6275
G3 X-55.0116 Y139.9929 I12.754 J9.9884
G3 X-54.9351 Y139.9045 I2.066 J1.7107
G3 X-54.9296 Y139.8981 I15.9617 J13.8911
G3 X-54.844 Y139.8005 I2.142 J1.7909
G3 X-54.8383 Y139.794 I15.8706 J13.9951
G3 X-54.7358 Y139.6787 I2.2395 J1.8862
G3 X-54.6795 Y139.6157 I1.613 J1.3874
G3 X-54.6192 Y139.5488 I1.6589 J1.4339
G3 X-54.5547 Y139.4776 I1.7113 J1.4868
G3 X-54.4856 Y139.4019 I1.7716 J1.5474
G3 X-53.3576 Y138.2126 I39.0353 J35.8913
G1 X-53.032 Y137.876
G1 X-52.6608 Y137.4904
G1 X-52.2404 Y137.0462
G3 X-52.0377 Y136.8298 I10.4807 J9.6137
G3 X-51.8346 Y136.614 I10.4618 J9.6406
G3 X-51.6989 Y136.4703 I8.6141 J7.9978
G3 X-51.5177 Y136.2789 I10.1118 J9.3947
G3 X-51.2757 Y136.0243 I12.0877 J11.2455
G3 X-51.1372 Y135.8789 I9.5385 J8.9518
G3 X-50.9787 Y135.713 I10.6616 J10.0214
G3 X-50.7975 Y135.5235 I12.1495 J11.4411
G3 X-50.5901 Y135.3071 I14.2802 J13.4776
G3 X-50.3529 Y135.06 I17.7495 J16.7988
G3 X-50.0817 Y134.7778 I25.1236 J23.8698
G1 X-49.4778 Y134.1493
G1 X-49.3121 Y133.9766
G1 X-48.397 Y133.019
G1 X-47.8507 Y132.4411
G1 X-47.2306 Y131.7765
G1 X-46.9023 Y131.4199
G2 X-46.2955 Y130.75 I-54.9312 J-50.3622
G2 X-45.8905 Y130.2936 I-59.9201 J-53.581
G2 X-45.2908 Y129.6038 I-55.943 J-49.2359
G1 X-45.0934 Y129.3722
G1 X-44.8503 Y129.0829
G2 X-44.764 Y128.9796 I-34.8596 J-29.1773
G2 X-44.7557 Y128.9693 I-4.3138 J-3.4966
G2 X-44.7462 Y128.9581 I-4.0288 J-3.4449
G2 X-44.6593 Y128.8532 I-34.9637 J-29.0525
G2 X-44.6442 Y128.8345 I-4.1252 J-3.3289
G2 X-44.6284 Y128.8158 I-3.8619 J-3.2861
G2 X-44.5492 Y128.7195 I-35.0814 J-28.9102
G2 X-44.5315 Y128.6972 I-3.9569 J-3.171
G2 X-44.5141 Y128.6765 I-3.7086 J-3.1395
G2 X-44.4341 Y128.5784 I-35.1958 J-28.7709
G2 X-44.4175 Y128.5573 I-3.806 J-3.0207
G2 X-44.2771 Y128.3842 I-32.538 J-26.5184
G2 X-43.2123 Y127.0061 I-35.4327 J-28.4786
G3 X-42.9614 Y126.6676 I18.3159 J13.3149
G3 X-42.7101 Y126.3293 I19.4262 J14.1664
G3 X-42.5425 Y126.1039 I16.8302 J12.343
G3 X-42.3187 Y125.8034 I20.8041 J15.2567
G3 X-42.0202 Y125.403 I26.9211 J19.755
G3 X-41.8496 Y125.1742 I23.2748 J17.1821
G1 X-40.5321 Y123.4071
G2 X-40.4202 Y123.2565 I-355.0969 J-263.9709
G1 X-39.9138 Y122.5733
G2 X-38.9342 Y121.2438 I-355.7152 J-263.1371
G1 X-38.4789 Y120.6201
G1 X-38.4756 Y120.6156
G1 X-37.8995 Y119.8175
G2 X-36.8884 Y118.393 I-138.8959 J-99.6576
G1 X-36.6911 Y118.1114
G3 X-32.8308 Y113.6246 I23.7673 J16.5448
G3 X-31.3539 Y112.312 I20.8979 J22.0267
G3 X-29.2623 Y110.711 I20.6742 J24.8423
G3 X-28.8643 Y110.431 I41.917 J59.1608
G3 X-28.4662 Y110.1512 I45.2278 J63.9047
G3 X-27.6698 Y109.5918 I73.3821 J103.626
G3 X-27.1387 Y109.2191 I73.7475 J104.551
G3 X-25.4362 Y108.0273 I550.8651 J785.0606
G3 X-24.8771 Y107.637 I102.3101 J145.9792
G3 X-24.3449 Y107.2659 I75.7981 J108.1407
G3 X-23.413 Y106.6174 I83.0844 J118.3968
G3 X-22.7135 Y106.1317 I63.0185 J90.0207
G3 X-22.1885 Y105.7679 I50.7672 J72.6968
G3 X-21.4006 Y105.2231 I58.4136 J83.6266
G3 X-21.0064 Y104.951 I39.6503 J57.0282
G3 X-20.612 Y104.6792 I38.7343 J55.7779
G1 X-20.4925 Y104.5955
G2 X-18.9845 Y103.3242 I-6.844 J-9.6482
G2 X-18.1757 Y102.4384 I-9.497 J-9.484
G2 X-17.6182 Y101.7222 I-11.4639 J-9.4998
G2 X-17.611 Y101.7123 I-10.8634 J-7.882
G2 X-16.8338 Y100.5332 I-12.4888 J-9.0775
G1 X-16.8167 Y100.5041
G2 X-16.7582 Y100.4012 I-5.8442 J-3.3969
G1 X-16.7052 Y100.3045
G2 X-16.6669 Y100.2321 I-5.9557 J-3.1973
G1 X-16.5974 Y100.0948
G1 X-16.5209 Y99.9336
G2 X-16.4332 Y99.7358 I-24.1954 J-10.8357
G1 X-16.3741 Y99.5988
G1 X-16.3623 Y99.5703
G1 X-16.237 Y99.2622
G2 X-16.2357 Y99.2592 I-1.501 J-0.6444
G2 X-16.2274 Y99.2379 I-13.2073 J-5.1942
G1 X-16.0515 Y98.7909
G3 X-15.9429 Y98.5217 I16.3152 J6.4255
G1 X-15.9121 Y98.4459
G1 X-15.8529 Y98.3056
G3 X-15.776 Y98.1311 I7.3347 J3.1267
G3 X-15.7738 Y98.1261 I16.0397 J7.0854
G3 X-15.5285 Y97.6337 I6.1343 J2.7486
G3 X-15.4969 Y97.576 I7.0103 J3.7987
G1 X-15.466 Y97.5226
G3 X-15.4443 Y97.4853 I5.8265 J3.3521
G3 X-13.3389 Y94.3396 I29.7982 J17.6672
G3 X-12.2675 Y92.9853 I27.7393 J20.8441
G3 X-10.4281 Y90.9329 I29.0311 J24.1663
G1 X-10.4039 Y90.908
G3 X-8.6995 Y89.2511 I27.1736 J26.2479
G1 X-8.6082 Y89.1684
G3 X-8.4443 Y89.0197 I29.8272 J32.7272
G3 X-8.0301 Y88.696 I2.3107 J2.5304
G3 X-8.0066 Y88.6804 I2.013 J3.0031
G3 X-7.8373 Y88.5769 I1.5901 J2.4093
G3 X-7.4742 Y88.4037 I1.2799 J2.2171
G3 X-6.4287 Y88.2405 I0.8893 J2.2668
G3 X-6.4136 Y88.2416 I-0.2071 J2.9927
G3 X-6.2436 Y88.2583 I-0.1676 J2.5853
G3 X-6.0072 Y88.3 I-0.4228 J3.0883
G3 X-5.7028 Y88.3821 I-0.6285 J2.9333
G3 X-5.316 Y88.5075 I-6.9687 J22.156
G3 X-4.9292 Y88.633 I-8.214 J25.9758
G3 X-4.6713 Y88.7168 I-8.1255 J25.4512
G3 X-4.3276 Y88.8287 I-12.1437 J37.9018
G1 X-3.8121 Y88.997
G3 X-3.3612 Y89.1449 I-15.0786 J46.7264
G3 X-2.967 Y89.2749 I-10.4078 J32.2266
G3 X-0.2151 Y90.2087 I-47.3012 J143.9058
G3 X1.1076 Y90.8148 I-2.5658 J7.3459
G3 X2.4225 Y91.767 I-3.9061 J6.7781
G3 X2.8848 Y92.212 I-5.4374 J6.1119
G3 X3.6404 Y93.0896 I-6.9828 J6.7759
G3 X3.7515 Y93.2374 I-8.0138 J6.1412
G3 X3.9769 Y93.5518 I-8.548 J6.3654
G1 X4.1394 Y93.7921
G1 X4.2577 Y93.9747
G3 X4.5958 Y94.533 I-10.3725 J6.6621
G3 X4.9015 Y95.1177 I-6.1768 J3.602
G0 Z3.0
G0 X-9.7732 Y124.5258
G0 Z1.4
G1 F300.0 Z0.0
G3 F800.0 X-9.759 Y126.1562 I-36.4123 J1.1324
G3 X-9.8942 Y128.5979 I-27.6411 J-0.3053
G3 X-9.9631 Y129.2057 I-19.4481 J-1.8975
G3 X-9.9698 Y129.2591 I-21.5463 J-2.6923
G3 X-9.9881 Y129.399 I-2.8406 J-0.3003
G3 X-10.0208 Y129.6334 I-21.5213 J-2.8856
G3 X-10.2672 Y131.0148 I-20.9921 J-3.0315
G3 X-10.3108 Y131.1205 I-0.3718 J-0.0915
G3 X-10.3674 Y131.1966 I-0.3656 J-0.2126
G3 X-10.3751 Y131.2053 I-0.7405 J-0.6497
G3 X-10.3857 Y131.2169 I-0.5186 J-0.463
G3 X-10.4781 Y131.3044 I-0.7222 J-0.67
G1 X-10.4859 Y131.3109
G3 X-10.5921 Y131.3973 I-1.3694 J-1.5742
G1 X-10.7243 Y131.502
G2 X-10.7418 Y131.5159 I0.6354 J0.8148
G2 X-10.7904 Y131.5581 I0.9732 J1.1697
G2 X-10.7973 Y131.5646 I0.7014 J0.7587
G2 X-10.7991 Y131.566 I0.2499 J0.3017
G2 X-10.8346 Y131.5998 I1.0305 J1.1196
G1 X-10.8582 Y131.5332
G2 X-10.8805 Y131.4746 I-2.6168 J0.9616
G1 X-10.9011 Y131.4237
G3 X-10.9335 Y131.349 I4.3626 J-1.941
G3 X-10.9848 Y131.2253 I3.1458 J-1.375
G3 X-10.9892 Y131.2138 I1.7472 J-0.6868
G3 X-11.0023 Y131.1795 I3.2016 J-1.2398
G3 X-11.012 Y131.1515 I1.77 J-0.6283
G3 X-11.0398 Y131.0642 I1.7744 J-0.6131
G3 X-11.062 Y130.9492 I0.5461 J-0.1652
G3 X-11.0605 Y130.8335 I0.5456 J-0.0505
G3 X-10.9946 Y130.3741 I38.0115 J5.2179
G3 X-10.9273 Y129.915 I33.3927 J4.6559
G3 X-10.8818 Y129.609 I25.9456 J3.703
G3 X-10.8203 Y129.2011 I29.1982 J4.1919
G3 X-10.7371 Y128.6574 I33.7572 J4.8884
G3 X-10.689 Y128.3468 I26.4876 J3.9443
G3 X-10.6336 Y127.9919 I29.6518 J4.4494
G3 X-10.5697 Y127.5864 I34.343 J5.1996
G3 X-10.4962 Y127.1231 I42.3314 J6.4788
G3 X-10.4117 Y126.5936 I60.7446 J9.4312
G1 X-10.3752 Y126.367
G1 X-10.3152 Y125.9925
G3 X-10.2499 Y125.5872 I53.0065 J8.3211
G2 X-10.2476 Y125.5731 I-39.5036 J-6.5657
G1 X-10.1847 Y125.182
G3 X-10.0811 Y124.781 I2.6102 J0.4606
G3 X-10.063 Y124.7246 I0.8623 J0.2465
G1 X-10.0421 Y124.6602
G1 X-9.9889 Y124.4878
G3 X-9.9355 Y124.4972 I-0.0533 J0.4581
G1 X-9.7732 Y124.5258
G0 Z3.0
G0 X-4.7756 Y124.3704
G0 Z1.4
G1 F300.0 Z0.0
G2 F800.0 X-4.9224 Y123.3134 I-4.9976 J0.1554
G2 X-4.8432 Y123.1972 I-4.0912 J-2.8745
G1 X-4.7803 Y123.1021
G2 X-4.7226 Y123.018 I-4.702 J-3.2846
G2 X-4.5219 Y122.7098 I-5.8766 J-4.0471
G2 X-4.146 Y122.0154 I-5.9109 J-3.6487
G2 X-4.1184 Y121.9555 I-4.5253 J-2.1264
G3 X-2.5973 Y118.9002 I43.3903 J19.6951
G3 X-1.2984 Y116.634 I53.2924 J29.0395
G2 X-1.2951 Y116.6285 I-4.2835 J-2.5791
G3 X-1.0506 Y116.2263 I36.3156 J21.8025
G1 X-0.7982 Y115.8179
G3 X0.5735 Y113.6969 I70.3027 J43.962
G3 X0.9764 Y113.0999 I83.0416 J55.6054
G3 X1.1231 Y112.8852 I68.5281 J46.68
G2 X1.1338 Y112.8695 I-4.1235 J-2.8278
G3 X1.1944 Y112.7806 I46.9413 J31.93
G3 X1.4772 Y112.3704 I82.4207 J56.5217
G3 X1.6213 Y112.1644 I46.5978 J32.4291
G2 X1.6221 Y112.1632 I-4.0913 J-2.8742
G1 X2.017 Y111.6008
G1 X2.3062 Y111.1931
G1 X2.7019 Y110.6412
G1 X3.2014 Y109.9516
G3 X3.7232 Y109.2396 I126.9335 J92.4819
G1 X4.1945 Y108.6024
G1 X5.0278 Y107.4853
G1 X6.2896 Y105.8051
G2 X6.6112 Y105.3769 I-63.3045 J-47.8778
G2 X7.0961 Y104.7297 I-59.6751 J-45.2213
G2 X7.3355 Y104.4093 I-39.7169 J-29.9234
G2 X7.5799 Y104.0814 I-39.0308 J-29.3418
G2 X7.9651 Y103.5308 I-8.9047 J-6.6399
G1 X8.0419 Y103.4146
G1 X8.1684 Y103.224
G1 X8.2468 Y103.1087
G3 X8.2635 Y103.0865 I1.1411 J0.8412
G2 X8.9492 Y102.1317 I-8.114 J-6.5504
G2 X9.1226 Y101.8501 I-8.1018 J-5.1842
G2 X9.686 Y100.7411 I-8.0497 J-4.7872
G2 X9.7015 Y100.7052 I-4.5848 J-1.9949
G2 X10.113 Y99.5106 I-8.2128 J-3.4975
G2 X10.1153 Y99.5023 I-9.0401 J-2.4477
G2 X10.1189 Y99.4888 I-4.8274 J-1.3023
G2 X10.4147 Y97.2751 I-8.4603 J-2.2571
G2 X10.4011 Y96.7254 I-9.2145 J-0.0477
G2 X10.2314 Y95.3968 I-9.1771 J0.4972
G2 X10.2272 Y95.3763 I-4.9003 J0.9933
G2 X10.187 Y95.1907 I-10.3063 J2.134
G2 X9.837 Y93.9826 I-9.9101 J2.2165
G2 X9.4675 Y93.079 I-9.9161 J3.5277
G2 X9.456 Y93.0543 I-11.7651 J5.4283
G2 X8.9281 Y92.0368 I-11.0371 J5.0807
G2 X8.4647 Y91.2726 I-15.0429 J8.6001
G2 X8.4535 Y91.2552 I-4.207 J2.7021
G1 X8.3351 Y91.0726
G2 X8.2816 Y90.9918 I-4.1957 J2.7195
G1 X8.1191 Y90.7514
G2 X8.0929 Y90.713 I-4.1422 J2.8003
G2 X7.7685 Y90.2602 I-12.8893 J8.8898
G2 X7.613 Y90.0534 I-12.1419 J8.9706
G2 X6.4818 Y88.739 I-11.711 J8.9344
G2 X5.7527 Y88.0374 I-9.4967 J9.14
G2 X3.6053 Y86.4833 I-8.5512 J9.5556
G2 X1.4355 Y85.489 I-6.3862 J11.0713
G2 X-1.3893 Y84.5303 I-51.7037 J147.6916
G2 X-1.8019 Y84.3942 I-12.3797 J36.8412
G2 X-2.2682 Y84.2413 I-17.0887 J51.3292
G1 X-2.7675 Y84.0783
G2 X-3.1243 Y83.9621 I-14.0475 J42.5403
G2 X-3.3795 Y83.8792 I-9.9304 J30.1221
G2 X-3.7707 Y83.7522 I-10.1505 J30.6042
G2 X-4.1805 Y83.6195 I-8.9009 J26.7859
G2 X-4.9548 Y83.412 I-2.4552 J7.6138
G2 X-5.5654 Y83.3045 I-1.7115 J7.9346
G2 X-5.592 Y83.3009 I-0.6781 J4.9538
G2 X-6.0662 Y83.2537 I-0.9892 J7.526
G2 X-6.0835 Y83.2525 I-0.5696 J7.9796
G2 X-6.1079 Y83.2508 I-0.3452 J4.9881
G2 X-9.2824 Y83.7421 I-0.477 J7.4196
G2 X-10.3174 Y84.2353 I2.7249 J7.0518
G2 X-10.7593 Y84.5064 I3.9009 J6.8545
G2 X-10.8058 Y84.5372 I4.7423 J7.1927
G2 X-11.8027 Y85.3154 I4.6722 J7.0128
G2 X-11.9715 Y85.4686 I33.0216 J36.5801
G1 X-12.0583 Y85.5473
G2 X-12.0702 Y85.5581 I3.3588 J3.7039
G2 X-13.9925 Y87.4263 I28.84 J31.5977
G1 X-14.0095 Y87.4438
G2 X-14.0275 Y87.4623 I3.5814 J3.4891
G2 X-16.1103 Y89.7864 I30.7911 J29.6893
G1 Y89.7865
G2 X-17.336 Y91.3358 I30.5108 J25.3972
G2 X-19.7452 Y94.9353 I31.6899 J23.8167
G2 X-19.7622 Y94.9641 I4.3009 J2.55
G2 X-19.7954 Y95.0213 I10.1227 J5.9106
G1 X-19.8228 Y95.0687
G2 X-19.8732 Y95.1577 I4.3259 J2.5073
G2 X-19.9169 Y95.2374 I11.355 J6.2747
G2 X-20.3366 Y96.0814 I10.2774 J5.6373
G2 X-20.4524 Y96.3449 I11.8184 J5.3509
G2 X-20.4589 Y96.3601 I4.5995 J1.9607
G1 X-20.5181 Y96.5004
G2 X-20.5445 Y96.5642 I4.606 J1.9455
G1 X-20.5701 Y96.6272
G2 X-20.7038 Y96.9587 I20.8338 J8.5893
G2 X-20.7044 Y96.9604 I4.6522 J1.8322
G1 X-20.877 Y97.3991
G1 X-20.9813 Y97.6558
G1 X-21.0184 Y97.7417
G3 X-21.0628 Y97.8421 I-19.6979 J-8.6437
G1 X-21.0868 Y97.8927
G1 X-21.1076 Y97.9339
G1 X-21.1311 Y97.9767
G3 X-21.1374 Y97.9878 I-1.5299 J-0.8695
G1 X-21.1392 Y97.9908
G3 X-21.6555 Y98.7726 I-8.9606 J-5.356
G2 X-21.6603 Y98.7792 I4.0445 J2.9397
G3 X-22.0203 Y99.2416 I-7.9793 J-5.8406
G3 X-22.5186 Y99.7872 I-6.4613 J-5.4014
G3 X-23.3745 Y100.5097 I-4.818 J-4.8398
G1 X-23.4578 Y100.5679
G2 X-23.8453 Y100.8351 I41.1857 J60.1609
G2 X-24.24 Y101.1075 I42.095 J61.4162
G2 X-25.0368 Y101.6585 I60.465 J88.2871
G2 X-25.5626 Y102.0229 I53.0905 J77.1701
G2 X-26.2666 Y102.5117 I65.1681 J94.6152
G2 X-27.2059 Y103.1653 I85.0061 J123.1511
G2 X-27.739 Y103.5371 I78.1268 J112.6124
G2 X-28.3025 Y103.9304 I104.6129 J150.4693
G2 X-30.0054 Y105.1225 I552.0289 J790.3493
G2 X-30.54 Y105.4976 I76.083 J109.0202
G2 X-31.3426 Y106.0613 I75.4559 J108.2796
G2 X-31.7402 Y106.3408 I47.7061 J68.2744
G2 X-32.1452 Y106.6258 I44.3949 J63.531
G2 X-34.5522 Y108.4687 I21.4655 J30.5285
G2 X-36.27 Y109.9953 I22.6193 J27.1826
G2 X-40.7902 Y115.2483 I23.3462 J24.6608
G1 X-40.9819 Y115.5219
G3 X-41.9578 Y116.8969 I-135.8135 J-95.362
G1 X-42.5234 Y117.6804
G1 X-42.9688 Y118.2905
G3 X-43.9321 Y119.5978 I-352.6602 J-258.8543
G1 X-44.4356 Y120.2771
G3 X-44.5428 Y120.4213 I-351.1934 J-260.8409
G1 X-45.8508 Y122.1757
G2 X-46.0248 Y122.4089 I27.1053 J20.4094
G2 X-46.329 Y122.817 I30.6272 J23.1495
G2 X-46.5547 Y123.1201 I24.5906 J18.5436
G2 X-46.72 Y123.3423 I20.6748 J15.5522
G2 X-46.9761 Y123.6871 I23.1848 J17.4917
G2 X-47.2406 Y124.0441 I22.0797 J16.634
G3 X-48.172 Y125.2489 I-32.4693 J-24.1384
G3 X-48.2933 Y125.3986 I-28.7835 J-23.21
G2 X-48.3356 Y125.4512 I3.8758 J3.1588
G3 X-48.3636 Y125.4855 I-31.3742 J-25.5456
G2 X-48.4374 Y125.5757 I3.8321 J3.2117
G3 X-48.4669 Y125.6116 I-31.2724 J-25.6701
G2 X-48.5349 Y125.694 I3.8227 J3.2229
G3 X-48.5743 Y125.7416 I-31.175 J-25.7884
G2 X-48.626 Y125.8038 I3.8186 J3.2277
G3 X-48.6813 Y125.87 I-31.0838 J-25.8982
G1 X-48.9096 Y126.1416
G1 X-49.0898 Y126.3529
G3 X-49.6434 Y126.9897 I-52.7437 J-45.2952
G3 X-50.0222 Y127.4166 I-56.5723 J-49.8207
G3 X-50.5841 Y128.037 I-51.8113 J-46.3588
G1 X-50.8976 Y128.3774
G1 X-51.4955 Y129.0182
G1 X-52.0212 Y129.5744
G1 X-52.9234 Y130.5186
G1 X-53.0843 Y130.6862
G1 X-53.6775 Y131.3035
G2 X-53.9572 Y131.5945 I28.4482 J27.6263
G2 X-54.198 Y131.8453 I21.1166 J20.5115
G2 X-54.4089 Y132.0653 I17.6807 J17.1558
G2 X-54.5937 Y132.2585 I15.5796 J15.0888
G2 X-54.7556 Y132.4281 I14.1181 J13.6418
G2 X-54.8922 Y132.5714 I13.0184 J12.5479
G2 X-55.1474 Y132.8399 I15.4621 J14.9531
G2 X-55.3342 Y133.0372 I13.5603 J13.0251
G2 X-55.4693 Y133.1803 I12.1137 J11.5746
G2 X-55.6832 Y133.4075 I13.8934 J13.2902
G2 X-55.8966 Y133.6354 I13.9235 J13.2524
G1 X-56.2779 Y134.0382
G1 X-56.6299 Y134.404
G1 X-56.9417 Y134.7262
G2 X-58.1435 Y135.993 I41.4913 J40.567
G2 X-58.255 Y136.1145 I5.3604 J5.032
G2 X-58.3303 Y136.1976 I5.3471 J4.9211
G2 X-58.4012 Y136.2763 I5.3098 J4.852
G2 X-58.4532 Y136.3343 I5.2783 J4.7897
G2 X-58.5957 Y136.4947 I5.8544 J5.3459
G2 X-58.7056 Y136.6202 I5.8081 J5.1943
G2 X-58.8146 Y136.7464 I5.76 J5.0834
G2 X-59.4679 Y137.5378 I16.0166 J13.8888
G2 X-59.6504 Y137.771 I9.8911 J7.9262
G2 X-59.8293 Y138.0042 I8.9071 J7.018
G2 X-59.9345 Y138.1433 I7.7054 J5.938
G2 X-60.0779 Y138.3349 I8.0226 J6.1549
G2 X-60.3803 Y138.7478 I28.5576 J21.2278
G2 X-60.6449 Y139.1194 I27.6427 J19.9694
G2 X-60.7295 Y139.2391 I6.8408 J4.9186
G2 X-60.807 Y139.3499 I6.9775 J4.9681
G2 X-60.9106 Y139.4994 I7.121 J5.0445
G2 X-60.9348 Y139.5344 I4.0983 J2.8643
G1 X-60.982 Y139.6032
G2 X-61.0666 Y139.7264 I70.3446 J48.3687
G1 X-61.1757 Y139.8854
G2 X-61.1945 Y139.913 I4.1225 J2.8293
G1 X-61.3003 Y140.0693
G2 X-61.3905 Y140.2026 I70.6628 J47.9026
G1 X-61.4033 Y140.2216
G2 X-61.4166 Y140.2413 I4.1413 J2.8017
G2 X-62.1206 Y141.3022 I70.7791 J47.7306
G1 X-62.8636 Y142.4316
G2 X-63.3107 Y143.2097 I5.5447 J3.703
G2 X-63.7329 Y144.3739 I5.1245 J2.5171
G2 X-63.7826 Y144.5941 I5.6631 J1.3947
G2 X-63.8086 Y146.6198 I5.2485 J1.0805
G2 X-63.5322 Y147.6076 I5.2687 J-0.9421
G2 X-63.4727 Y147.7546 I4.6637 J-1.8029
G2 X-63.4452 Y147.8183 I5.0101 J-2.1217
G2 X-62.9821 Y148.6628 I4.9111 J-2.1437
G2 X-62.8944 Y148.7892 I4.1504 J-2.7882
G2 X-62.8847 Y148.8026 I4.5378 J-3.2554
G2 X-61.919 Y149.8348 I4.4222 J-3.1698
G2 X-61.5141 Y150.1402 I3.5623 J-4.301
G2 X-61.5089 Y150.1438 I2.8269 J-4.1242
G2 X-61.3544 Y150.2461 I3.6133 J-5.2858
G2 X-60.7559 Y150.5863 I3.3379 J-5.1756
G2 X-60.3502 Y150.7715 I2.8603 J-5.7283
G2 X-59.6898 Y151.0169 I3.1315 J-7.4175
G2 X-59.0255 Y151.236 I45.7952 J-137.702
G2 X-58.3901 Y151.4456 I44.6571 J-134.3345
G2 X-57.1916 Y151.8405 I61.5136 J-184.6649
G2 X-56.1445 Y152.1851 I59.2506 J-178.3123
G2 X-55.2277 Y152.4862 I57.8211 J-174.4644
G2 X-54.4263 Y152.749 I57.2252 J-173.1276
G2 X-53.0181 Y153.2098 I83.8992 J-254.0652
G2 X-50.9037 Y153.8982 I155.7848 J-474.8657
G1 X-50.6444 Y153.9821
G2 X-50.17 Y154.1361 I811.1699 J-2498.3627
G2 X-48.809 Y154.5756 I79.1551 J-242.78
G2 X-48.4633 Y154.6861 I6.0583 J-18.3552
G2 X-48.126 Y154.792 I5.6796 J-17.5022
G2 X-47.9136 Y154.8578 I4.8202 J-15.1666
G2 X-47.6221 Y154.9474 I5.4072 J-17.0777
G2 X-47.2284 Y155.0669 I6.3672 J-20.2639
G2 X-47.0178 Y155.1303 I5.6515 J-18.3892
G2 X-46.7683 Y155.2051 I6.8503 J-22.3929
G2 X-46.4829 Y155.2904 I10.4166 J-34.36
G1 X-45.7648 Y155.5046
G1 X-44.795 Y155.797
G3 X-44.0215 Y156.037 I-16.1946 J53.5507
G3 X-43.1652 Y156.3175 I-17.837 J55.9116
G1 X-42.998 Y156.374
G2 X-42.7783 Y156.4486 I2.2191 J-6.1787
G2 X-41.8445 Y156.7483 I11.1171 J-33.0298
G2 X-41.84 Y156.7497 I1.461 J-4.7818
G2 X-41.5049 Y156.8501 I11.1727 J-36.6928
G2 X-40.7523 Y157.0636 I10.2989 J-34.8686
G2 X-40.7323 Y157.069 I1.3128 J-4.8246
G1 X-40.7064 Y157.0759
G2 X-40.4621 Y157.1413 I10.0391 J-37.019
G1 X-40.4584 Y157.1423
G2 X-40.4172 Y157.1531 I1.2928 J-4.83
G2 X-40.0265 Y157.2536 I9.7499 J-37.0962
G2 X-39.8908 Y157.2878 I1.8408 J-7.0214
G2 X-39.7621 Y157.3193 I1.797 J-7.0726
G2 X-37.2581 Y157.8548 I10.3224 J-42.1383
G2 X-36.6464 Y157.9647 I8.816 J-47.3288
G2 X-36.0528 Y158.0647 I7.4481 J-42.4199
G2 X-36.0408 Y158.0666 I0.7958 J-4.9363
G1 X-35.9772 Y158.0767
G2 X-35.5459 Y158.1451 I9.8638 J-60.7536
