( Made using CamBam - http://www.cambam.co.uk )
( body_girl_A3_2 1/3/2014 5:06:24 PM )
( T0 : 0.0 )
G21 G90 G64 G40
G0 Z3.0
( T0 : 0.0 )
T0 M6
( 2097 - End )
G17
M3 S1000
G0 X71.4863 Y183.6827
G0 Z1.4
G1 F300.0 Z0.0
G2 F800.0 X71.8029 Y183.4649 I-9.2846 J-13.8378
G3 X72.0928 Y183.6308 I-19.152 J33.8061
G2 X72.1837 Y183.6827 I5.0038 J-8.6581
G1 X71.4863
G0 Z3.0
G0 X91.5687
G0 Z1.4
G1 F300.0 Z0.0
G2 F800.0 X92.1249 Y173.0738 I-8.1829 J-5.748
G2 X91.9937 Y172.8297 I-8.8729 J4.6122
G1 X91.948 Y172.7474
G2 X91.7877 Y172.4695 I-8.7416 J4.8563
G1 X91.7233 Y172.3618
G2 X91.5024 Y172.0095 I-8.5813 J5.1342
G1 X91.4631 Y171.9495
G2 X91.0726 Y171.3963 I-8.3605 J5.4866
G2 X89.5769 Y169.8044 I-8.2441 J6.2476
G2 X90.4515 Y168.9118 I-6.6913 J-7.4315
G1 X90.458 Y168.9043
G2 X90.6572 Y168.6735 I-8.5233 J-7.5563
G2 X92.8556 Y164.2049 I-7.5911 J-6.5096
G2 X93.3179 Y163.6155 I-9.8737 J-8.2217
G2 X94.1825 Y162.3208 I-12.7174 J-9.4279
G2 X94.2317 Y162.2377 I-8.5794 J-5.1375
G2 X94.528 Y161.6948 I-8.8259 J-5.17
G1 Y183.6827
G1 X91.5687
G0 Z3.0
G0 X94.528 Y152.1777
G0 Z1.4
G1 F300.0 Z0.0
G2 F800.0 X93.5971 Y150.6772 I-8.9298 J4.501
G2 X93.8923 Y148.0818 I-26.79 J-4.3613
G2 X93.9317 Y147.4027 I-32.5955 J-2.2338
G2 X93.9438 Y147.1428 I-12.8852 J-0.7304
G2 X93.9544 Y146.8363 I-12.9031 J-0.5994
G2 X93.9815 Y145.103 I-58.5505 J-1.7812
G2 X93.9818 Y144.8047 I-15.0371 J-0.1669
G2 X93.9803 Y144.5173 I-16.028 J-0.0591
G1 X93.9758 Y143.642
G1 X93.9746 Y143.1733
G3 X93.9833 Y142.2479 I62.0411 J0.1221
G1 X93.9897 Y142.007
G2 X93.9936 Y141.7905 I-10.7607 J-0.299
G2 X94.1553 Y141.5871 I-30.5239 J-24.445
G1 X94.41 Y141.267
G1 X94.528 Y141.1207
G1 Y152.1777
G0 Z3.0
G0 X90.0631 Y154.4282
G0 Z1.4
G1 F300.0 Z0.0
G3 F800.0 X90.5737 Y156.1844 I-4.4649 J2.2505
G3 X90.6149 Y156.5469 I-7.3357 J1.0166
G3 X90.5963 Y157.6978 I-5.3946 J0.4885
G3 X89.9174 Y159.7105 I-5.1905 J-0.6301
G3 X89.8928 Y159.752 I-4.3143 J-2.5272
G3 X89.2984 Y160.6417 I-9.2923 J-5.5644
G3 X88.8004 Y161.2506 I-6.3165 J-4.6586
G3 X88.244 Y161.8072 I-5.8953 J-5.3359
G3 X88.194 Y161.8519 I-3.3572 J-3.7053
G1 X88.0623 Y161.9681
G3 X86.8454 Y165.4376 I-4.9962 J0.1957
G3 X86.6987 Y165.6075 I-4.9106 J-4.0896
G1 X86.6685 Y165.6424
G3 X80.5797 Y166.8095 I-3.783 J-3.2694
G1 X80.4923 Y166.7692
G3 X80.3308 Y166.6946 I2.2446 J-5.0729
G1 X80.2033 Y166.6347
G3 X80.1786 Y166.623 I2.1276 J-4.5247
G3 X80.0178 Y166.5438 I3.0563 J-6.4084
G3 X79.8307 Y166.6124 I-10.3693 J-27.973
G3 X79.8171 Y166.6174 I-1.7065 J-4.6998
G1 X79.4522 Y166.7486
G3 X79.4154 Y166.7617 I-1.6929 J-4.7047
G1 X79.0953 Y166.8741
G3 X79.0638 Y166.8851 I-1.6561 J-4.7178
G1 X78.8517 Y166.9579
G3 X79.054 Y168.3953 I-4.7976 J1.4081
G3 X79.1461 Y168.5032 I-4.2121 J3.688
G3 X79.1586 Y168.5183 I-3.844 J3.1974
G3 X79.5596 Y169.0596 I-4.9645 J4.0965
G1 X80.7497 Y169.8554
G1 X83.1946 Y171.4808
G1 X85.5618 Y173.0518
G1 X85.5707 Y173.0571
G3 X87.0876 Y174.4162 I-2.7422 J4.5868
G3 X87.2828 Y174.6928 I-3.985 J3.0199
G1 X87.3222 Y174.7528
G3 X87.4326 Y174.9289 I-4.1802 J2.7433
G1 X87.497 Y175.0366
G3 X87.5772 Y175.1756 I-4.2907 J2.5671
G1 X87.6229 Y175.2579
G3 X87.689 Y175.3809 I-4.3708 J2.4282
G2 X87.7548 Y175.5032 I4.2966 J-2.2322
G3 X84.4427 Y182.8217 I-4.369 J2.4314
G3 X83.8377 Y182.955 I-1.8201 J-6.821
G3 X83.8364 Y182.9552 I-0.8606 J-4.9254
G3 X81.8283 Y182.938 I-0.9571 J-5.4862
G3 X81.6268 Y182.8949 I0.9436 J-4.9102
G3 X79.3706 Y182.0183 I1.9929 J-8.4707
G3 X79.3524 Y182.008 I2.4414 J-4.3634
G1 X78.0324 Y181.2622
G3 X78.0164 Y181.2531 I2.4597 J-4.3531
G1 X76.0405 Y180.127
G3 X76.026 Y180.1187 I2.4757 J-4.3441
G2 X75.5534 Y179.8488 I-55.7122 J96.9981
G3 X75.5284 Y179.8345 I2.4692 J-4.3478
G2 X75.1883 Y179.6404 I-28.0883 J48.8033
G3 X75.1513 Y179.6192 I2.4639 J-4.3508
G2 X74.6433 Y179.3294 I-26.7203 J46.2589
G3 X74.5947 Y179.3017 I2.4533 J-4.3567
G2 X74.0957 Y179.0177 I-21.9437 J37.9693
G3 X74.0547 Y178.9945 I2.445 J-4.3614
G1 X73.5539 Y178.7074
G3 X73.5324 Y178.695 I2.486 J-4.3382
G1 X72.6583 Y178.1884
G3 X72.6211 Y178.1666 I2.5075 J-4.3258
G2 X72.5306 Y178.1141 I-3.146 J5.3212
G3 X72.454 Y178.0697 I2.4714 J-4.3465
G2 X72.3872 Y178.031 I-1.9615 J3.312
G3 X72.3006 Y177.9809 I2.461 J-4.3524
G2 X72.2521 Y177.9529 I-1.29 J2.1785
G3 X72.159 Y177.8992 I2.4519 J-4.3575
G2 X72.1252 Y177.8798 I-0.8471 J1.4325
G3 X72.0282 Y177.824 I2.4435 J-4.3623
G2 X72.0063 Y177.8114 I-0.5295 J0.8976
G3 X71.9071 Y177.7546 I2.4355 J-4.3668
G2 X71.8949 Y177.7476 I-0.2897 J0.4925
G3 X71.8294 Y177.7106 I2.4278 J-4.371
G2 X71.1494 Y177.3285 I-19.2798 J33.5136
G3 X70.7205 Y177.8122 I-9.5295 J-8.0165
G3 X70.7166 Y177.8164 I-3.654 J-3.4129
G3 X68.4763 Y179.6774 I-8.5149 J-7.9715
G3 X68.4191 Y179.7133 I-2.6898 J-4.2149
G1 X68.242 Y179.823
G3 X68.155 Y179.8757 I-2.6325 J-4.2509
G3 X66.2832 Y180.7931 I-6.7715 J-11.4481
G2 X66.1908 Y180.8655 I1.3242 J1.785
G3 X66.1608 Y180.8901 I-3.1869 J-3.8527
G1 X65.9997 Y181.0213
G1 X65.755 Y181.2222
G3 X65.7122 Y181.257 I-3.1732 J-3.864
G1 X65.457 Y181.4619
G3 X65.4386 Y181.4766 I-3.1304 J-3.8988
G2 X65.0642 Y181.8016 I3.5836 J4.5065
G1 X64.7324 Y182.1166
G1 X64.399 Y182.4343
G3 X64.3531 Y182.4775 I-3.4494 J-3.6197
G3 X63.8003 Y182.9646 I-9.4943 J-10.2175
G3 X63.7805 Y182.981 I-3.2053 J-3.8374
G3 X62.5217 Y183.8768 I-6.8156 J-8.2452
G3 X61.8978 Y184.2268 I-5.0698 J-8.307
G3 X62.049 Y185.4746 I-5.3378 J1.2798
G3 X61.8798 Y186.9128 I-5.8384 J0.0424
G3 X61.7986 Y187.2044 I-4.855 J-1.1952
G1 X61.7827 Y187.2555
G3 X61.7688 Y187.2994 I-4.7738 J-1.4868
G3 X61.0904 Y188.6827 I-5.0814 J-1.6341
G1 X99.528
G1 Y126.5336
G3 X93.1911 Y133.6421 I-138.0676 J-116.7022
G3 X93.177 Y133.657 I-3.6434 J-3.4243
G3 X93.1523 Y133.6834 I-3.6653 J-3.4008
G3 X93.1155 Y133.723 I-3.6759 J-3.3893
G2 X92.9031 Y133.9655 I3.2171 J3.0313
G3 X92.511 Y135.3731 I-6.2491 J-0.9827
G3 X91.2282 Y137.3241 I-5.5043 J-2.2217
G3 X91.132 Y137.4188 I-3.556 J-3.5149
G3 X91.1116 Y137.4389 I-3.5191 J-3.5519
G3 X91.1035 Y137.4471 I-3.5563 J-3.5146
G2 X90.9026 Y137.6639 I3.0379 J3.0161
G3 X90.8909 Y137.6775 I-3.7829 J-3.2696
G2 X90.6494 Y137.9652 I7.8013 J6.7918
G1 X90.5076 Y138.1411
G1 X90.2371 Y138.4811
G3 X89.9696 Y138.8155 I-26.7675 J-21.1356
G3 X89.8187 Y139.0011 I-7.8384 J-6.2189
G3 X89.6634 Y139.1877 I-7.329 J-5.9384
G3 X89.1251 Y139.8011 I-14.3486 J-12.0525
G3 X89.1171 Y139.8097 I-3.6849 J-3.3796
G3 X88.7819 Y140.1599 I-9.4145 J-8.6753
G3 X88.8341 Y140.3601 I-5.1371 J1.4452
G3 X88.9916 Y141.8704 I-5.605 J1.3479
G1 X88.9844 Y142.1385
G2 X88.9745 Y143.1754 I67.0313 J1.1569
G1 X88.9759 Y143.6616
G1 X88.9805 Y144.5679
G3 X88.9817 Y144.8175 I-11.0267 J0.1777
G3 X88.9815 Y145.0711 I-10.0373 J0.1185
G3 X88.9561 Y146.7055 I-53.5775 J-0.0161
G3 X88.948 Y146.9357 I-7.9153 J-0.1621
G3 X88.9385 Y147.1404 I-7.9015 J-0.2634
G3 X88.9034 Y147.7483 I-27.6417 J-1.2925
G3 X88.6091 Y150.1849 I-22.0963 J-1.4324
G3 X88.0829 Y152.3398 I-16.89 J-2.9831
G3 X90.0631 Y154.4282 I-2.4846 J4.339
G0 Z3.0
G0 X61.8859 Y138.1794
G0 Z1.4
G1 F300.0 Z0.0
G2 F800.0 X62.1379 Y137.6871 I-4.7999 J-2.768
G2 X62.4534 Y136.8018 I-5.1735 J-2.3427
G3 X62.7827 Y135.988 I3.8146 J1.0702
G3 X63.3164 Y135.2257 I3.8075 J2.0975
G2 X64.1163 Y134.0678 I-4.25 J-3.7911
G2 X64.1615 Y133.9795 I-5.1241 J-2.6848
G2 X64.1832 Y133.9359 I-4.468 J-2.2443
G2 X64.3088 Y133.6602 I-4.8385 J-2.3717
G2 X64.7269 Y131.824 I-4.8834 J-2.0776
G2 X64.7271 Y131.821 I-5.3822 J-0.2598
G2 X64.7323 Y131.6481 I-4.9943 J-0.2382
G2 X64.6775 Y130.8174 I-5.2774 J-0.069
G2 X64.7285 Y130.2845 I-5.4347 J-0.7885
G2 X64.7341 Y130.1003 I-5.5084 J-0.261
G2 X66.7055 Y129.8853 I0.4543 J-4.9793
G1 X67.0358 Y129.7801
G2 X67.9176 Y129.4473 I-2.3824 J-7.6469
G2 X67.9643 Y129.4262 I-2.0377 J-4.5659
G2 X69.2733 Y128.5695 I-2.1895 J-4.774
G2 X69.9542 Y127.8406 I-3.5591 J-4.0073
G2 X70.1108 Y127.6302 I-4.1504 J-3.2523
G2 X70.2441 Y127.4377 I-5.6217 J-4.0345
G1 X70.4987 Y127.075
G2 X70.6704 Y126.8299 I-16.3296 J-11.626
G1 X70.6919 Y126.7993
G2 X70.7026 Y126.7839 I-4.0933 J-2.8714
G1 X71.191 Y126.0822
G2 X71.2103 Y126.0541 I-4.1041 J-2.856
G1 X71.2125 Y126.051
G2 X71.3627 Y125.8336 I-8.9391 J-6.335
G2 X71.4873 Y125.6515 I-8.6643 J-6.0634
G2 X71.6083 Y125.4736 I-8.4397 J-5.8717
G2 X71.7282 Y125.2961 I-8.2685 J-5.716
G2 X71.7859 Y125.2104 I-43.2365 J-29.1435
G2 X72.6354 Y123.9047 I-37.7558 J-25.4938
G2 X73.1135 Y123.1239 I-30.5564 J-19.2501
G2 X73.4175 Y122.6044 I-22.2207 J-13.3506
G2 X74.1064 Y121.3325 I-24.642 J-14.1683
G2 X74.5165 Y120.4931 I-22.4513 J-11.4894
G2 X75.1356 Y119.0482 I-20.9269 J-9.8208
G2 X75.1518 Y119.0058 I-4.6602 J-1.8116
G2 X75.4789 Y117.7859 I-5.9341 J-2.2451
G2 X75.548 Y117.2447 I-7.1088 J-1.1826
G2 X75.5963 Y117.1714 I-5.144 J-3.4421
G2 X76.7847 Y114.8909 I-10.5379 J-6.9413
G2 X77.1649 Y113.9289 I-135.2997 J-54.0299
G2 X77.5405 Y112.9748 I-135.3442 J-53.828
G2 X77.7889 Y112.3421 I-119.9423 J-47.4605
G2 X78.1224 Y111.4914 I-157.8667 J-62.3707
G1 X78.1787 Y111.3476
G1 X78.1816 Y111.3403
G2 X78.1833 Y111.3358 I-4.6543 J-1.827
G1 X78.2012 Y111.2901
G1 X79.4379 Y108.1322
G1 X80.3175 Y105.8985
G1 X80.8172 Y104.6396
G2 X81.1909 Y103.4798 I-7.8798 J-3.1791
G2 X81.2744 Y103.1016 I-7.8665 J-1.9351
G2 X81.276 Y103.0936 I-8.4951 J-1.6886
G2 X81.4172 Y101.9061 I-7.5265 J-1.4973
G2 X81.0094 Y99.1216 I-7.5087 J-0.3223
G2 X81.0073 Y99.1155 I-4.7241 J1.638
G2 X80.5029 Y97.9744 I-7.2646 J2.5293
G2 X80.1422 Y97.3766 I-6.7282 J3.6511
G1 X80.0706 Y97.2679
G1 X79.9978 Y97.1565
G3 X79.8415 Y96.9142 I74.1896 J-48.0275
G1 X79.516 Y96.4026
G2 X79.458 Y96.3107 I-6.4773 J4.0291
G2 X79.362 Y96.1593 I-9.7682 J6.0859
G2 X79.2876 Y96.0425 I-11.2036 J7.0532
G2 X78.7936 Y95.2844 I-30.3242 J19.2184
G1 X78.7887 Y95.2769
G1 X78.7886 Y95.2767
G1 X78.7888 Y95.2771
G1 X78.7887 Y95.2769
G2 X78.0256 Y94.1911 I-18.6088 J12.2673
G2 X77.9801 Y94.1305 I-4.0211 J2.9716
G1 X77.9795 Y94.1298
G2 X77.8592 Y93.9715 I-17.7996 J13.4144
G2 X77.7212 Y93.7942 I-4.8363 J3.6195
G2 X76.5953 Y92.5131 I-12.3044 J9.6789
G2 X76.578 Y92.4955 I-3.5702 J3.5005
G3 X71.5719 Y86.3189 I28.481 J-28.2007
G2 X71.349 Y85.9871 I-17.2462 J11.3416
G2 X70.5659 Y84.9201 I-16.8126 J11.5188
G2 X70.3657 Y84.669 I-16.2402 J12.7404
G2 X70.3582 Y84.6598 I-3.8854 J3.147
G2 X70.2777 Y84.5615 I-15.3949 J12.5297
G2 X70.1458 Y84.4026 I-15.7413 J12.9444
G2 X68.9689 Y83.1238 I-14.5368 J12.1974
G2 X68.9489 Y83.104 I-3.5275 J3.5435
G2 X68.7904 Y82.9492 I-13.3399 J13.496
G1 X68.787 Y82.9459
G2 X68.7558 Y82.9157 I-3.4935 J3.5771
G2 X68.5229 Y82.6959 I-13.1906 J13.7433
G2 X65.185 Y80.2173 I-12.914 J13.9042
G2 X65.1797 Y80.2142 I-2.5232 J4.3167
G3 X64.7493 Y79.961 I30.2426 J-51.8857
G3 X64.1597 Y79.6055 I28.5749 J-48.0672
G1 X64.1591 Y79.6051
G1 X63.7497 Y79.355
G3 X63.6243 Y79.2778 I41.8101 J-68.1153
G2 X63.5693 Y79.2438 I-2.6578 J4.2351
G3 X63.5564 Y79.2359 I7.1183 J-11.6752
G3 X63.4235 Y79.1537 I42.0035 J-67.9963
G3 X63.3933 Y79.1347 I7.264 J-11.5851
G2 X63.3532 Y79.1096 I-2.6672 J4.2292
G3 X63.123 Y78.9658 I13.784 J-22.3216
G2 X63.1111 Y78.9584 I-2.6709 J4.2268
G3 X61.4296 Y77.8789 I53.3098 J-84.8897
G2 X61.4173 Y77.8708 I-2.7494 J4.1762
G3 X61.244 Y77.7568 I55.0036 J-83.8021
G2 X61.2214 Y77.7419 I-2.7641 J4.1665
G3 X61.0493 Y77.6281 I55.1995 J-83.6732
G2 X60.1808 Y77.1234 I-4.5235 J6.7844
G2 X60.1537 Y77.1099 I-2.2412 J4.4696
G1 X60.13 Y77.0982
G2 X60.0857 Y77.0766 I-2.2141 J4.4831
G1 X60.0604 Y77.0644
G2 X60.0588 Y77.0636 I-2.1697 J4.5047
G2 X59.5847 Y76.8558 I-3.1728 J6.5934
G2 X58.6061 Y76.545 I-2.6213 J6.5582
G2 X57.8756 Y76.4104 I-1.6052 J6.6599
G2 X55.8371 Y76.4539 I-0.8756 J6.752
G2 X55.4323 Y76.5363 I1.1638 J6.751
G2 X53.6768 Y77.1981 I1.6589 J7.0592
G2 X52.9235 Y77.5949 I54.322 J104.0422
G2 X52.1593 Y77.9975 I56.692 J108.554
G2 X51.6531 Y78.2642 I48.6023 J92.8714
G2 X50.9747 Y78.6216 I57.9122 J110.7365
G2 X50.0675 Y79.0997 I70.3207 J134.5212
G2 X49.5529 Y79.371 I56.8943 J108.5351
G2 X48.9621 Y79.6826 I63.5888 J121.2923
G2 X48.2869 Y80.0389 I71.9579 J137.2115
G2 X47.5151 Y80.4462 I82.8317 J157.8618
G2 X46.6329 Y80.9122 I97.7626 J186.1636
G2 X45.6247 Y81.4451 I120.0819 J228.3852
G2 X44.4927 Y82.0441 I158.8745 J301.6226
G2 X44.1808 Y82.21 I7.2448 J13.9943
G2 X43.8877 Y82.368 I7.5098 J14.2823
G2 X43.7063 Y82.4665 I7.0685 J13.2363
G2 X43.4393 Y82.6123 I8.7516 J16.3478
G1 X42.5158 Y83.1173
G1 X41.9106 Y83.4436
G1 X41.638 Y83.5875
G3 X41.5376 Y83.6398 I-22.3074 J-42.6615
G1 X41.2131 Y83.8069
G2 X40.1689 Y84.4317 I3.7376 J7.4311
G2 X39.6497 Y84.8289 I4.1618 J5.9778
G2 X38.9815 Y85.4648 I4.7082 J5.6162
G2 X38.0432 Y86.7402 I5.0378 J4.6889
G2 X37.2753 Y88.7816 I5.9544 J3.4053
G2 X37.2212 Y89.0472 I130.4861 J26.6846
G1 X37.1482 Y89.4058
G2 X37.142 Y89.4369 I4.8996 J0.9968
G1 X37.0344 Y89.9838
G2 X37.0282 Y90.0159 I4.9058 J0.9658
G1 X36.991 Y90.2115
G2 X36.8451 Y90.9789 I130.7703 J25.2547
G2 X36.8413 Y90.999 I4.9129 J0.929
G1 X36.841 Y91.0009
G2 X36.779 Y91.3348 I26.8389 J5.1569
G2 X36.7101 Y91.7106 I33.0319 J6.2517
G1 X36.7098 Y91.7119
G1 X36.7083 Y91.7203
G2 X36.7059 Y91.7334 I4.917 J0.9071
G1 X36.6096 Y92.2632
G2 X36.5338 Y92.6829 I41.8486 J7.7766
G2 X36.4783 Y92.991 I27.2497 J5.0639
G2 X36.4371 Y93.2207 I21.2966 J3.9471
G1 X36.3229 Y93.855
G2 X35.5902 Y94.6252 I3.4973 J4.0604
G2 X35.0251 Y95.5088 I4.3311 J3.3926
G2 X34.7248 Y96.2046 I4.9734 J2.5592
G2 X34.702 Y96.2702 I5.6644 J2.003
G2 X34.4379 Y97.3835 I5.5483 J1.9041
G2 X34.436 Y97.3976 I4.9544 J0.674
G2 X34.3834 Y97.9049 I8.684 J1.1563
G2 X34.3573 Y98.579 I9.1659 J0.6932
G1 X34.3562 Y98.6581
G3 X34.3085 Y98.8709 I-10.9005 J-2.3316
G3 X34.2373 Y99.1484 I-8.8411 J-2.1203
G3 X34.2235 Y99.197 I-6.2237 J-1.7445
G1 X34.2088 Y99.2466
G1 X34.175 Y99.3524
G3 X34.1378 Y99.4518 I-1.5777 J-0.533
G2 X34.0539 Y99.6628 I6.006 J2.5115
G2 X33.9277 Y100.0265 I5.181 J2.0012
G2 X33.8245 Y100.3974 I5.0477 J1.6052
G2 X33.7749 Y100.6156 I5.7716 J1.426
G2 X33.6548 Y101.6032 I5.5704 J1.1785
G2 X33.9429 Y103.5732 I5.4307 J0.2117
G2 X33.7655 Y103.9698 I4.4709 J2.2385
G2 X33.7023 Y104.1045 I12.5427 J5.9661
G2 X33.5762 Y104.3876 I6.4662 J3.0487
G2 X33.2927 Y105.2043 I5.6213 J2.409
G2 X33.1595 Y105.8232 I5.3945 J1.4852
G2 X33.1649 Y107.589 I5.4772 J0.8663
G2 X33.1795 Y107.6737 I4.9338 J-0.8111
G2 X33.3079 Y108.3719 I199.2207 J-36.2775
G2 X33.1034 Y108.5809 I3.604 J3.7316
G2 X32.6694 Y109.1124 I4.0535 J3.7531
G2 X32.6382 Y109.1563 I4.0602 J2.9181
G2 X32.5775 Y109.2445 I4.5186 J3.1778
G2 X32.0676 Y110.1755 I4.7004 J3.1793
G2 X31.7816 Y111.0129 I4.9808 J2.1687
G2 X31.6422 Y111.8103 I5.2292 J1.3246
G2 X31.6328 Y111.9178 I4.9761 J0.4887
G2 X31.6124 Y112.6229 I7.4244 J0.5678
G2 X31.6202 Y112.9046 I8.8382 J-0.1017
G2 X31.6272 Y113.057 I5.6834 J-0.1882
G2 X31.6341 Y113.1718 I5.8258 J-0.2903
G2 X31.6453 Y113.3291 I6.1348 J-0.3578
G2 X31.652 Y113.4221 I54.3484 J-3.8491
G1 X31.6526 Y113.4312
G1 X31.6624 Y113.5762
G1 X32.0291 Y119.7291
G1 X32.029 Y119.7323
G2 X32.0414 Y120.4438 I5.5982 J0.2578
G2 X32.0657 Y120.6837 I5.4931 J-0.4348
G2 X32.4217 Y122.0636 I5.4148 J-0.661
G2 X32.4904 Y122.2257 I4.6369 J-1.8706
G2 X32.92 Y123.0572 I7.3493 J-3.2704
G2 X33.0898 Y123.3327 I7.2207 J-4.2577
G2 X33.1758 Y123.4668 I5.0721 J-3.1595
G2 X33.1919 Y123.4919 I9.3941 J-6.0276
G1 X33.2961 Y123.6583
G2 X40.9263 Y124.6763 I4.2372 J-2.6545
G2 X41.0067 Y124.6108 I-5.5031 J-6.8354
G2 X41.4729 Y124.1974 I-4.2801 J-5.2972
G2 X41.5485 Y124.1233 I-3.4632 J-3.6064
G2 X41.7141 Y123.9509 I-4.3836 J-4.3756
G2 X41.7745 Y123.8846 I-3.6628 J-3.4035
G2 X41.833 Y123.8185 I-4.3502 J-3.8992
G2 X42.5583 Y122.7694 I-4.1525 J-3.6464
G2 X43.0174 Y121.6059 I-4.8392 J-2.582
G2 X43.0462 Y121.4931 I-4.8299 J-1.293
G2 X43.2477 Y120.4888 I-12.3581 J-3.0019
G2 X43.2993 Y120.1533 I-9.5112 J-1.6347
G2 X43.3086 Y120.0877 I-4.9458 J-0.7339
G1 X43.3147 Y120.043
G1 X43.3395 Y119.8653
G2 X43.3484 Y119.7979 I-4.9519 J-0.6916
G1 X43.3583 Y119.7198
G1 X43.3666 Y119.6579
G2 X43.3745 Y119.5968 I-4.9551 J-0.6683
G3 X43.4182 Y119.2431 I127.6127 J15.613
G1 X43.4391 Y119.0775
G3 X43.508 Y118.5412 I127.5481 J16.1322
G2 X43.5353 Y118.5528 I1.9725 J-4.5945
G3 X43.5687 Y118.5674 I-10.7827 J24.6671
G2 X43.6676 Y118.611 I2.0674 J-4.5526
G3 X43.7024 Y118.6265 I-10.915 J24.6088
G2 X43.7552 Y118.6503 I2.084 J-4.545
G3 X43.8603 Y118.6974 I-8.5809 J19.3009
G3 X44.0386 Y118.779 I-11.1076 J24.5225
G2 X44.0594 Y118.7885 I2.0961 J-4.5394
G3 X44.0631 Y118.7902 I-6.417 J14.0658
G3 X44.6758 Y119.0865 I-8.8889 J19.161
G3 X45.1202 Y119.3226 I-7.2608 J14.204
G3 X45.3013 Y119.4243 I-7.4778 J13.5317
G1 X45.4001 Y119.4818
G3 X45.6312 Y119.6227 I-5.3401 J9.0205
G1 X45.6313 Y119.6228
G1 X45.6311 Y119.6226
G1 X45.6312 Y119.6227
G3 X46.3114 Y120.1009 I-4.228 J6.7374
G3 X46.6954 Y120.431 I-4.2019 J5.2767
G3 X47.5777 Y121.4478 I-4.2764 J4.6018
G3 X48.186 Y122.5961 I-4.7862 J3.2707
G2 X48.1986 Y122.6279 I4.6528 J-1.8306
G2 X48.2351 Y122.7182 I20.0258 J-8.0376
G1 X48.2785 Y122.8256
G2 X48.3082 Y122.8975 I4.6357 J-1.8736
G1 X48.3816 Y123.0713
G2 X48.4177 Y123.1545 I4.606 J-1.9455
G1 X48.4367 Y123.1975
G2 X48.5718 Y123.5015 I19.7877 J-8.6072
G2 X48.5864 Y123.5336 I4.5593 J-2.0525
G2 X48.6724 Y123.7202 I19.6381 J-8.9433
G2 X48.7569 Y123.901 I7.0131 J-3.168
G2 X48.8347 Y124.0641 I7.3316 J-3.3939
G2 X48.9218 Y124.2449 I7.9009 J-3.6981
G2 X49.0284 Y124.4634 I9.1063 J-4.3073
G1 X49.2183 Y124.8551
G1 X49.156 Y125.914
G1 X49.0866 Y127.0406
G2 X49.0329 Y127.9152 I89.0005 J5.9037
G2 X48.9937 Y128.5704 I61.7528 J4.0271
G2 X48.9652 Y129.0616 I52.3677 J3.2881
G2 X48.9236 Y129.8124 I68.8487 J4.1903
G2 X48.8862 Y130.54 I164.1511 J8.8026
G2 X48.9824 Y132.0925 I6.7985 J0.358
G2 X49.7203 Y134.1813 I6.7075 J-1.1948
G2 X50.0235 Y134.6844 I6.123 J-3.3463
G2 X50.0367 Y134.7044 I4.1703 J-2.7584
G2 X50.2107 Y134.9547 I6.998 J-4.677
G2 X50.6433 Y135.5042 I6.4833 J-4.6596
G2 X50.6591 Y135.5224 I3.7892 J-3.2621
G2 X51.3435 Y136.2361 I7.641 J-6.6427
G3 X51.3975 Y136.292 I-1.098 J1.1172
G1 X51.4571 Y136.3615
G3 X51.604 Y136.5498 I-3.7131 J3.0495
G2 X51.6131 Y136.562 I4.0168 J-2.9774
G3 X51.6614 Y136.6273 I-8.4638 J6.3138
G2 X51.6966 Y136.6755 I4.0566 J-2.923
G2 X51.7374 Y136.7322 I4.0772 J-2.8943
G3 X51.7417 Y136.7382 I-8.5881 J6.1437
G1 X51.9487 Y137.0328
G1 X52.0472 Y137.1732
G2 X52.3861 Y137.6527 I21.1078 J-14.5585
G1 X52.4088 Y137.6957
G2 X52.5541 Y137.958 I4.8072 J-2.4911
G2 X52.7848 Y138.3269 I5.6424 J-3.2722
G2 X53.507 Y139.2127 I4.9364 J-3.2876
G2 X55.2313 Y140.3996 I3.9276 J-3.8597
G2 X55.274 Y140.418 I2.0006 J-4.5823
G2 X55.702 Y140.5786 I2.0584 J-4.8367
G2 X57.9729 Y140.7986 I1.6272 J-4.9647
G2 X58.0341 Y140.7907 I-0.6406 J-5.2173
G2 X58.3607 Y140.7357 I-0.6675 J-4.9552
G2 X58.4219 Y140.7229 I-1.0434 J-5.143
G2 X61.1191 Y139.21 I-1.0928 J-5.109
G2 X61.6518 Y138.551 I-3.8018 J-3.6173
G2 X61.7091 Y138.4654 I-4.6874 J-3.2065
G2 X61.8859 Y138.1794 I-4.6232 J-3.054
G0 Z3.0
G0 X8.7947 Y102.3676
G0 Z1.4
G1 F300.0 Z0.0
G3 F800.0 X8.2635 Y103.0865 I-8.6451 J-5.8314
G2 X8.2468 Y103.1087 I1.1244 J0.8633
G1 X8.1684 Y103.224
G1 X8.0419 Y103.4146
G1 X7.9651 Y103.5308
G3 X7.5799 Y104.0814 I-9.2899 J-6.0893
G3 X7.3355 Y104.4093 I-39.2751 J-29.0139
G3 X7.0961 Y104.7297 I-39.9563 J-29.603
G3 X6.6112 Y105.3769 I-60.16 J-44.5741
G3 X6.2896 Y105.8051 I-63.626 J-47.4496
G1 X5.0278 Y107.4853
G1 X4.1945 Y108.6024
G1 X3.7232 Y109.2396
G2 X3.2014 Y109.9516 I126.4117 J93.1938
G1 X2.7019 Y110.6412
G1 X2.3062 Y111.1931
G1 X2.017 Y111.6008
G1 X1.6221 Y112.1632
G3 X1.6213 Y112.1644 I-4.0922 J-2.873
G2 X1.4772 Y112.3704 I46.4538 J32.6351
G2 X1.1944 Y112.7806 I82.1378 J56.9319
G2 X1.1338 Y112.8695 I46.8807 J32.0189
G3 X1.1231 Y112.8852 I-4.1342 J-2.8121
G2 X0.9764 Y113.0999 I68.3814 J46.8947
G2 X0.5735 Y113.6969 I82.6387 J56.2024
G2 X-0.7982 Y115.8179 I68.931 J46.083
G1 X-1.0506 Y116.2263
G2 X-1.2951 Y116.6285 I36.0712 J22.2046
G3 X-1.2984 Y116.634 I-4.2868 J-2.5736
G2 X-2.5973 Y118.9002 I51.9935 J31.3057
G2 X-4.1184 Y121.9555 I41.8693 J22.7504
G3 X-4.146 Y122.0154 I-4.5529 J-2.0666
G3 X-4.5219 Y122.7098 I-6.2869 J-2.9542
G3 X-4.7226 Y123.018 I-6.0773 J-3.739
G3 X-4.7803 Y123.1021 I-4.7597 J-3.2005
G1 X-4.8432 Y123.1972
G3 X-4.9224 Y123.3134 I-4.1704 J-2.7583
G3 X-4.7756 Y124.3704 I-4.8508 J1.2124
G3 X-4.7594 Y126.218 I-41.4099 J1.2878
G3 X-4.9183 Y129.0892 I-32.6407 J-0.3671
G3 X-5.003 Y129.8361 I-24.4239 J-2.3888
G3 X-5.0045 Y129.8487 I-26.5064 J-3.3227
G3 X-5.0382 Y130.1061 I-7.8058 J-0.8899
G3 X-5.0724 Y130.35 I-26.4712 J-3.5927
G3 X-5.3766 Y132.0551 I-25.9405 J-3.748
G3 X-5.4122 Y132.2102 I-4.8906 J-1.0403
G3 X-6.0063 Y133.6644 I-5.2268 J-1.2869
G3 X-6.6514 Y134.5421 I-4.6701 J-2.7565
G3 X-6.7253 Y134.6231 I-4.2424 J-3.7997
G3 X-7.2581 Y135.1296 I-4.3825 J-4.0762
G3 X-7.5114 Y135.3356 I-4.5972 J-5.393
G3 X-10.4808 Y136.5873 I-3.3232 J-3.7358
G3 X-11.0517 Y136.9462 I-4.2926 J-6.1946
G3 X-11.0585 Y136.9501 I-2.4691 J-4.3478
G3 X-11.7782 Y137.2969 I-2.9914 J-5.2869
G3 X-13.149 Y137.6582 I-2.0938 J-5.1631
G3 X-13.2241 Y137.6677 I-0.7557 J-5.6506
G3 X-13.299 Y137.6764 I-0.6497 J-5.3052
G3 X-13.5521 Y138.5894 I-29.4585 J-7.6751
G3 X-14.5338 Y141.3988 I-26.7081 J-7.7558
G2 X-14.5537 Y141.5233 I13.709 J2.2629
G1 X-14.6051 Y141.8813
G2 X-14.82 Y145.0516 I21.2665 J3.0343
G2 X-14.5454 Y148.1695 I19.8364 J-0.1762
G3 X-14.5437 Y148.1796 I-4.9306 J0.8303
G3 X-14.449 Y149.5702 I-7.1147 J1.1831
G3 X-14.456 Y149.7528 I-7.4261 J-0.1931
G3 X-14.5264 Y150.4361 I-6.3365 J-0.3074
G3 X-14.6818 Y151.1487 I-5.687 J-0.8673
G3 X-14.7304 Y151.311 I-5.3746 J-1.5208
G3 X-14.6598 Y151.5959 I-74.9352 J18.727
G1 X-14.6543 Y151.6179
G3 X-14.5936 Y151.863 I-19.5976 J4.9859
G3 X-14.5026 Y152.2368 I-19.9565 J5.0557
G3 X-14.4139 Y152.6124 I-21.9595 J5.3872
G3 X-14.3594 Y152.8627 I-7.8635 J1.8411
G3 X-14.3498 Y152.9117 I-4.902 J0.9849
G1 X-14.3302 Y153.0149
G3 X-14.3119 Y153.1167 I-4.9117 J0.9358
G1 X-14.3077 Y153.1413
G3 X-14.304 Y153.1637 I-4.93 J0.8339
G3 X-14.2992 Y153.1931 I-4.9337 J0.8118
G3 X-14.2929 Y153.2335 I-7.2648 J1.151
G1 X-14.2891 Y153.2583
G3 X-14.2671 Y153.4171 I-4.9411 J0.7654
G1 X-14.2555 Y153.5118
G3 X-14.2304 Y153.7746 I-4.9631 J0.6066
G1 X-14.2269 Y153.8265
G3 X-14.2252 Y153.8499 I-7.3372 J0.5175
G1 X-14.2242 Y153.8648
G3 X-14.2207 Y153.9199 I-4.9882 J0.3438
G3 X-14.2189 Y153.9526 I-5.8288 J0.3371
G3 X-14.2122 Y154.3749 I-5.4574 J0.2984
G3 X-14.2248 Y154.6586 I-5.8373 J-0.1179
G3 X-14.3011 Y155.2783 I-5.66 J-0.3825
G3 X-14.3373 Y155.4625 I-5.4746 J-0.9807
G3 X-14.4376 Y155.8604 I-5.5475 J-1.1863
G3 X-15.7566 Y158.1199 I-5.154 J-1.4941
G3 X-17.2953 Y159.217 I-3.8365 J-3.7528
G3 X-18.1032 Y159.5264 I-2.3613 J-4.9568
G3 X-18.1158 Y159.5301 I-1.6596 J-5.6009
G3 X-18.5885 Y159.6478 I-1.6064 J-5.4416
G3 X-19.2351 Y159.7432 I-1.1743 J-5.7224
G3 X-19.2807 Y159.7471 I-0.4516 J-4.9796
G3 X-19.3992 Y159.7559 I-0.6206 J-7.6161
G3 X-19.9644 Y159.7716 I-0.4709 J-6.7459
G3 X-20.0027 Y159.7709 I0.0698 J-4.9995
G3 X-20.0704 Y159.7694 I0.0769 J-4.9994
G1 X-20.082 Y159.7691
G3 X-20.4261 Y159.7527 I0.1869 J-7.5509
G3 X-20.6644 Y159.7323 I0.4494 J-6.6385
G1 X-22.3713 Y159.58
G3 X-23.0351 Y159.5218 I7.9846 J-94.9172
G3 X-23.6218 Y159.4702 I4.409 J-53.4627
G3 X-24.1362 Y159.4244 I3.4474 J-41.681
G3 X-24.5878 Y159.3837 I2.9967 J-35.753
G3 X-24.984 Y159.3474 I2.747 J-32.1649
G3 X-25.3317 Y159.315 I2.5988 J-29.7888
G3 X-25.6321 Y159.2866 I2.5093 J-28.1369
G3 X-26.1744 Y159.2341 I3.236 J-36.2404
G3 X-26.5778 Y159.1938 I3.2351 J-34.4661
G3 X-27.7896 Y159.066 I7.7155 J-78.9166
G1 X-29.3064 Y158.9031
G1 X-30.3047 Y158.7974
G3 X-30.7072 Y158.7545 I2.1148 J-21.7835
G3 X-30.8796 Y158.7359 I1.5679 J-15.3405
G3 X-31.0574 Y158.7167 I1.4952 J-14.6355
G3 X-31.2584 Y158.6946 I1.4454 J-14.0663
G3 X-31.8175 Y158.6318 I32.5364 J-292.1708
G1 X-32.1168 Y158.5984
G3 X-32.1458 Y158.5951 I0.5538 J-4.9692
G1 X-32.4394 Y158.5606
G3 X-32.6151 Y158.5403 I33.7175 J-292.0368
G1 X-32.615
G1 X-32.6151
G3 X-33.9262 Y158.3772 I9.2639 J-79.8332
G3 X-35.1693 Y158.2027 I8.8032 J-67.2136
G3 X-35.3644 Y158.1732 I2.1544 J-14.8942
G3 X-35.5259 Y158.1483 I10.2413 J-67.0095
G3 X-35.5424 Y158.1457 I0.7673 J-4.9408
G1 X-35.5459 Y158.1451
G3 X-35.9772 Y158.0767 I9.4325 J-60.8221
G1 X-36.0408 Y158.0666
G3 X-36.0528 Y158.0647 I0.7838 J-4.9382
G3 X-36.6464 Y157.9647 I6.8545 J-42.5198
G3 X-37.2581 Y157.8548 I8.2043 J-47.4387
G3 X-39.7621 Y157.3193 I7.8185 J-42.6738
G3 X-39.8908 Y157.2878 I1.6682 J-7.1041
G3 X-40.0265 Y157.2536 I1.7051 J-7.0555
G3 X-40.4172 Y157.1531 I9.3592 J-37.1967
G3 X-40.4584 Y157.1423 I1.2515 J-4.8408
G1 X-40.4621 Y157.1413
G3 X-40.7064 Y157.0759 I9.7948 J-37.0844
G1 X-40.7323 Y157.069
G3 X-40.7523 Y157.0636 I1.2928 J-4.83
G3 X-41.5049 Y156.8501 I9.5463 J-35.0821
G3 X-41.84 Y156.7497 I10.8376 J-36.7932
G3 X-41.8445 Y156.7483 I1.4564 J-4.7832
G3 X-42.7783 Y156.4486 I10.1834 J-33.3295
G3 X-42.998 Y156.374 I1.9993 J-6.2532
G1 X-43.1652 Y156.3175
G2 X-44.0215 Y156.037 I-18.6934 J55.6311
G2 X-44.795 Y155.797 I-16.9681 J53.3107
G1 X-45.7648 Y155.5046
G1 X-46.4829 Y155.2904
G3 X-46.7683 Y155.2051 I10.1311 J-34.4453
G3 X-47.0178 Y155.1303 I6.6008 J-22.4678
G3 X-47.2284 Y155.0669 I5.4409 J-18.4526
G3 X-47.6221 Y154.9474 I5.9734 J-20.3835
G3 X-47.9136 Y154.8578 I5.1157 J-17.1673
G3 X-48.126 Y154.792 I4.6077 J-15.2325
G3 X-48.4633 Y154.6861 I5.3423 J-17.6081
G3 X-48.809 Y154.5756 I5.7127 J-18.4657
G3 X-50.17 Y154.1361 I77.7941 J-243.2195
G3 X-50.6444 Y153.9821 I810.6954 J-2498.5167
G1 X-50.9037 Y153.8982
G3 X-53.0181 Y153.2098 I153.6704 J-475.5542
G3 X-54.4263 Y152.749 I82.4909 J-254.5259
G3 X-55.2277 Y152.4862 I56.4238 J-173.3904
G3 X-56.1445 Y152.1851 I56.9043 J-174.7655
G3 X-57.1916 Y151.8405 I58.2035 J-178.6569
G3 X-58.3901 Y151.4456 I60.3151 J-185.0599
G3 X-59.0255 Y151.236 I44.0217 J-134.5441
G3 X-59.6898 Y151.0169 I45.1308 J-137.9211
G3 X-60.3502 Y150.7715 I2.4711 J-7.6628
G3 X-60.7559 Y150.5863 I2.4546 J-5.9135
G3 X-61.3544 Y150.2461 I2.7395 J-5.5158
G3 X-61.5089 Y150.1438 I3.4588 J-5.3882
G3 X-61.5141 Y150.1402 I2.8217 J-4.1277
G3 X-61.919 Y149.8348 I3.1575 J-4.6065
G3 X-62.8847 Y148.8026 I3.4564 J-4.2019
G3 X-62.8944 Y148.7892 I4.5281 J-3.2689
G3 X-62.9821 Y148.6628 I4.0627 J-2.9146
G3 X-63.4452 Y147.8183 I4.4481 J-2.9882
G3 X-63.4727 Y147.7546 I4.9826 J-2.1855
G3 X-63.5322 Y147.6076 I4.6042 J-1.9498
G3 X-63.8086 Y146.6198 I4.9922 J-1.9299
G3 X-63.7826 Y144.5941 I5.2746 J-0.9452
G3 X-63.7329 Y144.3739 I5.7128 J1.1746
G3 X-63.3107 Y143.2097 I5.5467 J1.3528
G3 X-62.8636 Y142.4316 I5.9917 J2.925
G1 X-62.1206 Y141.3022
G3 X-61.4166 Y140.2413 I71.4831 J46.6697
G3 X-61.4033 Y140.2216 I4.1546 J2.7819
G1 X-61.3905 Y140.2026
G3 X-61.3003 Y140.0693 I70.753 J47.7693
G1 X-61.1945 Y139.913
G3 X-61.1757 Y139.8854 I4.1413 J2.8017
G1 X-61.0666 Y139.7264
G3 X-60.982 Y139.6032 I70.4291 J48.2455
G1 X-60.9348 Y139.5344
G3 X-60.9106 Y139.4994 I4.1225 J2.8293
G3 X-60.807 Y139.3499 I7.2246 J4.895
G3 X-60.7295 Y139.2391 I7.0551 J4.8572
G3 X-60.6449 Y139.1194 I6.9254 J4.7988
G3 X-60.3803 Y138.7478 I27.9073 J19.5979
G3 X-60.0779 Y138.3349 I28.86 J20.8149
G3 X-59.9345 Y138.1433 I8.166 J5.9633
G3 X-59.8293 Y138.0042 I7.8107 J5.7989
G3 X-59.6504 Y137.771 I9.086 J6.7848
G3 X-59.4679 Y137.5378 I10.0736 J7.6929
G3 X-58.8146 Y136.7464 I16.6699 J13.0975
G3 X-58.7056 Y136.6202 I5.8689 J4.9572
G3 X-58.5957 Y136.4947 I5.918 J5.0688
G3 X-58.4532 Y136.3343 I5.997 J5.1855
G3 X-58.4012 Y136.2763 I5.3303 J4.7318
G3 X-58.3303 Y136.1976 I5.3806 J4.7734
G3 X-58.255 Y136.1145 I5.4224 J4.838
G3 X-58.1435 Y135.993 I5.472 J4.9105
G3 X-56.9417 Y134.7262 I42.6932 J39.3002
G1 X-56.6299 Y134.404
G1 X-56.2779 Y134.0382
G1 X-55.8966 Y133.6354
G3 X-55.6832 Y133.4075 I14.1369 J13.0245
G3 X-55.4693 Y133.1803 I14.1073 J13.0629
G3 X-55.3342 Y133.0372 I12.2488 J11.4315
G3 X-55.1474 Y132.8399 I13.7471 J12.8278
G3 X-54.8922 Y132.5714 I15.7174 J14.6846
G3 X-54.7556 Y132.4281 I13.155 J12.4047
G3 X-54.5937 Y132.2585 I14.28 J13.4722
G3 X-54.4089 Y132.0653 I15.7644 J14.8956
G3 X-54.198 Y131.8453 I17.8916 J16.9358
G3 X-53.9572 Y131.5945 I21.3574 J20.2607
G3 X-53.6775 Y131.3035 I28.7279 J27.3353
G1 X-53.0843 Y130.6862
G1 X-52.9234 Y130.5186
G1 X-52.0212 Y129.5744
G1 X-51.4955 Y129.0182
G1 X-50.8976 Y128.3774
G1 X-50.5841 Y128.037
G2 X-50.0222 Y127.4166 I-51.2494 J-46.9792
G2 X-49.6434 Y126.9897 I-56.1934 J-50.2476
G2 X-49.0898 Y126.3529 I-52.1901 J-45.9319
G1 X-48.9096 Y126.1416
G1 X-48.6813 Y125.87
G2 X-48.626 Y125.8038 I-31.0285 J-25.9644
G3 X-48.5743 Y125.7416 I3.8704 J3.1655
G2 X-48.5349 Y125.694 I-31.1356 J-25.8359
G3 X-48.4669 Y125.6116 I3.8906 J3.1405
G2 X-48.4374 Y125.5757 I-31.2429 J-25.706
G3 X-48.3636 Y125.4855 I3.9059 J3.1215
G2 X-48.3356 Y125.4512 I-31.3462 J-25.5799
G3 X-48.2933 Y125.3986 I3.9181 J3.1061
G2 X-48.172 Y125.2489 I-28.6622 J-23.3596
G2 X-47.2406 Y124.0441 I-31.5378 J-25.3433
G3 X-46.9761 Y123.6871 I22.3442 J16.277
G3 X-46.72 Y123.3423 I23.441 J17.1469
G3 X-46.5547 Y123.1201 I20.84 J15.33
G3 X-46.329 Y122.817 I24.8163 J18.2405
G3 X-46.0248 Y122.4089 I30.9314 J22.7415
G3 X-45.8508 Y122.1757 I27.2793 J20.1762
G1 X-44.5428 Y120.4213
G2 X-44.4356 Y120.2771 I-351.0862 J-260.9851
G1 X-43.9321 Y119.5978
G2 X-42.9688 Y118.2905 I-351.6969 J-260.1616
G1 X-42.5234 Y117.6804
G1 X-41.9578 Y116.8969
G2 X-40.9819 Y115.5219 I-134.8376 J-96.7369
G1 X-40.7902 Y115.2483
G3 X-36.27 Y109.9953 I27.8664 J19.4079
G3 X-34.5522 Y108.4687 I24.3372 J25.656
G3 X-32.1452 Y106.6258 I23.8725 J28.6856
G3 X-31.7402 Y106.3408 I44.7999 J63.246
G3 X-31.3426 Y106.0613 I48.1036 J67.9949
G3 X-30.54 Y105.4976 I76.2585 J107.7158
G3 X-30.0054 Y105.1225 I76.6176 J108.6452
G3 X-28.3025 Y103.9304 I553.7317 J789.1572
G3 X-27.739 Y103.5371 I105.1764 J150.076
G3 X-27.2059 Y103.1653 I78.66 J112.2407
G3 X-26.2666 Y102.5117 I85.9453 J122.4975
G3 X-25.5626 Y102.0229 I65.8721 J94.1265
G3 X-25.0368 Y101.6585 I53.6164 J76.8057
G3 X-24.24 Y101.1075 I61.2618 J87.7361
G3 X-23.8453 Y100.8351 I42.4897 J61.1438
G3 X-23.4578 Y100.5679 I41.5733 J59.8937
G1 X-23.3745 Y100.5097
G2 X-22.5186 Y99.7872 I-3.962 J-5.5623
G2 X-22.0203 Y99.2416 I-5.963 J-5.947
G2 X-21.6603 Y98.7792 I-7.6194 J-6.303
G3 X-21.6555 Y98.7726 I4.0493 J2.9331
G2 X-21.1392 Y97.9908 I-8.4443 J-6.1377
G1 X-21.1374 Y97.9878
G2 X-21.1311 Y97.9767 I-1.5235 J-0.8807
G1 X-21.1076 Y97.9339
G1 X-21.0868 Y97.8927
G1 X-21.0628 Y97.8421
G2 X-21.0184 Y97.7417 I-19.6535 J-8.7442
G1 X-20.9813 Y97.6558
G1 X-20.877 Y97.3991
G1 X-20.7044 Y96.9604
G3 X-20.7038 Y96.9587 I4.6529 J1.8305
G3 X-20.5701 Y96.6272 I20.9674 J8.2577
G1 X-20.5445 Y96.5642
G3 X-20.5181 Y96.5004 I4.6324 J1.8817
G1 X-20.4589 Y96.3601
G3 X-20.4524 Y96.3449 I4.606 J1.9455
G3 X-20.3366 Y96.0814 I11.9342 J5.0874
G3 X-19.9169 Y95.2374 I10.6971 J4.7933
G3 X-19.8732 Y95.1577 I11.3987 J6.1949
G3 X-19.8228 Y95.0687 I4.3763 J2.4183
G1 X-19.7954 Y95.0213
G3 X-19.7622 Y94.9641 I10.1559 J5.8534
G3 X-19.7452 Y94.9353 I4.3178 J2.5212
G3 X-17.336 Y91.3358 I34.0991 J20.2172
G3 X-16.1103 Y89.7865 I31.7365 J23.8479
G1 Y89.7864
G3 X-14.0275 Y87.4623 I32.874 J27.3651
G3 X-14.0095 Y87.4438 I3.5993 J3.4705
G1 X-13.9925 Y87.4263
G3 X-12.0702 Y85.5581 I30.7622 J29.7295
G3 X-12.0583 Y85.5473 I3.3707 J3.693
G1 X-11.9715 Y85.4686
G3 X-11.8027 Y85.3154 I33.1904 J36.427
G3 X-10.8058 Y84.5372 I5.6691 J6.2346
G3 X-10.7593 Y84.5064 I4.7887 J7.1619
G3 X-10.3174 Y84.2353 I4.3429 J6.5833
G3 X-9.2824 Y83.7421 I3.7599 J6.5587
G3 X-6.1079 Y83.2508 I2.6975 J6.9284
G3 X-6.0835 Y83.2525 I-0.3207 J4.9897
G3 X-6.0662 Y83.2537 I-0.5522 J7.9808
G3 X-5.592 Y83.3009 I-0.515 J7.5733
G3 X-5.5654 Y83.3045 I-0.6516 J4.9574
G3 X-4.9548 Y83.412 I-1.1009 J8.0421
G3 X-4.1805 Y83.6195 I-1.6809 J7.8213
G3 X-3.7707 Y83.7522 I-8.491 J26.9186
G3 X-3.3795 Y83.8792 I-9.7593 J30.7312
G3 X-3.1243 Y83.9621 I-9.6752 J30.205
G3 X-2.7675 Y84.0783 I-13.6907 J42.6565
G1 X-2.2682 Y84.2413
G3 X-1.8019 Y84.3942 I-16.6224 J51.482
G3 X-1.3893 Y84.5303 I-11.9671 J36.9773
G3 X1.4355 Y85.489 I-48.8789 J148.6504
G3 X3.6053 Y86.4833 I-4.2164 J12.0656
G3 X5.7527 Y88.0374 I-6.4037 J11.1096
G3 X6.4818 Y88.739 I-8.7676 J9.8416
G3 X7.613 Y90.0534 I-10.5798 J10.2488
G3 X7.7685 Y90.2602 I-11.9864 J9.1774
G3 X8.0929 Y90.713 I-12.565 J9.3426
G3 X8.1191 Y90.7514 I-4.116 J2.8388
G1 X8.2816 Y90.9918
G3 X8.3351 Y91.0726 I-4.1422 J2.8003
G1 X8.4535 Y91.2552
G3 X8.4647 Y91.2726 I-4.1957 J2.7195
G3 X8.9281 Y92.0368 I-14.5795 J9.3642
G3 X9.456 Y93.0543 I-10.5091 J6.0982
G3 X9.4675 Y93.079 I-11.7536 J5.453
G3 X9.837 Y93.9826 I-9.5466 J4.4313
G3 X10.187 Y95.1907 I-9.5601 J3.4246
G3 X10.2272 Y95.3763 I-10.2661 J2.3196
G3 X10.2314 Y95.3968 I-4.8961 J1.0138
G3 X10.4011 Y96.7254 I-9.0074 J1.8258
G3 X10.4147 Y97.2751 I-9.201 J0.502
G3 X10.1189 Y99.4888 I-8.7561 J-0.0434
G3 X10.1153 Y99.5023 I-4.831 J-1.2889
G3 X10.113 Y99.5106 I-9.0423 J-2.4393
G3 X9.7015 Y100.7052 I-8.6244 J-2.3029
G3 X9.686 Y100.7411 I-4.6002 J-1.9591
G3 X9.1226 Y101.8501 I-8.6131 J-3.6781
G3 X8.9492 Y102.1317 I-8.2752 J-4.9026
G3 X8.7947 Y102.3676 I-8.7996 J-5.5956
G0 Z3.0
G0 X12.9398 Y105.1636
G0 Z1.4
G1 F300.0 Z0.0
G2 F800.0 X13.1646 Y104.8206 I-12.7903 J-8.6275
G2 X13.4222 Y104.4022 I-12.3172 J-7.8731
G2 X14.2781 Y102.7193 I-12.3493 J-7.3393
G2 X14.3017 Y102.6643 I-9.1768 J-3.9732
G2 X14.9415 Y100.809 I-12.8131 J-5.4566
G2 X14.9427 Y100.8045 I-13.8686 J-3.746
G2 X14.9499 Y100.7777 I-9.6549 J-2.6046
G2 X15.4146 Y97.3004 I-13.2914 J-3.546
G2 X15.3937 Y96.454 I-14.2145 J-0.073
G2 X15.1317 Y94.4035 I-14.1698 J0.7686
G2 X15.1233 Y94.3625 I-9.8007 J1.9866
G2 X15.0653 Y94.094 I-15.2024 J3.1478
G2 X14.5459 Y92.3016 I-14.7883 J3.3132
G2 X14.0052 Y90.9792 I-14.625 J5.2087
G2 X13.9948 Y90.9567 I-16.3028 J7.5281
G2 X13.261 Y89.5415 I-15.5758 J7.1783
G2 X12.6717 Y88.5705 I-19.3758 J11.0953
G2 X12.6492 Y88.5357 I-8.414 J5.4042
G1 X12.5308 Y88.3531
G2 X12.4238 Y88.1914 I-8.3915 J5.439
G1 X12.2614 Y87.9511
G2 X12.2088 Y87.8742 I-8.2845 J5.6007
G2 X11.7855 Y87.2829 I-17.0053 J11.7286
G2 X11.5856 Y87.0172 I-16.1588 J11.9479
G2 X10.0787 Y85.2658 I-15.6836 J11.9706
G2 X9.0828 Y84.3077 I-13.0936 J12.6131
G2 X6.1029 Y82.1518 I-11.8813 J13.2852
G2 X3.0864 Y80.7694 I-8.8838 J15.4028
G2 X0.1876 Y79.7854 I-53.3546 J152.4112
G2 X-0.2423 Y79.6436 I-13.9566 J41.586
G2 X-0.724 Y79.4857 I-18.6484 J56.0797
G1 X-1.2079 Y79.3277
G2 X-1.5777 Y79.2073 I-15.6071 J47.2908
G2 X-1.8298 Y79.1253 I-11.477 J34.8769
G2 X-2.2257 Y78.9968 I-11.7002 J35.3581
G2 X-2.6624 Y78.8555 I-10.4459 J31.5413
G2 X-3.9024 Y78.524 I-3.9734 J12.3778
G2 X-4.8873 Y78.3507 I-2.764 J12.8226
G2 X-4.9405 Y78.3436 I-1.3563 J9.9076
G2 X-5.7185 Y78.2658 I-1.6407 J12.4834
G2 X-5.7384 Y78.2644 I-0.9172 J12.9675
G2 X-5.7872 Y78.2611 I-0.6903 J9.9761
G2 X-11.0905 Y79.0805 I-0.7977 J12.4093
G2 X-12.7972 Y79.8936 I4.533 J11.7134
G2 X-13.5121 Y80.3324 I6.3808 J11.1962
G2 X-13.5815 Y80.3784 I7.495 J11.3668
G2 X-15.1592 Y81.6095 I7.4479 J11.1716
G2 X-15.3346 Y81.7686 I36.3781 J40.286
G1 X-15.417 Y81.8434
G2 X-15.4409 Y81.8651 I6.7175 J7.4078
G2 X-17.5807 Y83.9442 I32.2107 J35.2907
G1 X-17.5909 Y83.9547
G2 X-17.6268 Y83.9918 I7.1628 J6.9781
G2 X-19.9531 Y86.5876 I34.3905 J33.1598
G1 X-19.9532 Y86.5877
G2 X-21.3331 Y88.332 I34.3536 J28.596
G2 X-24.0461 Y92.3853 I35.687 J26.8205
G2 X-24.08 Y92.4429 I8.6018 J5.1
G2 X-24.1241 Y92.5188 I14.4405 J8.4318
G1 X-24.1487 Y92.5614
G2 X-24.2495 Y92.7394 I8.6518 J5.0146
G2 X-24.3054 Y92.8414 I15.7313 J8.693
G2 X-24.8955 Y94.0279 I14.6659 J8.0333
G2 X-25.0519 Y94.3842 I16.3773 J7.4044
G2 X-25.0648 Y94.4146 I9.199 J3.9214
G1 X-25.1241 Y94.5549
G2 X-25.1769 Y94.6824 I9.2119 J3.891
G1 X-25.1979 Y94.7341
G2 X-25.356 Y95.1265 I25.4615 J10.4824
G2 X-25.3573 Y95.1299 I9.3044 J3.6644
G1 X-25.5196 Y95.5424
G1 X-25.5483 Y95.613
G3 X-25.6999 Y95.8327 I-4.5515 J-2.9781
G3 X-25.8643 Y96.0441 I-3.9398 J-2.8941
G3 X-26.0518 Y96.2493 I-2.6173 J-2.2039
G3 X-26.2641 Y96.4291 I-1.2847 J-1.302
G1 X-26.3043 Y96.4572
G2 X-26.6843 Y96.7192 I44.0323 J64.2716
G2 X-27.0792 Y96.9918 I44.934 J65.5321
G2 X-27.885 Y97.549 I63.3042 J92.4028
G2 X-28.4117 Y97.914 I55.9388 J81.2795
G2 X-29.1202 Y98.4059 I68.0173 J98.7241
G2 X-30.0668 Y99.0647 I87.8597 J127.2569
G2 X-30.6009 Y99.4371 I80.9877 J116.7131
G2 X-31.1689 Y99.8336 I107.4748 J154.5693
G2 X-32.8721 Y101.0259 I554.8952 J794.4462
G2 X-33.4101 Y101.4034 I78.9497 J113.1168
G2 X-34.2192 Y101.9716 I78.326 J112.3738
G2 X-34.616 Y102.2507 I50.5827 J72.3641
G2 X-35.0283 Y102.5407 I47.2708 J67.6211
G2 X-37.7504 Y104.6254 I24.3486 J34.6136
G2 X-39.7093 Y106.3661 I25.8176 J31.0259
G2 X-44.8891 Y112.3848 I26.7855 J28.2901
G1 X-45.0754 Y112.6507
G3 X-46.0162 Y113.9763 I-131.7201 J-92.4908
G1 X-46.5697 Y114.7431
G1 X-47.0034 Y115.3372
G3 X-47.9504 Y116.6224 I-348.6256 J-255.901
G1 X-48.451 Y117.2978
G3 X-48.5534 Y117.4356 I-347.178 J-257.8616
G1 X-49.8524 Y119.1779
G2 X-50.0292 Y119.4147 I31.107 J23.4072
G2 X-50.3395 Y119.8309 I34.6316 J26.1438
G2 X-50.5672 Y120.1367 I28.6012 J21.5297
G2 X-50.7296 Y120.355 I24.6872 J18.5356
G2 X-50.9909 Y120.7067 I27.1944 J20.479
G2 X-51.2666 Y121.079 I26.0945 J19.6143
G3 X-52.0669 Y122.1137 I-28.4433 J-21.1734
G3 X-52.1691 Y122.2398 I-24.8886 J-20.0747
G2 X-52.2252 Y122.3092 I7.7517 J6.3176
G2 X-52.3159 Y122.4201 I7.6937 J6.388
G2 X-52.4028 Y122.5254 I7.6717 J6.4144
G3 X-52.4106 Y122.5348 I-27.3071 J-22.6198
G2 X-52.479 Y122.6171 I7.6549 J6.4345
G3 X-52.5126 Y122.6573 I-27.2308 J-22.7115
G1 X-52.7258 Y122.9109
G1 X-52.8886 Y123.1019
G3 X-53.3963 Y123.6858 I-48.9449 J-42.0441
G3 X-53.7489 Y124.0832 I-52.8194 J-46.5167
G3 X-54.2661 Y124.6542 I-48.0846 J-43.0254
G1 X-54.5645 Y124.9783
G1 X-55.1402 Y125.5953
G1 X-55.6455 Y126.1299
G1 X-56.5348 Y127.0605
G1 X-56.6909 Y127.2232
G1 X-57.2739 Y127.8299
G2 X-57.5619 Y128.1294 I32.0445 J31.0999
G2 X-57.8061 Y128.3838 I24.7213 J23.9766
G2 X-58.0205 Y128.6075 I21.2889 J20.6173
G2 X-58.2088 Y128.8044 I19.1912 J18.5466
G2 X-58.3742 Y128.9776 I17.7332 J17.096
G2 X-58.5081 Y129.1179 I16.637 J15.9985
G2 X-58.7775 Y129.4014 I19.0781 J18.4065
G2 X-58.9698 Y129.6045 I17.1904 J16.4636
G2 X-59.1035 Y129.7461 I15.7493 J15.0072
G2 X-59.3286 Y129.9852 I17.5276 J16.7243
G2 X-59.5497 Y130.2213 I17.5688 J16.6747
G1 X-59.8949 Y130.5861
G1 X-60.2279 Y130.932
G1 X-60.5261 Y131.2402
G2 X-61.8074 Y132.5907 I45.0757 J44.053
G2 X-61.9553 Y132.7517 I9.0244 J8.4344
G2 X-62.0414 Y132.8468 I9.0474 J8.2839
G2 X-62.1228 Y132.9372 I9.0209 J8.2029
G2 X-62.1688 Y132.9884 I9.0 J8.1288
G2 X-62.3506 Y133.1928 I9.5701 J8.6918
G2 X-62.479 Y133.3396 I9.563 J8.4962
G2 X-62.6118 Y133.4935 I9.5333 J8.364
G2 X-63.3852 Y134.4304 I19.8138 J17.1417
G2 X-63.6014 Y134.7066 I13.8083 J11.0335
G2 X-63.8131 Y134.9826 I12.8581 J10.0824
G2 X-63.9254 Y135.131 I11.6892 J8.9597
G2 X-64.1025 Y135.3679 I12.0135 J9.1672
G2 X-64.4344 Y135.8214 I32.5822 J24.1948
G2 X-64.7221 Y136.225 I31.6968 J22.8958
G2 X-64.821 Y136.3651 I10.918 J7.813
G2 X-64.9063 Y136.487 I11.069 J7.8421
G2 X-65.0308 Y136.6667 I11.2203 J7.9075
G2 X-65.0573 Y136.7051 I8.2185 J5.697
G1 X-65.1033 Y136.7721
G2 X-65.1903 Y136.8988 I74.4658 J51.1998
G1 X-65.2982 Y137.0561
G2 X-65.3359 Y137.1113 I8.245 J5.6586
G1 X-65.4403 Y137.2657
G2 X-65.5331 Y137.4028 I74.8028 J50.7062
G1 X-65.5446 Y137.4198
G2 X-65.5659 Y137.4515 I8.2826 J5.6034
G2 X-66.3024 Y138.5613 I74.9284 J50.5204
G1 X-67.0325 Y139.671
G2 X-67.8012 Y141.0109 I9.7135 J6.4636
G2 X-68.5891 Y143.1837 I9.6151 J4.7159
G2 X-68.68 Y143.5865 I10.5194 J2.5849
G2 X-68.7304 Y147.5009 I10.1459 J2.0881
G2 X-68.1958 Y149.4105 I10.1905 J-1.8231
G2 X-68.0768 Y149.7043 I9.3273 J-3.6057
G2 X-68.0258 Y149.8227 I9.6143 J-4.0715
G2 X-67.1325 Y151.451 I9.4918 J-4.1481
G2 X-66.957 Y151.7037 I8.3008 J-5.5765
G2 X-66.9436 Y151.7224 I8.6004 J-6.17
G2 X-65.1018 Y153.6908 I8.4811 J-6.0896
G2 X-64.341 Y154.2644 I6.7452 J-8.1571
G2 X-64.3305 Y154.2715 I5.6538 J-8.2483
G2 X-64.0598 Y154.451 I6.4349 J-9.4135
G2 X-62.9848 Y155.062 I6.0434 J-9.3804
G2 X-62.2813 Y155.3836 I5.0892 J-10.2041
G2 X-61.2485 Y155.7678 I5.0626 J-12.0295
G2 X-60.5916 Y155.9844 I47.3538 J-142.4529
G2 X-59.9576 Y156.1936 I46.2232 J-139.0829
G2 X-58.7546 Y156.59 I63.0812 J-189.4129
G2 X-57.7054 Y156.9352 I60.8137 J-183.0618
G2 X-56.7863 Y157.2371 I59.382 J-179.2145
G2 X-55.9839 Y157.5003 I58.7838 J-177.8784
G2 X-54.5681 Y157.9635 I85.4567 J-258.8164
G2 X-52.4415 Y158.6559 I157.3349 J-479.6194
G1 X-52.1856 Y158.7386
G2 X-51.7165 Y158.8909 I812.711 J-2503.1192
G2 X-50.353 Y159.3312 I80.7016 J-247.5348
G2 X-49.9738 Y159.4525 I7.6024 J-23.1109
G2 X-49.6089 Y159.5671 I7.1901 J-22.2687
G2 X-49.3923 Y159.6342 I6.303 J-19.9418
G2 X-49.0859 Y159.7285 I6.8859 J-21.8541
G2 X-48.6658 Y159.856 I7.8309 J-25.045
G2 X-48.4565 Y159.9189 I7.0889 J-23.1782
G2 X-48.1987 Y159.9962 I8.2889 J-27.1816
G2 X-47.9032 Y160.0844 I11.8469 J-39.1511
G1 X-47.2011 Y160.2938
G1 X-46.2404 Y160.5835
G3 X-45.5396 Y160.801 I-14.7492 J48.7642
G3 X-44.7624 Y161.0555 I-16.319 J51.1476
G1 X-44.638 Y161.0976
G2 X-44.3411 Y161.1982 I3.8591 J-10.9022
G2 X-43.3055 Y161.5301 I12.6799 J-37.7794
G2 X-43.2964 Y161.5329 I2.922 J-9.5636
G2 X-42.9194 Y161.6458 I12.6291 J-41.476
G2 X-42.0651 Y161.8881 I11.7134 J-39.6644
G2 X-42.025 Y161.899 I2.6257 J-9.6491
G1 X-42.0069 Y161.9038
G2 X-41.7469 Y161.9734 I11.3396 J-41.8469
G2 X-41.6798 Y161.9911 I2.5813 J-9.6611
G2 X-41.2682 Y162.097 I11.0125 J-41.9342
G2 X-41.0937 Y162.141 I3.0825 J-11.8648
G2 X-40.9308 Y162.1808 I2.9999 J-11.9258
G2 X-38.1664 Y162.7716 I11.4912 J-46.9998
G2 X-37.5047 Y162.8905 I9.7244 J-52.2456
G2 X-36.8486 Y163.0009 I8.3064 J-47.3456
G2 X-36.8246 Y163.0048 I1.5915 J-9.8725
G1 X-36.7696 Y163.0135
G2 X-36.3207 Y163.0847 I10.6562 J-65.6905
G2 X-36.2932 Y163.089 I1.5621 J-9.8772
G2 X-36.1317 Y163.1139 I11.1701 J-71.9254
G2 X-35.8984 Y163.1493 I3.1168 J-19.8054
G2 X-34.5799 Y163.3343 I10.7753 J-71.9856
G2 X-33.1915 Y163.507 I11.2287 J-84.6272
G1 X-33.1913
G1 X-33.1916 Y163.5069
G1 X-33.1915 Y163.507
G2 X-33.0176 Y163.5271 I34.4695 J-296.9832
G1 X-32.7287 Y163.561
G2 X-32.6705 Y163.5676 I1.1657 J-9.9318
G1 X-32.3758 Y163.6005
G2 X-31.8252 Y163.6624 I33.6538 J-297.0767
G2 X-31.5973 Y163.6875 I2.2132 J-19.012
G2 X-31.4159 Y163.7071 I2.213 J-19.5871
G2 X-31.2496 Y163.7251 I2.2766 J-20.2931
G2 X-30.8107 Y163.7717 I3.0597 J-26.7112
G1 X-29.8366 Y163.8749
G1 X-28.3378 Y164.0358
G2 X-27.0835 Y164.1682 I9.4755 J-83.7586
G2 X-26.6677 Y164.2098 I4.1442 J-39.4002
G2 X-26.1029 Y164.2645 I4.2716 J-41.1635
G2 X-25.8002 Y164.2931 I3.2804 J-33.0863
G2 X-25.4448 Y164.3262 I3.415 J-34.7345
G2 X-25.0409 Y164.3632 I3.6041 J-37.1073
G2 X-24.582 Y164.4046 I3.9013 J-40.6917
G2 X-24.0608 Y164.4509 I4.4076 J-46.6154
G2 X-23.4677 Y164.5031 I5.4347 J-58.3918
G2 X-22.8032 Y164.5613 I9.0811 J-99.8403
G1 X-21.1399 Y164.7097
G2 X-20.7709 Y164.7408 I1.1631 J-11.5955
G2 X-20.2175 Y164.7673 I0.8758 J-12.5226
G1 X-20.2152
G2 X-20.0952 Y164.7701 I0.2894 J-9.9958
G2 X-20.0342 Y164.7711 I0.2005 J-9.998
G2 X-19.0609 Y164.7444 I0.1641 J-11.7612
G2 X-18.8746 Y164.7306 I-0.8404 J-12.6133
G2 X-18.7835 Y164.7228 I-0.8121 J-9.967
G2 X-17.5864 Y164.5464 I-0.9793 J-10.7973
G2 X-16.7031 Y164.3264 I-2.1358 J-10.4579
G2 X-16.6856 Y164.3212 I-3.0597 J-10.4009
G2 X-15.1497 Y163.7333 I-2.971 J-10.061
G2 X-12.1829 Y161.6167 I-4.4435 J-9.3662
G2 X-9.6359 Y157.2546 I-7.4088 J-7.2504
G2 X-9.4481 Y156.5089 I-10.2489 J-2.9785
G2 X-9.3796 Y156.1608 I-10.3277 J-2.2113
G2 X-9.2364 Y154.9991 I-10.5052 J-1.8846
G2 X-9.2133 Y154.482 I-10.8131 J-0.7421
G2 X-9.226 Y153.6859 I-10.463 J-0.2309
G2 X-9.2291 Y153.6311 I-10.8234 J0.5711
G2 X-9.2361 Y153.5209 I-9.9833 J0.5774
G1 X-9.2368 Y153.5096
G2 X-9.2389 Y153.4792 I-12.3272 J0.8345
G1 X-9.2423 Y153.4307
G2 X-9.2925 Y152.9053 I-9.9763 J0.6877
G1 X-9.304 Y152.8105
G2 X-9.348 Y152.4928 I-9.9261 J1.2131
G1 X-9.3512 Y152.4727
G2 X-9.3608 Y152.4107 I-12.2129 J1.8714
G2 X-9.3703 Y152.352 I-9.8768 J1.5648
G2 X-9.3777 Y152.3074 I-9.8674 J1.6232
G1 X-9.3819 Y152.2829
G2 X-9.4185 Y152.0791 I-9.8599 J1.6678
G1 X-9.4382 Y151.9759
G2 X-9.4574 Y151.8778 I-9.8233 J1.8716
G2 X-9.5416 Y151.4894 I-12.82 J2.5756
G2 X-9.5946 Y151.2611 I-26.9205 J6.1346
G2 X-9.5856 Y151.2036 I-10.6187 J-1.6923
G2 X-9.4621 Y150.0004 I-11.2069 J-1.7582
G2 X-9.4509 Y149.7071 I-12.413 J-0.6233
G2 X-9.6114 Y147.3595 I-12.2075 J-0.3444
G2 X-9.6148 Y147.3392 I-9.8645 J1.6403
G3 X-9.8202 Y145.0135 I14.6312 J-2.4638
G3 X-9.6715 Y142.7044 I16.4815 J-0.0979
G2 X-9.2868 Y141.6611 I-30.5888 J-11.8708
G2 X-8.7288 Y141.3756 I-4.7631 J-9.9979
G2 X-4.3197 Y139.1864 I-2.1058 J-9.7758
G2 X-4.028 Y138.9462 I-7.5356 J-9.4498
G2 X-3.0649 Y138.0292 I-7.0798 J-8.3993
G2 X-2.9335 Y137.8853 I-7.8288 J-7.2868
G2 X-1.7018 Y136.2082 I-7.7429 J-6.9775
G2 X-0.5572 Y133.4056 I-8.9372 J-5.2849
G2 X-0.4861 Y133.0954 I-9.7101 J-2.3907
G2 X-0.1241 Y131.0665 I-30.5269 J-6.4935
G2 X-0.0872 Y130.8051 I-31.3853 J-4.5531
G2 X-0.0409 Y130.4515 I-12.7231 J-1.8463
G2 X0.0574 Y129.5807 I-29.3014 J-3.7511
G2 X0.2402 Y126.2799 I-37.4575 J-3.7298
G2 X0.2287 Y124.4507 I-46.4258 J-0.6217
G2 X0.3793 Y124.1418 I-10.6616 J-5.3895
G2 X0.4346 Y124.0221 I-9.0507 J-4.2529
G3 X1.7946 Y121.29 I38.8374 J17.6285
G3 X2.9851 Y119.2131 I48.9005 J26.6497
G2 X2.9917 Y119.2021 I-8.5669 J-5.1582
G3 X3.2051 Y118.851 I32.0289 J19.2289
G1 X3.4481 Y118.4578
G3 X4.7291 Y116.4773 I66.0564 J41.3221
G3 X5.1098 Y115.9132 I78.886 J52.825
G3 X5.2466 Y115.7131 I64.3947 J43.8667
G2 X5.268 Y115.6817 I-8.247 J-5.6557
G3 X5.3206 Y115.6045 I42.807 J29.1178
G3 X5.5839 Y115.2226 I78.2944 J53.6978
G3 X5.7126 Y115.0386 I42.4912 J29.5769
G2 X5.7143 Y115.0362 I-8.1826 J-5.7485
G1 X6.102 Y114.484
G1 X6.377 Y114.0964
G1 X6.7585 Y113.5643
G1 X7.2467 Y112.8902
G3 X7.7454 Y112.2097 I122.8881 J89.5433
G1 X8.2082 Y111.584
G1 X9.0307 Y110.4815
G1 X10.2827 Y108.8143
G2 X10.6078 Y108.3814 I-67.2976 J-50.887
G2 X11.1017 Y107.7223 I-63.6717 J-48.2258
G2 X11.3426 Y107.3999 I-43.7225 J-32.916
G2 X11.5954 Y107.0607 I-43.0379 J-32.3324
G2 X12.1409 Y106.2809 I-12.9202 J-9.6192
G1 X12.2107 Y106.1752
G1 X12.2875 Y106.0595
G2 X12.9398 Y105.1636 I-12.138 J-9.5233
G0 Z3.0
G0 X0.7944 Y188.2551
G0 Z1.4
G1 F300.0 Z0.0
G3 F800.0 X0.708 Y188.6827 I-4.9395 J-0.7755
G1 X1.2899
G3 X1.0807 Y188.4264 I7.4756 J-6.3138
G2 X1.0295 Y188.3931 I-0.7512 J1.1005
G2 X0.828 Y188.2737 I-4.9195 J8.07
G2 X0.7944 Y188.2551 I-1.4604 J2.6082
G0 Z3.0
G0 X-20.5286 Y183.6827
G0 Z1.4
G1 F300.0 Z0.0
G1 F800.0 X-93.9774
G1 Y174.2604
G2 X-93.9332 Y174.3025 I38.9225 J-40.8976
G2 X-93.8624 Y174.3691 I6.8862 J-7.2513
G1 X-93.7331 Y174.4895
G2 X-93.6581 Y174.5586 I6.8153 J-7.3179
G1 X-93.509 Y174.6947
G2 X-93.4399 Y174.7571 I6.7404 J-7.387
G1 X-93.3597 Y174.829
G2 X-93.3278 Y174.8574 I6.6713 J-7.4494
G2 X-92.5828 Y175.4924 I16.0652 J-18.0938
G2 X-92.5051 Y175.5553 I6.3316 J-7.7402
G1 X-92.3856 Y175.6511
G2 X-92.3195 Y175.7036 I6.2538 J-7.8032
G2 X-90.9863 Y176.6663 I12.1819 J-15.4656
G2 X-90.5282 Y176.9576 I8.0387 J-12.1351
G2 X-90.1615 Y177.1759 I6.2289 J-10.0493
G2 X-89.7983 Y177.3806 I10.015 J-17.3438
G2 X-89.789 Y177.3857 I4.8192 J-8.7621
G2 X-88.4667 Y178.0328 I7.5891 J-13.833
G2 X-84.6528 Y179.1424 I6.2393 J-14.336
G3 X-84.473 Y179.1743 I-1.3923 J8.3718
G2 X-84.4002 Y179.1891 I2.0334 J-9.7911
G2 X-84.3297 Y179.2037 I2.051 J-9.7874
G2 X-84.3231 Y179.2051 I2.0839 J-9.7805
G2 X-83.2911 Y179.413 I10.4951 J-49.4214
G2 X-83.0866 Y179.4498 I1.873 J-9.823
G1 X-82.8488 Y179.49
G2 X-82.7211 Y179.5108 I1.6686 J-9.8598
G1 X-82.1754 Y179.5959
G2 X-82.1525 Y179.5994 I1.5408 J-9.8806
G1 X-81.6066 Y179.6833
G2 X-81.5721 Y179.6885 I1.5179 J-9.8841
G1 X-80.4798 Y179.8524
G2 X-80.4411 Y179.8581 I1.4834 J-9.8894
G1 X-79.7125 Y179.9645
G2 X-79.6761 Y179.9697 I1.4447 J-9.8951
G1 X-78.7042 Y180.108
G2 X-78.6866 Y180.1105 I1.4084 J-9.9003
G2 X-74.6174 Y180.6453 I32.2339 J-229.5143
G2 X-74.6057 Y180.6467 I1.2152 J-9.9259
G2 X-71.9182 Y180.9605 I37.1321 J-306.2959
G2 X-71.9049 Y180.962 I1.1164 J-9.9375
G2 X-60.9903 Y181.9066 I24.9689 J-224.9719
G1 X-60.9901 Y181.9067
G2 X-53.7116 Y182.2339 I13.1576 J-211.5777
G2 X-53.4419 Y182.2414 I0.7224 J-20.887
G2 X-53.1781 Y182.2481 I0.6591 J-20.7995
G2 X-51.2598 Y182.288 I4.1346 J-152.5939
G2 X-50.9739 Y182.2927 I0.472 J-20.0825
G2 X-50.6722 Y182.2967 I0.4122 J-20.0151
G2 X-46.1177 Y182.3078 I2.7926 J-210.4316
G2 X-44.906 Y182.2938 I-0.8545 J-126.5552
G1 X-33.257 Y182.1254
G2 X-33.2545 I-0.1446 J-9.999
G1 X-21.5961 Y181.954
G2 X-21.5908 Y181.9539 I-0.147 J-9.9989
G1 X-21.1795 Y181.9476
G2 X-20.6868 Y183.3347 I10.4009 J-2.9135
G2 X-20.6726 Y183.3673 I9.1732 J-3.9816
G2 X-20.5286 Y183.6827 I10.5266 J-4.6135
G0 Z3.0
G0 X-71.4774 Y65.0272
G0 Z1.4
G1 F300.0 Z0.0
G2 F800.0 X-70.3263 Y63.4823 I-74.7805 J-56.9203
G1 X-70.0014 Y63.0346
G1 X-69.8033 Y62.759
G1 X-69.4782 Y62.3019
G1 X-69.2328 Y61.9522
G1 X-69.2419 Y61.1845
G1 X-69.2589 Y60.1301
G1 X-69.2768 Y59.2048
G1 X-69.2902 Y58.6116
G3 X-71.4774 Y52.4243 I58.5904 J-24.192
G1 Y65.0272
G0 Z3.0
G0 Y14.1313
G0 Z1.4
G1 F300.0 Z0.0
G3 F800.0 X-71.3835 Y13.815 I34.7194 J10.1396
G3 X-71.1976 Y13.2152 I37.5991 J11.3212
G3 X-71.2144 Y12.9376 I32.4319 J-2.1031
G1 X-71.2419 Y12.4499
G3 X-71.2612 Y12.066 I32.4487 J-1.8255
G1 X-71.2802 Y11.6388
G3 X-71.291 Y11.3703 I32.468 J-1.4416
G1 X-71.3045 Y10.9966
G3 X-71.3125 Y10.7496 I32.4788 J-1.1731
G1 X-71.3311 Y10.0953
G3 X-71.3353 Y9.9335 I32.4868 J-0.9261
G1 X-71.3452 Y9.5152
G3 X-71.354 Y9.122 I44.4775 J-1.1971
G3 X-71.3568 Y8.9991 I32.4904 J-0.7886
G3 X-71.3605 Y8.8316 I32.49 J-0.8067
G1 X-71.3781 Y8.1964
G2 X-71.4319 Y7.4795 I-9.2955 J0.338
G1 X-71.4586 Y7.271
G2 X-71.4774 Y7.1456 I-6.3619 J0.8921
G1 Y14.1313
G0 Z3.0
G0 X-73.9774
G0 Z1.4
G1 F300.0 Z0.0
G1 F800.0 Y-2.2449
G2 X-72.6384 Y-2.4248 I-3.8806 J-33.9546
G1 X-72.0178 Y-2.0776
G3 X-70.4872 Y-0.3746 I-675.6455 J608.7693
G2 X-70.4532 Y-0.2047 I75.5799 J-15.0708
G2 X-70.2961 Y0.5801 I90.5523 J-17.7116
G2 X-69.106 Y6.2403 I351.0914 J-70.8696
G2 X-69.1033 Y6.2526 I29.3072 J-6.41
G3 X-68.9806 Y6.9401 I-8.7172 J1.9105
G1 X-68.9501 Y7.1782
G3 X-68.8793 Y8.117 I-11.7235 J1.3561
G1 X-68.8612 Y8.7726
G2 X-68.8574 Y8.9425 I29.9944 J-0.5801
G2 X-68.8546 Y9.069 I29.9938 J-0.6091
G2 X-68.846 Y9.4521 I41.9869 J-0.7509
G1 X-68.836 Y9.8747
G2 X-68.8321 Y10.0241 I29.9917 J-0.7054
G1 X-68.8135 Y10.6783
G2 X-68.8061 Y10.9063 I29.9878 J-0.8548
G1 X-68.7926 Y11.2801
G2 X-68.7826 Y11.5279 I29.9805 J-1.0828
G1 X-68.7637 Y11.9551
G2 X-68.7458 Y12.3095 I29.9705 J-1.3307
G1 X-68.7184 Y12.7972
G2 X-68.694 Y13.1854 I29.9526 J-1.6851
G2 X-68.6698 Y13.5266 I106.008 J-7.3438
G2 X-68.99 Y14.5368 I34.8854 J11.6097
G2 X-70.1739 Y20.1444 I32.2319 J9.7342
G2 X-70.2036 Y20.3929 I29.7738 J3.6768
G2 X-70.6946 Y24.8311 I511.3436 J58.8194
G2 X-70.705 Y24.9304 I29.8321 J3.1696
G1 X-70.8484 Y26.3246
G2 X-70.8602 Y26.4417 I29.8425 J3.0703
G1 X-70.9391 Y27.2387
G2 X-70.949 Y27.3403 I29.8543 J2.9533
G1 X-71.036 Y28.2515
G2 X-71.0478 Y28.3781 I29.8642 J2.8517
G1 X-71.1428 Y29.4199
G2 X-71.1467 Y29.4624 I29.876 J2.7251
G2 X-71.4118 Y32.7073 I202.4821 J18.1789
G2 X-71.5086 Y34.5925 I40.9484 J3.0472
G2 X-71.5243 Y35.4838 I31.1176 J0.9937
G1 X-71.5251 Y35.5875
G2 X-71.5261 Y35.772 I29.999 J0.2455
G2 X-71.4552 Y38.3519 I43.7511 J0.0889
G2 X-71.4255 Y38.845 I31.7932 J-1.666
G2 X-71.3851 Y39.3969 I31.9807 J-2.0615
G2 X-71.2429 Y40.9258 I48.5981 J-3.7506
G2 X-71.2251 Y41.0852 I29.8235 J-3.2495
G1 X-71.1804 Y41.4763
G2 X-71.1552 Y41.6894 I29.8057 J-3.4089
G2 X-70.878 Y43.6925 I60.8076 J-7.3956
G2 X-66.8015 Y58.0839 I60.1781 J-9.2729
G1 X-66.7774 Y59.1524
G1 X-66.7593 Y60.0857
G1 X-66.7421 Y61.1495
G1 X-66.7277 Y62.3685
G1 X-66.725 Y62.7213
G3 X-66.9323 Y63.0235 I-22.8753 J-15.4712
G2 X-67.0156 Y63.1439 I24.625 J17.1351
G2 X-67.0805 Y63.2373 I24.6099 J17.1567
G1 X-67.4363 Y63.7444
G1 X-67.7696 Y64.213
G1 X-67.9748 Y64.4984
G1 X-68.3047 Y64.9531
G3 X-69.4955 Y66.551 I-77.9532 J-56.8462
G2 X-69.4986 Y66.5551 I23.8692 J18.1731
G3 X-72.1949 Y69.9858 I-111.6609 J-84.9845
G2 X-72.3111 Y70.1299 I23.2958 J18.9025
G3 X-72.4873 Y70.3466 I-15.3169 J-12.2724
G2 X-72.6758 Y70.5774 I23.1427 J19.0897
G3 X-72.7029 Y70.6106 I-3.1121 J-2.5155
G2 X-72.879 Y70.8258 I23.1276 J19.1079
G3 X-72.9044 Y70.8567 I-2.7664 J-2.2428
G2 X-73.0894 Y71.082 I23.0905 J19.1528
G3 X-73.1146 Y71.1126 I-2.647 J-2.1525
G2 X-73.3071 Y71.3462 I23.0539 J19.1968
G3 X-73.334 Y71.3788 I-2.7368 J-2.2325
G2 X-73.5325 Y71.6187 I23.0181 J19.2398
G3 X-73.563 Y71.6556 I-3.035 J-2.4838
G2 X-73.7657 Y71.8998 I22.983 J19.2816
G3 X-73.802 Y71.9435 I-3.557 J-2.9206
G2 X-73.8929 Y72.0519 I22.9489 J19.3222
G3 X-73.9774 Y72.1533 I-227.1137 J-189.3986
G1 Y14.1313
G0 Z3.0
G0 X-78.9774
G0 Z1.4
G1 F300.0 Z0.0
G1 F800.0 Y86.085
G3 X-73.5349 Y79.3567 I109.7771 J83.2331
G1 X-72.7641 Y78.4595
G2 X-70.0529 Y75.2542 I-228.2425 J-195.8062
G3 X-69.9772 Y75.1639 I19.1998 J16.0115
G2 X-69.9014 Y75.0727 I-7.3455 J-6.1846
G3 X-69.7325 Y74.8692 I19.3214 J15.8645
G2 X-69.663 Y74.7853 I-6.835 J-5.7342
G3 X-69.4977 Y74.5854 I19.3471 J15.8332
G2 X-69.4327 Y74.5067 I-6.5462 J-5.4717
G3 X-69.2723 Y74.3121 I19.372 J15.8027
G2 X-69.2101 Y74.2366 I-6.4641 J-5.3826
G3 X-69.0559 Y74.0488 I19.3963 J15.7729
G2 X-68.9951 Y73.9746 I-6.5895 J-5.4658
G3 X-68.8483 Y73.7953 I19.4198 J15.7439
G2 X-68.7872 Y73.7205 I-6.9395 J-5.7334
G3 X-68.6302 Y73.5282 I19.4426 J15.7157
G2 X-68.4091 Y73.2563 I-18.9979 J-15.6707
G3 X-68.3123 Y73.1362 I19.51 J15.632
G2 X-65.5199 Y69.5833 I-112.8472 J-91.5656
G3 X-65.5173 Y69.5799 I19.8936 J15.1409
G2 X-64.2615 Y67.8945 I-80.7406 J-61.473
G1 X-63.9215 Y67.4261
G1 X-63.7023 Y67.1211
G1 X-63.3526 Y66.6294
G1 X-62.9774 Y66.0948
G3 X-62.9057 Y65.9915 I20.5717 J14.2058
G3 X-62.8281 Y65.8794 I20.5984 J14.1671
G2 X-61.9921 Y64.6163 I-26.7722 J-18.6292
G2 X-61.7195 Y64.1614 I-12.7296 J-7.9367
G1 X-61.72 Y63.6236
G1 X-61.7231 Y62.9456
G1 X-61.7279 Y62.3194
G1 X-61.7426 Y61.0795
G1 X-61.7601 Y59.9969
G1 X-61.7785 Y59.0477
G1 X-61.8173 Y57.327
G1 X-61.8259 Y56.9948
G3 X-65.9367 Y42.9282 I51.126 J-22.5752
G3 X-66.1918 Y41.0857 I55.5891 J-8.6344
G3 X-66.2128 Y40.9081 I24.8171 J-3.0183
G1 X-66.2575 Y40.5171
G3 X-66.2723 Y40.3842 I24.8381 J-2.8407
G3 X-66.4009 Y39.0004 I43.4852 J-4.738
G3 X-66.4364 Y38.5147 I26.956 J-2.2169
G3 X-66.4626 Y38.0789 I26.7745 J-1.8288
G3 X-66.5261 Y35.7822 I38.6876 J-2.218
G3 X-66.5253 Y35.6284 I24.9999 J0.0508
G1 X-66.5243 Y35.5119
G3 X-66.5108 Y34.7431 I26.1333 J0.0742
G3 X-66.4255 Y33.0765 I36.0474 J1.0113
G3 X-66.1667 Y29.9095 I197.7609 J14.5648
G3 X-66.1635 Y29.8741 I24.8998 J2.2355
G1 X-66.0685 Y28.8323
G3 X-66.0586 Y28.7268 I24.8966 J2.2709
G1 X-65.9716 Y27.8156
G3 X-65.9634 Y27.731 I24.8868 J2.3764
G1 X-65.8845 Y26.9339
G3 X-65.8747 Y26.8364 I24.8786 J2.4611
G1 X-65.7312 Y25.4421
G3 X-65.7226 Y25.3594 I24.8687 J2.5586
G3 X-65.2363 Y20.9643 I506.8626 J53.853
G3 X-65.2116 Y20.7572 I24.8362 J2.8569
G3 X-64.2029 Y15.9803 I28.4536 J3.5137
G3 X-63.7235 Y14.5173 I30.4184 J9.1559
G3 X-63.685 Y14.2086 I30.5585 J3.6567
G1 X-63.6714 Y14.1027
G3 X-63.6338 Y13.8126 I25.995 J3.2175
G3 X-63.6564 Y13.5222 I32.903 J-2.7053
G3 X-63.706 Y12.8399 I100.9703 J-7.6805
G3 X-63.7263 Y12.5164 I24.9402 J-1.7277
G1 X-63.7537 Y12.0286
G3 X-63.7686 Y11.7333 I24.9605 J-1.4042
G1 X-63.7876 Y11.3062
G3 X-63.7959 Y11.0996 I24.9754 J-1.1089
G1 X-63.8094 Y10.7259
G3 X-63.8155 Y10.5359 I24.9837 J-0.9024
G1 X-63.8342 Y9.8816
G3 X-63.8374 Y9.7571 I24.9898 J-0.7124
G1 X-63.8475 Y9.3256
G3 X-63.8556 Y8.9628 I36.9799 J-1.0074
G3 X-63.8587 Y8.8292 I24.9921 J-0.6294
G3 X-63.8625 Y8.6553 I24.9919 J-0.6368
G3 X-63.863 Y8.6383 I24.9899 J-0.7095
G1 X-63.8817 Y7.961
G2 X-63.987 Y6.5712 I-16.7919 J0.5734
G1 X-64.0238 Y6.2832
G2 X-64.2192 Y5.1822 I-13.7967 J1.8798
G3 X-64.2214 Y5.1719 I24.4204 J-5.3519
G3 X-65.3963 Y-0.4157 I345.0167 J-75.4614
G3 X-65.549 Y-1.1791 I85.4955 J-17.5006
G3 X-65.6741 Y-1.813 I70.6416 J-14.2664
G3 X-65.7913 Y-2.4152 I62.6355 J-12.5032
G3 X-65.8439 Y-2.6865 I229.2475 J-44.6414
G3 X-66.3586 Y-3.2594 I161.9976 J-146.0511
G1 X-66.3591 Y-3.2599
G1 X-66.3582 Y-3.2589
G1 X-66.3586 Y-3.2594
G2 X-68.8371 Y-6.0165 I-681.3047 J609.951
G2 X-69.0768 Y-6.1616 I-2.4183 J3.7266
G1 X-70.2475 Y-6.8165
G1 X-71.2513 Y-7.3723
G1 X-71.781 Y-7.6638
G3 X-75.5244 Y-7.1173 I-6.077 J-28.5357
G3 X-78.9774 Y-7.0564 I-2.2048 J-27.0536
G1 Y14.1313
G0 Z3.0
G0 X-83.9774
G0 Z1.4
G1 F300.0 Z0.0
G1 F800.0 Y-12.9313
G2 X-81.1274 Y-12.2899 I6.184 J-20.8267
G2 X-81.1262 Y-12.2898 I3.3339 J-21.4681
G1 X-81.1284 Y-12.2901
G2 X-81.1274 Y-12.2899 I3.3992 J-21.8808
G2 X-75.9274 Y-12.1011 I3.3982 J-21.881
G2 X-71.0909 Y-12.9903 I-1.9306 J-24.0984
G2 X-71.0514 Y-12.9687 I32.3321 J-59.119
G2 X-70.676 Y-12.7625 I39.3617 J-71.2134
G1 X-68.8352 Y-11.7498
G1 X-67.8158 Y-11.1854
G1 X-66.6313 Y-10.5227
G3 X-65.7534 Y-9.9638 I-4.6242 J8.2328
G2 X-65.7358 Y-9.9512 I11.6538 J-16.2539
G3 X-65.6775 Y-9.9072 I-0.8368 J1.1697
G2 X-65.6499 Y-9.8853 I12.4476 J-15.6543
G3 X-65.449 Y-9.7169 I-2.9397 J3.7104
G3 X-65.3967 Y-9.6662 I-0.76 J0.8368
G1 X-65.3506 Y-9.6161
G3 X-62.6333 Y-6.5944 I-682.3127 J616.3077
G1 X-62.633 Y-6.594
G1 X-62.6337 Y-6.5948
G1 X-62.6333 Y-6.5944
G2 X-61.1954 Y-5.0042 I158.787 J-142.1431
G2 X-60.8811 Y-3.3587 I224.6516 J-42.0524
G2 X-60.7675 Y-2.7753 I57.8426 J-10.9575
G2 X-60.6449 Y-2.1535 I65.8602 J-12.6701
G2 X-60.4965 Y-1.4118 I80.744 J-15.7628
G2 X-59.3369 Y4.1036 I341.2918 J-68.8776
G2 X-59.3351 Y4.1118 I19.5381 J-4.2733
G3 X-59.0666 Y5.6302 I-18.4854 J4.0512
G1 X-59.0244 Y5.9604
G3 X-58.8841 Y7.8075 I-21.6492 J2.5739
G1 X-58.8649 Y8.4998
G2 X-58.8638 Y8.5381 I19.9923 J-0.5539
G2 X-58.8599 Y8.716 I19.997 J-0.3456
G2 X-58.8567 Y8.8559 I19.9963 J-0.3826
G2 X-58.8492 Y9.1984 I31.9891 J-0.5378
G1 X-58.8388 Y9.6395
G2 X-58.8362 Y9.7392 I19.9945 J-0.4703
G1 X-58.8175 Y10.3934
G2 X-58.8126 Y10.5454 I19.9919 J-0.5699
G1 X-58.7991 Y10.9191
G2 X-58.7925 Y11.0844 I19.987 J-0.7219
G1 X-58.7735 Y11.5115
G2 X-58.7616 Y11.7478 I19.9803 J-0.8871
G1 X-58.7342 Y12.2355
G2 X-58.7179 Y12.4943 I19.9684 J-1.1234
G2 X-58.6703 Y13.1499 I96.0319 J-6.6527
G2 X-58.6033 Y13.9195 I27.9395 J-2.0426
G2 X-58.6003 Y13.9515 I37.2943 J-3.5307
G2 X-58.7107 Y14.7287 I20.9239 J3.3687
G1 X-58.7264 Y14.8504
G2 X-58.8158 Y15.6313 I25.5613 J3.3236
G2 X-58.8189 Y15.6606 I20.589 J2.1525
G2 X-58.912 Y15.9139 I21.6991 J8.1218
G2 X-59.4158 Y17.4238 I25.1276 J9.2223
G2 X-60.2493 Y21.37 I22.6577 J6.8472
G2 X-60.2691 Y21.5357 I19.8492 J2.4512
G2 X-60.7506 Y25.8876 I501.4091 J57.6767
G2 X-60.7575 Y25.9538 I19.8881 J2.1131
G1 X-60.9009 Y27.3481
G2 X-60.9088 Y27.4261 I19.895 J2.0469
G1 X-60.9877 Y28.2232
G2 X-60.9942 Y28.2909 I19.9029 J1.9689
G1 X-61.0812 Y29.2021
G2 X-61.0891 Y29.2865 I19.9094 J1.9011
G1 X-61.1841 Y30.3282
G2 X-61.1867 Y30.3566 I19.9173 J1.8167
G2 X-61.4391 Y33.4458 I192.5221 J17.2847
G2 X-61.5131 Y34.894 I30.9757 J2.3086
G2 X-61.5244 Y35.5388 I21.1221 J0.6921
G1 X-61.5255 Y35.6693
G2 X-61.5261 Y35.7923 I19.9993 J0.1636
G2 X-61.47 Y37.8063 I33.7511 J0.0686
G2 X-61.4473 Y38.1843 I21.8081 J-1.1204
G2 X-61.4166 Y38.6036 I22.0025 J-1.4008
G2 X-61.3017 Y39.8426 I38.6296 J-2.9573
G2 X-61.2899 Y39.9489 I19.8823 J-2.1663
G1 X-61.2451 Y40.34
G2 X-61.2284 Y40.482 I19.8705 J-2.2726
G2 X-60.9955 Y42.1638 I50.8808 J-6.1883
G2 X-57.0745 Y55.3723 I50.2956 J-7.7443
G2 X-56.8632 Y55.8347 I20.4957 J-9.0882
G2 X-56.8536 Y55.8554 I48.4888 J-22.4423
G1 X-56.8188 Y57.2062
G1 X-56.7796 Y58.9429
G1 X-56.7609 Y59.9082
G1 X-56.7431 Y61.0095
G1 X-56.7282 Y62.2703
G1 X-56.7231 Y62.9146
G1 X-56.72 Y63.6101
G1 X-56.7193 Y64.3459
G1 X-56.7214 Y64.9509
G3 X-56.8457 Y65.5448 I-7.0356 J-1.1626
G2 X-56.8509 Y65.5654 I19.3838 J4.9264
G3 X-56.8718 Y65.6319 I-0.5936 J-0.1502
G1 X-56.9579 Y65.8382
G3 X-56.9943 Y65.9168 I-2.1553 J-0.9489
G2 X-57.0286 Y65.9879 I17.9957 J8.7267
G3 X-57.2168 Y66.3544 I-6.9294 J-3.3266
G2 X-57.2534 Y66.4215 I17.5403 J9.6093
G3 X-57.7547 Y67.2705 I-17.4683 J-9.7419
G3 X-58.724 Y68.7352 I-31.8456 J-20.0203
G2 X-58.7958 Y68.8392 I16.4166 J11.4234
G2 X-58.8733 Y68.9507 I16.3901 J11.4614
G2 X-58.8768 Y68.9558 I16.3674 J11.4939
G1 X-59.2688 Y69.5144
G1 X-59.6349 Y70.0291
G1 X-59.8683 Y70.3538
G1 X-60.2182 Y70.8359
G3 X-61.5391 Y72.6087 I-86.0397 J-62.729
G2 X-61.5412 Y72.6114 I15.9128 J12.1154
G3 X-64.4297 Y76.2866 I-119.6183 J-91.0408
G2 X-64.5071 Y76.3827 I15.5305 J12.6017
G3 X-64.7731 Y76.7098 I-23.1209 J-18.5252
G2 X-64.8987 Y76.8637 I15.4285 J12.7265
G3 X-64.9937 Y76.9799 I-10.8891 J-8.8018
G2 X-65.1111 Y77.1234 I15.4184 J12.7386
G3 X-65.2075 Y77.2409 I-10.5343 J-8.5403
G2 X-65.3309 Y77.3911 I15.3937 J12.7685
G3 X-65.4299 Y77.5115 I-10.4055 J-8.4617
G2 X-65.5583 Y77.6673 I15.3693 J12.7978
G3 X-65.6613 Y77.792 I-10.4856 J-8.5536
G2 X-65.7936 Y77.952 I15.3454 J12.8265
G3 X-65.902 Y78.0828 I-10.7738 J-8.817
G2 X-66.0371 Y78.2456 I15.322 J12.8544
G3 X-66.1524 Y78.3842 I-11.2855 J-9.2664
G2 X-66.213 Y78.4565 I15.2993 J12.8815
G3 X-68.9704 Y81.7165 I-234.7937 J-195.8032
G1 X-69.7453 Y82.6184
G2 X-77.3027 Y92.2467 I100.545 J86.6997
G1 X-77.3032 Y92.2473
G1 X-77.3023 Y92.2461
G1 X-77.3027 Y92.2467
G2 X-79.6453 Y95.6514 I100.3068 J71.523
G2 X-83.9774 Y102.6656 I102.1685 J67.9474
G1 Y14.1313
G0 Z3.0
G0 X-88.9774
G0 Z1.4
G1 F300.0 Z0.0
G1 F800.0 Y123.8287
G3 X-87.0866 Y119.9062 I2749.0818 J1322.7659
G3 X-86.1566 Y117.9793 I475.5257 J228.3274
G3 X-85.4613 Y116.5404 I359.7778 J172.9405
G3 X-84.9398 Y115.4616 I288.2074 J138.6863
G3 X-84.5507 Y114.6573 I238.0685 J114.6729
G3 X-83.9625 Y113.4422 I273.4568 J131.6135
G3 X-83.3652 Y112.2092 I258.2084 J124.3197
G3 X-75.4805 Y98.4181 I105.8885 J51.3895
G3 X-73.2316 Y95.1494 I98.4845 J65.3516
G3 X-65.9558 Y85.8803 I104.0312 J74.1687
G1 X-65.1767 Y84.9735
G2 X-62.373 Y81.6588 I-235.8299 J-202.3202
G3 X-62.3276 Y81.6046 I11.5199 J9.6069
G2 X-62.1729 Y81.4185 I-14.9951 J-12.6253
G3 X-62.0715 Y81.2964 I11.5929 J9.5187
G2 X-61.9242 Y81.1186 I-14.496 J-12.1614
G3 X-61.825 Y80.9986 I11.6083 J9.4999
G2 X-61.6839 Y80.8278 I-14.2189 J-11.885
G3 X-61.5876 Y80.711 I11.6232 J9.4816
G2 X-61.4516 Y80.5457 I-14.1488 J-11.7815
G3 X-61.3591 Y80.4331 I11.6378 J9.4637
G2 X-61.2272 Y80.2722 I-14.2863 J-11.85
G3 X-61.1391 Y80.1646 I11.6519 J9.4463
G2 X-61.0102 Y80.0068 I-14.6487 J-12.1027
G3 X-60.916 Y79.8914 I11.6656 J9.4294
G2 X-60.6051 Y79.5091 I-26.7121 J-22.034
G3 X-60.547 Y79.437 I11.706 J9.3792
G2 X-57.5625 Y75.6396 I-120.6124 J-97.8664
G3 X-57.5609 Y75.6376 I11.9361 J9.0845
G2 X-56.1748 Y73.7771 I-88.697 J-67.5307
G1 X-55.815 Y73.2815
G1 X-55.5675 Y72.9372
G1 X-55.1851 Y72.3993
G1 X-54.7841 Y71.828
G3 X-54.7688 Y71.8063 I12.2782 J8.6166
G3 X-54.6859 Y71.6868 I12.3631 J8.4943
G3 X-54.6198 Y71.5911 I12.3786 J8.4718
G2 X-53.5175 Y69.925 I-34.9805 J-24.3409
G2 X-52.8757 Y68.8373 I-21.2042 J-13.2454
G3 X-52.8712 Y68.8292 I13.107 J7.2943
G3 X-52.8317 Y68.7567 I13.1947 J7.1345
G2 X-52.5211 Y68.1518 I-11.1263 J-6.0954
G3 X-52.4954 Y68.0985 I13.5225 J6.4917
G2 X-52.3573 Y67.7964 I-6.6179 J-3.2092
G1 X-52.2415 Y67.5192
G2 X-52.0037 Y66.7919 I-5.203 J-2.104
G3 X-51.9998 Y66.7764 I14.5417 J3.6794
G2 X-51.7683 Y65.6409 I-11.7572 J-2.9881
G3 X-51.7575 Y65.5647 I14.8559 J2.0739
G2 X-51.748 Y65.49 I-2.0492 J-0.2968
G3 X-51.7412 Y65.4276 I14.9134 J1.6092
G3 X-51.735 Y65.3695 I14.9191 J1.5559
G2 X-51.7269 Y65.2717 I-1.8904 J-0.2046
G3 X-51.7248 Y65.2336 I14.9763 J0.8423
G3 X-51.724 Y65.2196 I14.9801 J0.7715
G3 X-51.7235 Y65.2083 I14.9841 J0.6901
G3 X-51.7227 Y65.1881 I14.9873 J0.618
G3 X-51.7223 Y65.1717 I14.996 J0.3461
G3 X-51.7222 Y65.167 I14.9972 J0.2894
G1 X-51.7221 Y65.1627
G1 Y65.1626
G1 X-51.7222 Y65.167
G3 X-51.7221 Y65.1627 I14.9981 J0.2392
G1 X-51.7193 Y64.3523
G1 X-51.72 Y63.5965
G1 X-51.7232 Y62.8837
G1 X-51.7284 Y62.2212
G1 X-51.7436 Y60.9395
G1 X-51.7617 Y59.8194
G1 X-51.7807 Y58.8382
G1 X-51.8202 Y57.0854
G1 X-51.8826 Y54.6657
G3 X-52.3328 Y53.7191 I43.5083 J-21.2732
G3 X-52.5105 Y53.3301 I15.754 J-7.435
G3 X-56.0543 Y41.3995 I41.8107 J-18.9105
G3 X-56.2649 Y39.8784 I45.7067 J-7.1057
G3 X-56.2775 Y39.7718 I14.8903 J-1.811
G1 X-56.3222 Y39.3808
G3 X-56.3311 Y39.3011 I14.9028 J-1.7044
G3 X-56.4324 Y38.2059 I33.5441 J-3.6548
G3 X-56.4582 Y37.8539 I16.9876 J-1.4223
G3 X-56.4774 Y37.5343 I16.7963 J-1.168
G3 X-56.5261 Y35.8025 I28.7024 J-1.6734
G3 X-56.5256 Y35.7102 I15.0 J0.0305
G1 X-56.5244 Y35.5638
G3 X-56.5154 Y35.0454 I16.1334 J0.0223
G3 X-56.4528 Y33.8153 I26.052 J0.709
G3 X-56.2067 Y30.8037 I187.7882 J13.8259
G3 X-56.2048 Y30.7824 I14.9399 J1.3413
G1 X-56.1098 Y29.7407
G3 X-56.1039 Y29.6774 I14.938 J1.3626
G1 X-56.0169 Y28.7662
G3 X-56.0119 Y28.7154 I14.9321 J1.4259
G1 X-55.9331 Y27.9183
G3 X-55.9272 Y27.8598 I14.9271 J1.4766
G1 X-55.7837 Y26.4655
G3 X-55.7786 Y26.4159 I14.9212 J1.5352
G3 X-55.3018 Y22.1071 I496.9185 J52.7965
G3 X-55.287 Y21.9828 I14.9017 J1.7141
G3 X-54.6287 Y18.8674 I18.529 J2.2881
G3 X-54.2136 Y17.6242 I20.8443 J6.2689
G3 X-54.0122 Y17.0915 I17.0938 J6.1582
G1 X-54.0061 Y17.0756
G1 X-53.9397 Y16.8246
G3 X-53.9301 Y16.7885 I14.5012 J3.8361
G2 X-53.8871 Y16.617 I-5.3781 J-1.437
G1 X-53.8869 Y16.6146
G1 X-53.871 Y16.4469
G3 X-53.8416 Y16.1381 I15.6442 J1.3369
G3 X-53.7678 Y15.4924 I20.6765 J2.0359
G1 X-53.7498 Y15.353
G3 X-53.6509 Y14.6668 I16.0735 J1.9672
G3 X-53.5552 Y14.1174 I20.6249 J3.3073
G3 X-53.627 Y13.4327 I32.2462 J-3.7286
G3 X-53.6841 Y12.7781 I22.8962 J-2.3255
G3 X-53.7299 Y12.1488 I90.9981 J-6.9364
G3 X-53.7421 Y11.9547 I14.9641 J-1.0366
G1 X-53.7695 Y11.4669
G3 X-53.7784 Y11.2897 I14.9763 J-0.8425
G1 X-53.7974 Y10.8626
G3 X-53.8024 Y10.7387 I14.9852 J-0.6653
G1 X-53.8159 Y10.3649
G3 X-53.8196 Y10.2509 I14.9902 J-0.5414
G1 X-53.8382 Y9.5967
G3 X-53.8402 Y9.522 I14.9939 J-0.4274
G1 X-53.8508 Y9.0704
G3 X-53.8578 Y8.7479 I26.9831 J-0.7522
G3 X-53.8612 Y8.6027 I14.9943 J-0.4145
G3 X-53.865 Y8.4209 I14.9944 J-0.4102
G3 X-53.8668 Y8.3613 I14.9925 J-0.475
G1 X-53.8863 Y7.6556
G2 X-54.0621 Y5.3471 I-26.7872 J0.8787
G1 X-54.1091 Y4.9796
G2 X-54.451 Y3.0414 I-23.7114 J3.1835
G3 X-54.4524 Y3.0353 I14.6523 J-3.2112
G3 X-55.5968 Y-2.408 I335.2477 J-73.3247
G3 X-55.7407 Y-3.128 I75.6959 J-15.5083
G3 X-55.861 Y-3.7378 I60.8334 J-12.3174
G3 X-55.9708 Y-4.3018 I52.8225 J-10.5784
G3 X-56.5387 Y-7.3272 I219.4271 J-42.7548
G3 X-58.908 Y-9.9294 I152.6924 J-141.4103
G2 X-61.6545 Y-12.9835 I-688.7553 J616.621
G1 X-61.7412 Y-13.0778
G2 X-62.1147 Y-13.4429 I-4.4678 J4.1977
G2 X-62.5449 Y-13.8044 I-6.4749 J7.2679
G3 X-62.5656 Y-13.8208 I9.3151 J-11.7571
G2 X-62.8267 Y-14.0178 I-4.007 J5.0393
G3 X-62.8399 Y-14.0273 I8.7272 J-12.1998
G2 X-64.1868 Y-14.8844 I-8.4155 J11.7374
G1 X-65.3842 Y-15.5542
G1 X-66.4191 Y-16.1273
G1 X-68.2732 Y-17.1473
G3 X-68.6439 Y-17.351 I36.5836 J-67.0347
G3 X-68.983 Y-17.5374 I29.8851 J-54.7583
G3 X-69.302 Y-17.713 I26.2882 J-48.1471
G3 X-69.6024 Y-17.8785 I23.9899 J-43.8973
G3 X-69.8709 Y-18.0265 I22.3794 J-40.898
G3 X-70.419 Y-18.3295 I26.4312 J-48.4593
G3 X-70.6222 Y-18.4415 I24.274 J-44.2961
G3 X-76.3305 Y-17.0848 I-7.2359 J-17.758
G3 X-80.3601 Y-17.2307 I-1.3986 J-17.0862
G3 X-87.3098 Y-20.0038 I2.5666 J-16.5273
G3 X-87.5088 Y-20.1438 I8.5346 J-12.3353
G3 X-88.9774 Y-21.3243 I9.8767 J-13.7916
G1 Y14.1313
G0 Z3.0
G0 X-93.9774
G0 Z1.4
G1 F300.0 Z0.0
G1 F800.0 Y-38.7785
G2 X-91.4821 Y-37.1791 I10.8666 J-14.2068
G2 X-91.24 Y-35.67 I13.7605 J-1.4335
G2 X-90.5455 Y-33.2031 I20.4963 J-4.439
G2 X-90.2767 Y-32.4689 I21.8749 J-7.5946
G2 X-90.2637 Y-32.4354 I9.3307 J-3.5969
G2 X-89.0587 Y-29.8019 I23.4401 J-9.1327
G2 X-88.9085 Y-29.5209 I10.7538 J-5.566
G2 X-88.0667 Y-28.061 I26.7 J-14.4232
G2 X-87.989 Y-27.934 I10.0407 J-6.0579
G2 X-87.9315 Y-27.8411 I10.0323 J-6.1402
G2 X-87.8733 Y-27.7475 I10.0484 J-6.1898
G2 X-87.8143 Y-27.6533 I10.0684 J-6.2417
G2 X-87.7271 Y-27.5158 I10.0928 J-6.2962
G2 X-84.5976 Y-24.2089 I10.0951 J-6.4197
G2 X-84.465 Y-24.1156 I5.8224 J-8.1302
G2 X-79.5928 Y-22.1715 I6.6715 J-9.6425
G2 X-79.5922 Y-22.1714 I1.7993 J-11.5866
G1 X-79.5933 Y-22.1716
G2 X-79.5928 Y-22.1715 I1.8641 J-11.9994
G2 X-76.7337 Y-22.0685 I1.8636 J-11.9995
G2 X-70.48 Y-24.0953 I-1.1244 J-14.131
G2 X-70.09 Y-23.8742 I23.6923 J-41.3407
G2 X-69.5287 Y-23.5579 I24.4909 J-42.7964
G2 X-69.2231 Y-23.3865 I19.0605 J-33.6324
G2 X-68.8661 Y-23.1869 I19.8019 J-35.0079
G2 X-68.4592 Y-22.9603 I20.8318 J-36.9258
G2 X-67.9957 Y-22.7031 I22.3142 J-39.6653
G2 X-67.4592 Y-22.4065 I24.556 J-43.7827
G2 X-67.1884 Y-22.2572 I20.2361 J-36.3699
G2 X-66.8906 Y-22.093 I21.8763 J-39.3531
G2 X-66.5737 Y-21.9187 I24.1958 J-43.5915
G2 X-66.2365 Y-21.7333 I27.8149 J-50.1906
G2 X-65.8707 Y-21.5323 I34.5469 J-62.4488
G1 X-64.003 Y-20.5048
G1 X-62.9525 Y-19.9231
G1 X-61.7429 Y-19.2464
G3 X-59.9265 Y-18.0907 I-9.5126 J16.9565
G2 X-59.9177 Y-18.0844 I5.8269 J-8.1269
G3 X-59.4537 Y-17.7343 I-6.6549 J9.3029
G2 X-59.4399 Y-17.7234 I6.2238 J-7.8271
G3 X-58.7824 Y-17.1705 I-9.1498 J11.5485
G3 X-58.0755 Y-16.4783 I-7.4266 J8.2904
G1 X-57.9584 Y-16.3509
G3 X-55.1827 Y-13.2644 I-689.7049 J623.0425
G1 X-55.1826 Y-13.2642
G1 X-55.1829 Y-13.2645
G1 X-55.1827 Y-13.2644
G2 X-52.1732 Y-9.9758 I151.3364 J-135.4732
G2 X-52.1426 Y-9.9432 I7.3026 J-6.8317
G3 X-52.0168 Y-9.7801 I-0.7557 J0.7133
G3 X-51.9101 Y-9.5564 I-1.1 J0.6615
G3 X-51.8015 Y-9.1924 I-3.2571 J1.1708
G3 X-51.7393 Y-8.8918 I-5.7266 J1.3407
G2 X-51.0605 Y-5.2444 I215.1955 J-38.1648
G2 X-50.9545 Y-4.7003 I48.0219 J-9.0718
G2 X-50.8366 Y-4.1027 I56.0471 J-10.7451
G2 X-50.697 Y-3.4044 I70.9358 J-13.8136
G2 X-49.5678 Y1.9669 I331.4923 J-66.8851
G2 X-49.5669 Y1.971 I9.7691 J-2.1367
G3 X-49.1514 Y4.3306 I-28.2536 J6.192
G1 X-49.1001 Y4.7319
G3 X-48.8886 Y7.5049 I-31.5735 J3.8025
G1 X-48.8687 Y8.2228
G2 X-48.8661 Y8.3036 I9.9962 J-0.277
G2 X-48.8624 Y8.4894 I9.9994 J-0.1112
G2 X-48.8589 Y8.6376 I9.9988 J-0.1561
G2 Y8.6414 I9.999 J-0.1431
G2 X-48.8524 Y8.9414 I21.9912 J-0.3233
G1 X-48.8415 Y9.4044
G2 X-48.8402 Y9.4542 I9.9972 J-0.2351
G1 X-48.8216 Y10.1085
G2 X-48.8191 Y10.1845 I9.9959 J-0.2849
G1 X-48.8056 Y10.5582
G2 X-48.8023 Y10.6408 I9.9935 J-0.3609
G1 X-48.7834 Y11.0679
G2 X-48.7774 Y11.1861 I9.9902 J-0.4436
G1 X-48.75 Y11.6738
G2 X-48.7418 Y11.8032 I9.9842 J-0.5617
G2 X-48.6979 Y12.407 I86.0558 J-5.9616
G2 X-48.6508 Y12.9453 I17.9671 J-1.2997
G2 X-48.5502 Y13.857 I27.3418 J-2.5565
G2 X-48.5225 Y14.0714 I11.9501 J-1.4318
G2 X-48.4885 Y14.3224 I26.1174 J-3.4141
G2 X-48.5476 Y14.5801 I14.5575 J3.4726
G2 X-48.5546 Y14.6124 I9.7665 J2.1481
G2 X-48.7162 Y15.4726 I15.5287 J3.3617
G2 X-48.7886 Y15.9748 I11.0398 J1.8476
G1 X-48.8092 Y16.1348
G2 X-48.8673 Y16.6456 I15.6441 J2.0392
G2 X-48.8909 Y16.8933 I10.6405 J1.1382
G1 X-48.91 Y17.0944
G1 X-48.9343 Y17.3422
G3 X-48.9568 Y17.4745 I-1.6776 J-0.2171
G2 X-48.9629 Y17.5036 I9.7843 J2.0658
G3 X-49.0995 Y18.0792 I-10.3453 J-2.1521
G2 X-49.1059 Y18.1033 I9.6611 J2.5814
G1 X-49.2435 Y18.6232
G1 X-49.3192 Y18.8184
G2 X-49.3239 Y18.8307 I9.3231 J3.6166
G1 X-49.3565 Y18.9149
G2 X-49.515 Y19.3341 I12.2367 J4.8675
G2 X-49.8416 Y20.311 I15.7306 J5.8021
G2 X-50.3247 Y22.5956 I13.0836 J3.96
G2 X-50.3346 Y22.6785 I9.9246 J1.2256
G2 X-50.8065 Y26.9442 I491.4746 J56.5339
G2 X-50.81 Y26.9773 I9.944 J1.0565
G1 X-50.9534 Y28.3715
G2 X-50.9574 Y28.4106 I9.9475 J1.0234
G1 X-51.0362 Y29.2076
G2 X-51.0395 Y29.2415 I9.9514 J0.9844
G1 X-51.1265 Y30.1526
G2 X-51.1305 Y30.1948 I9.9547 J0.9506
G1 X-51.2255 Y31.2366
G2 X-51.2268 Y31.2508 I9.9587 J0.9084
G2 X-51.4665 Y34.185 I182.5622 J16.3905
G2 X-51.5177 Y35.1979 I21.0031 J1.5694
G2 X-51.5244 Y35.5862 I11.1267 J0.3883
G1 X-51.5258 Y35.7512
G2 X-51.5261 Y35.8127 I9.9997 J0.0818
G2 X-51.4847 Y37.2636 I23.7511 J0.0482
G2 X-51.4691 Y37.5235 I11.8228 J-0.5777
G2 X-51.4483 Y37.8067 I12.0243 J-0.7399
G2 X-51.3606 Y38.7595 I28.6613 J-2.1605
G2 X-51.3546 Y38.8126 I9.9412 J-1.0832
G1 X-51.3099 Y39.2037
G2 X-51.3015 Y39.2747 I9.9352 J-1.1363
G2 X-51.113 Y40.6352 I40.9539 J-4.9809
G2 X-47.9457 Y51.2897 I40.4132 J-6.2156
G2 X-47.8031 Y51.6018 I11.3669 J-5.0056
G2 X-46.9149 Y53.4134 I39.4288 J-18.2093
G2 X-46.907 Y53.6725 I52.873 J-1.4726
G3 X-46.8919 Y54.2338 I-49.873 J1.6193
G2 X-46.8909 Y54.2794 I9.9978 J-0.212
G1 X-46.8217 Y56.9646
G1 X-46.7818 Y58.7334
G1 X-46.7625 Y59.7307
G1 X-46.7441 Y60.8694
G1 X-46.7286 Y62.1721
G1 X-46.7233 Y62.8528
G1 X-46.72 Y63.5829
G1 X-46.7193 Y64.3588
G1 X-46.7222 Y65.2001
G2 X-46.7225 Y65.2302 I9.9992 J0.124
G2 X-46.723 Y65.2559 I9.9984 J0.1761
G2 X-46.7234 Y65.2803 I9.9979 J0.2052
G2 X-46.725 Y65.3521 I9.9968 J0.2538
G2 X-46.7283 Y65.4282 I9.9888 J0.4741
G2 X-46.73 Y65.4655 I9.9884 J0.4815
G2 X-46.7323 Y65.5089 I9.9854 J0.5396
G2 X-46.7348 Y65.5525 I9.9817 J0.6051
G3 X-46.764 Y65.9075 I-6.8905 J-0.3875
G2 X-46.7701 Y65.9655 I9.9419 J1.076
G2 X-46.7769 Y66.0264 I9.9355 J1.1337
G3 X-46.8091 Y66.2814 I-7.0298 J-0.7585
G2 X-46.8204 Y66.3621 I9.8967 J1.4334
G2 X-46.8218 Y66.371 I9.8843 J1.5165
G3 X-47.1538 Y68.0081 I-16.9352 J-2.5827
G2 X-47.1564 Y68.0183 I9.6919 J2.4632
G3 X-47.6184 Y69.4237 I-10.2881 J-2.6031
G1 X-47.7523 Y69.7445
G3 X-47.9965 Y70.2801 I-11.3609 J-4.8553
G2 X-48.0136 Y70.3157 I8.9979 J4.3633
G3 X-48.4467 Y71.159 I-15.9444 J-7.6544
G2 X-48.4881 Y71.2355 I8.7701 J4.8046
G2 X-48.5067 Y71.2687 I8.7194 J4.8961
G3 X-49.2805 Y72.5798 I-26.215 J-14.5891
G3 X-50.5156 Y74.4469 I-40.3198 J-25.3296
G2 X-50.5759 Y74.5345 I8.2083 J5.7117
G2 X-50.6643 Y74.6618 I8.1702 J5.7661
G2 X-50.6914 Y74.7002 I8.1584 J5.7828
G1 X-51.1013 Y75.2843
G1 X-51.5002 Y75.8452
G1 X-51.7618 Y76.2091
G1 X-52.1313 Y76.7183
G3 X-53.5827 Y78.6664 I-94.1266 J-68.6114
G2 X-53.5837 Y78.6678 I7.9564 J6.0577
G3 X-56.6644 Y82.5875 I-127.5757 J-97.0972
G2 X-56.7031 Y82.6355 I7.7653 J6.3008
G3 X-57.0588 Y83.073 I-30.9249 J-24.778
G2 X-57.1217 Y83.15 I7.7142 J6.3632
G3 X-57.2845 Y83.3492 I-18.6662 J-15.0881
G2 X-57.3432 Y83.421 I7.7092 J6.3693
G3 X-57.5107 Y83.6252 I-18.3023 J-14.8379
G2 X-57.5724 Y83.7003 I7.6968 J6.3843
G3 X-57.7453 Y83.9105 I-18.164 J-14.7708
G2 X-57.8095 Y83.9883 I7.6846 J6.3989
G3 X-57.9886 Y84.2053 I-18.2344 J-14.8746
G2 X-58.0548 Y84.2853 I7.6727 J6.4133
G3 X-58.241 Y84.51 I-18.5127 J-15.1503
G2 X-58.3086 Y84.5914 I7.661 J6.4272
G3 X-58.5028 Y84.825 I-19.0141 J-15.6122
G2 X-58.533 Y84.8611 I7.6496 J6.4407
G3 X-61.383 Y88.2305 I-242.4736 J-202.2078
G1 X-62.1663 Y89.1421
G2 X-69.1604 Y98.0522 I92.9659 J80.176
G1 X-69.1607 Y98.0525
G1 X-69.1602 Y98.0518
G1 X-69.1604 Y98.0522
G2 X-71.3158 Y101.1849 I92.1645 J65.7175
G2 X-78.8688 Y114.396 I93.839 J62.4138
G2 X-79.4621 Y115.6209 I253.1147 J123.3659
G2 X-80.0493 Y116.834 I268.3682 J130.6499
G2 X-80.4388 Y117.639 I233.1781 J113.3005
G2 X-80.9597 Y118.7165 I283.1848 J137.5877
G2 X-81.6541 Y120.1536 I354.581 J172.2033
G2 X-82.5817 Y122.0755 I470.0932 J228.08
G2 X-86.2708 Y129.7419 I2742.686 J1324.5191
G2 X-86.2721 Y129.7446 I9.017 J4.3236
G1 X-88.7181 Y134.8497
G2 X-88.723 Y134.8599 I9.0183 J4.3209
G1 X-90.1174 Y137.7787
G2 X-90.1214 Y137.787 I9.0232 J4.3107
G1 X-91.6957 Y141.0904
G2 X-91.8869 Y141.4933 I23.7349 J11.5077
G2 X-92.0636 Y141.8707 I22.8657 J10.9354
G2 X-92.1699 Y142.0998 I20.0139 J9.4306
G2 X-92.3287 Y142.4446 I21.3866 J10.0571
G2 X-92.4063 Y142.6143 I18.3341 J8.4844
G2 X-92.5025 Y142.8255 I18.9067 J8.7359
G2 X-92.6116 Y143.0665 I19.56 J9.0
G2 X-92.7353 Y143.3415 I20.3144 J9.3031
G2 X-92.8753 Y143.655 I21.2119 J9.6628
G2 X-93.0417 Y144.0309 I22.3198 J10.1071
G2 X-93.1179 Y144.204 I19.0735 J8.4956
G2 X-93.2066 Y144.4063 I19.6279 J8.7317
G2 X-93.3007 Y144.6217 I20.2909 J8.9924
G2 X-93.4184 Y144.8928 I21.0912 J9.31
G2 X-93.9774 Y146.1975 I241.2708 J104.1647
G1 Y14.1313
G0 Z3.0
G0 X-98.9774
G0 Z1.4
G1 F300.0 Z0.0
G1 F800.0 Y188.6827
G1 X-10.7794
G3 X-11.9942 Y187.3103 I17.5552 J-16.7634
G1 X-11.9944 Y187.3101
G1 X-11.994 Y187.3105
G1 X-11.9942 Y187.3103
G3 X-13.9981 Y184.1122 I11.5051 J-9.4356
G3 X-15.353 Y182.6446 I2.9223 J-4.0571
G1 X-15.4409 Y182.5175
G3 X-15.5161 Y182.4056 I4.1121 J-2.8444
G1 X-15.5969 Y182.2818
G3 X-15.6411 Y182.2129 I4.1873 J-2.7325
G3 X-16.0931 Y181.3602 I5.4951 J-3.4591
G3 X-16.1002 Y181.3439 I4.5795 J-2.0071
G3 X-16.5297 Y179.795 I5.3216 J-2.3098
G3 X-16.5455 Y179.6621 I4.9568 J-0.6558
G1 X-16.5887 Y179.2511
G3 X-16.5959 Y179.1775 I4.9726 J-0.5229
G1 X-16.6284 Y178.8173
G3 X-16.633 Y178.7628 I4.9798 J-0.4493
G1 X-16.658 Y178.4474
G3 X-16.6621 Y178.3919 I4.9844 J-0.3948
G1 X-16.6997 Y177.8395
G3 X-16.7032 Y177.783 I4.9885 J-0.3393
G1 X-16.7501 Y176.9538
G3 X-16.7511 Y176.9354 I4.992 J-0.2827
G1 X-16.7541 Y176.8796
G1 X-21.667 Y176.9545
G3 X-21.6696 I-0.0762 J-4.9994
G1 X-33.3281 Y177.1259
G3 X-33.3293 Y177.126 I-0.0735 J-4.9995
G1 X-44.983 Y177.2944
G3 X-46.1555 Y177.308 I-1.9892 J-121.5419
G3 X-50.6265 Y177.2968 I-1.724 J-205.4429
G3 X-50.8992 Y177.2932 I0.0648 J-15.0192
G3 X-51.1634 Y177.2889 I0.1115 J-15.0876
G3 X-53.0641 Y177.2494 I2.1199 J-147.6347
G3 X-53.3085 Y177.2431 I0.2813 J-15.8074
G3 X-53.5548 Y177.2363 I0.3193 J-15.8963
G3 X-60.6798 Y176.9163 I5.7223 J-206.9073
G1 X-60.6799
G3 X-71.3534 Y175.9925 I13.7438 J-220.9262
G3 X-71.36 Y175.9918 I0.5515 J-4.9695
G3 X-74.0039 Y175.683 I33.8864 J-301.641
G3 X-74.0098 Y175.6823 I0.6017 J-4.9637
G3 X-77.9912 Y175.1591 I27.5571 J-225.0862
G3 X-78.0 Y175.1578 I0.6954 J-4.9514
G1 X-78.972 Y175.0195
G3 X-78.9901 Y175.0169 I0.7042 J-4.9502
G1 X-79.7188 Y174.9105
G3 X-79.7381 Y174.9077 I0.7224 J-4.9475
G1 X-80.8304 Y174.7438
G3 X-80.8477 Y174.7412 I0.7417 J-4.9447
G1 X-81.3935 Y174.6574
G3 X-81.405 Y174.6556 I0.759 J-4.9421
G1 X-81.9506 Y174.5705
G3 X-82.0145 Y174.5601 I0.7704 J-4.9403
G1 X-82.2524 Y174.5199
G3 X-82.3546 Y174.5015 I0.8343 J-4.9299
G3 X-83.2844 Y174.3141 I8.5266 J-44.7179
G3 X-83.3135 Y174.3079 I1.0386 J-4.8909
G3 X-83.3973 Y174.2907 I0.9644 J-4.9061
G3 X-83.4963 Y174.2703 I0.9576 J-4.9074
G3 X-83.5305 Y174.2639 I0.898 J-4.9187
G2 X-83.8595 Y174.2057 I-2.5146 J13.2502
G3 X-86.4761 Y173.4461 I1.6321 J-10.5089
G3 X-87.3841 Y173.0021 I4.2762 J-9.8934
G3 X-87.3887 Y172.9995 I2.405 J-4.3836
G3 X-87.6725 Y172.8394 I7.2422 J-13.1674
G3 X-87.9086 Y172.6987 I3.3731 J-5.9311
G3 X-88.2279 Y172.496 I4.9611 J-8.1675
G3 X-89.2256 Y171.7758 I8.0904 J-12.258
G3 X-89.2587 Y171.7495 I3.0939 J-3.9278
G1 X-89.3782 Y171.6537
G3 X-89.4171 Y171.6223 I3.1269 J-3.9016
G3 X-90.0081 Y171.1185 I12.1545 J-14.8586
G3 X-90.024 Y171.1043 I3.3197 J-3.7389
G1 X-90.1042 Y171.0324
G3 X-90.1388 Y171.0012 I3.3357 J-3.7247
G1 X-90.2879 Y170.8651
G3 X-90.3254 Y170.8306 I3.3702 J-3.6935
G1 X-90.4547 Y170.7102
G3 X-90.4901 Y170.6769 I3.4077 J-3.6589
G3 X-90.9834 Y170.2021 I35.4352 J-37.314
G3 X-91.012 Y170.174 I3.491 J-3.5795
G1 X-91.4512 Y169.7388
G3 X-91.5451 Y169.6431 I3.5196 J-3.5514
G3 X-92.42 Y168.4523 I4.1348 J-3.9542
G3 X-92.4367 Y168.4217 I4.3781 J-2.415
G3 X-93.1702 Y165.3859 I5.3386 J-2.8965
G3 X-93.1641 Y165.2289 I4.9987 J0.1147
G1 X-93.1226 Y164.4666
G3 X-93.1115 Y164.2644 I16.2193 J0.7899
G3 X-93.1011 Y164.0797 I13.9665 J0.6929
G3 X-93.0907 Y163.8976 I12.6883 J0.6342
G3 X-93.0803 Y163.7179 I11.8401 J0.5993
G3 X-93.0697 Y163.5404 I11.2268 J0.5778
G3 X-93.0591 Y163.3651 I10.7582 J0.5648
G3 X-93.0483 Y163.1919 I10.386 J0.5576
G3 X-93.0358 Y162.9977 I10.0824 J0.5546
G3 X-92.812 Y160.2641 I67.4464 J4.1458
G3 X-92.8119 Y160.263 I4.974 J0.509
G3 X-92.5376 Y158.1046 I44.7409 J4.5892
G3 X-92.5352 Y158.0891 I4.9434 J0.7501
G3 X-92.2447 Y156.4484 I38.2407 J5.9259
G3 X-92.243 Y156.4402 I4.9035 J0.9777
G3 X-91.6151 Y153.9011 I29.1876 J5.8707
G3 X-91.6037 Y153.8629 I4.7964 J1.4123
G1 X-91.5248 Y153.6025
G3 X-91.5177 Y153.5795 I4.785 J1.4505
G3 X-90.7121 Y151.3458 I24.1333 J7.4426
G3 X-90.7108 Y151.3429 I4.6184 J1.9157
G1 X-90.3018 Y150.3587
G3 X-88.823 Y146.8633 I238.1543 J98.6988
G3 X-88.7173 Y146.6199 I16.6135 J7.0683
G3 X-88.6264 Y146.4118 I15.8015 J6.7788
G3 X-88.5408 Y146.2166 I15.1364 J6.5239
G3 X-88.4636 Y146.0414 I14.5726 J6.31
G3 X-88.3076 Y145.6891 I17.9081 J7.7208
G3 X-88.1732 Y145.388 I16.7842 J7.3152
G3 X-88.0546 Y145.1245 I15.876 J6.9817
G3 X-87.9502 Y144.8938 I15.1122 J6.7011
G3 X-87.8583 Y144.6919 I14.4506 J6.4565
G3 X-87.7807 Y144.5222 I13.8637 J6.2371
G3 X-87.6339 Y144.2033 I16.9974 J7.6346
G3 X-87.5293 Y143.978 I15.5842 J7.0979
G3 X-87.3637 Y143.6245 I18.5081 J8.4507
G3 X-87.1897 Y143.2575 I19.4029 J8.9736
G1 X-85.6078 Y139.9382
G3 X-85.6058 Y139.934 I4.5136 J2.1512
G1 X-84.2114 Y137.0153
G3 X-84.2089 Y137.0101 I4.5116 J2.1553
G1 X-81.7629 Y131.905
G3 X-81.7623 Y131.9037 I4.5091 J2.1605
G3 X-78.0768 Y124.2448 I2741.8667 J1314.6909
G3 X-77.1516 Y122.328 I466.5159 J223.9889
G3 X-76.4581 Y120.8926 I350.7728 J168.5919
G3 X-75.9377 Y119.8164 I279.2042 J134.3341
G3 X-75.548 Y119.0108 I229.0665 J110.3182
G3 X-74.9618 Y117.7997 I264.4541 J127.2601
G3 X-74.3723 Y116.5827 I249.2077 J119.9622
G3 X-67.151 Y103.9516 I96.8956 J47.016
G3 X-65.0893 Y100.9549 I90.155 J59.8181
G1 X-65.0892 Y100.9547
G1 X-65.0894 Y100.955
G1 X-65.0893 Y100.9549
G3 X-58.3769 Y92.4041 I95.8889 J68.3633
G1 X-57.5894 Y91.4875
G2 X-54.6931 Y88.0634 I-243.4173 J-208.8342
G3 X-54.6779 Y88.0453 I3.84 J3.2023
G2 X-54.4443 Y87.7643 I-22.6447 J-19.0661
G3 X-54.4105 Y87.7236 I3.8643 J3.1729
G2 X-54.1854 Y87.4519 I-22.1569 J-18.5886
G3 X-54.1523 Y87.4119 I3.8694 J3.1666
G2 X-53.9351 Y87.1489 I-21.8916 J-18.2982
G3 X-53.903 Y87.1099 I3.8744 J3.1605
G2 X-53.6931 Y86.8549 I-21.8334 J-18.1805
G3 X-53.6623 Y86.8173 I3.8793 J3.1546
G2 X-53.4592 Y86.5697 I-21.9832 J-18.2343
G3 X-53.4299 Y86.5339 I3.884 J3.1488
G2 X-53.2331 Y86.2931 I-22.358 J-18.472
G3 X-53.2017 Y86.2547 I3.8885 J3.1431
G2 X-52.8011 Y85.7619 I-34.4263 J-28.3972
G3 X-52.7818 Y85.7379 I3.902 J3.1264
G2 X-49.605 Y81.696 I-128.3777 J-104.1673
G3 X-49.6045 Y81.6953 I3.9787 J3.0282
G2 X-48.0878 Y79.6593 I-96.6534 J-73.5884
G1 X-47.7085 Y79.1368
G1 X-47.4328 Y78.7533
G1 X-47.0176 Y78.1693
G1 X-46.5986 Y77.5724
G3 X-46.5784 Y77.5438 I4.0927 J2.8722
G2 X-46.5415 Y77.4908 I-2.373 J-1.6903
G3 X-46.479 Y77.4009 I4.1358 J2.8098
G2 X-46.4531 Y77.3635 I-1.454 J-1.0351
G3 X-46.4115 Y77.3027 I4.1458 J2.7951
G2 X-45.0436 Y75.2347 I-43.1888 J-30.0526
G2 X-44.1377 Y73.7002 I-29.6781 J-18.555
G3 X-44.1048 Y73.6419 I4.369 J2.4314
G3 X-44.0616 Y73.5614 I4.4282 J2.3218
G2 X-43.5061 Y72.4796 I-19.8964 J-10.9001
G3 X-43.4975 Y72.4618 I4.5075 J2.1639
G2 X-43.1456 Y71.6884 I-15.6157 J-7.5725
G1 X-42.9972 Y71.3329
G2 X-42.3092 Y69.2448 I-14.4474 J-5.9176
G3 X-42.3079 Y69.2397 I4.8472 J1.2265
G2 X-41.879 Y67.1248 I-21.4491 J-5.4513
G3 X-41.8718 Y67.0795 I4.9429 J0.7538
G3 X-41.8607 Y66.9981 I4.9595 J0.6353
G2 X-41.8057 Y66.5628 I-11.946 J-1.7302
G3 X-41.799 Y66.5035 I4.9711 J0.5364
G3 X-41.793 Y66.4455 I4.9769 J0.48
G2 X-41.7427 Y65.8332 I-11.8323 J-1.2806
G3 X-41.7397 Y65.7842 I4.9921 J0.2808
G3 X-41.736 Y65.7115 I4.9951 J0.2208
G3 X-41.7331 Y65.6481 I4.9961 J0.1982
G3 X-41.7287 Y65.5512 I4.9968 J0.1782
G2 X-41.7264 Y65.4811 I-1.5777 J-0.0869
G3 X-41.7245 Y65.389 I4.9997 J0.053
G3 X-41.7237 Y65.3448 I4.9995 J0.0721
G3 X-41.7229 Y65.2977 I4.9996 J0.0615
G3 X-41.7223 Y65.2414 I4.9999 J0.0264
G3 Y65.2248 I5.0 J0.0006
G1 X-41.7193 Y64.3652
G1 X-41.72 Y63.5694
G1 X-41.7234 Y62.8218
G1 X-41.7289 Y62.123
G1 X-41.7445 Y60.7994
G1 X-41.7632 Y59.6419
G1 X-41.7828 Y58.6287
G1 X-41.8231 Y56.8438
G1 X-41.8925 Y54.1506
G3 X-41.8931 Y54.1278 I4.9983 J-0.1288
G2 X-41.9097 Y53.5095 I-54.887 J1.164
G3 X-41.9242 Y52.9733 I47.8678 J-1.5687
G3 X-41.9344 Y52.5924 I38.3835 J-1.2178
G3 X-41.9419 Y52.3121 I32.049 J-0.9962
G3 X-41.9484 Y52.0924 I36.1332 J-1.175
G3 X-43.2751 Y49.481 I33.5741 J-18.7
G3 X-43.3793 Y49.2529 I6.6963 J-3.1969
G3 X-46.1718 Y39.8709 I32.6794 J-14.8333
G3 X-46.3381 Y38.671 I35.8242 J-5.5771
G3 X-46.3423 Y38.6355 I4.9634 J-0.6037
G1 X-46.387 Y38.2445
G3 X-46.39 Y38.2179 I4.9676 J-0.5681
G3 X-46.4645 Y37.4044 I23.6029 J-2.5717
G3 X-46.48 Y37.1929 I7.0196 J-0.6208
G3 X-46.4918 Y36.9959 I6.818 J-0.507
G3 X-46.5261 Y35.8228 I18.7168 J-1.135
G3 X-46.526 Y35.7921 I5.0 J0.0102
G1 X-46.5244 Y35.6036
G3 X-46.52 Y35.3528 I6.1334 J-0.0174
G3 X-46.4802 Y34.555 I16.0566 J0.4016
G3 X-46.2468 Y31.6979 I177.8156 J13.0863
G3 X-46.2462 Y31.6908 I4.98 J0.4471
G1 X-46.1511 Y30.649
G3 X-46.1492 Y30.6279 I4.9793 J0.4542
G1 X-46.0622 Y29.7167
G3 X-46.0605 Y29.6998 I4.9774 J0.4753
G1 X-45.9817 Y28.9028
G3 X-45.9797 Y28.8833 I4.9757 J0.4922
G1 X-45.8362 Y27.489
G3 X-45.8345 Y27.4724 I4.9737 J0.5117
G3 X-45.3673 Y23.2498 I486.9745 J51.7399
G3 X-45.3624 Y23.2084 I4.9672 J0.5714
G3 X-45.0546 Y21.7548 I8.6044 J1.0626
G3 X-44.8161 Y21.0431 I11.2702 J3.3814
G3 X-44.7025 Y20.7428 I7.6963 J2.7393
G1 X-44.66 Y20.6329
G3 X-44.6577 Y20.6268 I4.6639 J1.8022
G1 X-44.5587 Y20.3717
G3 X-44.5505 Y20.3508 I4.6615 J1.8083
G3 X-44.5273 Y20.289 I4.6899 J1.7334
G3 X-44.5004 Y20.2172 I4.6981 J1.711
G2 X-44.4633 Y20.1043 I-1.1968 J-0.4568
G1 X-44.2722 Y19.382
G3 X-44.269 Y19.37 I4.8337 J1.2787
G2 X-44.0677 Y18.522 I-15.0391 J-4.0184
G3 X-44.0646 Y18.5074 I4.8952 J1.0183
G2 X-43.9632 Y17.8818 I-6.5473 J-1.3823
G1 X-43.933 Y17.5742
G1 X-43.9102 Y17.3328
G3 X-43.8933 Y17.1552 I5.6833 J0.451
G3 X-43.8507 Y16.7778 I10.7282 J1.0188
G1 X-43.8268 Y16.592
G3 X-43.7817 Y16.2799 I6.1504 J0.7281
G3 X-43.6678 Y15.6703 I10.7558 J1.6942
G3 X-43.6643 Y15.6541 I4.8868 J1.0579
G3 X-43.3751 Y14.6122 I9.7333 J2.1408
G3 X-43.5673 Y13.404 I20.9699 J-3.9549
G3 X-43.5877 Y13.2454 I6.9672 J-0.9788
G3 X-43.6747 Y12.4568 I22.2787 J-2.8565
G3 X-43.7116 Y12.037 I12.9439 J-1.3495
G3 X-43.7538 Y11.4577 I81.0255 J-6.1953
G3 X-43.7579 Y11.393 I4.988 J-0.3455
G1 X-43.7853 Y10.9052
G3 X-43.7883 Y10.8462 I4.9921 J-0.2808
G1 X-43.8072 Y10.419
G3 X-43.8089 Y10.3777 I4.9951 J-0.2218
G1 X-43.8224 Y10.004
G3 X-43.8236 Y9.966 I4.9967 J-0.1805
G1 X-43.8423 Y9.3117
G3 X-43.8429 Y9.2868 I4.998 J-0.1425
G1 X-43.8541 Y8.811
G3 X-43.8594 Y8.5679 I16.9864 J-0.4928
G3 X-43.8596 Y8.5586 I4.9995 J-0.0735
G2 X-43.861 Y8.4929 I-3.4484 J0.0443
G3 X-43.8632 Y8.3943 I4.9975 J-0.1595
G2 X-43.864 Y8.358 I-1.7359 J0.0212
G3 X-43.8666 Y8.2295 I4.9973 J-0.1656
G2 X-43.8687 Y8.1433 I-2.6895 J0.0199
G3 X-43.8706 Y8.0844 I4.9961 J-0.1974
G1 X-43.8908 Y7.3552
G2 X-44.1382 Y4.1152 I-36.7828 J1.1791
G1 X-44.1935 Y3.6828
G2 X-44.6828 Y0.9007 I-33.627 J4.4802
G3 X-44.6833 Y0.8986 I4.8841 J-1.0704
G3 X-45.7973 Y-4.4009 I325.4786 J-71.188
G3 X-45.9325 Y-5.0776 I65.8965 J-13.5154
G3 X-46.048 Y-5.6631 I51.0252 J-10.3678
G3 X-46.15 Y-6.1865 I43.0094 J-8.6532
G3 X-46.8169 Y-9.7696 I209.6062 J-40.8701
G2 X-46.9359 Y-10.3443 I-10.7111 J1.9179
G2 X-47.2069 Y-11.2534 I-8.2313 J1.9587
G2 X-47.7524 Y-12.3907 I-5.9099 J2.1347
G2 X-48.5066 Y-13.3754 I-5.146 J3.1608
G3 X-48.5219 Y-13.3916 I3.636 J-3.4321
G3 X-51.4574 Y-16.5993 I144.6756 J-135.3459
G1 X-51.4575 Y-16.5994
G1 X-51.4574 Y-16.5992
G1 Y-16.5993
G2 X-54.2624 Y-19.7183 I-696.2059 J623.291
G1 X-54.4065 Y-19.8751
G2 X-55.4503 Y-20.8984 I-11.8025 J10.995
G2 X-56.3349 Y-21.6425 I-13.1394 J14.7234
G3 X-56.3417 Y-21.6479 I3.105 J-3.919
G2 X-57.0086 Y-22.1511 I-10.2308 J12.8664
G3 X-57.013 Y-22.1542 I2.9091 J-4.0666
G2 X-59.2993 Y-23.6086 I-14.2424 J19.8643
G1 X-60.5208 Y-24.292
G1 X-61.5869 Y-24.8823
G1 X-63.4685 Y-25.9175
G3 X-63.8293 Y-26.1157 I31.7789 J-58.2646
G3 X-64.1645 Y-26.3 I25.0704 J-45.9936
G3 X-64.4792 Y-26.4732 I21.4697 J-39.3845
G3 X-64.7745 Y-26.6359 I19.167 J-35.1371
G3 X-65.0473 Y-26.7864 I17.5515 J-32.1405
G3 X-65.5724 Y-27.0767 I21.6076 J-39.6994
G3 X-66.029 Y-27.3301 I19.4275 J-35.5489
G3 X-66.429 Y-27.5528 I17.9948 J-32.7827
G3 X-66.7794 Y-27.7487 I17.0078 J-30.8415
G3 X-67.0826 Y-27.9187 I16.3111 J-29.4416
G3 X-67.6256 Y-28.2247 I21.4836 J-38.7518
G3 X-68.0295 Y-28.4538 I20.838 J-37.2112
G3 X-69.2505 Y-29.1548 I49.3716 J-87.4147
G3 X-69.2666 Y-29.1642 I2.5197 J-4.3187
G1 X-69.5929 Y-29.3562
G3 X-69.6437 Y-29.3866 I2.5358 J-4.3093
G1 X-69.9474 Y-29.5701
G3 X-69.9903 Y-29.5964 I2.5867 J-4.2789
G1 X-70.2733 Y-29.7713
G3 X-70.3094 Y-29.7939 I2.6296 J-4.2527
G1 X-70.5732 Y-29.9601
G3 X-70.6062 Y-29.9811 I2.6657 J-4.2301
G3 X-70.9312 Y-30.1906 I42.2708 J-65.9306
G3 X-72.5599 Y-28.708 I-6.8966 J-5.9403
G3 X-72.5746 Y-28.6976 I-2.8938 J-4.0775
G3 X-77.1371 Y-27.0522 I-5.2834 J-7.5019
G3 X-78.8255 Y-27.1123 I-0.5921 J-7.1187
G1 X-78.8257
G1 X-78.8252 Y-27.1122
G3 X-78.8255 Y-27.1123 I1.0317 J-6.6458
G3 X-81.6201 Y-28.2274 I1.032 J-6.6458
G3 X-81.6864 Y-28.274 I2.8449 J-4.1118
G3 X-83.5147 Y-30.2094 I4.0544 J-5.6614
G3 X-83.5807 Y-30.3137 I5.7933 J-3.7401
G3 X-83.6322 Y-30.3958 I5.7758 J-3.6755
G3 X-83.6828 Y-30.4772 I5.749 J-3.6351
G3 X-83.7326 Y-30.5577 I5.7261 J-3.5971
G3 X-83.7949 Y-30.6595 I5.7066 J-3.5612
G3 X-84.5205 Y-31.918 I21.5863 J-13.2847
G3 X-84.6278 Y-32.1189 I6.2157 J-3.4499
G3 X-85.6048 Y-34.2506 I17.8042 J-9.4492
G3 X-85.6113 Y-34.2674 I4.6589 J-1.8152
G3 X-85.8233 Y-34.8464 I16.9406 J-6.5304
G3 X-86.3539 Y-36.731 I15.0796 J-5.2626
G3 X-86.3751 Y-40.394 I8.6323 J-1.8816
G3 X-86.3517 Y-40.5069 I7.4406 J1.4811
G3 X-87.7018 Y-40.9447 I3.6158 J-13.4501
G3 X-91.311 Y-43.045 I4.591 J-12.0406
G3 X-92.8013 Y-44.4865 I8.2977 J-10.0694
G3 X-94.0032 Y-46.0569 I10.5777 J-9.3403
G3 X-95.187 Y-47.9009 I66.0242 J-43.6889
G3 X-97.1334 Y-51.2218 I59.5194 J-37.1164
G3 X-97.2486 Y-51.4323 I9.3583 J-5.2577
G3 X-98.5603 Y-53.9734 I55.3318 J-30.1714
G1 X-98.5605 Y-53.9738
G3 X-98.9774 Y-54.8469 I52.6685 J-25.6854
G1 Y14.1313
G0 Z3.0
G0 X-39.8649 Y-144.9473
G0 Z1.4
G1 F300.0 Z0.0
G3 F800.0 X-38.4463 Y-147.5646 I336.5366 J180.7184
G1 X-38.4454 Y-147.5662
G3 X-38.0915 Y-148.212 I507.5872 J277.7664
G1 X-40.1777
G3 X-40.1534 Y-147.9555 I-599.6664 J56.836
G3 X-39.9915 Y-146.2654 I-552.5042 J53.7904
G3 X-39.8649 Y-144.9473 I-513.7799 J49.991
G0 Z3.0
G0 X-44.8427 Y-144.4759
G0 Z1.4
G1 F300.0 Z0.0
G2 F800.0 X-44.9687 Y-145.7887 I-508.9287 J48.2014
G2 X-45.1306 Y-147.4785 I-547.6889 J51.6236
G2 X-45.3034 Y-149.2806 I-594.7135 J56.1025
G2 X-45.4891 Y-151.2169 I-653.1652 J61.6629
G1 Y-151.2173
G1 X-45.489 Y-151.2166
G1 X-45.4891 Y-151.2169
G3 X-45.6804 Y-153.212 I707.8874 J-68.8978
G1 X-29.5704
G1 X-30.0827 Y-152.3087
G2 X-30.0901 Y-152.2956 I8.6985 J4.9332
G2 X-31.7965 Y-149.261 I707.4215 J399.7901
G2 X-31.8026 Y-149.25 I8.7269 J4.8827
G2 X-34.0592 Y-145.1659 I500.9445 J279.4503
G1 X-34.0598 Y-145.1649
G2 X-37.0184 Y-139.6486 I330.7314 J180.936
G2 X-37.2123 Y-139.2794 I45.6177 J24.1966
G2 X-37.4106 Y-138.9006 I43.5777 J23.0453
G2 X-41.3206 Y-131.1636 I275.8615 J144.2678
G1 X-41.3208 Y-131.1631
G2 X-43.2047 Y-127.2108 I214.884 J104.8506
G2 X-43.2483 Y-127.6693 I-460.3903 J43.5
G2 X-43.3452 Y-128.7028 I-348.6073 J32.169
G2 X-43.4564 Y-129.8867 I-370.8754 J34.2543
G2 X-43.5839 Y-131.2396 I-395.5359 J36.5722
G2 X-43.7298 Y-132.7856 I-423.2826 J39.1864
G2 X-43.8971 Y-134.5521 I-455.1115 J42.1916
G2 X-44.089 Y-136.5738 I-492.4876 J45.7268
G2 X-44.1911 Y-137.6474 I-368.1085 J34.468
G2 X-44.3004 Y-138.7955 I-384.8288 J36.0656
G2 X-44.4171 Y-140.0199 I-403.5119 J37.8537
G2 X-44.5418 Y-141.3259 I-424.5955 J39.8708
G2 X-44.6749 Y-142.7188 I-448.6463 J42.1705
G2 X-44.817 Y-144.2043 I-476.4218 J44.8243
G2 X-44.8427 Y-144.4759 I-508.9544 J47.9299
G0 Z3.0
G0 X-49.8204 Y-144.0044
G0 Z1.4
G1 F300.0 Z0.0
G3 F800.0 X-49.7943 Y-143.728 I-503.951 J47.73
G3 X-49.6522 Y-142.2429 I-471.3024 J45.8335
G3 X-49.5192 Y-140.8506 I-443.5359 J43.0875
G3 X-49.3946 Y-139.5452 I-419.4934 J40.7014
G3 X-49.2779 Y-138.3213 I-398.4177 J38.6034
G3 X-49.1686 Y-137.1738 I-379.742 J36.7395
G3 X-49.0664 Y-136.0994 I-363.0288 J35.068
G3 X-48.8748 Y-134.0805 I-487.3182 J47.2741
G3 X-48.7077 Y-132.3152 I-449.9666 J43.4866
G3 X-48.5618 Y-130.7705 I-418.1588 J40.2621
G3 X-48.4345 Y-129.4187 I-390.4306 J37.456
G3 X-48.3233 Y-128.2358 I-365.7861 J34.9701
G3 X-48.2264 Y-127.202 I-343.5322 J32.7355
G3 X-48.0569 Y-125.3888 I-455.3686 J43.4912
G3 X-47.9304 Y-124.0313 I-400.6102 J38.0124
G3 X-47.7411 Y-121.992 I-498.9736 J47.3377
G3 X-47.5521 Y-119.9449 I-517.458 J48.808
G3 X-47.5499 Y-119.9192 I-4.9797 J0.4498
G1 X-47.5083 Y-119.4305
G3 X-47.5033 Y-119.3678 I-4.982 J0.4241
G1 X-47.4701 Y-118.9091
G3 X-47.4665 Y-118.8558 I-4.9869 J0.3614
G1 X-47.4399 Y-118.4255
G3 X-47.4373 Y-118.3804 I-4.9905 J0.3081
G1 X-47.4161 Y-117.9768
G3 X-47.4142 Y-117.9388 I-4.9931 J0.263
G1 X-47.4117 Y-117.8826
G1 X-47.2314 Y-117.9462
G3 X-47.1834 Y-117.9628 I1.6627 J4.7154
G1 X-46.688 Y-118.1319
G3 X-46.6479 Y-118.1454 I1.6146 J4.7321
G1 X-46.2132 Y-118.2896
G3 X-46.1961 Y-118.2952 I1.5746 J4.7456
G1 X-45.8153 Y-118.4201
G3 X-45.7762 Y-118.4327 I1.5575 J4.7512
G2 X-45.6828 Y-118.4633 I-1.934 J-6.0676
G3 X-45.5939 Y-118.4922 I1.5918 J4.7399
G2 X-45.5469 Y-118.5076 I-0.6449 J-2.0465
G3 X-45.4778 Y-118.5306 I1.6121 J4.733
G2 X-44.4254 Y-118.8863 I-14.0493 J-43.3032
G3 X-44.3705 Y-118.9052 I1.6586 J4.7169
G3 X-44.2569 Y-118.9461 I1.7489 J4.6841
G3 X-44.1592 Y-118.9817 I1.7622 J4.6792
G3 X-44.075 Y-119.0128 I1.7753 J4.6742
G3 X-43.9688 Y-119.0521 I1.788 J4.6694
G3 X-43.8531 Y-119.0966 I1.8509 J4.6448
G3 X-43.7468 Y-119.1378 I1.8616 J4.6405
G2 X-43.7172 Y-119.1495 I-0.3267 J-0.8714
G3 X-43.6382 Y-119.1815 I1.9147 J4.6189
G2 X-43.5439 Y-119.2198 I-1.8602 J-4.7127
G2 X-42.9204 Y-119.5433 I-1.6527 J-3.9476
G2 X-42.3131 Y-119.9961 I-2.6927 J-4.2454
G2 X-38.9388 Y-124.5249 I-8.9734 J-10.2073
G3 X-38.9348 Y-124.5337 I4.5427 J2.0891
G3 X-36.8272 Y-128.9705 I212.4979 J98.2212
G1 X-36.8271 Y-128.9707
G3 X-32.9751 Y-136.5927 I275.2781 J134.338
G3 X-32.7844 Y-136.957 I39.3404 J20.3586
G3 X-32.5971 Y-137.3136 I41.3836 J21.505
G3 X-29.6733 Y-142.7651 I329.2687 J173.0848
G1 X-29.673 Y-142.7657
G3 X-27.4361 Y-146.8142 I498.8148 J272.9659
G3 X-27.433 Y-146.8197 I4.3665 J2.4359
G3 X-25.7372 Y-149.8355 I704.7644 J394.3142
G3 X-25.7335 Y-149.8421 I4.353 J2.46
G1 X-25.0973 Y-150.9637
G3 X-25.0916 Y-150.9739 I4.3492 J2.4666
G1 X-23.9738 Y-152.9341
G3 X-23.9683 Y-152.9438 I4.3435 J2.4767
G1 X-23.1267 Y-154.4121
G3 X-23.1218 Y-154.4205 I4.3379 J2.4864
G1 X-21.8552 Y-156.6205
G3 X-21.8508 Y-156.6281 I4.3331 J2.4948
G1 X-20.9352 Y-158.212
G1 X-51.1828
G2 X-51.0948 Y-157.2982 I1162.2721 J-111.4844
G3 X-51.0937 Y-157.2875 I-4.9768 J0.4813
G2 X-50.8715 Y-154.9672 I951.9306 J-89.9949
G3 X-50.8703 Y-154.9548 I-4.9766 J0.4827
G2 X-50.662 Y-152.7815 I812.5666 J-76.7879
G3 X-50.6607 Y-152.768 I-4.9765 J0.4837
G2 X-50.4655 Y-150.7324 I713.0591 J-67.3467
G1 Y-150.7322
G1 X-50.4656 Y-150.7326
G1 X-50.4655 Y-150.7324
G3 X-50.2805 Y-148.8033 I-648.003 J63.1146
G3 X-50.1078 Y-147.0014 I-589.5636 J57.4274
G3 X-49.9459 Y-145.3119 I-542.5498 J52.8363
G3 X-49.8204 Y-144.0044 I-503.8254 J49.0375
G0 Z3.0
G0 X64.528 Y-74.0002
G0 Z1.4
G1 F300.0 Z0.0
G1 F800.0 Y-55.7948
G1 X63.5053 Y-57.2016
G1 X62.7703 Y-58.2203
G2 X62.7108 Y-58.3027 I-32.438 J23.4046
G3 X62.6659 Y-58.3654 I4.7008 J-3.4099
G2 X62.422 Y-58.7073 I-32.6874 J23.055
G2 X62.1873 Y-59.0399 I-32.7955 J22.901
G2 X61.9556 Y-59.3681 I-32.7946 J22.9023
G3 X61.9549 Y-59.3691 I0.0759 J-0.0542
G2 X61.6949 Y-59.7397 I-32.8732 J22.7893
G3 X61.5629 Y-59.928 I15.2777 J-10.8493
G2 X61.4378 Y-60.1078 I-32.895 J22.7579
G1 X60.8866 Y-60.8952
G2 X60.849 Y-60.9489 I-32.7699 J22.9376
G1 X60.1124 Y-61.9975
G2 X60.0261 Y-62.1199 I-32.7323 J22.9913
G1 X59.603 Y-62.7176
G2 X59.4959 Y-62.868 I-32.646 J23.1137
G1 X59.4826 Y-62.8866
G2 X61.704 Y-66.8467 I-37.4334 J-23.6003
G2 X61.7133 Y-66.8656 I-35.8445 J-17.7531
G2 X63.8415 Y-71.9089 I-40.8924 J-20.2263
G2 X64.528 Y-74.0002 I-46.4751 J-16.4152
G0 Z3.0
G0 X59.7438 Y-75.4533
G0 Z1.4
G1 F300.0 Z0.0
G3 F800.0 X59.1267 Y-73.5735 I-42.3775 J-12.8709
G3 X57.2316 Y-69.0824 I-38.3058 J-13.5184
G3 X57.2234 Y-69.0658 I-31.3721 J-15.5174
G3 X54.4425 Y-64.3196 I-35.1742 J-17.4211
G3 X53.3985 Y-62.8673 I-31.7156 J-21.699
G2 X53.6657 Y-62.4368 I13.3622 J-7.9984
G2 X53.8948 Y-62.0928 I13.4311 J-8.6951
G1 X53.9188 Y-62.0581
G1 X54.0113 Y-61.9256
G2 X54.126 Y-61.7658 I10.6721 J-7.5411
G3 X54.9439 Y-60.6379 I-81.5169 J59.9711
G1 X55.4286 Y-59.96
G3 X55.5222 Y-59.8283 I-28.4716 J20.3561
G1 X55.9454 Y-59.2307
G3 X56.0209 Y-59.1236 I-28.5652 J20.2245
G1 X56.7575 Y-58.0749
G3 X56.7904 Y-58.028 I-28.6407 J20.1174
G1 X57.3415 Y-57.2406
G3 X57.451 Y-57.0833 I-28.6737 J20.0704
G2 X57.6182 Y-56.8447 I19.5216 J-13.5057
G3 X57.8457 Y-56.5205 I-28.5365 J20.2649
G2 X57.8853 Y-56.4643 I4.1858 J-2.9018
G3 X58.1024 Y-56.1563 I-28.4926 J20.3267
G3 X58.3246 Y-55.8418 I-28.4759 J20.35
G2 X58.3645 Y-55.7856 I3.6713 J-2.5631
G3 X58.58 Y-55.4835 I-28.386 J20.4752
G2 X58.6635 Y-55.3668 I8.8316 J-6.2291
G3 X58.7156 Y-55.2947 I-28.3311 J20.5511
G1 X59.4558 Y-54.2689
G1 X60.7847 Y-52.4407
G3 X60.8205 Y-52.3913 I-28.3107 J20.5792
G2 X61.1907 Y-51.8834 I83.8817 J-60.7508
G3 X61.7181 Y-51.1608 I-93.4277 J68.7437
G3 X62.1259 Y-50.601 I-77.9049 J57.1726
G3 X62.4865 Y-50.1052 I-69.6035 J51.0006
G3 X62.8373 Y-49.6217 I-64.3404 J47.0461
G3 X65.1054 Y-46.4621 I-271.9535 J197.6181
G3 X65.1363 Y-46.4184 I-28.5501 J20.2457
G1 X65.7925 Y-45.4901
G3 X65.8502 Y-45.4081 I-28.5811 J20.202
G1 X66.422 Y-44.5942
G3 X66.4815 Y-44.5094 I-28.6389 J20.12
G1 X66.9797 Y-43.7957
G3 X66.9897 Y-43.7813 I-28.6983 J20.0352
G3 X67.4669 Y-43.0939 I-157.0893 J109.5517
G3 X67.9249 Y-42.4303 I-72.214 J50.335
G3 X68.3132 Y-41.8642 I-60.2843 J41.7629
G3 X68.7119 Y-41.2786 I-54.6313 J37.6223
G3 X69.528 Y-40.0686 I-185.2861 J125.8444
G1 Y-128.212
G1 X68.9271
G3 X68.215 Y-125.3343 I-34.8289 J-7.0909
G3 X68.1497 Y-125.1135 I-33.5953 J-9.8162
G3 X63.3199 Y-115.0342 I-34.458 J-10.3147
G3 X62.5965 Y-109.9357 I-108.2183 J-12.754
G3 X62.5324 Y-109.5522 I-37.9173 J-6.1431
G3 X62.4679 Y-109.1822 I-37.8893 J-6.4128
G3 X61.9829 Y-106.6044 I-103.8129 J-18.1961
G3 X61.8688 Y-106.043 I-39.8165 J-7.8022
G3 X61.7535 Y-105.5013 I-39.8671 J-8.1993
G3 X61.2373 Y-103.224 I-103.1713 J-22.1906
G3 X61.2328 Y-103.2049 I-34.0463 J-8.1149
G3 X60.0064 Y-98.6152 I-87.0266 J-20.7945
G3 X60.7744 Y-95.6342 I-35.5733 J10.754
G3 X61.6137 Y-87.9019 I-37.0186 J7.9299
G3 X61.5266 Y-85.062 I-38.5847 J0.2377
G3 X61.4277 Y-83.8608 I-37.7382 J-2.5032
G3 X61.2282 Y-82.1884 I-36.7536 J-3.5364
G3 X59.7438 Y-75.4533 I-43.8618 J-6.1358
G0 Z3.0
G0 X54.9596 Y-76.9063
G0 Z1.4
G1 F300.0 Z0.0
G2 F800.0 X56.2773 Y-82.8874 I-37.5933 J-11.4178
G2 X56.4512 Y-84.3451 I-31.6032 J-4.5097
G2 X56.5378 Y-85.396 I-32.6628 J-3.2201
G2 X56.6138 Y-87.8734 I-33.5087 J-2.2681
G2 X55.8852 Y-94.5876 I-32.858 J0.1692
G2 X54.7629 Y-98.5654 I-31.452 J6.7264
G2 X56.3697 Y-104.3669 I-80.5568 J-25.4339
G2 X56.3736 Y-104.3833 I-29.1786 J-6.972
G2 X56.8678 Y-106.5641 I-97.7913 J-23.3086
G2 X56.9737 Y-107.062 I-34.8661 J-7.6782
G2 X57.0786 Y-107.5777 I-34.8073 J-7.3447
G2 X57.5447 Y-110.0553 I-98.4235 J-19.8006
G2 X57.6038 Y-110.3942 I-32.9016 J-5.9097
G2 X57.6624 Y-110.7449 I-32.9245 J-5.6846
G2 X58.4812 Y-116.7498 I-102.5608 J-17.0433
G1 X58.5339 Y-116.9366
G2 X58.7726 Y-117.2621 I-25.9799 J-19.3073
G2 X63.3597 Y-126.5474 I-25.0808 J-18.1662
G2 X63.4157 Y-126.7366 I-28.74 J-8.6031
G2 X64.5699 Y-133.212 I-29.3175 J-8.5662
G1 X74.528
G1 Y-23.5987
G2 X71.1422 Y-27.174 I-24.078 J19.4106
G3 X70.9543 Y-27.4957 I44.37 J-26.1412
