( Made using CamBam - http://www.cambam.co.uk )
( Untitled 1/7/2014 9:26:22 AM )
( T0 : 0.0 )
G21 G90 G64 G40
G0 Z5.0
( T0 : 0.0 )
T0 M6
( 240-280 )
G17
M3 S1000
G0 X123.3542 Y50.6424
G1 F2000.0 Z0.0
G2 X124.479 Y51.8189 I19.8978 J-17.8966
G3 X123.8134 Y52.3168 I-6.7956 J-8.3902
G2 X123.3709 Y50.6927 I-15.7272 J3.4123
G2 X123.3671 Y50.6812 I-3.7991 J1.2518
G2 X123.3542 Y50.6424 I-32.8781 J10.9436
G0 Z5.0
G0 X121.4573 Y51.2762
G1 Z0.0
G3 X121.4695 Y51.3129 I-30.9683 J10.3485
G3 X121.4714 Y51.3186 I-1.8976 J0.6316
G3 X122.0278 Y53.6679 I-13.3852 J4.4105
G3 X122.0311 Y55.7162 I-5.9457 J1.0338
G2 X122.2888 Y55.5775 I-2.1498 J-4.3037
G3 X122.357 Y55.5399 I1.0009 J1.7316
G2 X124.6137 Y54.1872 I-11.1973 J-21.2402
G3 X124.6462 Y54.1657 I1.1207 J1.6565
G2 X126.4422 Y52.7586 I-6.9628 J-10.737
G2 X126.9885 Y52.0957 I-2.4178 J-2.5492
G3 X127.022 Y52.0447 I1.6873 J1.0738
G2 X127.0233 Y52.0421 I-0.0079 J-0.0054
G2 X126.3489 Y50.834 I-1.8507 J0.2409
G3 X126.2349 Y50.7341 I1.2605 J-1.5528
G3 X123.5819 Y47.7873 I17.0171 J-17.9884
G3 X121.8299 Y45.5313 I95.6413 J-76.0808
G1 X119.875
G1 Y43.1001
G2 X116.0405 Y39.1783 I-34.4472 J29.8445
G3 X116.0284 Y39.1672 I1.3433 J-1.4817
G2 X111.4377 Y35.1678 I-73.7548 J80.0256
G3 X115.2486 Y39.8971 I-65.9821 J57.069
G3 X119.7906 Y47.2184 I-36.7327 J27.8579
G3 X119.7951 Y47.2275 I-1.7906 J0.8909
G3 X121.4573 Y51.2762 I-29.3061 J14.3973
G0 Z5.0
G0 X119.5604 Y51.9101
G1 Z0.0
G2 X118.0 Y48.1094 I-29.0714 J9.7147
G2 X113.6518 Y41.1014 I-39.4842 J19.6456
G2 X108.3906 Y34.75 I-68.1962 J51.1355
G3 X105.2022 Y31.1184 I98.7361 J-89.9023
G3 X102.3609 Y27.2091 I18.0638 J-16.1159
G3 X102.2969 Y26.5469 I0.6131 J-0.3935
G3 X102.986 Y26.5956 I0.2933 J0.7496
G3 X103.6103 Y26.8915 I-2.1674 J5.3788
G3 X104.7728 Y27.5933 I-8.0831 J14.7046
G3 X106.9742 Y29.1358 I-26.8397 J40.643
G3 X110.1425 Y31.5616 I-83.5326 J112.3857
G3 X121.4005 Y24.2874 I2676.5891 J4130.141
G2 X119.1719 Y22.0938 I-100.069 J99.433
G2 X104.6406 Y10.1406 I-76.2548 J77.8926
G3 X98.1218 Y5.4001 I47.3815 J-72.0078
G3 X97.375 Y4.5156 I1.5576 J-2.0727
G3 X97.5784 Y4.3776 I0.1765 J0.0411
G3 X97.8241 Y4.3864 I0.0755 J1.3164
G3 X98.2835 Y4.4714 I-0.5268 J4.1329
G3 X99.1591 Y4.718 I-2.9584 J12.1843
G3 X100.8545 Y5.3092 I-10.8934 J33.9633
G3 X104.1719 Y6.625 I-35.8929 J95.3331
G3 X118.7031 Y15.0625 I-28.9079 J66.5175
G3 X126.1442 Y21.2354 I-55.0044 J73.8764
G3 X141.8064 Y11.2129 I2660.5874 J4140.4672
G3 X152.6875 Y4.5156 I165.5081 J256.7146
G3 X159.25 Y2.875 I6.7223 J12.944
G3 X164.5842 Y3.626 I-1.1004 J27.1358
G3 X169.7969 Y4.9844 I-19.159 J84.2013
G3 X173.1193 Y6.014 I-23.6367 J82.1511
G3 X176.3414 Y7.3243 I-6.387 J20.3225
G3 X177.0625 Y8.0313 I-0.52 J1.2516
G3 X176.3967 Y8.5353 I-0.989 J-0.6147
G3 X175.6141 Y8.8265 I-3.6919 J-8.7247
G3 X174.0271 Y9.2868 I-8.5608 J-26.551
G3 X170.8297 Y10.0396 I-19.9102 J-77.3959
G3 X164.4063 Y11.3125 I-46.9118 J-219.8851
G2 X141.6719 Y18.3438 I16.4411 J93.429
G2 X129.4652 Y24.4566 I143.7076 J302.2132
G3 X133.9375 Y29.3594 I-65.7665 J64.4823
G2 X141.0462 Y37.0324 I91.3731 J-77.5235
G2 X143.7813 Y39.2031 I10.3835 J-10.2746
G3 X145.2298 Y40.0984 I-3.5392 J7.346
G3 X146.125 Y41.5469 I-1.1229 J1.6949
G3 X145.6532 Y42.6868 I-2.2371 J-0.2582
G3 X144.8648 Y43.6358 I-6.9115 J-4.9403
G3 X143.0781 Y45.2969 I-16.2424 J-15.6792
G3 X140.9909 Y46.9237 I-18.7298 J-21.8776
G3 X138.625 Y48.1094 I-4.2681 J-5.5634
G3 X136.9736 Y47.8561 I-0.4104 J-2.8346
G3 X135.5781 Y46.9375 I2.5061 J-5.3264
G2 X132.6399 Y45.7636 I-3.7051 J5.0097
G2 X129.4844 Y45.5313 I-2.9638 J18.7071
G1 X124.3516
G2 X125.1592 Y46.5575 I94.8715 J-73.8248
G2 X127.6094 Y49.2813 I18.0929 J-13.8118
G3 X129.0156 Y51.8594 I-2.4368 J3.0017
G3 X128.6758 Y53.1695 I-2.0015 J0.18
G3 X127.8145 Y54.2135 I-4.6514 J-2.9601
G3 X125.7344 Y55.8438 I-10.1311 J-10.7848
G3 X123.2896 Y57.3091 I-14.5747 J-21.5441
G3 X120.5781 Y58.1875 I-3.4083 J-5.8966
G3 X119.5344 Y57.3635 I-0.1834 J-0.8407
G3 X119.875 Y56.0781 I3.3145 J0.1904
G2 X120.0532 Y53.9871 I-3.7929 J-1.3764
G2 X119.5719 Y51.9445 I-11.967 J1.742
G2 X119.5604 Y51.9101 I-29.0829 J9.6803
G0 Z5.0
G0 X121.3816 Y41.7848
G1 Z0.0
G2 X117.3838 Y37.6965 I-35.9538 J31.1598
G2 X112.671 Y33.5926 I-75.1102 J81.4963
G3 X124.2538 Y27.2439 I455.4844 J817.2725
G3 X124.8132 Y27.8442 I-102.9224 J96.4765
G3 X129.9531 Y34.0469 I-48.9325 J45.7793
G3 X131.8958 Y37.0091 I-31.0115 J22.4555
G3 X132.7051 Y38.6077 I-11.9978 J7.0782
G3 X133.0 Y40.375 I-2.6433 J1.3494
G3 X132.3122 Y40.8862 I-0.9851 J-0.6072
G3 X129.2374 Y41.4552 I-4.0844 J-13.4782
G3 X121.3816 Y41.7848 I-8.3619 J-105.5326
G0 Z5.0
G0 X120.9231 Y14.0325
G1 Z0.0
G3 X119.6406 Y13.6563 I-0.0371 J-2.2471
G3 X119.2699 Y12.0397 I0.8352 J-1.0424
G3 X120.1094 Y10.6094 I4.9505 J1.9441
G2 X121.5615 Y6.8669 I-7.5453 J-5.0806
G2 X121.9401 Y3.7725 I-27.3137 J-4.9117
G2 X105.8125 Y0.5313 I-917.4589 J4523.3129
G3 X106.4641 Y-1.3924 I5.3383 J0.7361
G3 X108.1563 Y-2.5156 I1.9573 J1.1124
G3 X112.8438 I2.3438 J23.6164
G3 X121.182 Y-1.2158 I-18.2824 J144.6729
G3 X122.0622 Y-1.0593 I-154.4752 J871.392
G2 X122.1662 Y-8.2821 I-1034.519 J-18.5002
G3 X107.2188 Y-11.6563 I603.6087 J-2708.7363
G3 X110.2656 Y-14.0 I5.0376 J3.3965
G3 X113.7813 Y-14.2344 I2.3281 J8.4368
G3 X122.2055 Y-12.796 I-88.3045 J542.5815
G2 X122.2275 Y-20.147 I-1034.6623 J-6.7634
G3 X121.0469 Y-20.3281 I84.0818 J-551.9174
G1 X96.6719 Y-24.0781
G2 X91.0469 Y-24.7813 I-10.2254 J58.9516
G3 X90.3136 Y-24.8872 I-0.0639 J-2.1479
G3 X89.875 Y-25.4844 I0.1643 J-0.5803
G3 X90.3368 Y-26.1635 I1.0632 J0.2264
G3 X91.015 Y-26.6268 I3.4146 J4.271
G3 X92.4531 Y-27.3594 I7.7845 J13.5032
G3 X96.9063 Y-28.5313 I5.0553 J10.1633
G3 X101.145 Y-28.025 I-3.8415 J50.1663
G3 X105.3626 Y-27.3655 I-44.082 J295.7103
G3 X113.7813 Y-25.9531 I-143.9154 J883.6224
G2 X122.2182 Y-24.6931 I29.7497 J-170.316
G3 X122.3577 Y-38.0343 I635.9301 J-0.0213
G3 X123.1563 Y-52.2031 I160.2846 J1.9271
G3 X123.6857 Y-55.7268 I73.8116 J9.2881
G3 X124.644 Y-59.1588 I13.1431 J1.8202
G3 X125.0313 Y-59.4688 I0.5047 J0.2337
G3 X125.4227 Y-59.1419 I-0.1307 J0.5543
G3 X125.6392 Y-58.6802 I-2.664 J1.5311
G3 X125.9343 Y-57.7291 I-8.544 J3.1718
G3 X126.3405 Y-55.8117 I-25.7252 J6.4525
G3 X126.9063 Y-51.9688 I-75.0992 J13.0182
G3 X128.0781 Y-33.2188 I-189.297 J21.2427
G3 X128.2282 Y-24.053 I-1120.0058 J22.92
G2 X143.0781 Y-23.375 I15.3028 J-172.2162
G3 X156.2158 Y-23.1595 I1.8763 J286.2168
G3 X158.0781 Y-22.9063 I-0.1873 J8.3506
G3 X158.5 Y-22.0068 I-0.5847 J0.8229
G3 X158.3125 Y-21.0313 I-3.2045 J-0.1101
G3 X157.2536 Y-19.512 I-3.4499 J-1.2759
G3 X155.7344 Y-18.4531 I-5.3888 J-6.1122
G3 X151.5725 Y-17.4577 I-4.8128 J-10.9239
G3 X147.2969 Y-17.2813 I-4.0147 J-45.3961
G3 X140.6994 Y-17.7037 I1.4299 J-74.0576
G3 X134.1324 Y-18.4643 I23.921 J-235.271
G3 X128.2768 Y-19.2593 I72.1769 J-553.6001
G3 X128.3118 Y-11.6795 I-1120.2045 J8.9605
G3 X137.584 Y-9.709 I-31.0865 J169.0825
G3 X140.9688 Y-8.6094 I-4.7578 J20.4035
G3 X142.9113 Y-7.3964 I-3.9284 J8.4533
G3 X143.3125 Y-6.7344 I-0.6445 J0.8431
G3 X142.9042 Y-6.1474 I-0.8129 J-0.13
G3 X142.279 Y-5.8006 I-2.1122 J-3.07
G3 X140.9688 Y-5.3281 I-4.3427 J-9.9909
G3 X139.0659 Y-5.1996 I-1.3979 J-6.5467
G3 X137.1655 Y-5.3594 I1.265 J-26.4195
G3 X133.4047 Y-5.9275 I8.0622 J-66.102
G3 X128.322 Y-6.9243 I32.0548 J-176.923
G2 X128.4121 Y-1.8014 I279.2483 J-2.3531
G2 X128.4655 Y0.1068 I63.6269 J-0.8237
G3 X129.4844 Y0.2969 I-161.7587 J870.0694
G3 X139.3986 Y2.402 I-28.2558 J157.4751
G3 X142.6133 Y3.4487 I-4.9677 J20.7149
G3 X143.3125 Y4.0469 I-0.3698 J1.14
G3 X142.6583 Y5.2677 I-1.5529 J-0.0464
G3 X141.4375 Y5.9219 I-2.696 J-3.5652
G3 X137.6875 Y6.625 I-3.8008 J-9.9192
G3 X133.9165 Y6.1737 I1.3272 J-27.0734
G3 X130.1875 Y5.4531 I19.8987 J-112.9769
G2 X128.8882 Y5.1873 I-925.7063 J4521.6322
G2 X129.0156 Y6.1563 I63.1509 J-7.8124
G3 X129.3995 Y8.4851 I-46.0843 J8.7921
G3 X129.4844 Y10.8438 I-8.4907 J1.4865
G3 X128.557 Y11.7303 I-1.7818 J-0.9356
G3 X127.4072 Y12.2994 I-5.387 J-9.4371
G3 X125.0313 Y13.1875 I-11.7584 J-27.8358
G3 X120.9866 Y14.0306 I-4.812 J-12.9617
G3 X120.9231 Y14.0325 I-0.1006 J-2.2452
G0 Z5.0
M5
M30
