( Made using CamBam - http://www.cambam.co.uk )
( Untitled 1/7/2014 9:26:11 AM )
( T0 : 0.0 )
G21 G90 G64 G40
G0 Z5.0
( T0 : 0.0 )
T0 M6
( 239-160 )
G17
M3 S1000
G0 X40.5388 Y39.5861
G1 F2000.0 Z0.0
G3 X38.6193 Y39.7193 I-1.8207 J-12.3414
G3 X33.9795 Y39.21 I1.3123 J-33.3454
G2 X33.9407 Y39.2032 I-0.5351 J2.9519
G3 X29.0098 Y38.2785 I21.6318 J-128.9518
G3 X20.9637 Y36.4972 I65.8361 J-316.4499
G2 X31.7778 Y38.1862 I95.7796 J-577.8005
G3 X39.0379 Y39.3386 I-68.9957 J458.1079
G2 X39.0698 Y39.3437 I0.4938 J-2.9591
G3 X40.5388 Y39.5861 I-12.8252 J82.3056
G0 Z5.0
G0 X40.6848 Y40.5754
G1 Z0.0
G2 X41.6637 Y40.3938 I-1.9666 J-13.3306
G3 X41.6781 Y40.3906 I0.4372 J1.9516
G2 X44.1142 Y39.2663 I-1.3029 J-6.024
G2 X39.2238 Y38.3557 I-17.8696 J82.3831
G3 X39.2025 Y38.3522 I0.3079 J-1.9762
G2 X31.9248 Y37.197 I-76.4205 J457.9418
G3 X12.1031 Y33.9421 I84.8185 J-578.5003
G3 X11.5938 Y34.2813 I-35.1271 J-52.2008
G2 X11.5604 Y33.8431 I-33.535 J2.3324
G3 X9.3514 Y33.4347 I105.1829 J-575.1464
G3 X9.3195 Y33.4285 I0.3673 J-1.966
G2 X4.321 Y32.5741 I-15.9843 J78.4641
G3 X4.2942 Y32.5702 I0.2744 J-1.9811
G2 X-0.4965 Y32.2947 I-3.8611 J25.3462
G2 X-1.883 Y32.4965 I0.524 J8.4607
G3 X-0.0503 Y32.774 I-27.4137 J187.2366
G3 X0.0153 Y32.7854 I-0.3091 J1.976
G3 X9.4943 Y34.819 I-39.7307 J208.2985
G3 X18.8563 Y37.0237 I-292.4878 J1263.0003
G3 X18.8594 Y37.0245 I-0.4657 J1.945
G2 X28.8064 Y39.2576 I75.9865 J-315.1958
G2 X33.7753 Y40.1895 I26.7661 J-129.0061
G3 X33.8011 Y40.194 I-0.3309 J1.9724
G2 X38.5955 Y40.7191 I6.1305 J-33.82
G2 X40.6848 Y40.5754 I0.1227 J-13.4744
G0 Z5.0
G0 X-18.6928 Y34.6584
G1 Z0.0
G3 X-20.9522 Y34.0673 I10.4509 J-44.5624
G2 X-20.9995 Y34.054 I-0.8331 J2.882
G3 X-25.4734 Y32.8119 I105.3709 J-388.2148
G1 X-25.4736
G3 X-34.4399 Y30.2298 I329.1627 J-1159.8731
G2 X-34.445 Y30.2283 I-0.8413 J2.8796
G3 X-40.175 Y28.5319 I156.5452 J-539.3095
G3 X-31.1659 Y30.1395 I-3.8763 J47.7699
G2 X-31.1429 Y30.1459 I0.8066 J-2.8895
G3 X-19.1749 Y34.436 I-20.7838 J76.8174
G3 X-18.6928 Y34.6584 I-18.72 J41.2329
G0 Z5.0
G0 X-18.2687 Y33.7527
G1 Z0.0
G2 X-18.7624 Y33.5251 I-19.6262 J41.9162
G2 X-30.8817 Y29.1806 I-33.1642 J73.4382
G3 X-30.8971 Y29.1764 I0.5223 J-1.9306
G2 X-34.0984 Y28.3979 I-13.1543 J47.1255
G3 X-35.2813 Y29.125 I-64.4006 J-103.4496
G2 X-35.2322 Y28.1763 I-685.6536 J-35.934
G2 X-43.957 Y27.375 I-8.8191 J48.1256
G3 X-43.959 I0.0039 J-2.0
G2 X-47.0525 Y27.4247 I-0.2384 J81.522
G2 X-42.7155 Y28.8046 I35.6706 J-104.6017
G3 X-42.6967 Y28.8103 I-0.567 J1.9179
G2 X-34.7237 Y31.1887 I164.7969 J-537.8915
G3 X-34.7204 Y31.1896 I-0.5575 J1.9207
G2 X-25.7466 Y33.7739 I338.4095 J-1158.2509
G1 X-25.7465
G2 X-21.2614 Y35.0191 I110.1179 J-387.9347
G3 X-21.2299 Y35.0279 I-0.5239 J1.9302
G2 X-17.1217 Y36.0168 I12.9881 J-44.932
G2 X-14.9846 Y35.4934 I-0.698 J-7.4748
G2 X-16.1399 Y34.8164 I-5.6914 J8.3875
G3 X-16.183 Y34.7941 I0.895 J-1.7885
G2 X-18.2687 Y33.7527 I-21.7119 J40.8748
G0 Z5.0
G0 X-17.4206 Y31.9414
G1 Z0.0
G3 X-15.2448 Y33.0278 I-20.4743 J43.7275
G3 X-12.7478 Y34.6923 I-5.4312 J10.8531
G3 X-12.3125 Y35.4531 I-0.8095 J0.9681
G3 X-12.9667 Y36.674 I-1.5529 J-0.0464
G3 X-14.1875 Y37.3281 I-2.696 J-3.5652
G3 X-17.2344 Y38.0313 I-3.6321 J-8.7861
G3 X-21.7853 Y36.9493 I8.9925 J-47.9353
G3 X-26.2926 Y35.6979 I106.1567 J-391.11
G3 X-35.2813 Y33.1094 I329.9817 J-1162.7591
G3 X-43.2825 Y30.7226 I157.3814 J-542.1906
G3 X-51.1963 Y28.0598 I31.9007 J-107.8995
G3 X-52.1563 Y27.4844 I0.7967 J-2.4177
G3 X-51.4531 Y26.0781 I2.0573 J0.1497
G3 X-50.563 Y25.7356 I1.1835 J1.7478
G3 X-49.6202 Y25.5915 I2.1024 J10.6
G3 X-47.7291 Y25.4493 I3.1718 J29.5386
G3 X-43.9531 Y25.375 I3.5318 J83.4476
G3 X-35.1324 Y26.162 I-0.0982 J50.9269
G2 X-34.3449 Y-4.2918 I-685.8025 J-32.9709
G2 X-44.4875 Y-8.8451 I-581.3064 J1281.3067
G2 X-49.5781 Y-10.9531 I-32.7605 J71.9112
G2 X-51.6063 Y-10.8056 I-0.6209 J5.4808
G2 X-53.5625 Y-10.25 I4.4385 J19.347
G3 X-55.4115 Y-9.9894 I-1.4895 J-3.878
G3 X-56.6094 Y-11.4219 I0.2265 J-1.4065
G3 X-56.3198 Y-13.0286 I3.2285 J-0.2475
G3 X-55.4953 Y-14.4377 I6.6667 J2.9548
G3 X-53.3281 Y-16.8125 I13.8922 J10.5015
G3 X-50.6971 Y-18.841 I10.6438 J11.0847
G3 X-47.4688 Y-19.625 I2.6694 J3.9533
G3 X-44.7606 Y-18.3918 I-4.7923 J14.1138
G3 X-42.1735 Y-16.9215 I-41.332 J75.7385
G3 X-37.094 Y-13.8315 I-122.0312 J206.3256
G3 X-27.0781 Y-7.4375 I-352.5593 J563.3036
G3 X-14.0235 Y1.419 I-164.482 J256.4978
G3 X-9.9937 Y4.8027 I-16.6376 J23.9058
G3 X-9.7344 Y5.4531 I-0.5411 J0.5927
G3 X-10.4048 Y5.5786 I-0.4722 J-0.6695
G3 X-11.0765 Y5.4598 I0.6893 J-5.858
G3 X-12.3691 Y5.0984 I4.0067 J-16.8231
G3 X-14.8762 Y4.2141 I15.1481 J-46.9407
G3 X-19.7778 Y2.2274 I50.1424 J-130.7535
G3 X-28.1677 Y-1.4736 I155.7071 J-364.3401
G2 X-27.9186 Y6.5136 I1098.4586 J-30.2632
G2 X-27.3125 Y17.6406 I204.019 J-5.5328
G3 X-26.8438 Y22.7969 I-67.0863 J8.6982
G3 X-27.6285 Y23.8822 I-2.2184 J-0.7776
G3 X-28.6572 Y24.7398 I-10.2537 J-11.2541
G3 X-30.8204 Y26.2838 I-26.2157 J-34.4425
G3 X-31.7328 Y26.8872 I-67.6785 J-101.3354
G3 X-30.3594 Y27.25 I-12.3186 J49.4147
G3 X-17.9375 Y31.7031 I-21.5673 J79.7132
G3 X-17.4206 Y31.9414 I-19.9574 J43.9658
G0 Z5.0
G0 X-6.2799 Y33.3228
G1 Z0.0
G3 X-6.2551 Y33.2164 I0.5094 J0.0632
G3 X-5.5156 Y32.1719 I2.6572 J1.097
G3 X-3.222 Y30.7951 I4.0971 J4.2265
G3 X-0.5938 Y30.2969 I3.2495 J9.9603
G3 X4.5954 Y30.593 I1.0269 J27.6195
G3 X9.7188 Y31.4688 I-11.2602 J81.2996
G2 X11.3234 Y31.7663 I107.0245 J-572.772
G2 X9.9729 Y26.0531 I-33.2647 J4.8473
G2 X6.6719 Y18.3438 I-46.2171 J15.228
G2 X3.4095 Y12.5916 I-85.339 J44.6005
G2 X-0.5938 Y7.3281 I-23.6492 J13.8325
G3 X-2.9353 Y4.8544 I12.322 J-14.009
G3 X-3.4063 Y3.8125 I1.6831 J-1.3881
G3 X-2.6349 Y1.7421 I6.0961 J1.0923
G3 X-1.5313 Y-0.1719 I29.5988 J15.7921
G3 X0.478 Y-2.656 I8.3215 J4.6761
G3 X1.5156 Y-2.9844 I0.8986 J1.036
G3 X4.1859 Y-1.6168 I-3.8362 J10.781
G3 X6.6719 Y0.0625 I-33.8082 J52.729
G2 X15.5781 Y4.5156 I19.4828 J-27.8328
G2 X24.25 Y6.3906 I11.7364 J-33.2895
G2 X26.7941 Y6.3583 I1.085 J-14.7172
G2 X29.1719 Y5.4531 I-0.1975 J-4.0947
G2 X29.8563 Y4.0337 I-2.3634 J-2.0143
G2 X30.0913 Y2.4756 I-9.6377 J-2.2505
G2 X30.1094 Y-0.6406 I-25.1971 J-1.7042
G2 X28.5933 Y-9.7386 I-61.7785 J5.6196
G2 X26.3594 Y-18.6875 I-231.084 J52.9316
G2 X24.5568 Y-25.0198 I-178.8401 J47.4877
G2 X22.3007 Y-31.2051 I-46.7519 J13.5483
G2 X21.2031 Y-32.75 I-3.8865 J1.5989
G2 X19.1145 Y-32.8958 I-1.2756 J3.2402
G2 X17.0846 Y-32.3827 I2.552 J14.3681
G2 X13.2344 Y-30.875 I12.5091 J37.6147
G3 X10.2422 Y-29.6183 I-28.0595 J-62.6203
G3 X7.1411 Y-28.6616 I-6.6471 J-16.0416
G3 X6.2031 Y-28.7656 I-0.3353 J-1.2573
G3 X6.1666 Y-29.2584 I0.4085 J-0.2781
G3 X6.373 Y-29.7074 I2.4229 J0.8424
G3 X6.9051 Y-30.5028 I6.6595 J3.8788
G3 X8.1013 Y-31.9449 I18.1011 J13.7975
G3 X10.6563 Y-34.625 I49.2842 J44.425
G2 X13.1779 Y-37.3713 I-27.9273 J-28.1732
G2 X15.2851 Y-40.4471 I-13.7129 J-11.6547
G2 X16.0469 Y-42.8281 I-5.6573 J-3.1222
G3 X16.512 Y-44.8478 I5.8666 J0.2876
G3 X18.1563 Y-46.1094 I1.8941 J0.7663
G3 X20.0092 Y-45.7026 I0.1273 J3.8442
G3 X21.6764 Y-44.7974 I-5.456 J12.0365
G3 X24.7188 Y-42.5938 I-18.355 J28.5429
G3 X29.6507 Y-36.0994 I-13.185 J15.1328
G3 X32.6875 Y-28.5313 I-44.3221 J22.1782
G3 X37.375 Y-8.6094 I-120.0422 J38.7576
G2 X38.197 Y-3.8294 I84.4367 J-12.0605
G2 X39.565 Y0.8238 I22.2404 J-4.0105
G2 X40.4219 Y1.9375 I2.4648 J-1.0099
G3 X41.8281 Y4.2813 I-0.8513 J2.1045
G3 X40.7283 Y5.8694 I-3.6535 J-1.3554
G3 X39.2825 Y7.1505 I-13.6369 J-13.9334
G3 X36.2031 Y9.4375 I-33.3895 J-41.7408
G3 X31.2525 Y12.5453 I-28.0432 J-39.175
G3 X29.4063 Y13.1875 I-2.6246 J-4.5703
G3 X27.5313 Y12.25 I-0.2182 J-1.9074
G2 X26.7201 Y11.6532 I-1.5385 J1.2415
G2 X25.7898 Y11.2673 I-4.527 J9.5985
G2 X23.8856 Y10.6574 I-9.7078 J27.0342
G2 X20.0313 Y9.6719 I-21.9959 J77.9914
G3 X10.4219 Y7.3281 I80.2125 J-349.7423
G2 X8.7812 Y7.0014 I-2.8312 J9.9328
G2 X7.1406 Y7.3281 I-0.4325 J2.1106
G2 X7.1754 Y8.0458 I0.8301 J0.3195
G2 X7.4532 Y8.7085 I5.9573 J-2.108
G2 X8.1218 Y9.9558 I16.4751 J-8.0285
G2 X9.6047 Y12.3368 I46.2048 J-27.1238
G2 X12.7656 Y16.9375 I125.906 J-83.1183
G3 X15.8368 Y21.4386 I-103.2627 J73.7564
G3 X18.5057 Y26.1893 I-28.1566 J18.9434
G3 X18.8594 Y27.7188 I-3.3154 J1.5722
G3 X18.3077 Y28.8449 I-2.5618 J-0.5567
G3 X17.4729 Y29.7806 I-7.0982 J-5.4925
G3 X15.5984 Y31.4117 I-15.9683 J-16.459
G3 X14.3968 Y32.3231 I-38.6224 J-49.6704
G2 X32.2188 Y35.2188 I102.3465 J-573.6264
G3 X39.5317 Y36.3795 I-69.4367 J461.0753
G3 X46.7923 Y37.8324 I-13.2871 J85.2698
G3 X47.6875 Y38.2656 I-0.3564 J1.8779
G3 X47.2818 Y39.0536 I-1.5315 J-0.2902
G3 X46.6732 Y39.6979 I-5.731 J-4.8037
G3 X45.3438 Y40.8438 I-14.1995 J-15.1303
G3 X42.1009 Y42.3454 I-4.9685 J-6.4771
G3 X38.5469 Y42.7188 I-3.3828 J-15.1007
G3 X33.4444 Y42.1619 I1.3847 J-36.3448
G3 X28.3995 Y41.2158 I22.1281 J-131.9105
G3 X18.3906 Y38.9688 I66.4463 J-319.3871
G2 X9.0366 Y36.766 I-301.3841 J1258.8506
G2 X-0.3594 Y34.75 I-48.752 J204.318
G2 X-5.2813 Y34.0469 I-28.9373 J184.9831
G3 X-5.964 Y33.8614 I0.1926 J-2.0582
G3 X-6.2799 Y33.3228 I0.1935 J-0.4754
G0 Z5.0
G0 X59.2362 Y10.6097
G1 Z0.0
G3 X59.1902 Y10.3518 I0.791 J-0.2742
G3 X59.4248 Y9.53 I1.7896 J0.0666
G3 X60.3438 Y8.2656 I5.7848 J3.2382
G2 X61.4549 Y6.0344 I-4.6499 J-3.7078
G2 X61.9463 Y3.5907 I-15.6641 J-4.4216
G2 X62.2188 Y-1.3438 I-38.7351 J-4.6133
G2 X61.4349 Y-8.8868 I-29.3202 J-0.7653
G2 X60.3438 Y-11.1875 I-6.5525 J1.6985
G3 X59.4068 Y-13.6484 I2.879 J-2.505
G3 X60.3438 Y-16.1094 I4.3688 J0.2545
G3 X62.2419 Y-18.1808 I7.9126 J5.3452
G3 X63.1563 Y-18.4531 I0.7756 J0.9329
G3 X64.7711 Y-17.5304 I-1.9066 J5.2112
G3 X66.2031 Y-16.3438 I-14.2137 J18.6098
G2 X69.0908 Y-14.4724 I11.3435 J-14.3404
G2 X72.1497 Y-12.8963 I34.5234 J-63.2458
G2 X78.3906 Y-10.0156 I79.5793 J-164.2078
G2 X87.017 Y-6.5978 I45.1343 J-101.3224
G2 X93.2353 Y-4.7553 I21.3276 J-60.5636
G3 X93.2758 Y-5.4268 I54.3111 J2.9411
G3 X93.9842 Y-9.2115 I12.9095 J0.4575
G3 X94.7969 Y-10.0156 I1.1818 J0.3818
G3 X96.3834 Y-9.4216 I0.2874 J1.6482
G3 X97.1406 Y-7.9063 I-3.2621 J2.577
G3 X98.0781 Y-1.8125 I-27.5122 J7.3516
G2 X98.63 Y4.5608 I203.1102 J-14.3773
G3 X99.1591 Y4.718 I-3.3049 J12.095
G3 X100.8545 Y5.3092 I-10.8934 J33.9633
G3 X104.1719 Y6.625 I-35.8929 J95.3331
G3 X118.7031 Y15.0625 I-28.9079 J66.5175
G3 X126.1442 Y21.2354 I-55.0044 J73.8764
G3 X141.8064 Y11.2129 I2660.5874 J4140.4672
G3 X152.6875 Y4.5156 I165.5081 J256.7146
G3 X159.25 Y2.875 I6.7223 J12.944
G3 X164.5842 Y3.626 I-1.1004 J27.1358
G3 X169.7969 Y4.9844 I-19.159 J84.2013
G3 X173.1193 Y6.014 I-23.6367 J82.1511
G3 X176.3414 Y7.3243 I-6.387 J20.3225
G3 X177.0625 Y8.0313 I-0.52 J1.2516
G3 X176.3967 Y8.5353 I-0.989 J-0.6147
G3 X175.6141 Y8.8265 I-3.6919 J-8.7247
G3 X174.0271 Y9.2868 I-8.5608 J-26.551
G3 X170.8297 Y10.0396 I-19.9102 J-77.3959
G3 X164.4063 Y11.3125 I-46.9118 J-219.8851
G2 X141.6719 Y18.3438 I16.4411 J93.429
G2 X129.4652 Y24.4566 I143.7076 J302.2132
G3 X133.9375 Y29.3594 I-65.7665 J64.4823
G2 X141.0462 Y37.0324 I91.3731 J-77.5235
G2 X143.7813 Y39.2031 I10.3835 J-10.2746
G3 X145.2298 Y40.0984 I-3.5392 J7.346
G3 X146.125 Y41.5469 I-1.1229 J1.6949
G3 X145.6532 Y42.6868 I-2.2371 J-0.2582
G3 X144.8648 Y43.6358 I-6.9115 J-4.9403
G3 X143.0781 Y45.2969 I-16.2424 J-15.6792
G3 X140.9909 Y46.9237 I-18.7298 J-21.8776
G3 X138.625 Y48.1094 I-4.2681 J-5.5634
G3 X136.9736 Y47.8561 I-0.4104 J-2.8346
G3 X135.5781 Y46.9375 I2.5061 J-5.3264
G2 X132.6399 Y45.7636 I-3.7051 J5.0097
G2 X129.4844 Y45.5313 I-2.9638 J18.7071
G1 X124.3516
G2 X125.1592 Y46.5575 I94.8715 J-73.8248
G2 X127.6094 Y49.2813 I18.0929 J-13.8118
G3 X129.0156 Y51.8594 I-2.4368 J3.0017
G3 X128.6758 Y53.1695 I-2.0015 J0.18
G3 X127.8145 Y54.2135 I-4.6514 J-2.9601
G3 X125.7344 Y55.8438 I-10.1311 J-10.7848
G3 X123.2896 Y57.3091 I-14.5747 J-21.5441
G3 X120.5781 Y58.1875 I-3.4083 J-5.8966
G3 X119.5344 Y57.3635 I-0.1834 J-0.8407
G3 X119.875 Y56.0781 I3.3145 J0.1904
G2 X120.0532 Y53.9871 I-3.7929 J-1.3764
G2 X119.5719 Y51.9445 I-11.967 J1.742
G2 X118.0 Y48.1094 I-29.0829 J9.6803
G2 X113.6518 Y41.1014 I-39.4842 J19.6456
G2 X108.3906 Y34.75 I-68.1962 J51.1355
G3 X105.2022 Y31.1184 I98.7361 J-89.9023
G3 X102.3609 Y27.2091 I18.0638 J-16.1159
G3 X102.2969 Y26.5469 I0.6131 J-0.3935
G3 X102.986 Y26.5956 I0.2933 J0.7496
G3 X103.6103 Y26.8915 I-2.1674 J5.3788
G3 X104.7728 Y27.5933 I-8.0831 J14.7046
G3 X106.9742 Y29.1358 I-26.8397 J40.643
G3 X110.1425 Y31.5616 I-83.5326 J112.3857
G3 X121.4005 Y24.2874 I2676.5891 J4130.141
G2 X119.1719 Y22.0938 I-100.069 J99.433
G2 X104.6406 Y10.1406 I-76.2548 J77.8926
G3 X98.7736 Y5.9172 I47.3815 J-72.0078
G2 X99.0156 Y8.0313 I202.4148 J-22.107
G3 X99.2808 Y13.347 I-31.3742 J4.2296
G3 X98.7813 Y15.0625 I-3.1647 J0.0089
G3 X95.2656 Y17.4063 I-11.5812 J-13.5632
G3 X93.3521 Y18.2039 I-4.2664 J-7.5411
G3 X91.2813 Y18.1094 I-0.9088 J-2.8227
G3 X90.5158 Y17.0023 I0.3982 J-1.0934
G3 X91.0469 Y15.7656 I2.5161 J0.3481
G2 X92.1674 Y13.1617 I-6.9094 J-4.5162
G2 X92.6875 Y10.375 I-20.3999 J-5.2495
G2 X93.161 Y-1.1472 I-114.5172 J-10.4766
G3 X91.645 Y-1.4638 I3.3306 J-19.7378
G3 X87.4498 Y-2.6645 I11.181 J-46.9947
G3 X81.9346 Y-4.7063 I33.4528 J-98.8319
G2 X82.5965 Y22.2692 I1050.593 J-12.2802
G2 X83.2729 Y32.1523 I152.1804 J-5.4505
G2 X83.7813 Y34.75 I12.7695 J-1.1505
G3 X84.5252 Y37.0428 I-10.4676 J4.6636
G3 X84.25 Y39.4375 I-3.1556 J0.8505
G3 X81.8484 Y41.2597 I-5.2937 J-4.4831
G3 X79.0938 Y42.4844 I-12.6186 J-24.6729
G3 X75.0692 Y43.5269 I-5.4153 J-12.6153
G3 X73.7031 Y43.1875 I-0.1986 J-2.1193
G3 X73.3257 Y41.6793 I0.7246 J-0.9827
G3 X74.1719 Y40.375 I4.1434 J1.7616
G2 X75.7629 Y37.2434 I-6.9123 J-5.4818
G2 X76.5156 Y33.8125 I-22.3356 J-6.6984
G2 X76.8194 Y28.5453 I-59.9186 J-6.0977
G2 X76.9081 Y23.2701 I-330.6008 J-8.2011
G2 X76.9315 Y12.7204 I-858.1249 J-7.1761
G2 X76.7689 Y-6.8768 I-2451.6683 J10.5457
G2 X71.0123 Y-8.9093 I-27.5451 J68.8474
G2 X68.0744 Y-9.3341 I-2.6988 J8.2932
G2 X67.375 Y-8.8438 I0.0076 J0.7549
G2 X67.1876 Y-6.5589 I10.8868 J2.043
G2 X67.2533 Y-4.2673 I42.958 J-0.0855
G2 X67.6094 Y0.2969 I107.0317 J-6.0531
G3 X67.8741 Y6.6602 I-44.6648 J5.0451
G3 X67.375 Y8.7344 I-4.5095 J0.0121
G3 X65.6337 Y10.0267 I-4.0031 J-3.5747
G3 X63.625 Y10.8438 I-6.6095 J-13.3711
G3 X61.6545 Y11.329 I-3.6094 J-10.4134
G3 X59.6406 Y11.0781 I-0.6297 J-3.1533
G3 X59.2362 Y10.6097 I0.3866 J-0.7426
G0 Z5.0
G0 X112.671 Y33.5926
G1 Z0.0
G3 X124.2538 Y27.2439 I455.4844 J817.2725
G3 X124.8132 Y27.8442 I-102.9224 J96.4765
G3 X129.9531 Y34.0469 I-48.9325 J45.7793
G3 X131.8958 Y37.0091 I-31.0115 J22.4555
G3 X132.7051 Y38.6077 I-11.9978 J7.0782
G3 X133.0 Y40.375 I-2.6433 J1.3494
G3 X132.3122 Y40.8862 I-0.9851 J-0.6072
G3 X129.2374 Y41.4552 I-4.0844 J-13.4782
G3 X121.3816 Y41.7848 I-8.3619 J-105.5326
G2 X117.3838 Y37.6965 I-35.9538 J31.1598
G2 X112.671 Y33.5926 I-75.1102 J81.4963
G0 Z5.0
G0 X-163.7032 Y28.9735
G1 Z0.0
G3 X-163.8286 Y32.9158 I-1160.3877 J-34.9522
G3 X-165.0335 Y33.1782 I-7.0277 J-29.3713
G2 X-164.6685 Y32.366 I-5.286 J-2.8637
G2 X-164.0562 Y30.4963 I-14.0232 J-5.627
G2 X-164.0551 Y30.4918 I-2.9058 J-0.746
G2 X-163.7032 Y28.9735 I-34.2956 J-8.7487
G0 Z5.0
M5
M30
