( Made using CamBam - http://www.cambam.co.uk )
( Untitled 1/7/2014 9:26:41 AM )
( T0 : 0.0 )
G21 G90 G64 G40
G0 Z5.0
( T0 : 0.0 )
T0 M6
( Profile1 )
G17
M3 S1000
G0 X-107.2782 Y7.6582
G1 F2000.0 Z0.0
G2 X-107.2701 Y7.6822 I3.7938 J-1.2676
G3 X-107.2575 Y7.7193 I-8.4118 J2.8698
G3 X-107.2983 Y7.7404 I-14.3011 J-27.629
G2 X-107.2782 Y7.6582 I-12.2292 J-3.0287
G0 Z5.0
G0 X-109.2228 Y7.1904
G1 Z0.0
G3 X-111.3084 Y11.4034 I-10.3048 J-2.4788
G3 X-111.3227 Y11.4207 I-1.551 J-1.2627
G2 X-111.3261 Y11.4248 I1.9343 J1.6113
G2 X-108.3481 Y10.4537 I-1.9562 J-11.0503
G3 X-108.2713 Y10.4181 I0.8794 J1.7963
G2 X-106.0226 Y9.33 I-13.2873 J-30.3278
G2 X-105.0578 Y8.749 I-5.049 J-9.4759
G3 X-104.9657 Y8.6903 I1.1202 J1.6569
G2 X-105.0152 Y8.3626 I-1.8369 J0.11
G3 X-105.0294 Y8.3004 I1.9426 J-0.4758
G2 X-105.3772 Y7.0364 I-10.6525 J2.2516
G3 X-105.3995 Y6.9672 I1.8929 J-0.6458
G3 X-106.187 Y1.1916 I17.8591 J-5.3768
G3 X-106.1869 Y1.1856 I1.9995 J0.0428
G3 X-106.0535 Y-3.8794 I1319.8981 J32.2311
G3 X-108.1673 Y-4.3241 I132.8506 J-636.7057
G3 X-108.9919 Y5.8613 I-819.8329 J-61.2465
G3 X-108.9973 Y5.9145 I-1.9924 J-0.1738
G3 X-109.2228 Y7.1904 I-10.5302 J-1.2028
G0 Z5.0
G0 X-109.5719 Y-47.2499
G1 Z0.0
G2 X-109.8411 Y-48.1056 I-25.6829 J7.6109
G3 X-110.2023 Y-47.4733 I-14.5347 J-7.8832
G3 X-109.5719 Y-47.2499 I-2.0208 J6.7041
G0 Z5.0
G0 X-109.9505 Y-46.3244
G1 Z0.0
G2 X-111.8784 Y-46.7614 I-2.2726 J5.5551
G2 X-109.8318 Y-50.5296 I-12.4974 J-9.2275
G3 X-108.9636 Y-48.6352 I-7.278 J4.4815
G2 X-108.9394 Y-48.5615 I3.8124 J-1.2107
G3 X-107.9959 Y-45.0301 I-26.3154 J8.9225
G2 X-109.9505 Y-46.3244 I-4.2272 J4.2609
G0 Z5.0
G0 X-110.7078 Y-44.4733
G1 Z0.0
G3 X-109.2784 Y-43.4794 I-1.5153 J3.704
G3 X-108.9329 Y-42.9605 I-1.4716 J1.3544
G3 X-108.2886 Y-40.66 I-6.9027 J3.1736
G3 X-107.7651 Y-34.3248 I-64.931 J8.5552
G3 X-107.5785 Y-28.1037 I-241.0959 J10.3416
G3 X-107.8628 Y-9.0188 I-244.3952 J5.9045
G2 X-105.9079 Y-8.7185 I22.3758 J-139.1322
G3 X-105.4827 Y-20.4093 I1319.6191 J42.1351
G2 X-105.2209 Y-32.7625 I-321.7514 J-12.9999
G2 X-105.348 Y-38.8946 I-140.6488 J-0.1521
G3 X-105.3486 Y-38.9121 I1.9982 J-0.085
G2 X-105.9251 Y-44.8379 I-47.1102 J1.592
G2 X-107.0453 Y-49.2037 I-29.3297 J5.1989
G3 X-107.0574 Y-49.2406 I1.8941 J-0.6422
G2 X-108.9835 Y-52.7716 I-10.0524 J3.1925
G2 X-110.3495 Y-54.1191 I-11.7989 J10.5951
G2 X-110.5869 Y-54.3127 I-3.2766 J3.7744
G2 X-111.3916 Y-52.1719 I9.5745 J4.8207
G3 X-111.4126 Y-52.0968 I-1.9365 J-0.5
G3 X-113.8822 Y-47.4403 I-12.9632 J-3.8921
G3 X-113.8849 Y-47.437 I-1.5506 J-1.2632
G3 X-117.5606 Y-44.0101 I-14.4827 J-11.8494
G2 X-117.8123 Y-43.8288 I19.5901 J27.4578
G3 X-114.3828 Y-44.6231 I8.055 J26.9764
G3 X-114.3815 Y-44.6233 I0.3286 J1.9728
G3 X-112.3629 Y-44.7688 I1.794 J10.8152
G3 X-110.7078 Y-44.4733 I0.1398 J3.9996
G0 Z5.0
G0 X-40.175 Y28.5319
G1 Z0.0
G3 X-31.1659 Y30.1395 I-3.8763 J47.7699
G2 X-31.1429 Y30.1459 I0.8066 J-2.8895
G3 X-19.1749 Y34.436 I-20.7838 J76.8174
G3 X-18.6928 Y34.6584 I-18.72 J41.2329
G3 X-20.9522 Y34.0673 I10.4509 J-44.5624
G2 X-20.9995 Y34.054 I-0.8331 J2.882
G3 X-25.4734 Y32.8119 I105.3709 J-388.2148
G1 X-25.4736
G3 X-34.4399 Y30.2298 I329.1627 J-1159.8731
G2 X-34.445 Y30.2283 I-0.8413 J2.8796
G3 X-40.175 Y28.5319 I156.5452 J-539.3095
G0 Z5.0
G0 X-40.0942 Y27.5352
G1 Z0.0
G2 X-43.957 Y27.375 I-3.9572 J48.7667
G3 X-43.959 I0.0039 J-2.0
G2 X-47.0525 Y27.4247 I-0.2384 J81.522
G2 X-42.7155 Y28.8046 I35.6706 J-104.6017
G3 X-42.6967 Y28.8103 I-0.567 J1.9179
G2 X-34.7237 Y31.1887 I164.7969 J-537.8915
G3 X-34.7204 Y31.1896 I-0.5575 J1.9207
G2 X-25.7466 Y33.7739 I338.4095 J-1158.2509
G1 X-25.7465
G2 X-21.2614 Y35.0191 I110.1179 J-387.9347
G3 X-21.2299 Y35.0279 I-0.5239 J1.9302
G2 X-17.1217 Y36.0168 I12.9881 J-44.932
G2 X-14.9846 Y35.4934 I-0.698 J-7.4748
G2 X-16.1399 Y34.8164 I-5.6914 J8.3875
G3 X-16.183 Y34.7941 I0.895 J-1.7885
G2 X-18.7624 Y33.5251 I-21.7119 J40.8748
G2 X-30.8817 Y29.1806 I-33.1642 J73.4382
G3 X-30.8971 Y29.1764 I0.5223 J-1.9306
G2 X-34.0984 Y28.3979 I-13.1543 J47.1255
G3 X-35.2813 Y29.125 I-64.4006 J-103.4496
G2 X-35.2322 Y28.1763 I-685.6536 J-35.934
G2 X-40.0942 Y27.5352 I-8.8191 J48.1256
G0 Z5.0
G0 X20.9637 Y36.4972
G1 Z0.0
G2 X31.7778 Y38.1862 I95.7796 J-577.8005
G3 X39.0379 Y39.3386 I-68.9957 J458.1079
G2 X39.0698 Y39.3437 I0.4938 J-2.9591
G3 X40.5388 Y39.5861 I-12.8252 J82.3056
G3 X38.6193 Y39.7193 I-1.8207 J-12.3414
G3 X33.9795 Y39.21 I1.3123 J-33.3454
G2 X33.9407 Y39.2032 I-0.5351 J2.9519
G3 X29.0098 Y38.2785 I21.6318 J-128.9518
G3 X20.9637 Y36.4972 I65.8361 J-316.4499
G0 Z5.0
G0 X21.1272 Y35.5107
G1 Z0.0
G3 X12.1031 Y33.9421 I95.6161 J-576.814
G3 X11.5938 Y34.2813 I-35.1271 J-52.2008
G2 X11.5604 Y33.8431 I-33.535 J2.3324
G3 X9.3514 Y33.4347 I105.1829 J-575.1464
G3 X9.3195 Y33.4285 I0.3673 J-1.966
G2 X4.321 Y32.5741 I-15.9843 J78.4641
G3 X4.2942 Y32.5702 I0.2744 J-1.9811
G2 X-0.4965 Y32.2947 I-3.8611 J25.3462
G2 X-1.883 Y32.4965 I0.524 J8.4607
G3 X-0.0503 Y32.774 I-27.4137 J187.2366
G3 X0.0153 Y32.7854 I-0.3091 J1.976
G3 X9.4943 Y34.819 I-39.7307 J208.2985
G3 X18.8563 Y37.0237 I-292.4878 J1263.0003
G3 X18.8594 Y37.0245 I-0.4657 J1.945
G2 X28.8064 Y39.2576 I75.9865 J-315.1958
G2 X33.7753 Y40.1895 I26.7661 J-129.0061
G3 X33.8011 Y40.194 I-0.3309 J1.9724
G2 X38.5955 Y40.7191 I6.1305 J-33.82
G2 X41.6637 Y40.3938 I0.1227 J-13.4744
G3 X41.6781 Y40.3906 I0.4372 J1.9516
G2 X44.1142 Y39.2663 I-1.3029 J-6.024
G2 X39.2238 Y38.3557 I-17.8696 J82.3831
G3 X39.2025 Y38.3522 I0.3079 J-1.9762
G2 X31.9248 Y37.197 I-76.4205 J457.9418
G3 X21.1272 Y35.5107 I84.8185 J-578.5003
G0 Z5.0
G0 X21.4543 Y33.5376
G1 Z0.0
G2 X32.2188 Y35.2188 I95.289 J-574.8409
G3 X39.5317 Y36.3795 I-69.4367 J461.0753
G3 X46.7923 Y37.8324 I-13.2871 J85.2698
G3 X47.6875 Y38.2656 I-0.3564 J1.8779
G3 X47.2818 Y39.0536 I-1.5315 J-0.2902
G3 X46.6732 Y39.6979 I-5.731 J-4.8037
G3 X45.3438 Y40.8438 I-14.1995 J-15.1303
G3 X42.1009 Y42.3454 I-4.9685 J-6.4771
G3 X38.5469 Y42.7188 I-3.3828 J-15.1007
G3 X33.4444 Y42.1619 I1.3847 J-36.3448
G3 X28.3995 Y41.2158 I22.1281 J-131.9105
G3 X18.3906 Y38.9688 I66.4463 J-319.3871
G2 X9.0366 Y36.766 I-301.3841 J1258.8506
G2 X-0.3594 Y34.75 I-48.752 J204.318
G2 X-5.2813 Y34.0469 I-28.9373 J184.9831
G3 X-5.964 Y33.8614 I0.1926 J-2.0582
G3 X-6.2551 Y33.2164 I0.1935 J-0.4754
G3 X-5.5156 Y32.1719 I2.6572 J1.097
G3 X-3.222 Y30.7951 I4.0971 J4.2265
G3 X-0.5938 Y30.2969 I3.2495 J9.9603
G3 X4.5954 Y30.593 I1.0269 J27.6195
G3 X9.7188 Y31.4688 I-11.2602 J81.2996
G2 X11.3234 Y31.7663 I107.0245 J-572.772
G2 X9.9729 Y26.0531 I-33.2647 J4.8473
G2 X6.6719 Y18.3438 I-46.2171 J15.228
G2 X3.4095 Y12.5916 I-85.339 J44.6005
G2 X-0.5938 Y7.3281 I-23.6492 J13.8325
G3 X-2.9353 Y4.8544 I12.322 J-14.009
G3 X-3.4063 Y3.8125 I1.6831 J-1.3881
G3 X-2.6349 Y1.7421 I6.0961 J1.0923
G3 X-1.5313 Y-0.1719 I29.5988 J15.7921
G3 X0.478 Y-2.656 I8.3215 J4.6761
G3 X1.5156 Y-2.9844 I0.8986 J1.036
G3 X4.1859 Y-1.6168 I-3.8362 J10.781
G3 X6.6719 Y0.0625 I-33.8082 J52.729
G2 X15.5781 Y4.5156 I19.4828 J-27.8328
G2 X24.25 Y6.3906 I11.7364 J-33.2895
G2 X26.7941 Y6.3583 I1.085 J-14.7172
G2 X29.1719 Y5.4531 I-0.1975 J-4.0947
G2 X29.8563 Y4.0337 I-2.3634 J-2.0143
G2 X30.0913 Y2.4756 I-9.6377 J-2.2505
G2 X30.1094 Y-0.6406 I-25.1971 J-1.7042
G2 X28.5933 Y-9.7386 I-61.7785 J5.6196
G2 X26.3594 Y-18.6875 I-231.084 J52.9316
G2 X24.5568 Y-25.0198 I-178.8401 J47.4877
G2 X22.3007 Y-31.2051 I-46.7519 J13.5483
G2 X21.2031 Y-32.75 I-3.8865 J1.5989
G2 X19.1145 Y-32.8958 I-1.2756 J3.2402
G2 X17.0846 Y-32.3827 I2.552 J14.3681
G2 X13.2344 Y-30.875 I12.5091 J37.6147
G3 X10.2422 Y-29.6183 I-28.0595 J-62.6203
G3 X7.1411 Y-28.6616 I-6.6471 J-16.0416
G3 X6.2031 Y-28.7656 I-0.3353 J-1.2573
G3 X6.1666 Y-29.2584 I0.4085 J-0.2781
G3 X6.373 Y-29.7074 I2.4229 J0.8424
G3 X6.9051 Y-30.5028 I6.6595 J3.8788
G3 X8.1013 Y-31.9449 I18.1011 J13.7975
G3 X10.6563 Y-34.625 I49.2842 J44.425
G2 X13.1779 Y-37.3713 I-27.9273 J-28.1732
G2 X15.2851 Y-40.4471 I-13.7129 J-11.6547
G2 X16.0469 Y-42.8281 I-5.6573 J-3.1222
G3 X16.512 Y-44.8478 I5.8666 J0.2876
G3 X18.1563 Y-46.1094 I1.8941 J0.7663
G3 X20.0092 Y-45.7026 I0.1273 J3.8442
G3 X21.6764 Y-44.7974 I-5.456 J12.0365
G3 X24.7188 Y-42.5938 I-18.355 J28.5429
G3 X29.6507 Y-36.0994 I-13.185 J15.1328
G3 X32.6875 Y-28.5313 I-44.3221 J22.1782
G3 X37.375 Y-8.6094 I-120.0422 J38.7576
G2 X38.197 Y-3.8294 I84.4367 J-12.0605
G2 X39.565 Y0.8238 I22.2404 J-4.0105
G2 X40.4219 Y1.9375 I2.4648 J-1.0099
G3 X41.8281 Y4.2813 I-0.8513 J2.1045
G3 X40.7283 Y5.8694 I-3.6535 J-1.3554
G3 X39.2825 Y7.1505 I-13.6369 J-13.9334
G3 X36.2031 Y9.4375 I-33.3895 J-41.7408
G3 X31.2525 Y12.5453 I-28.0432 J-39.175
G3 X29.4063 Y13.1875 I-2.6246 J-4.5703
G3 X27.5313 Y12.25 I-0.2182 J-1.9074
G2 X26.7201 Y11.6532 I-1.5385 J1.2415
G2 X25.7898 Y11.2673 I-4.527 J9.5985
G2 X23.8856 Y10.6574 I-9.7078 J27.0342
G2 X20.0313 Y9.6719 I-21.9959 J77.9914
G3 X10.4219 Y7.3281 I80.2125 J-349.7423
G2 X8.7812 Y7.0014 I-2.8312 J9.9328
G2 X7.1406 Y7.3281 I-0.4325 J2.1106
G2 X7.1754 Y8.0458 I0.8301 J0.3195
G2 X7.4532 Y8.7085 I5.9573 J-2.108
G2 X8.1218 Y9.9558 I16.4751 J-8.0285
G2 X9.6047 Y12.3368 I46.2048 J-27.1238
G2 X12.7656 Y16.9375 I125.906 J-83.1183
G3 X15.8368 Y21.4386 I-103.2627 J73.7564
G3 X18.5057 Y26.1893 I-28.1566 J18.9434
G3 X18.8594 Y27.7188 I-3.3154 J1.5722
G3 X18.3077 Y28.8449 I-2.5618 J-0.5567
G3 X17.4729 Y29.7806 I-7.0982 J-5.4925
G3 X15.5984 Y31.4117 I-15.9683 J-16.459
G3 X14.3968 Y32.3231 I-38.6224 J-49.6704
G2 X21.4543 Y33.5376 I102.3465 J-573.6264
G0 Z5.0
G0 X-12.3125 Y35.4531
G1 Z0.0
G3 X-12.9667 Y36.674 I-1.5529 J-0.0464
G3 X-14.1875 Y37.3281 I-2.696 J-3.5652
G3 X-17.2344 Y38.0313 I-3.6321 J-8.7861
G3 X-21.7853 Y36.9493 I8.9925 J-47.9353
G3 X-26.2926 Y35.6979 I106.1567 J-391.11
G3 X-35.2813 Y33.1094 I329.9817 J-1162.7591
G3 X-43.2825 Y30.7226 I157.3814 J-542.1906
G3 X-51.1963 Y28.0598 I31.9007 J-107.8995
G3 X-52.1563 Y27.4844 I0.7967 J-2.4177
G3 X-51.4531 Y26.0781 I2.0573 J0.1497
G3 X-50.563 Y25.7356 I1.1835 J1.7478
G3 X-49.6202 Y25.5915 I2.1024 J10.6
G3 X-47.7291 Y25.4493 I3.1718 J29.5386
G3 X-43.9531 Y25.375 I3.5318 J83.4476
G3 X-35.1324 Y26.162 I-0.0982 J50.9269
G2 X-34.3449 Y-4.2918 I-685.8025 J-32.9709
G2 X-44.4875 Y-8.8451 I-581.3064 J1281.3067
G2 X-49.5781 Y-10.9531 I-32.7605 J71.9112
G2 X-51.6063 Y-10.8056 I-0.6209 J5.4808
G2 X-53.5625 Y-10.25 I4.4385 J19.347
G3 X-55.4115 Y-9.9894 I-1.4895 J-3.878
G3 X-56.6094 Y-11.4219 I0.2265 J-1.4065
G3 X-56.3198 Y-13.0286 I3.2285 J-0.2475
G3 X-55.4953 Y-14.4377 I6.6667 J2.9548
G3 X-53.3281 Y-16.8125 I13.8922 J10.5015
G3 X-50.6971 Y-18.841 I10.6438 J11.0847
G3 X-47.4688 Y-19.625 I2.6694 J3.9533
G3 X-44.7606 Y-18.3918 I-4.7923 J14.1138
G3 X-42.1735 Y-16.9215 I-41.332 J75.7385
G3 X-37.094 Y-13.8315 I-122.0312 J206.3256
G3 X-27.0781 Y-7.4375 I-352.5593 J563.3036
G3 X-14.0235 Y1.419 I-164.482 J256.4978
G3 X-9.9937 Y4.8027 I-16.6376 J23.9058
G3 X-9.7344 Y5.4531 I-0.5411 J0.5927
G3 X-10.4048 Y5.5786 I-0.4722 J-0.6695
G3 X-11.0765 Y5.4598 I0.6893 J-5.858
G3 X-12.3691 Y5.0984 I4.0067 J-16.8231
G3 X-14.8762 Y4.2141 I15.1481 J-46.9407
G3 X-19.7778 Y2.2274 I50.1424 J-130.7535
G3 X-28.1677 Y-1.4736 I155.7071 J-364.3401
G2 X-27.9186 Y6.5136 I1098.4586 J-30.2632
G2 X-27.3125 Y17.6406 I204.019 J-5.5328
G3 X-26.8438 Y22.7969 I-67.0863 J8.6982
G3 X-27.6285 Y23.8822 I-2.2184 J-0.7776
G3 X-28.6572 Y24.7398 I-10.2537 J-11.2541
G3 X-30.8204 Y26.2838 I-26.2157 J-34.4425
G3 X-31.7328 Y26.8872 I-67.6785 J-101.3354
G3 X-30.3594 Y27.25 I-12.3186 J49.4147
G3 X-17.9375 Y31.7031 I-21.5673 J79.7132
G3 X-15.2448 Y33.0278 I-19.9574 J43.9658
G3 X-12.7478 Y34.6923 I-5.4312 J10.8531
G3 X-12.3125 Y35.4531 I-0.8095 J0.9681
G0 Z5.0
G0 X59.2363 Y10.6101
G1 Z0.0
G3 X59.1902 Y10.3518 I0.7909 J-0.2746
G3 X59.4248 Y9.53 I1.7896 J0.0666
G3 X60.3438 Y8.2656 I5.7848 J3.2382
G2 X61.4549 Y6.0344 I-4.6499 J-3.7078
G2 X61.9463 Y3.5907 I-15.6641 J-4.4216
G2 X62.2188 Y-1.3438 I-38.7351 J-4.6133
G2 X61.4349 Y-8.8868 I-29.3202 J-0.7653
G2 X60.3438 Y-11.1875 I-6.5525 J1.6985
G3 X59.4068 Y-13.6484 I2.879 J-2.505
G3 X60.3438 Y-16.1094 I4.3688 J0.2545
G3 X62.2419 Y-18.1808 I7.9126 J5.3452
G3 X63.1563 Y-18.4531 I0.7756 J0.9329
G3 X64.7711 Y-17.5304 I-1.9066 J5.2112
G3 X66.2031 Y-16.3438 I-14.2137 J18.6098
G2 X69.0908 Y-14.4724 I11.3435 J-14.3404
G2 X72.1497 Y-12.8963 I34.5234 J-63.2458
G2 X78.3906 Y-10.0156 I79.5793 J-164.2078
G2 X87.017 Y-6.5978 I45.1343 J-101.3224
G2 X93.2353 Y-4.7553 I21.3276 J-60.5636
G3 X93.2758 Y-5.4268 I54.3111 J2.9411
G3 X93.9842 Y-9.2115 I12.9095 J0.4575
G3 X94.7969 Y-10.0156 I1.1818 J0.3818
G3 X96.3834 Y-9.4216 I0.2874 J1.6482
G3 X97.1406 Y-7.9063 I-3.2621 J2.577
G3 X98.0781 Y-1.8125 I-27.5122 J7.3516
G2 X98.63 Y4.5608 I203.1102 J-14.3773
G3 X99.1591 Y4.718 I-3.3049 J12.095
G3 X100.8545 Y5.3092 I-10.8934 J33.9633
G3 X104.1719 Y6.625 I-35.8929 J95.3331
G3 X118.7031 Y15.0625 I-28.9079 J66.5175
G3 X126.1442 Y21.2354 I-55.0044 J73.8764
G3 X141.8064 Y11.2129 I2660.5874 J4140.4672
G3 X152.6875 Y4.5156 I165.5081 J256.7146
G3 X159.25 Y2.875 I6.7223 J12.944
G3 X164.5842 Y3.626 I-1.1004 J27.1358
G3 X169.7969 Y4.9844 I-19.159 J84.2013
G3 X173.1193 Y6.014 I-23.6367 J82.1511
G3 X176.3414 Y7.3243 I-6.387 J20.3225
G3 X177.0625 Y8.0313 I-0.52 J1.2516
G3 X176.3967 Y8.5353 I-0.989 J-0.6147
G3 X175.6141 Y8.8265 I-3.6919 J-8.7247
G3 X174.0271 Y9.2868 I-8.5608 J-26.551
G3 X170.8297 Y10.0396 I-19.9102 J-77.3959
G3 X164.4063 Y11.3125 I-46.9118 J-219.8851
G2 X141.6719 Y18.3438 I16.4411 J93.429
G2 X129.4652 Y24.4566 I143.7076 J302.2132
G3 X133.9375 Y29.3594 I-65.7665 J64.4823
G2 X141.0462 Y37.0324 I91.3731 J-77.5235
G2 X143.7813 Y39.2031 I10.3835 J-10.2746
G3 X145.2298 Y40.0984 I-3.5392 J7.346
G3 X146.125 Y41.5469 I-1.1229 J1.6949
G3 X145.6532 Y42.6868 I-2.2371 J-0.2582
G3 X144.8648 Y43.6358 I-6.9115 J-4.9403
G3 X143.0781 Y45.2969 I-16.2424 J-15.6792
G3 X140.9909 Y46.9237 I-18.7298 J-21.8776
G3 X138.625 Y48.1094 I-4.2681 J-5.5634
G3 X136.9736 Y47.8561 I-0.4104 J-2.8346
G3 X135.5781 Y46.9375 I2.5061 J-5.3264
G2 X132.6399 Y45.7636 I-3.7051 J5.0097
G2 X129.4844 Y45.5313 I-2.9638 J18.7071
G1 X124.3516
G2 X125.1592 Y46.5575 I94.8715 J-73.8248
G2 X127.6094 Y49.2813 I18.0929 J-13.8118
G3 X129.0156 Y51.8594 I-2.4368 J3.0017
G3 X128.6758 Y53.1695 I-2.0015 J0.18
G3 X127.8145 Y54.2135 I-4.6514 J-2.9601
G3 X125.7344 Y55.8438 I-10.1311 J-10.7848
G3 X123.2896 Y57.3091 I-14.5747 J-21.5441
G3 X120.5781 Y58.1875 I-3.4083 J-5.8966
G3 X119.5344 Y57.3635 I-0.1834 J-0.8407
G3 X119.875 Y56.0781 I3.3145 J0.1904
G2 X120.0532 Y53.9871 I-3.7929 J-1.3764
G2 X119.5719 Y51.9445 I-11.967 J1.742
G2 X118.0 Y48.1094 I-29.0829 J9.6803
G2 X113.6518 Y41.1014 I-39.4842 J19.6456
G2 X108.3906 Y34.75 I-68.1962 J51.1355
G3 X105.2022 Y31.1184 I98.7361 J-89.9023
G3 X102.3609 Y27.2091 I18.0638 J-16.1159
G3 X102.2969 Y26.5469 I0.6131 J-0.3935
G3 X102.986 Y26.5956 I0.2933 J0.7496
G3 X103.6103 Y26.8915 I-2.1674 J5.3788
G3 X104.7728 Y27.5933 I-8.0831 J14.7046
G3 X106.9742 Y29.1358 I-26.8397 J40.643
G3 X110.1425 Y31.5616 I-83.5326 J112.3857
G3 X121.4005 Y24.2874 I2676.5891 J4130.141
G2 X119.1719 Y22.0938 I-100.069 J99.433
G2 X104.6406 Y10.1406 I-76.2548 J77.8926
G3 X98.7736 Y5.9172 I47.3815 J-72.0078
G2 X99.0156 Y8.0313 I202.4148 J-22.107
G3 X99.2808 Y13.347 I-31.3742 J4.2296
G3 X98.7813 Y15.0625 I-3.1647 J0.0089
G3 X95.2656 Y17.4063 I-11.5812 J-13.5632
G3 X93.3521 Y18.2039 I-4.2664 J-7.5411
G3 X91.2813 Y18.1094 I-0.9088 J-2.8227
G3 X90.5158 Y17.0023 I0.3982 J-1.0934
G3 X91.0469 Y15.7656 I2.5161 J0.3481
G2 X92.1674 Y13.1617 I-6.9094 J-4.5162
G2 X92.6875 Y10.375 I-20.3999 J-5.2495
G2 X93.161 Y-1.1472 I-114.5172 J-10.4766
G3 X91.645 Y-1.4638 I3.3306 J-19.7378
G3 X87.4498 Y-2.6645 I11.181 J-46.9947
G3 X81.9346 Y-4.7063 I33.4528 J-98.8319
G2 X82.5965 Y22.2692 I1050.593 J-12.2802
G2 X83.2729 Y32.1523 I152.1804 J-5.4505
G2 X83.7813 Y34.75 I12.7695 J-1.1505
G3 X84.5252 Y37.0428 I-10.4676 J4.6636
G3 X84.25 Y39.4375 I-3.1556 J0.8505
G3 X81.8484 Y41.2597 I-5.2937 J-4.4831
G3 X79.0938 Y42.4844 I-12.6186 J-24.6729
G3 X75.0692 Y43.5269 I-5.4153 J-12.6153
G3 X73.7031 Y43.1875 I-0.1986 J-2.1193
G3 X73.3257 Y41.6793 I0.7246 J-0.9827
G3 X74.1719 Y40.375 I4.1434 J1.7616
G2 X75.7629 Y37.2434 I-6.9123 J-5.4818
G2 X76.5156 Y33.8125 I-22.3356 J-6.6984
G2 X76.8194 Y28.5453 I-59.9186 J-6.0977
G2 X76.9081 Y23.2701 I-330.6008 J-8.2011
G2 X76.9315 Y12.7204 I-858.1249 J-7.1761
G2 X76.7689 Y-6.8768 I-2451.6683 J10.5457
G2 X71.0123 Y-8.9093 I-27.5451 J68.8474
G2 X68.0744 Y-9.3341 I-2.6988 J8.2932
G2 X67.375 Y-8.8438 I0.0076 J0.7549
G2 X67.1876 Y-6.5589 I10.8868 J2.043
G2 X67.2533 Y-4.2673 I42.958 J-0.0855
G2 X67.6094 Y0.2969 I107.0317 J-6.0531
G3 X67.8741 Y6.6602 I-44.6648 J5.0451
G3 X67.375 Y8.7344 I-4.5095 J0.0121
G3 X65.6337 Y10.0267 I-4.0031 J-3.5747
G3 X63.625 Y10.8438 I-6.6095 J-13.3711
G3 X61.6545 Y11.329 I-3.6094 J-10.4134
G3 X59.6406 Y11.0781 I-0.6297 J-3.1533
G3 X59.2363 Y10.6101 I0.3866 J-0.7426
G0 Z5.0
G0 X112.671 Y33.5926
G1 Z0.0
G3 X124.2538 Y27.2439 I455.4844 J817.2725
G3 X124.8132 Y27.8442 I-102.9224 J96.4765
G3 X129.9531 Y34.0469 I-48.9325 J45.7793
G3 X131.8958 Y37.0091 I-31.0115 J22.4555
G3 X132.7051 Y38.6077 I-11.9978 J7.0782
G3 X133.0 Y40.375 I-2.6433 J1.3494
G3 X132.3122 Y40.8862 I-0.9851 J-0.6072
G3 X129.2374 Y41.4552 I-4.0844 J-13.4782
G3 X121.3816 Y41.7848 I-8.3619 J-105.5326
G2 X117.3838 Y37.6965 I-35.9538 J31.1598
G2 X112.671 Y33.5926 I-75.1102 J81.4963
G0 Z5.0
G0 X120.0937 Y13.8886
G1 Z0.0
G3 X119.6406 Y13.6563 I0.7923 J-2.1031
G3 X119.2699 Y12.0397 I0.8352 J-1.0424
G3 X120.1094 Y10.6094 I4.9505 J1.9441
G2 X121.5615 Y6.8669 I-7.5453 J-5.0806
G2 X121.9401 Y3.7725 I-27.3137 J-4.9117
G2 X105.8125 Y0.5313 I-917.4589 J4523.3129
G3 X106.4641 Y-1.3924 I5.3383 J0.7361
G3 X108.1563 Y-2.5156 I1.9573 J1.1124
G3 X112.8438 I2.3438 J23.6164
G3 X121.182 Y-1.2158 I-18.2824 J144.6729
G3 X122.0622 Y-1.0593 I-154.4752 J871.392
G2 X122.1662 Y-8.2821 I-1034.519 J-18.5002
G3 X107.2188 Y-11.6563 I603.6087 J-2708.7363
G3 X110.2656 Y-14.0 I5.0376 J3.3965
G3 X113.7813 Y-14.2344 I2.3281 J8.4368
G3 X122.2055 Y-12.796 I-88.3045 J542.5815
G2 X122.2275 Y-20.147 I-1034.6623 J-6.7634
G3 X121.0469 Y-20.3281 I84.0818 J-551.9174
G1 X96.6719 Y-24.0781
G2 X91.0469 Y-24.7813 I-10.2254 J58.9516
G3 X90.3136 Y-24.8872 I-0.0639 J-2.1479
G3 X89.875 Y-25.4844 I0.1643 J-0.5803
G3 X90.3368 Y-26.1635 I1.0632 J0.2264
G3 X91.015 Y-26.6268 I3.4146 J4.271
G3 X92.4531 Y-27.3594 I7.7845 J13.5032
G3 X96.9063 Y-28.5313 I5.0553 J10.1633
G3 X101.145 Y-28.025 I-3.8415 J50.1663
G3 X105.3626 Y-27.3655 I-44.082 J295.7103
G3 X113.7813 Y-25.9531 I-143.9154 J883.6224
G2 X122.2182 Y-24.6931 I29.7497 J-170.316
G3 X122.3577 Y-38.0343 I635.9301 J-0.0213
G3 X123.1563 Y-52.2031 I160.2846 J1.9271
G3 X123.6857 Y-55.7268 I73.8116 J9.2881
G3 X124.644 Y-59.1588 I13.1431 J1.8202
G3 X125.0313 Y-59.4688 I0.5047 J0.2337
G3 X125.4227 Y-59.1419 I-0.1307 J0.5543
G3 X125.6392 Y-58.6802 I-2.664 J1.5311
G3 X125.9343 Y-57.7291 I-8.544 J3.1718
G3 X126.3405 Y-55.8117 I-25.7252 J6.4525
G3 X126.9063 Y-51.9688 I-75.0992 J13.0182
G3 X128.0781 Y-33.2188 I-189.297 J21.2427
G3 X128.2282 Y-24.053 I-1120.0058 J22.92
G2 X143.0781 Y-23.375 I15.3028 J-172.2162
G3 X156.2158 Y-23.1595 I1.8763 J286.2168
G3 X158.0781 Y-22.9063 I-0.1873 J8.3506
G3 X158.5 Y-22.0068 I-0.5847 J0.8229
G3 X158.3125 Y-21.0313 I-3.2045 J-0.1101
G3 X157.2536 Y-19.512 I-3.4499 J-1.2759
G3 X155.7344 Y-18.4531 I-5.3888 J-6.1122
G3 X151.5725 Y-17.4577 I-4.8128 J-10.9239
G3 X147.2969 Y-17.2813 I-4.0147 J-45.3961
G3 X140.6994 Y-17.7037 I1.4299 J-74.0576
G3 X134.1324 Y-18.4643 I23.921 J-235.271
G3 X128.2768 Y-19.2593 I72.1769 J-553.6001
G3 X128.3118 Y-11.6795 I-1120.2045 J8.9605
G3 X137.584 Y-9.709 I-31.0865 J169.0825
G3 X140.9688 Y-8.6094 I-4.7578 J20.4035
G3 X142.9113 Y-7.3964 I-3.9284 J8.4533
G3 X143.3125 Y-6.7344 I-0.6445 J0.8431
G3 X142.9042 Y-6.1474 I-0.8129 J-0.13
G3 X142.279 Y-5.8006 I-2.1122 J-3.07
G3 X140.9688 Y-5.3281 I-4.3427 J-9.9909
G3 X139.0659 Y-5.1996 I-1.3979 J-6.5467
G3 X137.1655 Y-5.3594 I1.265 J-26.4195
G3 X133.4047 Y-5.9275 I8.0622 J-66.102
G3 X128.322 Y-6.9243 I32.0548 J-176.923
G2 X128.4121 Y-1.8014 I279.2483 J-2.3531
G2 X128.4655 Y0.1068 I63.6269 J-0.8237
G3 X129.4844 Y0.2969 I-161.7587 J870.0694
G3 X139.3986 Y2.402 I-28.2558 J157.4751
G3 X142.6133 Y3.4487 I-4.9677 J20.7149
G3 X143.3125 Y4.0469 I-0.3698 J1.14
G3 X142.6583 Y5.2677 I-1.5529 J-0.0464
G3 X141.4375 Y5.9219 I-2.696 J-3.5652
G3 X137.6875 Y6.625 I-3.8008 J-9.9192
G3 X133.9165 Y6.1737 I1.3272 J-27.0734
G3 X130.1875 Y5.4531 I19.8987 J-112.9769
G2 X128.8882 Y5.1873 I-925.7063 J4521.6322
G2 X129.0156 Y6.1563 I63.1509 J-7.8124
G3 X129.3995 Y8.4851 I-46.0843 J8.7921
G3 X129.4844 Y10.8438 I-8.4907 J1.4865
G3 X128.557 Y11.7303 I-1.7818 J-0.9356
G3 X127.4072 Y12.2994 I-5.387 J-9.4371
G3 X125.0313 Y13.1875 I-11.7584 J-27.8358
G3 X120.9866 Y14.0306 I-4.812 J-12.9617
G3 X120.0937 Y13.8886 I-0.1006 J-2.2452
G0 Z5.0
G0 X-80.75 Y-4.8594
G1 Z0.0
G3 X-81.7651 Y-3.2964 I-2.2946 J-0.3792
G3 X-83.3281 Y-2.2813 I-6.4542 J-8.2266
G3 X-88.9531 Y-0.875 I-5.5265 J-10.1529
G3 X-94.1537 Y-1.5499 I3.0473 J-43.8539
G3 X-99.3094 Y-2.5094 I40.9766 J-234.519
G3 X-104.0643 Y-3.4676 I126.1064 J-638.0757
G2 X-104.1875 Y1.2344 I1317.7755 J36.8842
G2 X-103.4844 Y6.3906 I16.6472 J0.356
G3 X-103.0726 Y7.8868 I-12.1975 J4.1614
G3 X-103.0156 Y9.4375 I-3.7299 J0.9136
G3 X-103.9376 Y10.4059 I-2.1026 J-1.0788
G3 X-105.0831 Y11.0956 I-7.1339 J-10.5518
G3 X-107.4688 Y12.25 I-16.4755 J-31.0052
G3 X-111.6492 Y13.4954 I-5.8135 J-11.8755
G3 X-113.0938 Y13.1875 I-0.2417 J-2.4087
G3 X-113.6763 Y11.6102 I0.6612 J-1.1404
G3 X-112.8594 Y10.1406 I4.288 J1.4218
G2 X-110.9844 Y5.6875 I-6.6682 J-5.4289
G2 X-110.1415 Y-4.7454 I-817.0158 J-71.2581
G2 X-118.0031 Y-6.3787 I-158.3312 J742.3561
G2 X-126.474 Y-7.8952 I-29.5696 J140.7506
G2 X-127.625 Y-7.9063 I-0.6082 J3.4019
G2 X-127.5285 Y-7.1757 I1.2653 J0.2045
G2 X-127.27 Y-6.4855 I10.6782 J-3.6057
G2 X-126.6801 Y-5.1452 I30.1078 J-12.4512
G2 X-125.4006 Y-2.5224 I80.5671 J-37.6816
G2 X-122.7031 Y2.6406 I228.7234 J-116.2108
G3 X-110.75 Y27.7188 I-325.0555 J170.3207
G3 X-105.4664 Y40.1256 I-483.6521 J213.2958
G3 X-103.9531 Y44.3594 I-34.1239 J14.5845
G3 X-104.6836 Y46.4115 I-2.6964 J0.1963
G3 X-106.2969 Y47.875 I-6.6217 J-5.6785
G3 X-110.9844 Y50.4531 I-10.9769 J-14.4076
G3 X-112.54 Y50.7542 I-1.7666 J-4.9575
G3 X-114.0313 Y50.2188 I-0.1277 J-1.9887
G3 X-114.4877 Y48.8125 I1.1755 J-1.1587
G3 X-114.0313 Y47.4063 I4.1911 J0.5831
G2 X-113.5856 Y43.8906 I-7.1991 J-2.6987
G2 X-114.0313 Y40.375 I-28.81 J1.8662
G2 X-116.087 Y32.6692 I-63.9539 J12.9342
G2 X-118.7188 Y25.1406 I-170.7628 J55.4697
G2 X-127.1563 Y4.9844 I-258.6228 J96.4166
G2 X-132.2795 Y-4.4951 I-64.9336 J28.9696
G2 X-134.6563 Y-7.2031 I-10.3073 J6.6494
G3 X-137.0062 Y-9.2969 I8.399 J-11.7923
G3 X-137.4688 Y-10.25 I1.2993 J-1.2193
G3 X-136.9253 Y-11.9591 I4.7216 J0.5605
G3 X-136.0625 Y-13.5313 I18.2279 J8.9803
G3 X-134.9519 Y-14.9802 I5.9807 J3.4338
G3 X-133.25 Y-15.6406 I1.5024 J1.3485
G3 X-127.8594 Y-13.7656 I-9.0828 J34.7996
G2 X-121.2501 Y-11.7403 I18.276 J-47.8449
G2 X-114.5 Y-10.25 I36.835 J-150.8016
G2 X-109.8478 Y-9.3526 I29.013 J-137.901
G2 X-109.5781 Y-28.0625 I-242.126 J-12.8466
G2 X-109.7636 Y-34.2481 I-239.2828 J4.0793
G2 X-110.2737 Y-40.4155 I-63.456 J2.1433
G2 X-110.75 Y-42.125 I-5.5619 J0.6286
G2 X-112.3417 Y-42.7677 I-1.4731 J1.3557
G2 X-114.0542 Y-42.6503 I-0.2458 J8.9596
G2 X-117.3125 Y-41.8906 I4.297 J25.7979
G3 X-119.7818 Y-41.2442 I-11.3421 J-38.2887
G3 X-122.3177 Y-40.9538 I-2.2908 J-8.7849
G3 X-122.9375 Y-41.4219 I-0.0511 J-0.5768
G3 X-122.1878 Y-42.7431 I2.4749 J0.5311
G3 X-121.0905 Y-43.7936 I9.4327 J8.7549
G3 X-118.7188 Y-45.6406 I23.12 J27.2413
G2 X-115.4328 Y-48.7035 I-9.6489 J-13.6457
G2 X-113.3281 Y-52.6719 I-8.9429 J-7.2854
G3 X-111.968 Y-55.9544 I12.3158 J3.1799
G3 X-110.9844 Y-56.6563 I1.2142 J0.6616
G3 X-109.9325 Y-56.2888 I-0.1745 J2.1889
G3 X-109.0359 Y-55.6272 I-3.6936 J5.9441
G3 X-107.4688 Y-54.0781 I-11.7465 J13.4507
G3 X-105.1512 Y-49.8459 I-9.641 J8.03
G3 X-103.9531 Y-45.1719 I-30.1036 J10.2069
G3 X-103.3498 Y-38.9796 I-48.5057 J7.8518
G3 X-103.2209 Y-32.7594 I-142.5199 J6.065
G3 X-103.4844 Y-20.3281 I-324.0132 J-0.6498
G2 X-103.9157 Y-8.4412 I1317.1956 J53.7447
G2 X-99.2656 Y-7.9063 I18.4287 J-139.7098
G2 X-87.7813 Y-7.4375 I11.6059 J-143.4259
G3 X-82.9871 Y-7.2118 I0.5465 J39.4162
G3 X-81.4531 Y-6.7344 I-0.2376 J3.4667
G3 X-80.75 Y-4.8594 I-1.8389 J1.7589
G0 Z5.0
G0 X-140.8212 Y0.3537
G1 Z0.0
G3 X-140.75 Y2.1719 I-19.1227 J1.6595
G3 X-141.913 Y6.7273 I-14.7022 J-1.3274
G3 X-143.8252 Y11.0224 I-54.3455 J-21.6213
G3 X-148.25 Y19.2813 I-133.3101 J-66.1083
G2 X-144.8893 Y25.8832 I132.8733 J-63.4828
G2 X-140.9055 Y32.129 I37.8628 J-19.7569
G2 X-139.3438 Y33.5781 I5.3046 J-4.1507
G3 X-136.932 Y35.4391 I-4.3196 J8.0912
G3 X-136.5313 Y36.3906 I-1.2064 J1.0683
G3 X-136.9933 Y37.4455 I-1.8788 J-0.1943
G3 X-137.786 Y38.2807 I-5.2317 J-4.1712
G3 X-139.5781 Y39.6719 I-11.8712 J-13.4432
G3 X-141.4763 Y40.9041 I-18.7167 J-26.7533
G3 X-143.5625 Y41.7813 I-3.2682 J-4.8538
G3 X-145.0579 Y41.2564 I0.3605 J-3.4199
G3 X-146.375 Y40.375 I6.4793 J-11.1072
G2 X-150.0176 Y38.5872 I-8.8271 J13.38
G2 X-153.875 Y37.3281 I-19.4564 J53.0704
G2 X-162.8613 Y35.7678 I-11.5753 J40.0077
G3 X-166.6647 Y36.4792 I-7.9951 J-32.2233
G3 X-168.6361 Y36.4012 I-0.7451 J-6.126
G3 X-169.5781 Y35.6875 I0.2066 J-1.2512
G3 X-169.6115 Y33.9259 I2.1374 J-0.9216
G3 X-168.4063 Y32.6406 I2.6536 J1.2807
G2 X-167.4736 Y31.3006 I-1.9132 J-2.3262
G2 X-166.962 Y29.7503 I-11.218 J-4.5616
G2 X-166.3205 Y26.5835 I-31.3887 J-8.0072
G2 X-165.5938 Y20.2188 I-89.301 J-13.4202
G2 X-165.1296 Y6.1562 I-159.3941 J-12.3
G2 X-165.5938 Y-7.9063 I-288.7265 J2.4909
G2 X-166.3464 Y-19.1846 I-440.9458 J23.7637
G2 X-167.7031 Y-30.4063 I-109.4398 J7.5382
G3 X-168.4092 Y-34.0197 I128.1205 J-26.9123
G3 X-168.875 Y-37.6719 I26.6027 J-5.2484
G3 X-168.1627 Y-40.6736 I10.5301 J0.9133
G3 X-167.0 Y-43.5313 I39.8481 J14.5483
G3 X-164.928 Y-47.0652 I13.037 J5.2695
G3 X-163.7188 Y-47.75 I1.4407 J1.134
G3 X-163.2747 Y-47.2301 I-0.3155 J0.719
G3 X-163.0536 Y-46.5832 I-5.2066 J2.1413
G3 X-162.7499 Y-45.2748 I-15.8915 J4.3774
G3 X-162.3281 Y-42.6505 I-46.4875 J8.8176
G3 X-161.7374 Y-37.3978 I-135.6527 J17.9152
G3 X-160.9063 Y-26.8906 I-383.495 J35.6226
G3 X-160.2211 Y4.1641 I-444.6253 J25.3443
G3 X-160.8001 Y32.1035 I-1163.8698 J-10.1427
G3 X-154.5781 Y33.1094 I-3.7908 J43.1935
G2 X-150.366 Y33.8349 I6.5181 J-25.2513
G2 X-148.9531 Y33.5781 I0.3205 J-2.2518
G2 X-148.8583 Y32.6571 I-1.6229 J-0.6324
G2 X-148.9698 Y31.7379 I-12.4521 J1.0431
G2 X-149.3051 Y29.9284 I-35.4289 J5.6302
G2 X-150.1313 Y26.3561 I-98.4363 J20.8831
G2 X-152.0 Y19.2813 I-275.0771 J68.8744
G2 X-148.9021 Y11.2863 I-106.4534 J-45.8471
G2 X-148.25 Y8.5 I-11.4004 J-4.1374
G2 X-150.125 Y6.1563 I-2.2105 J-0.1534
G2 X-154.5781 Y5.6875 I-4.1738 J18.2642
G3 X-156.6399 Y5.4729 I-0.2554 J-7.5578
G3 X-157.1563 Y4.9844 I0.0978 J-0.6204
G3 X-156.759 Y4.4389 I0.9626 J0.2837
G3 X-156.2144 Y4.0402 I3.7847 J4.5986
G3 X-155.0667 Y3.3612 I9.0279 J13.9502
G3 X-152.7031 Y2.1719 I22.7361 J42.2398
G2 X-149.4555 Y0.2082 I-6.9798 J-15.211
G2 X-147.0781 Y-2.75 I-4.5869 J-6.1207
G3 X-146.1497 Y-4.4868 I8.165 J3.248
G3 X-144.5 Y-5.5625 I1.8945 J1.1027
G3 X-142.9725 Y-4.9529 I-0.0541 J2.3539
G3 X-141.9219 Y-3.6875 I-3.5617 J4.0261
G3 X-140.9615 Y-0.8327 I-6.795 J3.8749
G3 X-140.8212 Y0.3537 I-18.9824 J2.8459
G0 Z5.0
M5
M30
