( Made using CamBam - http://www.cambam.co.uk )
( Untitled 1/2/2014 11:04:39 PM )
( T0 : 0.0 )
G21 G90 G64 G40
G0 Z5.0
( T0 : 0.0 )
T0 M6
( DEFGHIJKQRTV )
G17
M3 S1000
G0 X11.3203 Y132.1172
G1 F500.0 Z-5.0
G1 F2000.0 X17.3672
G2 X25.8292 Y131.0375 I0.4147 J-30.4487
G2 X33.2578 Y126.8438 I-4.55 J-16.736
G2 X37.5424 Y119.6615 I-11.8307 J-11.9268
G2 X38.6719 Y111.375 I-26.9037 J-7.8872
G2 X37.4273 Y103.0991 I-25.718 J-0.3638
G2 X32.9766 Y96.0117 I-16.6183 J5.4947
G2 X25.5109 Y91.7242 I-12.6859 J13.446
G2 X16.9805 Y90.5625 I-8.1483 J27.932
G1 X11.3203
G1 Y132.1172
G0 Z5.0
G0 X23.384 Y46.5692
G1 F500.0 Z-5.0
G2 F2000.0 X25.8398 Y46.7227 I2.2141 J-15.7009
G2 X38.1445 Y40.8164 I0.4634 J-14.8052
G2 X41.7961 Y33.3336 I-16.1275 J-12.5025
G2 X42.7852 Y25.0664 I-31.1966 J-7.925
G2 X41.7938 Y16.7831 I-32.2636 J-0.3397
G2 X38.1445 Y9.2813 I-19.949 J5.0657
G2 X32.713 Y4.8264 I-12.0148 J9.1104
G2 X25.8398 Y3.375 I-6.6314 J14.403
G2 X13.5352 Y9.2813 I-0.4634 J14.8052
G2 X9.9121 Y16.7886 I16.4028 J12.544
G2 X8.9297 Y25.0664 I31.517 J7.9375
G2 X9.9098 Y33.3282 I32.4266 J0.3421
G2 X13.5352 Y40.8164 I19.8553 J-4.991
G2 X18.9667 Y45.2712 I12.0148 J-9.1104
G2 X23.384 Y46.5692 I6.6314 J-14.403
G0 Z5.0
G0 X63.0 Y45.8086
G1 F500.0 Z-5.0
G1 F2000.0 X68.9766
G2 X73.5679 Y45.4039 I0.2358 J-23.5729
G2 X77.8359 Y43.6641 I-1.8461 J-10.6336
G2 X80.1063 Y40.7761 I-3.9415 J-5.4349
G2 X80.7539 Y37.1602 I-8.7819 J-3.4389
G2 X80.0116 Y33.1288 I-10.4167 J-0.1661
G2 X77.5547 Y29.8477 I-7.7441 J3.2384
G2 X73.3727 Y27.759 I-6.7855 J8.3552
G2 X68.7305 Y27.2109 I-4.4339 J17.6216
G1 X63.0
G1 Y45.8086
G0 Z5.0
G0 Y49.957
G1 F500.0 Z-5.0
G1 F2000.0 X58.3594
G1 Y0.0
G1 X63.0
G1 Y23.0273
G1 X67.8867
G2 X70.7388 Y22.7687 I0.1312 J-14.4074
G2 X73.4063 Y21.7266 I-1.3686 J-7.4378
G2 X75.3879 Y19.7857 I-4.1533 J-6.2228
G2 X76.7461 Y17.3672 I-10.9568 J-7.7435
G1 X84.1641 Y0.0
G1 X89.332
G1 X81.1406 Y18.4219
G3 X79.8734 Y20.9085 I-22.5284 J-9.9148
G3 X78.1875 Y23.1328 I-9.1762 J-5.2039
G3 X74.4961 Y25.0664 I-5.1838 J-5.4059
G3 X79.0132 Y26.5604 I-3.752 J18.9197
G3 X82.8633 Y29.3555 I-5.5649 J11.7148
G3 X85.1081 Y33.0049 I-7.9166 J7.3849
G3 X85.8164 Y37.2305 I-11.5183 J4.1028
G3 X84.8931 Y42.4796 I-13.9666 J0.2491
G3 X81.668 Y46.7227 I-9.2999 J-3.7215
G3 X75.8292 Y49.3238 I-8.7529 J-11.7939
G3 X69.4688 Y49.957 I-6.0471 J-28.4793
G1 X63.0
G0 Z5.0
G0 X44.4702 Y39.9189
G1 F500.0 Z-5.0
G3 F2000.0 X41.8008 Y43.8398 I-20.6304 J-11.1761
G3 X34.6271 Y49.1786 I-14.6896 J-12.2494
G3 X25.8398 Y50.8359 I-8.4564 J-20.712
G3 X17.0352 Y49.1822 I-0.3342 J-22.4863
G3 X9.8438 Y43.8398 I7.4814 J-17.5823
G3 X5.1829 Y34.9509 I18.1217 J-15.1685
G3 X3.9023 Y24.9961 I34.847 J-9.5422
G3 X5.1806 Y15.024 I36.3014 J-0.4146
G3 X9.8438 Y6.1172 I22.7855 J6.2552
G3 X17.0352 Y0.7748 I14.6722 J12.2391
G3 X25.8398 Y-0.8789 I8.4706 J20.8327
G3 X28.0547 Y-0.7031 I-1.3812 J31.4445
G2 X29.4609 Y-0.5977 I8.5913 J-105.1235
G1 X39.0234 Y-9.6328
G1 X45.3516
G1 X34.2773 Y0.7031
G3 X44.332 Y9.9492 I-9.0078 J19.8856
G3 X46.9991 Y17.2546 I-22.3827 J12.3111
G3 X47.7422 Y24.9961 I-37.2188 J7.479
G3 X46.4663 Y34.9523 I-36.2287 J0.4171
G3 X44.4702 Y39.9189 I-22.6266 J-6.2095
G0 Z5.0
G0 X91.0547 Y45.6328
G1 F500.0 Z-5.0
G1 F2000.0 X105.6797
G1 Y0.0
G1 X110.2852
G1 Y45.6328
G1 X124.9102
G1 Y49.957
G1 X91.0547
G1 Y45.6328
G0 Z5.0
G0 X126.4219 Y49.957
G1 F500.0 Z-5.0
G1 F2000.0 X144.8438 Y0.0
G1 X149.8008
G1 X168.8203 Y49.957
G1 X164.1445
G1 X147.4453 Y5.0977
G1 X131.4492 Y49.957
G1 X126.4219
G0 Z5.0
G0 X136.8281 Y87.1875
G1 F500.0 Z-5.0
G3 F2000.0 X145.8633 Y86.0273 I8.6329 J31.4695
G3 X153.2813 Y86.6953 I0.1299 J40.0811
G3 X160.1719 Y88.6992 I-6.5161 J35.2553
G1 Y113.0977
G1 X144.0703
G1 Y109.0547
G1 X155.4961
G1 Y91.793
G2 X151.207 Y90.4219 I-8.0518 J17.7935
G2 X146.2852 Y89.9648 I-4.7748 J24.6897
G2 X137.887 Y91.2682 I-0.3363 J25.5419
G2 X130.6758 Y95.7656 I6.0736 J17.7684
G2 X126.2032 Y103.0209 I13.4702 J13.3102
G2 X124.9102 Y111.4453 I24.6037 J8.0877
G2 X126.1549 Y119.6322 I25.4045 J0.3255
G2 X130.4648 Y126.7031 I17.5824 J-5.8679
G2 X137.3237 Y131.1062 I12.8637 J-12.4945
G2 X145.3711 Y132.3984 I7.73 J-22.4352
G2 X151.8398 Y131.6953 I0.1395 J-28.824
G2 X157.7461 Y129.6563 I-5.4378 J-25.3242
G1 X158.6602 Y133.9805
G3 X152.2266 Y135.8086 I-12.2395 J-30.8387
G3 X145.3008 Y136.4063 I-6.7942 J-38.3051
G3 X133.2422 Y133.8398 I-0.3179 J-28.1192
G3 X124.6992 Y126.8438 I8.2351 J-18.7699
G3 X121.043 Y119.4609 I21.6041 J-15.2959
G3 X119.8828 Y111.3047 I26.8642 J-7.9818
G3 X122.3789 Y99.5273 I27.2261 J-0.3829
G3 X129.5859 Y90.7734 I20.7455 J9.7359
G3 X136.8281 Y87.1875 I13.5601 J18.2799
G0 Z5.0
G0 X112.957 Y110.0742
G1 F500.0 Z-5.0
G1 F2000.0 Y114.2578
G1 X95.1328
G1 Y132.2578
G1 X113.7656
G1 Y136.1953
G1 X90.4922
G1 Y86.2383
G1 X95.1328
G1 Y110.0742
G1 X112.957
G0 Z5.0
G0 X77.2734
G1 F500.0 Z-5.0
G1 F2000.0 Y114.2578
G1 X58.6406
G1 Y132.2578
G1 X78.3633
G1 Y136.1953
G1 X54.0
G1 Y86.2383
G1 X78.7852
G1 Y90.5625
G1 X58.6406
G1 Y110.0742
G1 X77.2734
G0 Z5.0
G0 X43.6985 Y110.6108
G1 F500.0 Z-5.0
G3 F2000.0 X43.6992 Y111.5156 I-29.8068 J0.4763
G3 X42.2 Y121.4695 I-30.6611 J0.4717
G3 X36.7031 Y129.9023 I-18.7767 J-6.2315
G3 X32.1659 Y132.9889 I-13.8876 J-15.5363
G3 X27.0307 Y134.9235 I-11.8392 J-23.6441
G3 X16.207 Y136.1953 I-10.2976 J-40.9434
G1 X6.6797
G1 Y86.2383
G1 X16.6289
G3 X27.2206 Y87.6642 I0.4688 J36.5693
G3 X36.5273 Y92.918 I-6.5025 J22.3887
G3 X42.1016 Y101.45 I-14.615 J15.6354
G3 X43.6985 Y110.6108 I-28.2099 J9.6371
G0 Z5.0
G0 X172.125
G1 F500.0 Z-5.0
G1 F2000.0 Y86.2383
G1 X176.7656
G1 Y110.1445
G1 X202.1484
G1 Y86.2383
G1 X206.7891
G1 Y136.1953
G1 X202.1484
G1 Y114.3281
G1 X176.7656
G1 Y136.1953
G1 X172.125
G1 Y110.6108
G0 Z5.0
G0 X220.1484
G1 F500.0 Z-5.0
G1 F2000.0 Y86.2383
G1 X224.7891
G1 Y136.1953
G1 X220.1484
G1 Y110.6108
G0 Z5.0
G0 X231.6094 Y90.9844
G1 F500.0 Z-5.0
G1 F2000.0 Y86.5898
G3 X234.1406 Y86.168 I5.5158 J25.2898
G3 X236.5664 Y86.0273 I2.4873 J21.9132
G3 X241.519 Y86.8625 I0.2603 J13.5585
G3 X245.4961 Y89.9297 I-3.1203 J8.1582
G3 X246.9764 Y92.8139 I-9.6369 J6.768
G3 X247.8002 Y95.9494 I-18.4218 J6.5159
G3 X248.3086 Y102.375 I-35.9461 J6.0771
G1 Y136.1953
G1 X243.7031
G1 Y103.1484
G2 X243.5352 Y99.3089 I-40.3872 J-0.1569
G2 X242.8532 Y95.5266 I-20.6822 J1.7764
G2 X241.8398 Y93.1641 I-9.25 J2.5691
G2 X239.1816 Y90.8581 I-5.0184 J3.0999
G2 X235.7227 Y90.2109 I-3.2722 J7.9214
G2 X233.8242 Y90.3867 I0.0427 J10.801
G2 X231.6094 Y90.9844 I3.3336 J16.7566
G0 Z5.0
G0 X261.6328
G1 F500.0 Z-5.0
G1 F2000.0 Y86.3086
G1 X266.2734
G1 Y111.0938
G1 X290.5313 Y86.3086
G1 X296.7891
G1 X270.8789 Y112.7461
G1 X294.9258 Y136.1953
G1 X288.9492
G1 X266.2734 Y114.1172
G1 Y136.1953
G1 X261.6328
G1 Y90.9844
G0 Z5.0
M5
M30
