( Made using CamBam - http://www.cambam.co.uk )
( Untitled 1/2/2014 11:49:16 PM )
( T0 : 0.0 )
G21 G90 G64 G40
G0 Z3.0
( T0 : 0.0 )
T0 M6
( Profile2 )
G17
M3 S1000
G0 X-12.7265 Y-79.5311
G0 Z1.4
G1 F300.0 Z0.0
G2 F800.0 X-12.1875 Y-78.6875 I9.3753 J-5.3957
G2 X-6.9141 Y-76.0859 I5.1512 J-3.7962
G2 X-3.0469 Y-77.7031 I0.1838 J-4.9929
G2 X-1.5 Y-81.8516 I-4.0787 J-3.8835
G2 X-4.1016 Y-88.1094 I-10.0101 J0.4918
G2 X-11.8359 Y-94.2266 I-22.4763 J20.4702
G2 X-13.5938 Y-90.1484 I15.1346 J8.9414
G2 X-14.1563 Y-85.4375 I18.8001 J4.6338
G2 X-12.7265 Y-79.5311 I10.8051 J0.5106
G0 Z3.0
G0 X75.6804 Y-87.0643
G0 Z1.4
G1 F300.0 Z0.0
G2 F800.0 X78.5156 Y-79.5313 I14.7688 J-1.2585
G2 X81.4242 Y-76.7835 I9.0117 J-6.626
G2 X85.2656 Y-75.6641 I3.8403 J-6.0272
G2 X90.3984 Y-77.7734 I0.4434 J-6.2208
G2 X91.808 Y-80.6426 I-5.3144 J-4.3917
G2 X92.1563 Y-83.8203 I-12.8885 J-3.0204
G1 Y-97.1094
G2 X88.3594 Y-99.9922 I-9.4903 J8.5576
G2 X84.4219 Y-100.9766 I-4.0334 J7.7664
G2 X78.0234 Y-97.6719 I-0.1751 J7.5076
G2 X76.1387 Y-93.3916 I10.1636 J7.0303
G2 X75.6328 Y-88.7422 I19.3751 J4.4606
G2 X75.6804 Y-87.0643 I14.8164 J0.4194
G0 Z3.0
G0 X90.9467 Y-111.0805
G0 Z1.4
G1 F300.0 Z0.0
G2 F800.0 X92.1563 Y-110.3281 I39.0574 J-61.4432
G1 Y-116.7969
G2 X91.3096 Y-127.5165 I-62.7175 J-0.4398
G2 X88.0078 Y-137.75 I-34.8037 J5.5798
G2 X83.9979 Y-143.2512 I-16.8846 J8.0954
G2 X77.6719 Y-145.7656 I-6.3505 J6.762
G2 X73.5234 Y-143.4453 I-0.0569 J4.7669
G2 X72.0469 Y-137.2578 I9.9186 J5.6369
G2 X73.3919 Y-129.8179 I21.3312 J-0.015
G2 X77.0391 Y-123.1953 I25.0313 J-9.4693
G2 X84.017 Y-116.0796 I34.1604 J-26.5197
G2 X90.9467 Y-111.0805 I45.987 J-56.4441
G0 Z3.0
G0 X90.2475 Y-110.0308
G0 Z1.4
G1 F300.0 Z0.0
G3 F800.0 X81.9277 Y-116.0121 I79.5495 J-119.4294
G3 X72.6797 Y-124.4609 I43.7415 J-57.1645
G3 X68.3077 Y-130.5789 I24.2499 J-21.9505
G3 X66.2813 Y-137.8203 I13.4899 J-7.6792
G3 X66.8085 Y-141.5494 I12.257 J-0.1687
G3 X68.7422 Y-144.7813 I7.5492 J2.3224
G3 X71.9253 Y-146.7606 I5.6256 J5.4977
G3 X75.6328 Y-147.3125 I3.5446 J11.0833
G3 X85.3986 Y-144.3082 I0.1171 J16.9941
G3 X92.3672 Y-136.8359 I-14.9933 J20.9681
G3 X97.6785 Y-123.7836 I-34.1794 J21.5152
G3 X99.1172 Y-109.7656 I-62.3205 J13.479
G1 Y-106.1797
G3 X113.0391 Y-95.4219 I-30.9651 J54.4596
G3 X123.0234 Y-81.5703 I-40.6796 J39.8466
G1 X121.8281 Y-81.0781
G2 X112.4063 Y-94.5078 I-47.816 J23.5264
G2 X99.1172 Y-104.5625 I-40.8713 J40.2095
G1 Y-81.3594
G2 X99.6094 Y-76.0859 I21.1058 J0.6898
G2 X101.3672 Y-73.4844 I4.8806 J-1.4031
G1 Y-72.2891
G1 X93.6328 Y-76.9297
G3 X89.4141 Y-74.9609 I-10.031 J-15.9905
G3 X85.5469 Y-74.3281 I-3.9448 J-11.9745
G3 X79.1871 Y-75.872 I-0.0166 J-13.8023
G3 X74.0156 Y-79.8828 I8.9091 J-16.8267
G3 X69.9046 Y-86.5074 I12.9337 J-12.6142
G2 X62.9063 Y-95.2813 I-48.674 J31.646
G2 X58.7712 Y-98.7887 I-20.7765 J20.3029
G2 X53.6953 Y-100.6953 I-5.7709 J7.6534
G2 X51.5859 Y-99.4297 I-0.0718 J2.2709
G2 X50.9531 Y-95.4922 I9.0776 J3.4785
G1 Y-79.9531
G3 X49.2656 Y-75.9453 I-5.1884 J0.1746
G3 X44.9063 Y-74.3281 I-4.125 J-4.4353
G3 X41.1259 Y-75.1909 I0.2633 J-9.8671
G3 X37.7344 Y-77.0703 I8.1467 J-18.701
G3 X29.0859 Y-84.875 I26.1399 J-37.6599
G1 Y-77.0703
G1 Y-76.6484
G2 X29.4375 Y-74.8203 I4.4133 J0.0992
G2 X30.6328 Y-73.3438 I4.9948 J-2.8213
G1 Y-72.2891
G1 X22.0547 Y-74.75
G1 Y-83.3814
G2 X18.3587 Y-89.1632 I-62.0696 J35.6056
G2 X12.0703 Y-96.2656 I-34.7723 J24.452
G2 X6.5774 Y-99.9987 I-16.1686 J17.8831
G2 X0.1172 Y-101.5391 I-6.6029 J13.375
G2 X-6.0 Y-99.9219 I-0.0167 J12.3148
G2 X-11.1328 Y-95.2109 I8.148 J14.0294
G3 X-5.5675 Y-91.7345 I-35.4407 J62.9296
G3 X-0.5156 Y-87.5469 I-19.2887 J28.4103
G3 X1.9083 Y-84.3643 I-11.1407 J10.9996
G3 X3.0 Y-80.5156 I-6.8491 J4.0219
G3 X0.8906 Y-76.0859 I-5.5255 J0.0859
G3 X-4.3828 Y-74.3281 I-4.9509 J-6.0636
G3 X-15.7031 Y-78.8281 I-0.2723 J-15.8038
G3 X-20.3438 Y-89.7266 I9.9782 J-10.686
G3 X-15.9844 Y-100.0625 I13.2721 J-0.4895
G3 X-10.6277 Y-103.1192 I9.6981 J10.7734
G3 X-4.5234 Y-104.0 I5.8703 J19.0897
G3 X11.4375 Y-98.4453 I0.0252 J25.6363
G3 X18.8951 Y-90.6961 I-25.368 J31.8763
G3 X22.0547 Y-86.0353 I-54.0626 J40.051
G1 Y-96.5469
G2 X21.4922 Y-101.6797 I-19.2804 J-0.4843
G2 X19.7344 Y-104.5625 I-5.5818 J1.4262
G1 Y-105.7578
G1 X29.0859 Y-103.1563
G1 Y-86.5625
G2 X36.0469 Y-79.8828 I46.9378 J-41.9473
G2 X38.104 Y-78.497 I9.1285 J-11.3307
G2 X40.4766 Y-77.7734 I2.6742 J-4.5174
G2 X43.2188 Y-78.8281 I0.283 J-3.3565
G2 X43.912 Y-80.4112 I-2.759 J-2.1516
G2 X44.0625 Y-82.1328 I-8.6674 J-1.6251
G1 Y-98.6563
G3 X45.3281 Y-102.5234 I5.7652 J-0.2539
G3 X48.4922 Y-104.0 I3.1028 J2.5204
G3 X55.6706 Y-102.1012 I-0.3634 J15.8918
G3 X61.7813 Y-97.8828 I-14.6256 J27.7216
G3 X68.8171 Y-90.3235 I-30.6977 J35.6256
G3 X69.0561 Y-90.0003 I-51.3163 J38.2178
G3 X68.8828 Y-92.4688 I17.8932 J-2.4967
G3 X69.4958 Y-97.0034 I15.572 J-0.2038
G3 X71.7656 Y-100.9766 I9.4289 J2.7517
G3 X75.5306 Y-103.333 I6.7665 J6.625
G3 X79.9219 Y-104.0 I4.2035 J12.8859
G3 X86.25 Y-102.6641 I-0.109 J16.172
G3 X92.1563 Y-98.7969 I-8.4312 J19.3205
G1 Y-108.7813
G3 X90.2475 Y-110.0308 I77.6408 J-120.6789
G0 Z3.0
G0 X-33.4219 Y-49.4375
G0 Z1.4
G1 F300.0 Z0.0
G1 F800.0 X-34.2656 Y-48.5938
G1 X-37.8516 Y-51.4063
G3 X-41.7188 Y-50.2109 I-12.3605 J-33.1364
G3 X-44.3906 Y-49.7188 I-3.4039 J-10.98
G3 X-46.507 Y-50.2905 I0.9863 J-7.8538
G3 X-48.5291 Y-51.1375 I14.1258 J-36.5618
G3 X-52.4766 Y-53.0234 I43.1995 J-95.4939
G2 X-54.4453 Y-54.0078 I-18.5957 J34.7305
G2 X-58.2422 Y-45.2891 I35.5602 J20.672
G2 X-59.5078 Y-36.4297 I30.357 J8.8568
G2 X-58.2422 Y-28.9766 I22.2287 J0.0593
G2 X-54.4453 Y-22.0859 I22.4166 J-7.8606
G1 Y-20.75
G3 X-63.1641 Y-32.4922 I28.0129 J-29.908
G3 X-66.1172 Y-45.0781 I26.0061 J-12.7414
G3 X-64.816 Y-53.1344 I37.136 J1.8645
G3 X-62.5313 Y-60.9688 I122.7225 J31.5402
G2 X-60.0986 Y-69.77 I-92.5535 J-30.3182
G2 X-58.9453 Y-78.8281 I-42.3629 J-9.9963
G2 X-65.2734 Y-95.9844 I-24.4243 J-0.7362
G2 X-80.6719 Y-102.875 I-15.102 J13.0976
G2 X-89.6719 Y-100.3438 I-0.5992 J15.1351
G2 X-93.1875 Y-93.9453 I4.2421 J6.4959
G2 X-91.7109 Y-89.7969 I6.616 J-0.0178
G2 X-87.0 Y-86.1406 I12.2562 J-10.9286
G1 X-92.3438 Y-84.3828
G3 X-93.1875 Y-84.2422 I-2.9859 J-15.3137
G3 X-93.8906 Y-84.1016 I-0.8116 J-2.23
G3 X-97.9688 Y-86.0703 I0.0643 J-5.3414
G3 X-99.6563 Y-90.7813 I5.1522 J-4.5033
G3 X-97.9292 Y-96.0796 I9.2073 J0.0705
G3 X-93.9609 Y-99.9922 I13.5605 J9.7848
G3 X-80.3906 Y-104.1406 I13.0728 J18.4939
G3 X-58.875 Y-94.7891 I0.5141 J28.2441
G3 X-52.223 Y-83.898 I-23.1688 J21.6279
G3 X-50.1563 Y-71.3047 I-34.9602 J12.2038
G3 X-51.0703 Y-63.5 I-33.813 J-0.0042
G3 X-53.8828 Y-55.3438 I-39.371 J-9.0132
G2 X-51.4922 Y-54.5 I6.0975 J-13.4677
G2 X-49.7344 Y-54.1484 I2.1718 J-6.2888
G2 X-46.7109 Y-55.0625 I-0.2422 J-6.2584
G2 X-43.0547 Y-57.9453 I-10.0943 J-16.5625
G1 X-33.4219 Y-49.4375
G0 Z3.0
G0 X-37.7146 Y-22.4045
G0 Z1.4
G1 F300.0 Z0.0
G3 F800.0 X-34.4063 Y-21.1719 I-1.3992 J8.8117
G3 X-32.1563 Y-17.5156 I-2.8526 J4.2759
G1 X-31.7344 Y-13.1563
G2 X-35.3906 Y-16.8125 I-9.6917 J6.0355
G2 X-40.0313 Y-17.8672 I-4.4113 J8.6728
G2 X-47.5874 Y-16.7782 I2.3103 J42.7889
G2 X-55.0078 Y-14.9844 I35.8883 J164.7043
G3 X-63.7108 Y-13.0183 I-28.8833 J-107.6088
G3 X-72.5859 Y-12.1016 I-9.7455 J-50.9292
G3 X-90.1641 Y-18.2188 I-0.7972 J-26.0237
G3 X-97.1953 Y-33.2656 I12.1576 J-14.8474
G3 X-96.5947 Y-38.0838 I17.9952 J-0.2034
G3 X-94.3828 Y-42.4063 I11.0923 J2.9491
G3 X-86.7188 Y-45.7109 I7.2357 J6.2413
G3 X-83.9766 Y-45.2188 I0.1774 J6.8964
G3 X-82.2188 Y-43.6719 I-1.5298 J3.5106
G1 X-80.5313 Y-40.5078
G2 X-81.5859 Y-40.7188 I-1.893 J6.7227
G2 X-82.7109 Y-40.7891 I-1.0638 J7.9863
G2 X-88.2656 Y-37.9766 I0.1311 J7.1504
G2 X-90.5859 Y-31.0156 I8.4428 J6.6815
G2 X-84.8906 Y-18.5 I15.9455 J0.2976
G2 X-78.3036 Y-14.6305 I12.8991 J-14.4171
G2 X-70.7578 Y-13.4375 I7.3131 J-21.7943
G2 X-61.5326 Y-14.8355 I-0.6139 J-35.1886
G2 X-52.7578 Y-18.0078 I-18.1338 J-63.8803
G3 X-42.917 Y-21.7964 I43.806 J99.1113
G3 X-39.4688 Y-22.5078 I4.5807 J13.4897
G3 X-37.7146 Y-22.4045 I0.3549 J8.9151
G0 Z3.0
M5
M30
