( Made using CamBam - http://www.cambam.co.uk )
( Untitled 1/2/2014 10:50:46 PM )
( T0 : 0.0 )
G21 G90 G64 G40
G0 Z10.0
( T0 : 0.0 )
T0 M6
( G )
G17
M3 S1000
G0 X42.6797 Y47.7422
G1 F500.0 Z0.0
G3 F2000.0 X36.2461 Y49.5703 I-12.2395 J-30.8387
G3 X29.3203 Y50.168 I-6.7942 J-38.3051
G3 X17.2617 Y47.6016 I-0.3179 J-28.1192
G3 X8.7188 Y40.6055 I8.2351 J-18.7699
G3 X5.0625 Y33.2227 I21.6041 J-15.2959
G3 X3.9023 Y25.0664 I26.8642 J-7.9818
G3 X6.3984 Y13.2891 I27.2261 J-0.3829
G3 X13.6055 Y4.5352 I20.7455 J9.7359
G3 X20.8477 Y0.9492 I13.5601 J18.2799
G3 X29.8828 Y-0.2109 I8.6329 J31.4695
G3 X37.3008 Y0.457 I0.1299 J40.0811
G3 X44.1914 Y2.4609 I-6.5161 J35.2553
G1 Y26.8594
G1 X28.0898
G1 Y22.8164
G1 X39.5156
G1 Y5.5547
G2 X35.2266 Y4.1836 I-8.0518 J17.7935
G2 X30.3047 Y3.7266 I-4.7748 J24.6897
G2 X21.9065 Y5.0299 I-0.3363 J25.5419
G2 X14.6953 Y9.5273 I6.0736 J17.7684
G2 X10.2227 Y16.7826 I13.4702 J13.3102
G2 X8.9297 Y25.207 I24.6037 J8.0877
G2 X10.1744 Y33.3939 I25.4045 J0.3255
G2 X14.4844 Y40.4648 I17.5824 J-5.8679
G2 X21.3432 Y44.8679 I12.8637 J-12.4945
G2 X29.3906 Y46.1602 I7.73 J-22.4352
G2 X35.8594 Y45.457 I0.1395 J-28.824
G2 X41.7656 Y43.418 I-5.4378 J-25.3242
G1 X42.6797 Y47.7422
G0 Z10.0
M5
M30
