( Made using CamBam - http://www.cambam.co.uk )
( Untitled 1/6/2014 11:52:54 PM )
( T0 : 0.0 )
G21 G90 G64 G40
G0 Z5.0
( T0 : 0.0 )
T0 M6
( Profile1 )
G17
M3 S1000
G0 X-144.1976 Y-69.8138
G1 F2000.0 Z0.0
G3 X-142.8672 Y-69.9844 I0.8805 J1.5938
G3 X-141.7944 Y-68.8603 I-0.899 J1.932
G3 X-141.3405 Y-67.3743 I-5.5759 J2.5152
G3 X-141.1094 Y-64.3594 I-16.6853 J2.7956
G3 X-142.7491 Y-32.7122 I-1633.5725 J-68.7756
G1 X-144.2885 Y-6.6812
G3 X-118.0536 Y-3.4041 I-608.1767 J4975.4418
G3 X-85.9141 Y1.0313 I-165.7298 J1319.5846
G2 X-60.9531 Y4.8984 I842.0384 J-5352.4855
G2 X-55.5039 Y5.4151 I7.0057 J-44.8925
G2 X-50.0547 Y4.8984 I0.9128 J-19.3673
G2 X-47.0699 Y3.6628 I-2.8861 J-11.1947
G2 X-44.7813 Y1.3828 I-3.2506 J-5.5516
G2 X-43.7966 Y-1.6878 I-10.6154 J-5.0974
G2 X-43.2776 Y-4.8705 I-42.9003 J-8.6285
G2 X-42.6719 Y-11.2734 I-108.6615 J-13.5101
G2 X-43.7266 Y-35.5313 I-129.6602 J-6.5144
G2 X-45.664 Y-48.0192 I-165.9536 J19.3524
G2 X-46.8906 Y-52.0547 I-17.6589 J3.1635
G2 X-49.4214 Y-53.8352 I-3.1672 J1.813
G2 X-52.5156 Y-53.8125 I-1.4862 J8.3248
G2 X-63.7656 Y-51.0 I18.6541 J98.5226
G3 X-66.9874 Y-50.1369 I-14.3841 J-47.2499
G3 X-70.3019 Y-49.7646 I-2.9108 J-10.9735
G3 X-71.1484 Y-50.2969 I-0.0181 J-0.9106
G3 X-70.5976 Y-51.555 I1.935 J0.0975
G3 X-69.6734 Y-52.5707 I9.0102 J7.2701
G3 X-67.6558 Y-54.3806 I22.9896 J23.5981
G3 X-63.4141 Y-57.6797 I59.8873 J72.6233
G2 X-57.5992 Y-62.6547 I-28.3358 J-39.0056
G2 X-53.2188 Y-68.9297 I-14.0317 J-14.4615
G3 X-51.4722 Y-72.2332 I14.1546 J5.3701
G3 X-48.2969 Y-74.2031 I3.5243 J2.1366
G3 X-44.67 Y-72.5588 I-0.496 J5.9163
G3 X-41.9688 Y-69.6328 I-12.7834 J14.5111
G3 X-38.1847 Y-62.698 I-24.9614 J18.1201
G3 X-35.6406 Y-55.2188 I-66.7553 J26.8794
G3 X-31.4219 Y-33.4219 I-133.7133 J37.1867
G3 X-30.3672 Y-11.2734 I-146.4005 J18.0708
G2 X-29.9119 Y-2.1168 I42.2109 J2.4907
G2 X-28.6094 Y0.6797 I5.2468 J-0.7422
G3 X-26.5 Y4.1953 I-2.8078 J4.0753
G3 X-27.0258 Y5.3339 I-2.0802 J-0.27
G3 X-27.8859 Y6.2465 I-6.4778 J-5.2433
G3 X-29.8069 Y7.808 I-15.1252 J-16.6451
G3 X-33.8828 Y10.5234 I-37.0987 J-51.2685
G3 X-38.6413 Y13.3111 I-52.3445 J-83.8947
G3 X-43.7266 Y15.4453 I-10.264 J-17.3314
G3 X-48.6484 Y14.0391 I-0.7502 J-6.6908
G2 X-53.0786 Y12.499 I-7.5011 J14.4355
G2 X-57.6764 Y11.5726 I-19.1481 J83.1665
G2 X-66.9297 Y10.1719 I-38.8811 J225.5798
G3 X-112.9844 Y3.4922 I414.7667 J-3021.8147
G2 X-142.4647 Y-0.4281 I-102.1882 J655.6464
G2 X-145.5841 Y-0.7288 I-12.2346 J110.5988
G3 X-153.4751 Y1.2505 I-14.6663 J-41.7519
G3 X-156.54 Y1.1229 I-1.1965 J-8.1278
G3 X-157.9844 Y-0.0234 I0.4858 J-2.0953
G3 X-158.0224 Y-3.5517 I3.8583 J-1.806
G3 X-155.875 Y-6.3516 I7.5039 J3.532
G2 X-153.7995 Y-9.5624 I-6.0096 J-6.161
G2 X-152.7592 Y-13.2414 I-19.235 J-7.4254
G2 X-152.0078 Y-20.7656 I-47.4992 J-8.543
G2 X-151.6563 Y-43.6172 I-730.9273 J-22.6735
G3 X-151.3047 Y-57.6797 I186.7927 J-2.3658
G3 X-149.8508 Y-61.685 I14.8337 J3.1181
G3 X-147.7891 Y-65.4141 I47.5518 J23.8558
G3 X-144.5896 Y-69.5224 I14.2961 J7.8333
G3 X-144.1976 Y-69.8138 I1.2725 J1.3024
G0 Z5.0
G0 X-116.7867 Y-45.7851
G1 Z0.0
G3 X-116.1484 Y-46.4297 I5.6216 J4.928
G3 X-114.1801 Y-47.0612 I1.7049 J1.9307
G3 X-112.9844 Y-45.375 I-0.9432 J1.936
G3 X-112.4047 Y-42.1023 I-22.4234 J5.6594
G3 X-85.9027 Y-37.9464 I-99.8838 J723.5371
G3 X-76.091 Y-35.6059 I-11.5648 J70.2168
G3 X-75.0156 Y-34.8281 I-0.4572 J1.7644
G3 X-77.125 Y-30.9609 I-5.0774 J-0.2606
G3 X-79.1602 Y-29.9499 I-3.5765 J-4.6455
G2 X-78.642 Y-28.7149 I47.2672 J-19.11
G2 X-75.7042 Y-23.7518 I19.4404 J-8.156
G2 X-72.5547 Y-21.4688 I5.5209 J-4.3023
G3 X-68.6674 Y-19.6112 I-2.7956 J10.8467
G3 X-67.9844 Y-18.3047 I-1.1315 J1.4233
G3 X-68.692 Y-16.5947 I-3.3556 J-0.3873
G3 X-69.8746 Y-15.1713 I-10.3672 J-7.4105
G3 X-72.5547 Y-12.6797 I-24.3636 J-23.5188
G3 X-75.7307 Y-10.1551 I-37.8598 J-44.3694
G3 X-79.2344 Y-8.1094 I-9.358 J-12.004
G3 X-82.0756 Y-8.3747 I-1.0707 J-3.8789
G3 X-84.5078 Y-9.8672 I4.6215 J-10.2597
G2 X-88.417 Y-11.6974 I-7.8766 J11.7339
G2 X-92.58 Y-12.8375 I-15.1922 J47.3016
G2 X-101.0313 Y-14.4375 I-26.9649 J119.3113
G2 X-111.5405 Y-15.8682 I-35.7063 J222.9765
G2 X-117.913 Y-16.4106 I-11.7413 J100.2317
G3 X-121.7734 Y-15.8438 I-13.7825 J-80.4352
G3 X-125.046 Y-15.7561 I-1.9841 J-12.9387
G3 X-127.75 Y-17.6016 I-0.0104 J-2.8884
G3 X-127.6047 Y-20.0166 I3.2009 J-1.0193
G3 X-125.9922 Y-21.8203 I4.2741 J2.1983
G2 X-124.0554 Y-24.5647 I-4.9843 J-5.5732
G2 X-122.8343 Y-27.6939 I-26.2453 J-12.0442
G2 X-121.0703 Y-34.125 I-71.3371 J-23.0249
G3 X-118.0852 Y-43.6853 I52.2179 J11.0582
G3 X-116.7867 Y-45.7851 I6.9202 J2.8282
G0 Z5.0
G0 X-112.6483 Y-36.1644
G1 Z0.0
G3 X-102.4078 Y-34.0888 I-745.8305 J3705.9244
G3 X-95.3695 Y-32.6231 I-207.2475 J1012.8371
G3 X-91.8559 Y-31.861 I-58.4275 J277.8628
G3 X-88.375 Y-30.9609 I-6.3581 J31.7713
G2 X-87.9109 Y-30.7069 I1.4594 J-2.115
G2 X-86.6172 Y-25.6875 I32.8206 J-5.7828
G3 X-85.681 Y-22.2332 I-38.7054 J12.3446
G3 X-85.3934 Y-20.4523 I-15.039 J3.342
G3 X-85.5625 Y-18.6563 I-3.7072 J0.5569
G3 X-86.6237 Y-18.3689 I-0.9887 J-1.548
G3 X-95.0158 Y-18.8824 I0.0209 J-69.166
G3 X-114.7467 Y-21.4027 I79.3262 J-699.5292
G3 X-114.8381 Y-23.3745 I15.3266 J-1.6979
G3 X-114.0391 Y-29.5547 I27.0631 J0.3571
G2 X-112.9362 Y-34.6137 I-114.6255 J-27.6384
G2 X-112.6483 Y-36.1644 I-31.1148 J-6.5773
G0 Z5.0
G0 X-66.4771 Y-40.0333
G1 Z0.0
G2 X-64.5918 Y-40.4273 I-3.4211 J-21.0772
G2 X-60.8533 Y-41.4335 I-13.5579 J-57.8227
G2 X-60.7834 Y-41.455 I-2.9123 J-9.5665
G3 X-54.9213 Y-43.072 I26.9218 J86.1651
G3 X-53.6593 Y-34.373 I-154.7589 J26.8932
G2 X-53.6327 Y-34.1645 I9.9327 J-1.1583
G3 X-52.6556 Y-11.8492 I-118.6994 J16.3767
G3 X-53.2005 Y-6.1099 I-99.2836 J-6.5314
G3 X-53.4186 Y-4.6369 I-33.4964 J-4.2064
G3 X-55.0331 Y-4.5738 I-1.1725 J-9.3153
G2 X-55.1613 Y-4.579 I-0.4708 J9.9889
G3 X-59.4112 Y-4.982 I1.2139 J-35.4151
G2 X-59.4451 Y-4.9872 I-1.5419 J9.8804
G3 X-65.1489 Y-5.8604 I815.5694 J-5346.467
G2 X-62.6799 Y-8.2261 I-29.0893 J-32.8298
G2 X-62.6673 Y-8.2392 I-7.1947 J-6.9452
G2 X-60.6724 Y-10.6191 I-16.392 J-15.766
G2 X-58.0503 Y-17.1582 I-10.6676 J-8.0728
G2 X-58.005 Y-18.9468 I-9.9341 J-1.1465
G2 X-62.4445 Y-27.4391 I-11.7939 J0.7589
G2 X-62.7011 Y-27.6364 I-6.2229 J7.8279
G2 X-66.0198 Y-29.6597 I-12.6491 J17.0144
G2 X-65.0288 Y-34.3156 I-14.0732 J-5.429
G2 X-66.4771 Y-40.0333 I-9.9869 J-0.5126
G0 Z5.0
G0 X-10.3634 Y-19.5477
G1 Z0.0
G3 X-10.3748 Y-10.7206 I-167.4589 J4.1966
G3 X-10.4019 Y-10.0954 I-19.9924 J-0.5529
G2 X-10.4406 Y-8.7517 I22.2456 J1.3126
G3 X-7.4165 Y-2.0579 I-20.9766 J13.5067
G3 X0.4058 Y-5.9276 I49.5508 J90.3214
G3 X7.9623 Y-8.1732 I11.8856 J26.1594
G3 X9.3134 Y-15.0531 I46.2337 J5.5066
G3 X-4.1751 Y-17.281 I44.0906 J-308.8865
G3 X-10.3634 Y-19.5477 I3.6908 J-19.6565
G0 Z5.0
G0 X-0.4844 Y-36.9375
G1 Z0.0
G3 X0.6352 Y-39.6958 I4.8534 J0.3636
G3 X2.6797 Y-41.8594 I11.8459 J9.146
G3 X4.7846 Y-43.5585 I16.5551 J18.3553
G3 X7.25 Y-44.6719 I3.3456 J4.122
G3 X11.7032 Y-43.449 I-4.0068 J23.3106
G3 X16.0391 Y-41.8594 I-53.5694 J152.8256
G2 X29.3984 Y-39.0469 I14.4525 J-35.5146
G2 X36.3571 Y-39.8923 I-1.9643 J-45.232
G2 X43.2213 Y-41.3139 I-30.9534 J-166.7306
G2 X56.8203 Y-44.6719 I-94.5365 J-412.071
G2 X99.0078 Y-56.9766 I-202.4426 J-772.5628
G3 X118.6369 Y-62.6287 I81.1246 J244.8258
G3 X125.375 Y-63.6563 I8.7857 J35.0041
G3 X138.0313 Y-61.5469 I-0.9839 J44.927
G3 X158.0703 Y-54.5156 I-103.1849 J326.1483
G3 X164.063 Y-52.1241 I-54.7661 J145.9365
G3 X169.8293 Y-49.229 I-14.8717 J36.811
G3 X171.0781 Y-47.8359 I-1.2387 J2.3667
G3 X170.3654 Y-47.3368 I-0.8281 J-0.424
G3 X169.5155 Y-47.1502 I-1.9791 J-6.9873
G3 X167.8207 Y-46.9513 I-3.3764 J-21.4463
G3 X164.4496 Y-46.7826 I-4.8245 J-62.6448
G3 X157.7379 Y-46.756 I-4.0616 J-178.2159
G3 X144.3594 Y-47.1328 I7.5663 J-506.3697
G2 X128.7194 Y-47.6884 I-73.0815 J1836.9027
G2 X113.0703 Y-47.8359 I-10.2359 J255.6661
G2 X103.1829 Y-46.2311 I20.6433 J158.4477
G2 X96.8992 Y-45.0465 I213.9526 J1152.1406
G3 X96.9769 Y-44.8272 I-6.0522 J2.2675
G3 X97.3891 Y-43.4109 I-17.993 J6.0051
G3 X98.0181 Y-40.5572 I-52.6604 J13.1026
G3 X99.0078 Y-34.8281 I-152.8701 J29.3598
G3 X100.0625 Y-13.3828 I-94.9207 J15.4168
G2 X99.4625 Y6.8277 I427.3936 J22.8023
G2 X99.4147 Y11.9207 I1766.8143 J19.1217
G2 X112.0156 Y14.0391 I1517.5599 J-8988.6114
G2 X120.4336 Y15.4032 I148.2692 J-888.293
G2 X128.8906 Y16.5 I18.4198 J-108.877
G3 X130.3919 Y17.036 I0.1731 J1.8857
G3 X130.6484 Y18.6094 I-1.662 J1.0786
G3 X128.5912 Y20.8194 I-3.2177 J-0.9328
G3 X126.7034 Y21.5264 I-5.7255 J-12.4137
G2 X129.2786 Y25.4736 I82.5053 J-51.0121
G2 X134.0456 Y30.9939 I22.9316 J-14.984
G2 X135.9219 Y31.9688 I3.1051 J-3.6834
G3 X138.1863 Y32.6793 I-1.7057 J9.3991
G3 X139.7891 Y34.4297 I-0.9534 J2.4819
G3 X139.443 Y35.5294 I-1.5059 J0.1304
G3 X138.6697 Y36.3844 I-4.5627 J-3.3495
G3 X136.8927 Y37.7688 I-10.7273 J-11.9374
G3 X133.1094 Y40.0547 I-25.9029 J-38.5967
G3 X128.4922 Y42.4542 I-46.4099 J-83.661
G3 X123.6172 Y44.2734 I-9.8178 J-18.8672
G3 X119.3984 Y42.8672 I-0.791 J-4.6582
G2 X117.3654 Y41.793 I-4.1923 J5.4734
G2 X115.1843 Y41.0646 I-11.4845 J30.7605
G2 X110.7549 Y39.8864 I-24.4447 J82.9818
G2 X101.8203 Y37.9453 I-55.3309 J233.1489
G2 X99.3571 Y37.4465 I-141.1663 J690.7777
G2 X99.476 Y54.4223 I1893.9668 J-4.7812
G3 X99.7109 Y54.4688 I-199.3593 J1008.1558
G3 X123.9688 Y59.3906 I-251.2186 J1300.3881
G3 X125.8943 Y60.2775 I-1.0217 J4.7521
G3 X126.7813 Y62.2031 I-1.5039 J1.8597
G3 X125.5287 Y64.596 I-3.2857 J-0.1956
G3 X123.2656 Y66.0703 I-6.6796 J-7.7793
G3 X117.6406 Y67.8281 I-6.9836 J-12.4686
G3 X110.9938 Y66.4845 I9.8458 J-65.8167
G3 X104.4073 Y64.8711 I115.3168 J-485.0394
G3 X99.6046 Y63.6534 I357.8549 J-1421.4667
G2 X99.7109 Y69.5859 I1893.7193 J-30.9881
G2 X100.374 Y80.708 I140.5498 J-2.7982
G2 X101.1172 Y84.3516 I16.3147 J-1.4302
G3 X101.4688 Y88.9219 I-5.6963 J2.7369
G3 X100.1099 Y90.4827 I-3.127 J-1.3504
G3 X98.2895 Y91.467 I-6.1842 J-9.2619
G3 X94.4375 Y92.7891 I-11.443 J-27.0683
G3 X88.8667 Y93.7636 I-6.5773 J-21.1878
G3 X87.0547 Y93.1406 I-0.1945 J-2.381
G3 X86.8653 Y91.8582 I1.1245 J-0.8212
G3 X87.4707 Y90.7119 I3.6546 J1.197
G3 X89.1641 Y88.9219 I9.5595 J7.3472
G2 X89.9451 Y87.3589 I-3.0418 J-2.4967
G2 X90.3656 Y85.663 I-17.6029 J-5.2644
G2 X90.9175 Y82.2338 I-48.5905 J-9.579
G2 X91.5987 Y75.3533 I-135.9066 J-16.9302
G2 X92.3523 Y61.7818 I-383.7136 J-28.1137
G3 X91.2734 Y61.5 I369.9099 J-1418.3773
G3 X73.5388 Y56.439 I77.2986 J-304.4714
G3 X67.8582 Y54.075 I8.5783 J-28.6206
G3 X67.3672 Y53.4141 I0.4153 J-0.8214
G3 X68.4191 Y51.7786 I2.6208 J0.5296
G3 X70.1797 Y50.9531 I3.1026 J4.3269
G3 X75.4531 Y50.25 I5.141 J18.4302
G3 X81.556 Y51.0702 I-5.2101 J61.8807
G3 X87.6185 Y52.1498 I-64.8262 J381.608
G3 X92.642 Y53.0949 I-187.5018 J1010.4283
G2 X93.0044 Y36.2022 I-1076.8507 J-31.5545
G2 X79.3203 Y33.7266 I-132.3505 J692.5209
G2 X70.3926 Y32.7703 I-12.9357 J78.6114
G3 X65.604 Y33.1747 I-9.8112 J-87.6027
G3 X59.9578 Y32.9035 I-1.8033 J-21.3674
G3 X58.5781 Y31.9688 I0.273 J-1.8885
G3 X58.9482 Y29.5171 I2.6323 J-0.8564
G3 X60.6875 Y27.75 I5.8519 J4.0204
G2 X62.7009 Y25.3842 I-5.6413 J-6.8405
G2 X64.1448 Y22.6336 I-20.2228 J-12.3703
G2 X66.3125 Y16.8516 I-50.5172 J-22.2362
G3 X69.3474 Y8.7532 I66.6737 J20.3689
G3 X70.8828 Y6.3047 I9.1026 J4.0021
G3 X72.1481 Y5.2002 I7.7123 J7.5576
G3 X73.6953 Y4.5469 I1.8697 J2.2693
G3 X74.4281 Y5.3214 I-0.198 J0.9212
G3 X74.6458 Y6.3651 I-5.3069 J1.6517
G3 X74.7422 Y7.7204 I-17.0743 J1.8954
G2 X91.0485 Y10.5042 I1542.2324 J-8984.4111
G2 X83.7852 Y1.5283 I-323.5467 J254.3863
G2 X71.5599 Y-12.0026 I-162.0958 J134.1668
G2 X62.4453 Y-20.0625 I-61.1779 J59.9997
G3 X56.477 Y-24.6306 I136.0958 J-183.995
G3 X50.905 Y-29.6746 I25.5953 J-33.8741
G3 X50.4922 Y-30.6094 I1.112 J-1.0496
G3 X50.9114 Y-30.8519 I0.3729 J0.1609
G3 X51.3943 Y-30.8146 I0.0659 J2.2865
G3 X52.2915 Y-30.5891 I-1.2986 J7.0654
G3 X53.9808 Y-29.9694 I-6.6069 J20.623
G3 X57.2176 Y-28.519 I-24.4139 J58.8191
G3 X63.5 Y-25.3359 I-78.7124 J163.1475
G3 X72.778 Y-19.2765 I-33.7878 J61.8677
G3 X81.3294 Y-12.2288 I-88.6874 J116.3215
G3 X93.15 Y-1.046 I-193.3113 J216.174
G2 X92.5687 Y-17.9537 I-456.9213 J7.2442
G2 X91.625 Y-25.3359 I-45.8659 J2.1119
G3 X92.3281 Y-39.3984 I19.7358 J-6.062
G3 X94.9014 Y-44.6624 I32.2469 J12.5029
G2 X93.3424 Y-44.3602 I222.2341 J1150.5719
G2 X73.6953 Y-40.4531 I540.1219 J2767.3973
G3 X40.048 Y-34.4441 I-122.3505 J-587.8909
G3 X39.1447 Y-34.3125 I-14.2399 J-94.5934
G3 X40.0015 Y-24.6896 I-45.9082 J8.9369
G3 X37.4844 Y-14.0859 I-24.2759 J-0.162
G2 X33.9561 Y-6.5754 I68.5074 J36.7677
G2 X33.2656 Y-3.8906 I8.7037 J3.6694
G2 X34.431 Y1.447 I27.2479 J-3.1529
G2 X36.0781 Y6.6563 I146.5155 J-43.4629
G2 X39.4786 Y14.6302 I40.3758 J-12.5061
G2 X41.3516 Y16.8516 I6.7913 J-3.8258
G3 X42.9843 Y18.3278 I-4.772 J6.9193
G3 X43.8125 Y20.3672 I-2.4372 J2.1776
G3 X43.0425 Y21.9228 I-2.548 J-0.2929
G3 X41.7519 Y23.0835 I-7.0305 J-6.5191
G3 X38.8906 Y24.9375 I-15.7022 J-21.0982
G3 X35.3489 Y26.7366 I-17.881 J-30.8144
G3 X31.5078 Y27.75 I-4.619 J-9.7217
G3 X27.2891 Y25.2891 I0.1685 J-5.1354
G2 X24.3694 Y23.46 I-6.3988 J6.9696
G2 X21.1887 Y22.1359 I-22.8067 J50.3018
G2 X14.7141 Y19.8478 I-52.8704 J139.3
G2 X1.625 Y15.7969 I-130.5944 J398.7976
G3 X8.6137 Y12.311 I40.5093 J72.4666
G3 X11.1172 Y11.5781 I3.6776 J7.9207
G3 X15.7569 Y12.759 I-3.0358 J21.6333
G3 X20.2578 Y14.3906 I-41.2744 J120.8797
G2 X23.8694 Y15.6542 I21.9667 J-56.9924
G2 X27.6149 Y16.4359 I5.0063 J-14.6229
G2 X28.6953 Y16.1484 I0.1561 J-1.5872
G2 X29.2088 Y14.3382 I-2.5862 J-1.7116
G2 X29.1685 Y12.457 I-15.3493 J-0.6118
G2 X28.6953 Y8.7656 I-42.4716 J3.5682
G3 X27.6406 Y-3.1875 I71.9876 J-12.3749
G3 X28.7305 Y-10.2142 I26.5554 J0.521
G3 X31.1563 Y-16.8984 I50.2945 J14.47
G2 X33.4914 Y-26.0699 I-27.932 J-11.9946
G2 X33.4821 Y-33.6866 I-40.8478 J-3.7588
G3 X28.6953 Y-33.4219 I-7.6741 J-95.3509
G3 X14.0342 Y-34.5883 I1.9607 J-117.3686
G3 X-0.4844 Y-36.9375 I39.3698 J-289.3513
G0 Z5.0
G0 X74.3551 Y12.9414
G1 Z0.0
G2 X93.1909 Y16.7919 I337.9265 J-1605.0811
G3 X93.0703 Y31.1953 I-1673.3442 J-6.8081
G2 X82.2026 Y29.3594 I-86.7633 J480.5209
G2 X72.0211 Y28.0646 I-20.2028 J118.1843
G2 X73.2402 Y20.5789 I-787.2699 J-132.0548
G2 X74.1384 Y14.5143 I-313.6641 J-49.5577
G2 X74.3551 Y12.9414 I-60.776 J-9.1737
G0 Z5.0
G0 X99.3769 Y18.0057
G1 Z0.0
G2 X111.9625 Y20.2951 I112.7093 J-583.8567
G2 X118.8106 Y21.3498 I36.0039 J-211.0139
G2 X119.9451 Y21.497 I11.0137 J-80.416
G3 X120.4123 Y27.3849 I-406.8481 J35.242
G3 X120.6432 Y31.4336 I-139.618 J9.9926
G3 X120.6874 Y33.4655 I-50.3664 J2.112
G3 X120.4531 Y35.4844 I-5.8245 J0.3472
G3 X118.9801 Y35.5477 I-0.9061 J-3.914
G3 X108.0858 Y33.9358 I17.6011 J-156.58
G3 X99.3511 Y32.362 I139.4378 J-798.9488
G3 X99.3594 Y27.0469 I1893.9728 J0.3032
G3 X99.3769 Y18.0057 I1766.9174 J-1.0975
G0 Z5.0
G0 X102.875 Y-1.0781
G1 Z0.0
G3 X125.6896 Y-17.5679 I479.5196 J639.4196
G3 X133.5976 Y-22.6223 I64.3152 J91.9112
G3 X135.9219 Y-23.5781 I4.075 J6.6051
G3 X138.301 Y-21.8917 I0.0873 J2.3982
G3 X138.7344 Y-19.0078 I-7.6943 J2.6308
G3 X136.9042 Y-13.6796 I-9.6119 J-0.3231
G3 X133.1094 Y-9.5156 I-18.1126 J-12.6958
G3 X119.0469 Y-2.8359 I-19.6239 J-23.171
G3 X102.875 Y-1.0781 I-16.6219 J-77.6516
G0 Z5.0
G0 X81.3295 Y-25.2915
G1 Z0.0
G2 X78.8638 Y-27.2115 I-97.239 J122.3366
G2 X74.4338 Y-30.394 I-49.1516 J63.7432
G2 X75.7066 Y-30.6574 I-123.089 J-597.95
G3 X80.7162 Y-31.6674 I557.7577 J2753.6945
G2 X81.3295 Y-25.2915 I30.6447 J0.2694
G0 Z5.0
G0 X63.027 Y-6.385
G1 Z0.0
G3 X64.4205 Y-5.0006 I-52.6449 J54.3821
G2 X64.4374 Y-4.9833 I7.1395 J-7.002
G3 X66.3846 Y-2.9798 I-142.748 J140.6784
G2 X66.0205 Y-2.7038 I7.6332 J10.4493
G2 X63.7405 Y-0.6944 I12.5747 J16.5661
G2 X63.2726 Y-0.1826 I7.1423 J6.9991
G2 X60.2079 Y4.695 I15.1774 J12.938
G2 X56.7587 Y13.8976 I72.7783 J32.5254
G3 X54.9992 Y18.589 I-43.1311 J-13.5003
G3 X54.1975 Y20.1214 I-12.5211 J-5.5752
G2 X53.8123 Y20.435 I10.6027 J13.4161
G2 X53.8036 Y19.9446 I-9.9998 J-0.0679
G2 X50.5361 Y11.7722 I-13.2564 J0.5607
G2 X47.9707 Y9.3141 I-13.9566 J11.9987
G3 X45.6304 Y3.6975 I28.4833 J-15.164
G2 X45.5574 Y3.4714 I-9.5523 J2.9587
G3 X44.0181 Y-1.3969 I135.389 J-45.4873
G2 X43.9399 Y-1.6483 I-9.5871 J2.8439
G3 X43.4669 Y-3.4095 I16.5737 J-5.3952
G3 X46.2956 Y-9.357 I62.5249 J26.0912
G2 X46.4473 Y-9.6513 I-8.8112 J-4.7289
G2 X49.227 Y-17.6037 I-30.7217 J-15.2004
G2 X50.3544 Y-16.7233 I32.8453 J-40.901
G2 X56.431 Y-12.0729 I148.1867 J-187.3342
G3 X63.027 Y-6.385 I-46.0489 J60.07
G0 Z5.0
G0 X71.5599 Y-12.0026
G0 Z1.0
G1 Z0.0
G3 X83.7852 Y1.5283 I-149.8705 J147.6976
G3 X91.0485 Y10.5042 I-316.2834 J263.3623
G3 X74.7422 Y7.7204 I1525.9261 J-8987.1949
G2 X74.6458 Y6.3651 I-17.1707 J0.5401
G2 X74.4281 Y5.3214 I-5.5246 J0.608
G2 X73.6953 Y4.5469 I-0.9307 J0.1467
G2 X72.1481 Y5.2002 I0.3225 J2.9226
G2 X70.8828 Y6.3047 I6.4471 J8.6622
G2 X69.3474 Y8.7532 I7.5672 J6.4507
G2 X66.3125 Y16.8516 I63.6387 J28.4672
G3 X64.1448 Y22.6336 I-52.6849 J-16.4542
G3 X62.7009 Y25.3842 I-21.6667 J-9.6197
G3 X60.6875 Y27.75 I-7.6546 J-4.4747
G2 X58.9482 Y29.5171 I4.1126 J5.7875
G2 X58.5781 Y31.9688 I2.2622 J1.5953
G2 X59.9578 Y32.9035 I1.6527 J-0.9538
G2 X65.604 Y33.1747 I3.843 J-21.0961
G2 X70.3926 Y32.7703 I-5.0227 J-88.0072
G3 X79.3203 Y33.7266 I-4.0079 J79.5678
G3 X93.0044 Y36.2022 I-118.6663 J694.9965
G3 X92.642 Y53.0949 I-1077.2132 J-14.6618
G2 X87.6185 Y52.1498 I-192.5253 J1009.4832
G2 X81.556 Y51.0702 I-70.8887 J380.5284
G2 X75.4531 Y50.25 I-11.313 J61.0605
G2 X70.1797 Y50.9531 I-0.1325 J19.1333
G2 X68.4191 Y51.7786 I1.342 J5.1524
G2 X67.3672 Y53.4141 I1.5689 J2.1651
G2 X67.8582 Y54.075 I0.9063 J-0.1604
G2 X73.5388 Y56.439 I14.2589 J-26.2566
G2 X91.2734 Y61.5 I95.0332 J-299.4104
G2 X92.3523 Y61.7818 I370.9888 J-1418.0955
G3 X91.5987 Y75.3533 I-384.4672 J-14.5422
G3 X90.9175 Y82.2338 I-136.5879 J-10.0497
G3 X90.3656 Y85.663 I-49.1424 J-6.1498
G3 X89.9451 Y87.3589 I-18.0234 J-3.5685
G3 X89.1641 Y88.9219 I-3.8229 J-0.9337
G2 X87.4707 Y90.7119 I7.8661 J9.1372
G2 X86.8653 Y91.8582 I3.0492 J2.3433
G2 X87.0547 Y93.1406 I1.3139 J0.4612
G2 X88.8667 Y93.7636 I1.6175 J-1.758
G2 X94.4375 Y92.7891 I-1.0065 J-22.1624
G2 X98.2895 Y91.467 I-7.591 J-28.3903
G2 X100.1099 Y90.4827 I-4.3638 J-10.2462
G2 X101.4688 Y88.9219 I-1.7682 J-2.9113
G2 X101.1172 Y84.3516 I-6.0479 J-1.8335
G3 X100.374 Y80.708 I15.5715 J-5.0738
G3 X99.7109 Y69.5859 I139.8867 J-13.9202
G3 X99.6046 Y63.6534 I1893.613 J-36.9207
G2 X104.4073 Y64.8711 I362.6577 J-1420.2489
G2 X110.9938 Y66.4845 I121.9033 J-483.4261
G2 X117.6406 Y67.8281 I16.4925 J-64.473
G2 X123.2656 Y66.0703 I-1.3586 J-14.2264
G2 X125.5287 Y64.596 I-4.4166 J-9.2536
G2 X126.7813 Y62.2031 I-2.0332 J-2.5885
G2 X125.8943 Y60.2775 I-2.3908 J-0.0659
G2 X123.9688 Y59.3906 I-2.9473 J3.8652
G2 X99.7109 Y54.4688 I-275.4764 J1295.4662
G2 X99.476 Y54.4223 I-199.5943 J1008.1093
G3 X99.3571 Y37.4465 I1893.8479 J-21.757
G3 X101.8203 Y37.9453 I-138.7031 J691.2766
G3 X110.7549 Y39.8864 I-46.3963 J235.09
G3 X115.1843 Y41.0646 I-20.0153 J84.16
G3 X117.3654 Y41.793 I-9.3034 J31.4888
G3 X119.3984 Y42.8672 I-2.1592 J6.5476
G2 X123.6172 Y44.2734 I3.4277 J-3.252
G2 X128.4922 Y42.4542 I-4.9428 J-20.6865
G2 X133.1094 Y40.0547 I-41.7928 J-86.0605
G2 X136.8927 Y37.7688 I-22.1196 J-40.8826
G2 X138.6697 Y36.3844 I-8.9503 J-13.3217
G2 X139.443 Y35.5294 I-3.7893 J-4.2045
G2 X139.7891 Y34.4297 I-1.1599 J-0.9693
G2 X138.1863 Y32.6793 I-2.5561 J0.7316
G2 X135.9219 Y31.9688 I-3.9701 J8.6885
G3 X134.0456 Y30.9939 I1.2288 J-4.6583
G3 X129.2786 Y25.4736 I18.1646 J-20.5043
G3 X126.7034 Y21.5264 I79.9302 J-54.9593
G2 X128.5912 Y20.8194 I-3.8377 J-13.1207
G2 X130.6484 Y18.6094 I-1.1605 J-3.1428
G2 X130.3919 Y17.036 I-1.9186 J-0.4948
G2 X128.8906 Y16.5 I-1.3282 J1.3496
G3 X120.4336 Y15.4032 I9.9628 J-109.9738
G3 X112.0156 Y14.0391 I139.8512 J-889.6571
G3 X99.4147 Y11.9207 I1504.959 J-8990.7298
G3 X99.4625 Y6.8277 I1766.862 J14.0287
G3 X100.0625 Y-13.3828 I427.9936 J2.5918
G2 X99.0078 Y-34.8281 I-95.9754 J-6.0285
G2 X98.0181 Y-40.5572 I-153.8599 J23.6307
G2 X97.3891 Y-43.4109 I-53.2894 J10.2489
G2 X96.9769 Y-44.8272 I-18.4052 J4.5888
G2 X96.8992 Y-45.0465 I-6.1299 J2.0482
G3 X103.1829 Y-46.2311 I220.2363 J1150.956
G3 X113.0703 Y-47.8359 I30.5307 J156.8429
G3 X128.7194 Y-47.6884 I5.4132 J255.8137
G3 X144.3594 Y-47.1328 I-57.4416 J1837.4583
G2 X157.7379 Y-46.756 I20.9449 J-505.9929
G2 X164.4496 Y-46.7826 I2.6501 J-178.2425
G2 X167.8207 Y-46.9513 I-1.4533 J-62.8135
G2 X169.5155 Y-47.1502 I-1.6816 J-21.6452
G2 X170.3654 Y-47.3368 I-1.1292 J-7.1739
G2 X171.0781 Y-47.8359 I-0.1154 J-0.9232
G2 X169.8293 Y-49.229 I-2.4875 J0.9736
G2 X164.063 Y-52.1241 I-20.638 J33.9159
G2 X158.0703 Y-54.5156 I-60.7588 J143.545
G2 X138.0313 Y-61.5469 I-123.224 J319.117
G2 X125.375 Y-63.6563 I-13.6402 J42.8176
G2 X118.6369 Y-62.6287 I2.0476 J36.0317
G2 X99.0078 Y-56.9766 I61.4955 J250.4779
G3 X56.8203 Y-44.6719 I-244.6301 J-760.2581
G3 X43.2213 Y-41.3139 I-108.1355 J-408.713
G3 X36.3571 Y-39.8923 I-37.8175 J-165.309
G3 X29.3984 Y-39.0469 I-8.923 J-44.3867
G3 X16.0391 Y-41.8594 I1.0931 J-38.3271
G2 X11.7032 Y-43.449 I-57.9053 J151.236
G2 X7.25 Y-44.6719 I-8.46 J22.0877
G2 X4.7846 Y-43.5585 I0.8802 J5.2354
G2 X2.6797 Y-41.8594 I14.4502 J20.0544
G2 X0.6352 Y-39.6958 I9.8014 J11.3097
G2 X-0.4844 Y-36.9375 I3.7338 J3.1218
G2 X14.0342 Y-34.5883 I53.8884 J-287.0021
G2 X28.6953 Y-33.4219 I16.6218 J-116.2022
G2 X33.4821 Y-33.6866 I-2.8873 J-95.6156
G3 X33.4914 Y-26.0699 I-40.8386 J3.8579
G3 X31.1563 Y-16.8984 I-30.2671 J-2.8232
G2 X28.7305 Y-10.2142 I47.8687 J21.1542
G2 X27.6406 Y-3.1875 I25.4655 J7.5477
G2 X28.6953 Y8.7656 I73.0423 J-0.4218
G3 X29.1685 Y12.457 I-41.9985 J7.2596
G3 X29.2088 Y14.3382 I-15.309 J1.2694
G3 X28.6953 Y16.1484 I-3.0997 J0.0986
G3 X27.6149 Y16.4359 I-0.9243 J-1.2997
G3 X23.8694 Y15.6542 I1.2608 J-15.4047
G3 X20.2578 Y14.3906 I18.3551 J-58.256
G2 X15.7569 Y12.759 I-45.7753 J119.248
G2 X11.1172 Y11.5781 I-7.6754 J20.4524
G2 X8.6137 Y12.311 I1.1742 J8.6536
G2 X1.625 Y15.7969 I33.5206 J75.9525
G3 X14.7141 Y19.8478 I-117.5052 J402.8486
G3 X21.1887 Y22.1359 I-46.3958 J141.5881
G3 X24.3694 Y23.46 I-19.6261 J51.6259
G3 X27.2891 Y25.2891 I-3.4791 J8.7986
G2 X31.5078 Y27.75 I4.3873 J-2.6745
G2 X35.3489 Y26.7366 I-0.7779 J-10.7351
G2 X38.8906 Y24.9375 I-14.3393 J-32.6136
G2 X41.7519 Y23.0835 I-12.8409 J-22.9522
G2 X43.0425 Y21.9228 I-5.74 J-7.6798
G2 X43.8125 Y20.3672 I-1.778 J-1.8485
G2 X42.9843 Y18.3278 I-3.2654 J0.1381
G2 X41.3516 Y16.8516 I-6.4048 J5.4431
G3 X39.4786 Y14.6302 I4.9183 J-6.0472
G3 X36.0781 Y6.6563 I36.9754 J-20.48
G3 X34.431 Y1.447 I144.8683 J-48.6721
G3 X33.2656 Y-3.8906 I26.0826 J-8.4906
G3 X33.9561 Y-6.5754 I9.3941 J0.9847
G3 X37.4844 Y-14.0859 I72.0357 J29.2571
G2 X40.0015 Y-24.6896 I-21.7588 J-10.7658
G2 X39.1447 Y-34.3125 I-46.765 J-0.686
G2 X40.048 Y-34.4441 I-13.3367 J-94.725
G2 X73.6953 Y-40.4531 I-88.7032 J-593.8999
G3 X93.3424 Y-44.3602 I559.769 J2763.4902
G3 X94.9014 Y-44.6624 I223.7931 J1150.2697
G2 X92.3281 Y-39.3984 I29.6736 J17.7669
G2 X91.625 Y-25.3359 I19.0327 J8.0005
G3 X92.5687 Y-17.9537 I-44.9221 J9.4942
G3 X93.15 Y-1.046 I-456.3401 J24.152
G2 X81.3294 Y-12.2288 I-205.1319 J204.9912
G2 X72.778 Y-19.2765 I-97.2389 J109.2738
G2 X63.5 Y-25.3359 I-43.0658 J55.8083
G2 X57.2176 Y-28.519 I-84.9948 J159.9645
G2 X53.9808 Y-29.9694 I-27.6506 J57.3687
G2 X52.2915 Y-30.5891 I-8.2963 J20.0032
G2 X51.3943 Y-30.8146 I-2.1958 J6.8399
G2 X50.9114 Y-30.8519 I-0.417 J2.2491
G2 X50.4922 Y-30.6094 I-0.0463 J0.4035
G2 X50.905 Y-29.6746 I1.5248 J-0.1148
G2 X56.477 Y-24.6306 I31.1673 J-28.83
G2 X62.4453 Y-20.0625 I142.0641 J-179.4269
G3 X71.5599 Y-12.0026 I-52.0632 J68.0596
G0 Z5.0
G0 X74.3551 Y12.9414
G0 Z1.0
G1 Z0.0
G3 X74.1384 Y14.5143 I-60.9926 J-7.6009
G3 X73.2402 Y20.5789 I-314.5624 J-43.493
G3 X72.0211 Y28.0646 I-788.489 J-124.5691
G3 X82.2026 Y29.3594 I-10.0213 J119.4791
G3 X93.0703 Y31.1953 I-75.8956 J482.3568
G2 X93.1909 Y16.7919 I-1673.2236 J-21.2114
G3 X74.3551 Y12.9414 I319.0908 J-1608.9315
G0 Z5.0
G0 X99.3769 Y18.0057
G0 Z1.0
G1 Z0.0
G2 X99.3594 Y27.0469 I1766.8999 J7.9438
G2 X99.3511 Y32.362 I1893.9645 J5.6184
G2 X108.0858 Y33.9358 I148.1725 J-797.3751
G2 X118.9801 Y35.5477 I28.4954 J-154.9681
G2 X120.4531 Y35.4844 I0.5669 J-3.9773
G2 X120.6874 Y33.4655 I-5.5903 J-1.6716
G2 X120.6432 Y31.4336 I-50.4106 J0.0801
G2 X120.4123 Y27.3849 I-139.8489 J5.9439
G2 X119.9451 Y21.497 I-407.3152 J29.3541
G3 X118.8106 Y21.3498 I9.8792 J-80.5633
G3 X111.9625 Y20.2951 I29.1558 J-212.0686
G3 X99.3769 Y18.0057 I100.1238 J-586.1461
G0 Z5.0
G0 X102.875 Y-1.0781
G0 Z1.0
G1 Z0.0
G2 X119.0469 Y-2.8359 I-0.45 J-79.4094
G2 X133.1094 Y-9.5156 I-5.5614 J-29.8507
G2 X136.9042 Y-13.6796 I-14.3177 J-16.8598
G2 X138.7344 Y-19.0078 I-7.7818 J-5.6513
G2 X138.301 Y-21.8917 I-8.1277 J-0.2531
G2 X135.9219 Y-23.5781 I-2.2919 J0.7118
G2 X133.5976 Y-22.6223 I1.7506 J7.5609
G2 X125.6896 Y-17.5679 I56.4072 J96.9656
G2 X102.875 Y-1.0781 I456.705 J655.9093
G0 Z5.0
G0 X110.2504 Y-18.8961
G1 Z0.0
G2 X108.8854 Y-36.3884 I-106.1633 J-0.5152
G2 X108.7768 Y-37.0847 I-163.7375 J25.191
G3 X113.8277 Y-37.8491 I24.9369 J147.6965
G3 X128.3194 Y-37.6964 I4.6559 J245.8269
G2 X128.407 Y-37.6933 I0.4 J-9.992
G3 X143.9539 Y-37.141 I-57.1291 J1827.4631
G2 X157.5885 Y-36.7571 I21.3504 J-515.9847
G1 X157.5893
G2 X164.6774 Y-36.7852 I2.7987 J-188.2414
G2 X164.6809 Y-36.7853 I-0.2278 J-9.9974
G2 X168.5886 Y-36.9808 I-1.6846 J-72.8108
G2 X168.5953 Y-36.9813 I-0.7679 J-9.9705
G2 X171.0705 Y-37.2719 I-2.4561 J-31.6152
G1 X171.0707
G2 X172.6364 Y-37.5933 I-2.6844 J-17.0522
G2 X179.9792 Y-43.2783 I-2.3864 J-10.6667
G2 X180.3902 Y-51.4808 I-8.901 J-4.5576
G2 X174.8403 Y-57.8851 I-11.7996 J4.6185
G2 X167.8882 Y-61.3639 I-25.649 J42.572
G2 X161.6286 Y-63.8613 I-64.584 J152.7848
G2 X141.0567 Y-71.0782 I-126.7822 J328.4626
G2 X125.594 Y-73.6539 I-16.6656 J52.3489
G2 X124.8076 Y-73.6401 I-0.219 J9.9976
G2 X116.2288 Y-72.3344 I2.6149 J46.0155
G2 X95.9041 Y-66.4828 I63.9036 J260.1837
G3 X54.2855 Y-54.3453 I-241.5264 J-750.7519
G2 X54.2626 Y-54.3392 I2.5348 J9.6734
G3 X40.9882 Y-51.0614 I-105.5778 J-399.0457
G3 X34.5318 Y-49.7243 I-35.5845 J-155.5615
G2 X34.3862 Y-49.6961 I1.8253 J9.832
G3 X29.3287 Y-49.0552 I-6.9522 J-34.5828
G3 X19.8084 Y-51.1218 I1.1629 J-28.3188
G2 X19.6147 Y-51.1982 I-3.7693 J9.2624
G2 X15.1364 Y-52.8421 I-61.481 J160.5749
G2 X8.944 Y-54.5273 I-11.8932 J31.4808
G2 X5.5921 Y-54.5335 I-1.694 J9.8555
G2 X-1.2524 Y-51.5331 I2.5381 J15.097
G2 X-3.9474 Y-49.3486 I20.4872 J28.029
G2 X-7.1787 Y-45.9375 I16.4285 J18.7988
G2 X-10.4564 Y-37.6846 I11.5477 J9.3636
G2 X-2.3298 Y-27.1092 I9.9721 J0.7471
G2 X12.6525 Y-24.6841 I55.7337 J-296.8304
G2 X22.9347 Y-23.6397 I18.0035 J-126.1063
G3 X21.9854 Y-20.8856 I-19.7104 J-5.2533
G2 X19.131 Y-13.0162 I57.0396 J25.1414
G2 X17.6425 Y-3.3836 I35.065 J10.3496
G2 X17.6408 Y-3.1298 I9.9981 J0.1961
G2 X17.8962 Y2.9164 I83.0422 J-0.4796
G2 X12.5069 Y1.6752 I-9.8148 J30.295
G2 X9.7726 Y1.6689 I-1.3897 J9.903
G2 X4.503 Y3.1947 I2.5187 J18.5628
G2 X-3.2544 Y7.0681 I37.6314 J85.0688
G2 X-1.1752 Y25.3968 I4.8794 J8.7288
G3 X11.6011 Y29.3509 I-114.7051 J393.2486
G3 X17.6377 Y31.4842 I-43.2828 J132.085
G3 X20.24 Y32.5676 I-16.0751 J42.2776
G2 X20.2897 Y32.59 I4.1294 J-9.1076
G2 X31.1798 Y37.7446 I11.3867 J-9.9754
G2 X32.2306 Y37.7238 I0.328 J-9.9946
G2 X39.4942 Y35.8377 I-1.5007 J-20.7089
G2 X43.8429 Y33.6254 I-18.4846 J-41.7147
G2 X47.7223 Y31.1056 I-17.7932 J-31.6401
G2 X47.7386 Y31.0934 I-5.9704 J-8.0221
G2 X48.4555 Y30.5312 I-11.7267 J-15.6898
G2 X49.0688 Y35.0626 I12.7549 J0.5812
G2 X49.9169 Y36.967 I9.5094 J-3.0939
G2 X58.2833 Y42.7628 I10.314 J-5.9521
G2 X63.1889 Y43.2447 I5.5175 J-30.9554
G2 X62.5919 Y43.6519 I8.3327 J12.8608
G2 X62.5514 Y43.6811 I5.8272 J8.1267
G2 X57.5653 Y51.4332 I7.4365 J10.2626
G2 X57.5203 Y55.1571 I9.8018 J1.9809
G2 X63.1509 Y62.898 I10.7532 J-1.9034
G2 X70.5855 Y65.9933 I18.9663 J-35.0796
G2 X81.9728 Y69.3763 I97.9865 J-308.9646
G3 X81.6256 Y74.621 I-374.0877 J-22.1367
G3 X80.9945 Y80.9947 I-126.6147 J-9.3174
G3 X80.6358 Y83.3036 I-39.2195 J-4.9108
G2 X79.542 Y84.6181 I16.3943 J14.7554
G1 X79.5417 Y84.6184
G2 X77.3885 Y88.6658 I10.9782 J8.4368
G2 X78.9789 Y99.0383 I10.7907 J3.6537
G2 X80.2836 Y100.4995 I8.0758 J-5.8976
G2 X89.4452 Y103.7474 I8.3886 J-9.1168
G2 X97.2086 Y102.3989 I-1.585 J-32.1462
G2 X102.1833 Y100.6778 I-10.3621 J-38.0002
G2 X102.2079 Y100.6674 I-3.8938 J-9.2108
G2 X105.5162 Y98.8963 I-8.2822 J-19.4466
G2 X110.6492 Y92.8865 I-7.1745 J-11.3248
G2 X111.0387 Y91.823 I-9.1805 J-3.9647
G2 X110.5203 Y80.8965 I-15.6178 J-4.7346
G3 X110.3358 Y79.8347 I6.1685 J-1.6187
G2 X110.3248 Y79.7177 I-9.9618 J0.8733
G3 X110.0484 Y76.5478 I129.9359 J-12.93
G2 X116.1612 Y77.7181 I17.438 J-74.5364
G2 X118.5913 Y77.7828 I1.4795 J-9.89
G2 X127.8773 Y74.9467 I-2.3093 J-24.1811
G2 X131.9062 Y72.2995 I-9.0282 J-18.13
G2 X136.7636 Y62.7975 I-8.4107 J-10.292
G2 X136.7775 Y62.4787 I-9.9823 J-0.5944
G2 X132.1822 Y52.5018 I-12.387 J-0.3415
G2 X131.9579 Y52.3256 I-6.2879 J7.7758
G2 X131.5984 Y52.0599 I-9.0108 J11.8171
G2 X132.9764 Y51.3933 I-12.924 J-28.4729
G2 X137.9154 Y48.8242 I-46.2769 J-94.9996
G2 X142.4652 Y46.0722 I-26.9256 J-49.6521
G2 X142.4695 Y46.0693 I-5.5726 J-8.3034
G2 X145.3537 Y43.8224 I-14.5271 J-21.6223
G2 X145.3644 Y43.8128 I-6.684 J-7.438
G2 X147.3627 Y41.6367 I-10.4841 J-11.6329
G2 X149.7518 Y33.5668 I-9.0795 J-7.0766
G2 X149.4031 Y31.6781 I-9.9627 J0.8629
G2 X142.1189 Y23.4834 I-12.1701 J3.4831
G2 X139.8251 Y22.637 I-7.9027 J17.8844
G2 X140.253 Y21.3936 I-12.3945 J-4.9604
G2 X140.3316 Y21.1067 I-9.6046 J-2.7843
G2 X138.7804 Y11.5924 I-11.6017 J-2.9921
G2 X137.4062 Y9.9086 I-8.3885 J5.4436
G2 X129.2935 Y6.4943 I-8.3425 J8.477
G3 X125.0235 Y5.9935 I9.5599 J-99.9681
G2 X139.5722 Y-1.8846 I-11.5381 J-38.6802
G2 X139.5824 Y-1.8933 I-6.4628 J-7.631
G2 X145.0488 Y-7.8771 I-20.7908 J-24.4821
G2 X148.7287 Y-18.6719 I-15.9264 J-11.4538
G2 X148.7295 Y-18.6966 I-9.9944 J-0.3359
G2 X147.7992 Y-25.0205 I-18.1229 J-0.5643
G2 X135.5582 Y-33.5715 I-11.7901 J3.8406
G2 X133.6662 Y-33.3204 I0.3637 J9.9934
G2 X128.4778 Y-31.2129 I4.0063 J17.3032
G2 X119.9661 Y-25.7679 I61.527 J105.5562
G2 X110.2504 Y-18.8961 I462.4286 J664.1094
G0 Z5.0
G0 X43.1297 Y48.2245
G1 Z0.0
G3 X43.3085 Y48.422 I-1.9076 J1.9076
G3 X44.5156 Y50.25 I-5.9241 J5.2246
G3 X45.3185 Y53.9115 I-7.5343 J3.5709
G3 X44.8672 Y57.6328 I-15.9767 J-0.0497
G3 X39.9453 Y65.0156 I-11.9966 J-2.6657
G3 X32.2109 Y68.8828 I-14.4368 J-19.2056
G3 X26.4411 Y69.7502 I-7.5981 J-30.9175
G3 X20.6094 Y69.9375 I-5.5331 J-81.403
G3 X29.9567 Y59.0253 I662.4122 J557.9578
G3 X39.7554 Y48.5166 I121.6099 J103.5717
G3 X41.3516 Y47.4375 I3.4252 J3.3462
G3 X43.1297 Y48.2245 I-0.1295 J2.6946
G0 Z5.0
G0 X50.2007 Y41.1535
G1 Z0.0
G2 X41.8316 Y37.449 I-8.9787 J8.9787
G2 X37.5318 Y38.1958 I-0.4801 J9.9885
G2 X32.6984 Y41.4311 I5.6488 J13.667
G2 X22.3801 Y52.4985 I118.8682 J121.1659
G2 X12.961 Y63.4952 I660.6414 J575.3968
G2 X20.5728 Y79.9374 I7.6483 J6.4423
G2 X27.0693 Y79.7306 I0.3352 J-91.5903
G2 X34.5975 Y78.5939 I-2.4565 J-41.7653
G2 X35.0005 Y78.4858 I-2.3865 J-9.7111
G2 X45.837 Y73.0966 I-9.492 J-32.6758
G2 X54.607 Y59.9003 I-12.9664 J-18.1295
G2 X55.3183 Y53.9785 I-25.2652 J-6.0385
G2 X53.5521 Y45.9672 I-18.337 J-0.1576
G2 X53.5439 Y45.9499 I-9.0364 J4.2828
G2 X50.9059 Y41.919 I-16.1595 J7.6966
G2 X50.2007 Y41.1535 I-9.6839 J8.2131
G0 Z5.0
G0 X0.8123 Y46.894
G1 Z0.0
G2 X-6.7755 Y44.5967 I-116.6925 J371.7515
G3 X-19.6261 Y36.9721 I8.4005 J-28.7999
G3 X-23.8446 Y39.4107 I-66.6012 J-110.3433
G3 X-25.8367 Y40.5008 I-25.0607 J-43.4309
G3 X-8.7546 Y59.965 I-13.3405 J28.9358
G3 X-8.2555 Y61.7632 I-28.6439 J8.9178
G3 X-2.3356 Y50.6106 I28.8649 J8.1743
G3 X0.8123 Y46.894 I685.3572 J577.2847
G0 Z5.0
G0 X-37.5543 Y68.5218
G1 Z0.0
G3 X-37.3984 Y68.8828 I-1.6229 J0.9148
G3 X-37.9013 Y70.789 I-2.8184 J0.276
G3 X-39.1993 Y72.2729 I-6.2281 J-4.1384
G3 X-42.3203 Y74.5078 I-13.3209 J-15.3056
G3 X-53.2188 Y77.6719 I-11.0669 J-17.7679
G3 X-59.3644 Y77.0132 I1.5018 J-43.0112
G3 X-65.4377 Y75.8645 I24.3279 J-145.249
G3 X-77.4766 Y73.1016 I75.1773 J-355.1843
G2 X-119.6641 Y64.6641 I-131.1154 J545.8897
G2 X-135.0795 Y62.3042 I-102.0555 J615.1418
G2 X-150.6016 Y60.7969 I-21.4856 J140.5753
G3 X-157.1999 Y60.3177 I-0.9768 J-32.2193
G3 X-157.9844 Y59.7422 I0.1144 J-0.9783
G3 X-157.0238 Y58.5358 I2.1341 J0.7137
G3 X-155.7423 Y57.6779 I8.4362 J11.2149
G3 X-153.0625 Y56.2266 I20.3936 J34.4554
G3 X-144.625 Y53.4141 I12.2946 J22.8214
G3 X-140.1839 Y53.6321 I1.0135 J24.6924
G3 X-135.7826 Y54.2637 I-12.2066 J100.7151
G3 X-127.0469 Y55.875 I-42.167 J253.0987
G2 X-93.2969 Y61.5 I121.6125 J-625.6127
G3 X-67.9844 Y65.3672 I-124.9951 J902.9244
G2 X-59.0401 Y66.2437 I11.2442 J-68.6629
G2 X-50.0547 Y66.4219 I8.4767 J-200.8824
G3 X-44.2817 Y66.6013 I0.3541 J81.5852
G3 X-38.6046 Y67.6638 I-0.6863 J19.3643
G3 X-37.5543 Y68.5218 I-0.5726 J1.7728
G0 Z5.0
G0 X-66.4279 Y44.8035
G1 Z0.0
G3 X-66.8188 Y45.1873 I-1.9849 J-1.6305
G3 X-68.2995 Y46.333 I-7.5225 J-8.1926
G3 X-71.5 Y48.1406 I-16.9336 J-26.2447
G3 X-75.4439 Y49.9759 I-30.9141 J-61.2761
G3 X-79.5859 Y51.3047 I-7.9173 J-17.5598
G3 X-84.8594 Y49.5469 I-0.5048 J-7.2746
G2 X-90.4926 Y47.1107 I-10.4549 J16.4441
G2 X-96.4609 Y45.6797 I-19.5627 J68.4295
G2 X-116.3458 Y42.3337 I-87.2185 J457.5715
G3 X-119.6129 Y43.1232 I-28.655 J-111.4197
G3 X-124.9375 Y43.9219 I-6.9723 J-28.3361
G3 X-126.7214 Y43.6473 I-0.1568 J-4.9129
G3 X-127.75 Y42.1641 I0.4664 J-1.4217
G3 X-126.7186 Y39.6483 I4.7375 J0.473
G3 X-124.9375 Y37.5938 I13.4716 J9.8793
G2 X-122.9058 Y34.5531 I-8.9752 J-8.196
G2 X-121.4709 Y31.1895 I-30.4948 J-14.9975
G2 X-119.3125 Y24.2344 I-74.2404 J-26.8513
G3 X-116.8534 Y17.4316 I31.7757 J7.6407
G3 X-115.2506 Y15.6019 I4.1069 J1.9807
G3 X-113.6875 Y15.7969 I0.6379 J1.2487
G3 X-112.4544 Y17.5278 I-2.8109 J3.3071
G2 X-86.9999 Y21.6321 I364.9547 J-2182.4166
G2 X-77.8281 Y22.8281 I23.0513 J-141.0077
G3 X-75.7188 Y23.5313 I0.2019 J2.9098
G3 X-75.0156 Y25.6406 I-2.207 J1.9075
G3 X-75.7194 Y27.2784 I-2.1204 J0.0589
G3 X-77.2399 Y28.0679 I-2.539 J-3.0311
G2 X-75.3543 Y32.2191 I104.0187 J-44.7434
G2 X-71.2064 Y38.9947 I29.0735 J-13.1406
G2 X-69.3906 Y40.4063 I4.1319 J-3.4417
G3 X-67.2204 Y41.53 I-3.8324 J10.0586
G3 X-65.875 Y43.5703 I-1.3207 J2.3346
G3 X-66.4279 Y44.8035 I-2.5378 J-0.3973
G0 Z5.0
G0 X-83.1536 Y41.6633
G1 Z0.0
G3 X-83.4531 Y42.5156 I-2.9247 J-0.5491
G3 X-85.3272 Y42.6008 I-1.1405 J-4.4335
G3 X-98.2188 Y40.4063 I20.7116 J-160.6295
G2 X-109.0552 Y38.5199 I-39.4406 J194.5028
G2 X-114.1808 Y37.9017 I-12.3516 J80.8571
G3 X-112.6328 Y27.0469 I84.2902 J6.4829
G2 X-112.0574 Y23.0341 I-33.2911 J-6.8212
G3 X-106.4304 Y23.9527 I-5.9607 J54.2078
G3 X-98.5703 Y25.6406 I-51.2237 J257.6702
G2 X-89.6706 Y27.4624 I39.9294 J-172.4129
G2 X-85.4067 Y28.1096 I10.7964 J-56.7562
G3 X-83.4531 Y36.1875 I-40.4836 J14.0658
G3 X-83.1429 Y39.3516 I-51.1489 J6.6114
G3 X-83.1069 Y40.9523 I-18.1695 J1.2103
G3 X-83.1536 Y41.6633 I-2.9714 J0.1619
G0 Z5.0
G0 X-91.2911 Y75.1661
G1 Z0.0
G3 X-90.4844 Y75.5625 I-0.4895 J2.0154
G3 X-88.783 Y78.6981 I-4.9462 J4.7131
G3 X-88.375 Y82.2422 I-13.5335 J3.3536
G3 X-92.2422 Y89.625 I-8.7193 J0.137
G3 X-98.1897 Y91.9275 I-8.1589 J-12.2424
G3 X-104.5469 Y92.4375 I-6.0134 J-35.0802
G3 X-108.5035 Y92.3356 I-0.2506 J-67.1352
G3 X-112.4166 Y91.7415 I0.5082 J-16.5322
G3 X-113.3359 Y91.0313 I0.3088 J-1.3497
G3 X-113.0311 Y90.1873 I1.329 J0.0031
G3 X-112.4759 Y89.4824 I5.9526 J4.1169
G3 X-111.2386 Y88.2145 I15.1938 J13.5892
G3 X-108.607 Y85.8891 I39.6977 J42.275
G3 X-103.1406 Y81.5391 I106.6339 J128.3875
G3 X-95.2844 Y76.2888 I36.0455 J45.4336
G3 X-92.325 Y75.1802 I5.3135 J9.6801
G3 X-91.2911 Y75.1661 I0.5444 J2.0013
G0 Z5.0
G0 X-90.4844 Y75.5625
G0 Z1.0
G1 Z0.0
G2 X-92.325 Y75.1802 I-1.2963 J1.619
G2 X-95.2844 Y76.2888 I2.3542 J10.7887
G2 X-103.1406 Y81.5391 I28.1892 J50.6839
G2 X-108.607 Y85.8891 I101.1675 J132.7376
G2 X-111.2386 Y88.2145 I37.0661 J44.6003
G2 X-112.4759 Y89.4824 I13.9565 J14.8571
G2 X-113.0311 Y90.1873 I5.3974 J4.8218
G2 X-113.3359 Y91.0313 I1.0242 J0.847
G2 X-112.4166 Y91.7415 I1.2281 J-0.6394
G2 X-108.5035 Y92.3356 I4.4213 J-15.9381
G2 X-104.5469 Y92.4375 I3.706 J-67.0333
G2 X-98.1897 Y91.9275 I0.3438 J-35.5902
G2 X-92.2422 Y89.625 I-2.2115 J-14.5449
G2 X-88.375 Y82.2422 I-4.8522 J-7.2458
G2 X-88.783 Y78.6981 I-13.9415 J-0.1905
G2 X-90.4844 Y75.5625 I-6.6475 J1.5775
G0 Z5.0
G0 X-77.4766 Y73.1016
G0 Z1.0
G1 Z0.0
G2 X-65.4377 Y75.8645 I87.2162 J-352.4214
G2 X-59.3644 Y77.0132 I30.4011 J-144.1003
G2 X-53.2188 Y77.6719 I7.6475 J-42.3525
G2 X-42.3203 Y74.5078 I-0.1685 J-20.9319
G2 X-39.1993 Y72.2729 I-10.1998 J-17.5405
G2 X-37.9013 Y70.789 I-4.9301 J-5.6223
G2 X-37.3984 Y68.8828 I-2.3155 J-1.6303
G2 X-38.6046 Y67.6638 I-1.7787 J0.5538
G2 X-44.2817 Y66.6013 I-6.3635 J18.3017
G2 X-50.0547 Y66.4219 I-5.4189 J81.4058
G3 X-59.0401 Y66.2437 I-0.5086 J-201.0606
G3 X-67.9844 Y65.3672 I2.2999 J-69.5394
G2 X-93.2969 Y61.5 I-150.3076 J899.0572
G3 X-127.0469 Y55.875 I87.8625 J-631.2377
G2 X-135.7826 Y54.2637 I-50.9027 J251.4874
G2 X-140.1839 Y53.6321 I-16.6079 J100.0835
G2 X-144.625 Y53.4141 I-3.4276 J24.4743
G2 X-153.0625 Y56.2266 I3.8571 J25.6339
G2 X-155.7423 Y57.6779 I17.7138 J35.9068
G2 X-157.0238 Y58.5358 I7.1547 J12.0728
G2 X-157.9844 Y59.7422 I1.1734 J1.9201
G2 X-157.1999 Y60.3177 I0.8988 J-0.4028
G2 X-150.6016 Y60.7969 I5.6215 J-31.7402
G3 X-135.0795 Y62.3042 I-5.9635 J142.0826
G3 X-119.6641 Y64.6641 I-86.64 J617.5016
G3 X-77.4766 Y73.1016 I-88.9279 J554.3272
G0 Z5.0
G0 X-79.5859 Y51.3047
G0 Z1.0
G1 Z0.0
G2 X-75.4439 Y49.9759 I-3.7752 J-18.8885
G2 X-71.5 Y48.1406 I-26.9702 J-63.1114
G2 X-68.2995 Y46.333 I-13.7331 J-28.0523
G2 X-66.8188 Y45.1873 I-6.0417 J-9.3383
G2 X-65.875 Y43.5703 I-1.5941 J-2.0143
G2 X-67.2204 Y41.53 I-2.6661 J0.2943
G2 X-69.3906 Y40.4063 I-6.0026 J8.9349
G3 X-71.2064 Y38.9947 I2.3162 J-4.8532
G3 X-75.3543 Y32.2191 I24.9256 J-19.9162
G3 X-77.2399 Y28.0679 I102.1331 J-48.8946
G2 X-75.7194 Y27.2784 I-1.0186 J-3.8206
G2 X-75.0156 Y25.6406 I-1.4166 J-1.5789
G2 X-75.7188 Y23.5313 I-2.9101 J-0.2018
G2 X-77.8281 Y22.8281 I-1.9074 J2.2067
G3 X-86.9999 Y21.6321 I13.8796 J-142.2037
G3 X-112.4544 Y17.5278 I339.5002 J-2186.5209
G2 X-113.6875 Y15.7969 I-4.044 J1.5762
G2 X-115.2506 Y15.6019 I-0.9252 J1.0537
G2 X-116.8534 Y17.4316 I2.5041 J3.8104
G2 X-119.3125 Y24.2344 I29.3166 J14.4435
G3 X-121.4709 Y31.1895 I-76.3988 J-19.8962
G3 X-122.9058 Y34.5531 I-31.9297 J-11.6338
G3 X-124.9375 Y37.5938 I-11.0069 J-5.1554
G2 X-126.7186 Y39.6483 I11.6906 J11.9338
G2 X-127.75 Y42.1641 I3.706 J2.9888
G2 X-126.7214 Y43.6473 I1.495 J0.0615
G2 X-124.9375 Y43.9219 I1.6271 J-4.6383
G2 X-119.6129 Y43.1232 I-1.6477 J-29.1347
G2 X-116.3458 Y42.3337 I-25.388 J-112.2092
G3 X-96.4609 Y45.6797 I-67.3336 J460.9174
G3 X-90.4926 Y47.1107 I-13.5944 J69.8605
G3 X-84.8594 Y49.5469 I-4.8217 J18.8803
G2 X-79.5859 Y51.3047 I4.7686 J-5.5168
G0 Z5.0
G0 X-83.4531 Y42.5156
G0 Z1.0
G1 Z0.0
G2 X-83.1069 Y40.9523 I-2.6251 J-1.4014
G2 X-83.1429 Y39.3516 I-18.2055 J-0.3905
G2 X-83.4531 Y36.1875 I-51.4591 J3.4473
G2 X-85.4067 Y28.1096 I-42.4372 J5.988
G3 X-89.6706 Y27.4624 I6.5324 J-57.4034
G3 X-98.5703 Y25.6406 I31.0297 J-174.2347
G2 X-106.4304 Y23.9527 I-59.0837 J255.9823
G2 X-112.0574 Y23.0341 I-11.5877 J53.2892
G3 X-112.6328 Y27.0469 I-33.8665 J-2.8084
G2 X-114.1808 Y37.9017 I82.7422 J17.3377
G3 X-109.0552 Y38.5199 I-7.226 J81.4752
G3 X-98.2188 Y40.4063 I-28.6041 J196.3892
G2 X-85.3272 Y42.6008 I33.6032 J-158.435
G2 X-83.4531 Y42.5156 I0.7336 J-4.5187
G0 Z5.0
G0 X-66.9297 Y10.1719
G0 Z1.0
G1 Z0.0
G3 X-57.6764 Y11.5726 I-29.6277 J226.9806
G3 X-53.0786 Y12.499 I-14.5503 J84.0928
G3 X-48.6484 Y14.0391 I-3.0709 J15.9756
G2 X-43.7266 Y15.4453 I4.1717 J-5.2846
G2 X-38.6413 Y13.3111 I-5.1788 J-19.4655
G2 X-33.8828 Y10.5234 I-47.586 J-86.6824
G2 X-29.8069 Y7.808 I-33.0227 J-53.9839
G2 X-27.8859 Y6.2465 I-13.2043 J-18.2066
G2 X-27.0258 Y5.3339 I-5.6177 J-6.156
G2 X-26.5 Y4.1953 I-1.5543 J-1.4085
G2 X-28.6094 Y0.6797 I-4.9171 J0.5597
G3 X-29.9119 Y-2.1168 I3.9443 J-3.5387
G3 X-30.3672 Y-11.2734 I41.7556 J-6.6659
G2 X-31.4219 Y-33.4219 I-147.4551 J-4.0777
G2 X-35.6406 Y-55.2188 I-137.932 J15.3898
G2 X-38.1847 Y-62.698 I-69.2994 J19.4002
G2 X-41.9688 Y-69.6328 I-28.7454 J11.1853
G2 X-44.67 Y-72.5588 I-15.4846 J11.5851
G2 X-48.2969 Y-74.2031 I-4.1229 J4.2721
G2 X-51.4722 Y-72.2332 I0.349 J4.1066
G2 X-53.2188 Y-68.9297 I12.4081 J8.6736
G3 X-57.5992 Y-62.6547 I-18.4121 J-8.1865
G3 X-63.4141 Y-57.6797 I-34.1507 J-34.0306
G2 X-67.6558 Y-54.3806 I55.6456 J75.9224
G2 X-69.6734 Y-52.5707 I20.972 J25.408
G2 X-70.5976 Y-51.555 I8.0859 J8.2859
G2 X-71.1484 Y-50.2969 I1.3842 J1.3556
G2 X-70.3019 Y-49.7646 I0.8285 J-0.3783
G2 X-66.9874 Y-50.1369 I0.4037 J-11.3458
G2 X-63.7656 Y-51.0 I-11.1623 J-48.113
G3 X-52.5156 Y-53.8125 I29.9041 J95.7101
G3 X-49.4214 Y-53.8352 I1.608 J8.3022
G3 X-46.8906 Y-52.0547 I-0.6364 J3.5934
G3 X-45.664 Y-48.0192 I-16.4323 J7.1989
G3 X-43.7266 Y-35.5313 I-164.0162 J31.8404
G3 X-42.6719 Y-11.2734 I-128.6055 J17.7434
G3 X-43.2776 Y-4.8705 I-109.2673 J-7.1072
G3 X-43.7966 Y-1.6878 I-43.4193 J-5.4458
G3 X-44.7813 Y1.3828 I-11.6001 J-2.0267
G3 X-47.0699 Y3.6628 I-5.5392 J-3.2716
G3 X-50.0547 Y4.8984 I-5.871 J-9.9591
G3 X-55.5039 Y5.4151 I-4.5365 J-18.8506
G3 X-60.9531 Y4.8984 I1.5564 J-45.4092
G3 X-85.9141 Y1.0313 I817.0774 J-5356.3527
G2 X-118.0536 Y-3.4041 I-197.8694 J1315.1492
G2 X-144.2885 Y-6.6812 I-634.4116 J4972.1647
G1 X-142.7491 Y-32.7122
G2 X-141.1094 Y-64.3594 I-1631.9328 J-100.4228
G2 X-141.3405 Y-67.3743 I-16.9165 J-0.2193
G2 X-141.7944 Y-68.8603 I-6.0298 J1.0292
G2 X-142.8672 Y-69.9844 I-1.9718 J0.808
G2 X-144.5896 Y-69.5224 I-0.45 J1.7643
G2 X-147.7891 Y-65.4141 I11.0966 J11.9416
G2 X-149.8508 Y-61.685 I45.4901 J27.5848
G2 X-151.3047 Y-57.6797 I13.3798 J7.1234
G2 X-151.6563 Y-43.6172 I186.4412 J11.6967
G3 X-152.0078 Y-20.7656 I-731.2788 J0.178
G3 X-152.7592 Y-13.2414 I-48.2506 J-1.0188
G3 X-153.7995 Y-9.5624 I-20.2752 J-3.7464
G3 X-155.875 Y-6.3516 I-8.0852 J-2.9501
G2 X-158.0224 Y-3.5517 I5.3565 J6.3318
G2 X-157.9844 Y-0.0234 I3.8964 J1.7223
G2 X-156.54 Y1.1229 I1.9302 J-0.949
G2 X-153.4751 Y1.2505 I1.8684 J-8.0001
G2 X-145.5841 Y-0.7288 I-6.7753 J-43.7312
G3 X-142.4647 Y-0.4281 I-9.1152 J110.8995
G3 X-112.9844 Y3.4922 I-72.7079 J659.5666
G2 X-66.9297 Y10.1719 I460.8214 J-3015.135
G0 Z5.0
G0 X-79.2344 Y-8.1094
G0 Z1.0
G1 Z0.0
G2 X-75.7307 Y-10.1551 I-5.8544 J-14.0497
G2 X-72.5547 Y-12.6797 I-34.6838 J-46.894
G2 X-69.8746 Y-15.1713 I-21.6835 J-26.0105
G2 X-68.692 Y-16.5947 I-9.1846 J-8.8339
G2 X-67.9844 Y-18.3047 I-2.648 J-2.0972
G2 X-68.6674 Y-19.6112 I-1.8145 J0.1168
G2 X-72.5547 Y-21.4688 I-6.6829 J8.9892
G3 X-75.7042 Y-23.7518 I2.3714 J-6.5853
G3 X-78.642 Y-28.7149 I16.5027 J-13.1192
G3 X-79.1602 Y-29.9499 I46.749 J-20.345
G2 X-77.125 Y-30.9609 I-1.5413 J-5.6565
G2 X-75.0156 Y-34.8281 I-2.968 J-4.1278
G2 X-76.091 Y-35.6059 I-1.5325 J0.9866
G2 X-85.9027 Y-37.9464 I-21.3766 J67.8763
G2 X-112.4047 Y-42.1023 I-126.3858 J719.3812
G2 X-112.9844 Y-45.375 I-23.0031 J2.3867
G2 X-114.1801 Y-47.0612 I-2.139 J0.2497
G2 X-116.1484 Y-46.4297 I-0.2634 J2.5622
G2 X-118.0852 Y-43.6853 I4.9834 J5.5725
G2 X-121.0703 Y-34.125 I49.2328 J20.6185
G3 X-122.8343 Y-27.6939 I-73.1012 J-16.5938
G3 X-124.0554 Y-24.5647 I-27.4664 J-8.915
G3 X-125.9922 Y-21.8203 I-6.9211 J-2.8288
G2 X-127.6047 Y-20.0166 I2.6616 J4.0021
G2 X-127.75 Y-17.6016 I3.0555 J1.3958
G2 X-125.046 Y-15.7561 I2.6936 J-1.0429
G2 X-121.7734 Y-15.8438 I1.2884 J-13.0264
G2 X-117.913 Y-16.4106 I-9.9221 J-81.002
G3 X-111.5405 Y-15.8682 I-5.3688 J100.7742
G3 X-101.0313 Y-14.4375 I-25.197 J224.4071
G3 X-92.58 Y-12.8375 I-18.5137 J120.9112
G3 X-88.417 Y-11.6974 I-11.0292 J48.4418
G3 X-84.5078 Y-9.8672 I-3.9675 J13.5641
G2 X-82.0756 Y-8.3747 I7.0537 J-8.7672
G2 X-79.2344 Y-8.1094 I1.7705 J-3.6136
G0 Z5.0
G0 X-85.5625 Y-18.6563
G0 Z1.0
G1 Z0.0
G2 X-85.3934 Y-20.4523 I-3.5381 J-1.2391
G2 X-85.681 Y-22.2332 I-15.3266 J1.5611
G2 X-86.6172 Y-25.6875 I-39.6416 J8.8903
G3 X-87.9109 Y-30.7069 I31.5269 J-10.8022
G3 X-88.375 Y-30.9609 I0.9953 J-2.3691
G2 X-91.8559 Y-31.861 I-9.839 J30.8713
G2 X-95.3695 Y-32.6231 I-61.9411 J277.1007
G2 X-102.4078 Y-34.0888 I-214.2858 J1011.3714
G2 X-112.6483 Y-36.1644 I-756.071 J3703.8488
G3 X-112.9362 Y-34.6137 I-31.4026 J-5.0266
G3 X-114.0391 Y-29.5547 I-115.7284 J-22.5794
G2 X-114.8381 Y-23.3745 I26.2641 J6.5372
G2 X-114.7467 Y-21.4027 I15.418 J0.2739
G2 X-95.0158 Y-18.8824 I99.0571 J-697.009
G2 X-86.6237 Y-18.3689 I8.4129 J-68.6524
G2 X-85.5625 Y-18.6563 I0.0726 J-1.8353
G0 Z5.0
G0 X-80.6328 Y-47.1273
G1 Z0.0
G2 X-84.2234 Y-47.8045 I-16.8347 J79.3977
G2 X-104.5288 Y-51.0804 I-128.0651 J729.2393
G2 X-109.8001 Y-56.0509 I-10.5945 J5.9552
G2 X-113.1575 Y-57.0088 I-4.38 J8.9897
G2 X-122.7677 Y-53.9254 I-1.286 J12.5098
G2 X-122.8145 Y-53.8838 I6.6192 J7.4957
G2 X-127.3229 Y-47.515 I11.6494 J13.0267
G2 X-130.8371 Y-36.2734 I58.4705 J24.4483
G3 X-132.3482 Y-30.7739 I-63.3344 J-14.4454
G3 X-132.9372 Y-29.2029 I-17.9525 J-5.835
G1 X-132.767 Y-32.1137
G2 X-131.1182 Y-63.9387 I-1641.9148 J-101.0213
G2 X-131.1102 Y-64.2298 I-9.9911 J-0.4206
G2 X-131.478 Y-69.0268 I-26.9157 J-0.3489
G2 X-131.4831 Y-69.0568 I-9.8625 J1.6525
G2 X-132.6214 Y-72.8433 I-15.8872 J2.7116
G2 X-138.6483 Y-79.0509 I-11.1448 J4.791
G2 X-140.3959 Y-79.6742 I-4.2189 J9.0665
G2 X-151.4577 Y-76.7911 I-2.9212 J11.4542
G2 X-156.4445 Y-70.4258 I17.9648 J19.2103
G2 X-158.7391 Y-66.2684 I54.1455 J32.5966
G2 X-161.0908 Y-59.7367 I22.2682 J11.7068
G2 X-161.2851 Y-58.3058 I9.7861 J2.057
G2 X-161.6562 Y-43.5537 I196.4215 J12.3228
G3 X-162.003 Y-21.0757 I-721.2789 J0.1145
G2 X-162.0056 Y-20.9767 I9.9952 J0.3101
G3 X-162.5966 Y-15.0375 I-38.2528 J-0.8077
G3 X-163.0647 Y-13.3332 I-10.4378 J-1.9503
G2 X-167.0703 Y-7.8105 I12.5462 J13.3135
G2 X-167.1687 Y-7.5947 I9.0478 J4.2587
G2 X-167.0413 Y4.2159 I13.0427 J5.7653
G2 X-166.9584 Y4.3888 I9.0569 J-4.2393
G2 X-158.8082 Y10.8622 I10.9042 J-5.3612
G2 X-152.0186 Y11.1439 I4.1366 J-17.7394
G2 X-151.944 Y11.1326 I-1.4564 J-9.8934
G2 X-144.442 Y9.4181 I-8.3064 J-53.6133
G3 X-143.5642 Y9.5113 I-10.2573 J100.7527
G2 X-143.5604 Y9.5117 I1.0995 J-9.9394
G3 X-125.1604 Y11.8047 I-71.6122 J649.6268
G2 X-125.8382 Y13.0414 I12.4139 J7.6076
G2 X-129.0111 Y21.796 I38.3015 J18.8336
G3 X-130.8705 Y27.7766 I-66.7002 J-17.4578
G3 X-131.8793 Y30.1399 I-22.5301 J-8.2209
G2 X-131.9617 Y30.3115 I8.9735 J4.4132
G3 X-132.2314 Y30.7448 I-1.951 J-0.9138
G2 X-134.6685 Y33.5802 I18.9845 J18.7828
G2 X-137.7005 Y41.1707 I11.656 J9.0568
G2 X-137.7415 Y41.753 I9.9505 J0.9934
G2 X-137.6321 Y43.8766 I11.4865 J0.4725
G2 X-138.8944 Y43.7153 I-14.7584 J110.4707
G2 X-145.0351 Y43.4225 I-4.7171 J34.3912
G2 X-146.1129 Y43.5254 I0.4101 J9.9916
G2 X-157.6432 Y47.336 I5.3451 J35.5225
G2 X-160.8358 Y49.0723 I22.2945 J44.7973
G2 X-160.8406 Y49.0752 I5.0935 J8.6056
G2 X-162.757 Y50.3383 I12.253 J20.6755
G2 X-167.4681 Y56.5705 I6.9066 J10.1176
G2 X-167.1101 Y63.8313 I9.4837 J3.1717
G2 X-158.7957 Y70.1904 I10.0246 J-4.4919
G2 X-150.6907 Y70.8024 I7.2173 J-41.6129
G3 X-136.5904 Y72.1894 I-5.8744 J132.0772
G2 X-136.469 Y72.2072 I1.5109 J-9.8852
G3 X-121.3007 Y74.5292 I-85.2506 J607.5986
G2 X-121.2481 Y74.5378 I1.6367 J-9.8652
G3 X-112.3486 Y76.0403 I-87.3439 J544.4534
G2 X-114.9962 Y78.1965 I110.3755 J138.2364
G2 X-114.9985 Y78.1984 I6.3893 J7.6927
G2 X-118.084 Y80.9247 I43.4576 J52.2911
G2 X-118.0853 Y80.926 I6.8454 J7.2898
G2 X-119.9296 Y82.8159 I20.8032 J22.1456
G2 X-119.9334 Y82.8202 I7.4537 J6.6665
G2 X-121.0846 Y84.2562 I12.8549 J11.4841
G2 X-123.3359 Y91.0083 I9.0777 J6.7781
G2 X-122.2056 Y95.6495 I10.0 J0.023
G2 X-114.9547 Y101.4147 I10.0978 J-5.2577
G2 X-108.9434 Y102.3265 I6.9594 J-25.6113
G2 X-104.5747 Y102.4376 I4.1459 J-77.0242
G2 X-96.5869 Y101.7985 I0.3717 J-45.5903
G2 X-86.6964 Y97.9463 I-3.8142 J-24.416
G2 X-86.6781 Y97.9341 I-5.5457 J-8.3213
G2 X-78.3908 Y83.1737 I-10.4163 J-15.5549
G2 X-67.5084 Y85.6477 I88.1304 J-362.4936
G2 X-67.5019 Y85.6491 I2.0707 J-9.7833
G2 X-61.0767 Y86.8657 I32.4654 J-153.8849
G2 X-53.5677 Y87.6658 I9.3598 J-52.205
G2 X-53.1383 Y87.6716 I0.349 J-9.9939
G2 X-37.1621 Y83.0757 I-0.249 J-30.9316
G2 X-32.6342 Y79.8161 I-15.3581 J-26.1084
G2 X-32.6062 Y79.7916 I-6.565 J-7.5432
G2 X-29.635 Y76.4171 I-11.5233 J-13.141
G2 X-27.446 Y67.9083 I-10.5818 J-7.2583
G2 X-27.8505 Y65.9102 I-9.9524 J0.9745
G2 X-35.3892 Y58.1947 I-11.3267 J3.5264
G2 X-43.7608 Y56.6139 I-9.5788 J27.7709
G2 X-50.0887 Y56.4219 I-5.9398 J91.3932
G3 X-58.6185 Y56.2526 I-0.4747 J-191.0606
G2 X-58.7095 Y56.2492 I-0.4216 J9.9911
G3 X-64.562 Y55.7661 I1.9694 J-59.5449
G2 X-62.8779 Y54.7357 I-20.6712 J-35.6778
G2 X-62.8674 Y54.729 I-5.4216 J-8.4027
G2 X-60.2639 Y52.7421 I-11.4738 J-17.7343
G2 X-55.9953 Y45.117 I-8.1489 J-9.5692
G2 X-55.9354 Y42.4731 I-9.8797 J-1.5467
G2 X-61.8933 Y33.0643 I-12.6057 J1.3916
G2 X-64.107 Y31.809 I-11.3297 J17.4006
G3 X-65.5966 Y29.4099 I17.8261 J-12.7305
G2 X-65.0161 Y25.8789 I-11.5394 J-3.7103
G2 X-66.0387 Y20.3842 I-12.9096 J-0.4401
G3 X-59.3782 Y21.4268 I-30.5188 J216.7682
G3 X-55.3222 Y22.244 I-12.8485 J74.2387
G2 X-54.9663 Y22.3192 I2.2437 J-9.745
G3 X-53.7444 Y22.6863 I-1.1832 J6.1553
G2 X-42.6124 Y25.383 I9.2676 J-13.9318
G2 X-41.1555 Y25.1091 I-1.1142 J-9.9377
G2 X-33.697 Y22.0045 I-7.7498 J-29.1294
G2 X-28.6264 Y19.0306 I-52.5303 J-95.3758
G2 X-23.9446 Y15.9094 I-38.2792 J-62.4911
G2 X-23.9359 Y15.9031 I-5.8623 J-8.1014
G2 X-21.1608 Y13.6474 I-19.0752 J-26.3018
G2 X-21.1452 Y13.6331 I-6.7251 J-7.4009
G2 X-19.3879 Y11.7901 I-12.3585 J-13.5426
G2 X-16.5832 Y5.4825 I-9.1923 J-7.8648
G2 X-16.5641 Y3.0644 I-9.9168 J-1.2872
G2 X-20.2378 Y-5.1693 I-14.853 J1.6905
G3 X-20.3846 Y-10.6844 I32.0815 J-3.6134
G2 X-20.371 Y-10.997 I-9.9826 J-0.589
G2 X-21.49 Y-34.5889 I-157.4513 J-4.3541
G2 X-26.0063 Y-57.8981 I-147.8639 J16.5569
G2 X-26.0109 Y-57.9146 I-9.6344 J2.6794
G2 X-28.8874 Y-66.3808 I-78.9292 J22.0961
G2 X-33.8762 Y-75.5074 I-38.0427 J14.8681
G2 X-33.9617 Y-75.6234 I-8.0925 J5.8746
G2 X-37.9138 Y-79.933 I-23.4917 J17.5757
G2 X-47.4614 Y-84.1682 I-10.8792 J11.6463
G2 X-49.1436 Y-84.1672 I-0.8355 J9.965
G2 X-59.8201 Y-77.7427 I1.1957 J14.0707
G2 X-62.4385 Y-72.8122 I20.756 J14.1832
G3 X-64.5628 Y-69.8316 I-9.1923 J-4.3039
G2 X-64.6827 Y-69.7133 I6.9636 J7.1769
G3 X-69.2915 Y-65.7702 I-27.0672 J-26.972
G2 X-69.3256 Y-65.7453 I5.8774 J8.0905
G2 X-74.0179 Y-62.0958 I61.5571 J83.988
G2 X-74.0215 Y-62.0928 I6.3621 J7.7151
G2 X-76.6515 Y-59.7336 I27.3378 J33.1202
G2 X-76.6576 Y-59.7276 I6.9781 J7.1628
G2 X-78.1641 Y-58.098 I15.0701 J15.4427
G2 X-81.1358 Y-50.8003 I8.9506 J7.8987
G2 X-80.6328 Y-47.1273 I9.9873 J0.5034
G0 Z5.0
G0 Y-131.0
G1 Z0.0
G1 X184.0
G1 Y136.0
G1 X-178.0
G1 Y-131.0
G1 X-80.6328
G0 Z5.0
G0 X39.7554 Y48.5166
G0 Z1.0
G1 Z0.0
G2 X29.9567 Y59.0253 I111.8112 J114.0804
G2 X20.6094 Y69.9375 I653.0649 J568.87
G2 X26.4411 Y69.7502 I0.2986 J-81.5903
G2 X32.2109 Y68.8828 I-1.8282 J-31.7849
G2 X39.9453 Y65.0156 I-6.7024 J-23.0727
G2 X44.8672 Y57.6328 I-7.0747 J-10.0485
G2 X45.3185 Y53.9115 I-15.5254 J-3.771
G2 X44.5156 Y50.25 I-8.3372 J-0.0906
G2 X43.3085 Y48.422 I-7.1312 J3.3965
G2 X41.3516 Y47.4375 I-2.0864 J1.7102
G2 X39.7554 Y48.5166 I1.829 J4.4253
G0 Z5.0
M5
M30
