( Made using CamBam - http://www.cambam.co.uk )
( Untitled 1/6/2014 11:48:44 PM )
( T0 : 0.0 )
G21 G90 G64 G40
G0 Z5.0
( T0 : 0.0 )
T0 M6
( Profile2 )
G17
M3 S1000
G0 X54.1975 Y20.1214
G1 F2000.0 Z0.0
G2 X54.9992 Y18.589 I-11.7193 J-7.1076
G2 X56.7587 Y13.8976 I-41.3716 J-18.1917
G3 X60.2079 Y4.695 I76.2275 J23.3228
G3 X63.2726 Y-0.1826 I18.2422 J8.0603
G3 X63.7405 Y-0.6944 I7.6102 J6.4873
G3 X66.0205 Y-2.7038 I14.8547 J14.5567
G3 X66.3846 Y-2.9798 I7.9973 J10.1733
G2 X64.4374 Y-4.9833 I-144.6952 J138.6748
G3 X64.4205 Y-5.0006 I7.1225 J-7.0192
G2 X56.431 Y-12.0729 I-54.0384 J52.9977
G3 X50.3544 Y-16.7233 I142.1101 J-191.9846
G3 X49.227 Y-17.6037 I31.7179 J-41.7814
G3 X46.4473 Y-9.6513 I-33.5014 J-7.248
G3 X46.2956 Y-9.357 I-8.9629 J-4.4346
G2 X43.4669 Y-3.4095 I59.6962 J32.0387
G2 X43.9399 Y-1.6483 I17.0467 J-3.634
G3 X44.0181 Y-1.3969 I-9.5089 J3.0954
G2 X45.5574 Y3.4714 I136.9284 J-40.6189
G3 X45.6304 Y3.6975 I-9.4793 J3.1848
G2 X47.9707 Y9.3141 I30.8235 J-9.5473
G3 X50.5361 Y11.7722 I-11.3911 J14.4567
G3 X53.8036 Y19.9446 I-9.989 J8.7331
G3 X53.8123 Y20.435 I-9.9911 J0.4226
G3 X54.1975 Y20.1214 I10.9879 J13.1025
G0 Z5.0
G0 X81.3295 Y-25.2915
G1 Z0.0
G3 X80.7162 Y-31.6674 I30.0313 J-6.1064
G2 X75.7066 Y-30.6574 I552.7481 J2754.7045
G3 X74.4338 Y-30.394 I-124.3618 J-597.6866
G3 X78.8638 Y-27.2115 I-44.7216 J66.9258
G3 X81.3295 Y-25.2915 I-94.7733 J124.2565
G0 Z5.0
G0 X-52.5607 Y-21.3309
G1 Z0.0
G2 X-53.6327 Y-34.1645 I-119.7714 J3.543
G3 X-53.6593 Y-34.373 I9.9062 J-1.3667
G2 X-54.9213 Y-43.072 I-156.0209 J18.1942
G2 X-60.7834 Y-41.455 I21.0598 J87.7821
G3 X-60.8533 Y-41.4335 I-2.9823 J-9.545
G3 X-64.5918 Y-40.4273 I-17.2964 J-56.8165
G3 X-66.4771 Y-40.0333 I-5.3063 J-20.6832
G3 X-65.0288 Y-34.3156 I-8.5385 J5.2052
G3 X-66.0198 Y-29.6597 I-15.0642 J-0.7732
G3 X-62.7011 Y-27.6364 I-9.3304 J19.0376
G3 X-62.4445 Y-27.4391 I-5.9662 J8.0252
G3 X-58.005 Y-18.9468 I-7.3544 J9.2511
G3 X-58.0503 Y-17.1582 I-9.9794 J0.6421
G3 X-60.6724 Y-10.6191 I-13.2897 J-1.5337
G3 X-62.6673 Y-8.2392 I-18.3868 J-13.3861
G3 X-62.6799 Y-8.2261 I-7.2073 J-6.9321
G3 X-65.1489 Y-5.8604 I-31.5583 J-30.4641
G2 X-59.4451 Y-4.9872 I821.2731 J-5345.5938
G3 X-59.4112 Y-4.982 I-1.508 J9.8856
G2 X-55.1613 Y-4.579 I5.4638 J-35.0121
G3 X-55.0331 Y-4.5738 I-0.3426 J9.9941
G2 X-53.4186 Y-4.6369 I0.442 J-9.3784
G2 X-53.2005 Y-6.1099 I-33.2783 J-5.6794
G2 X-52.6556 Y-11.8492 I-98.7386 J-12.2708
G2 X-52.5607 Y-21.3309 I-119.6765 J-5.9387
G0 Z5.0
G0 X-20.49 Y-22.8619
G1 Z0.0
G3 X-20.371 Y-10.997 I-157.3323 J7.5108
G3 X-20.3846 Y-10.6844 I-9.9962 J-0.2764
G2 X-20.2378 Y-5.1693 I32.2283 J1.9017
G3 X-16.5641 Y3.0644 I-11.1794 J9.9242
G3 X-16.5832 Y5.4825 I-9.9359 J1.1309
G3 X-19.3879 Y11.7901 I-11.997 J-1.5572
G3 X-21.1452 Y13.6331 I-14.1158 J-11.6995
G3 X-21.1608 Y13.6474 I-6.7408 J-7.3866
G3 X-23.9359 Y15.9031 I-21.8503 J-24.046
G3 X-23.9446 Y15.9094 I-5.871 J-8.0952
G3 X-28.6264 Y19.0306 I-42.961 J-59.3699
G3 X-33.697 Y22.0045 I-57.601 J-92.4018
G3 X-41.1555 Y25.1091 I-15.2083 J-26.0247
G3 X-42.6124 Y25.383 I-2.5711 J-9.6638
G3 X-53.7444 Y22.6863 I-1.8644 J-16.6286
G2 X-54.9663 Y22.3192 I-2.4051 J5.7882
G3 X-55.3222 Y22.244 I1.8877 J-9.8202
G2 X-59.3782 Y21.4268 I-16.9045 J73.4214
G2 X-66.0387 Y20.3842 I-37.1793 J215.7257
G3 X-65.0161 Y25.8789 I-11.8871 J5.0546
G3 X-65.5966 Y29.4099 I-12.1199 J-0.1793
G2 X-64.107 Y31.809 I19.3158 J-10.3313
G3 X-61.8933 Y33.0643 I-9.1161 J18.6558
G3 X-55.9354 Y42.4731 I-6.6478 J10.8003
G3 X-55.9953 Y45.117 I-9.9396 J1.0972
G3 X-60.2639 Y52.7421 I-12.4175 J-1.944
G3 X-62.8674 Y54.729 I-14.0773 J-15.7475
G3 X-62.8779 Y54.7357 I-5.4321 J-8.396
G3 X-64.562 Y55.7661 I-22.3552 J-34.6474
G2 X-58.7095 Y56.2492 I7.8218 J-59.0618
G3 X-58.6185 Y56.2526 I-0.3306 J9.9945
G2 X-50.0887 Y56.4219 I8.0551 J-190.8913
G3 X-43.7608 Y56.6139 I0.3881 J91.5852
G3 X-35.3892 Y58.1947 I-1.2072 J29.3516
G3 X-27.8505 Y65.9102 I-3.788 J11.2419
G3 X-27.446 Y67.9083 I-9.548 J2.9726
G3 X-29.635 Y76.4171 I-12.7708 J1.2504
G3 X-32.6062 Y79.7916 I-14.4944 J-9.7664
G3 X-32.6342 Y79.8161 I-6.5931 J-7.5187
G3 X-37.1621 Y83.0757 I-19.8859 J-22.8488
G3 X-53.1383 Y87.6716 I-16.2252 J-26.3357
G3 X-53.5677 Y87.6658 I-0.0805 J-9.9997
G3 X-61.0767 Y86.8657 I1.8508 J-53.0051
G3 X-67.5019 Y85.6491 I26.0402 J-155.1015
G3 X-67.5084 Y85.6477 I2.0643 J-9.7846
G3 X-78.3908 Y83.1737 I77.248 J-364.9675
G3 X-86.6781 Y97.9341 I-18.7035 J-0.7946
G3 X-86.6964 Y97.9463 I-5.5641 J-8.3091
G3 X-96.5869 Y101.7985 I-13.7047 J-20.5638
G3 X-104.5747 Y102.4376 I-7.6161 J-44.9512
G3 X-108.9434 Y102.3265 I-0.2228 J-77.1354
G3 X-114.9547 Y101.4147 I0.9481 J-26.523
G3 X-122.2056 Y95.6495 I2.8469 J-11.0229
G3 X-123.3359 Y91.0083 I8.8697 J-4.6183
G3 X-121.0846 Y84.2562 I11.329 J0.026
G3 X-119.9334 Y82.8202 I14.0061 J10.048
G3 X-119.9296 Y82.8159 I7.4575 J6.6623
G3 X-118.0853 Y80.926 I22.6474 J20.2557
G3 X-118.084 Y80.9247 I6.8467 J7.2885
G3 X-114.9985 Y78.1984 I46.5431 J49.5648
G3 X-114.9962 Y78.1965 I6.3916 J7.6908
G3 X-112.3486 Y76.0403 I113.0231 J136.0802
G2 X-121.2481 Y74.5378 I-96.2434 J542.9509
G3 X-121.3007 Y74.5292 I1.584 J-9.8738
G2 X-136.469 Y72.2072 I-100.4188 J605.2767
G3 X-136.5904 Y72.1894 I1.3895 J-9.903
G2 X-150.6907 Y70.8024 I-19.9747 J130.6901
G3 X-158.7957 Y70.1904 I-0.8877 J-42.2248
G3 X-167.1101 Y63.8313 I1.7102 J-10.851
G3 X-167.4681 Y56.5705 I9.1257 J-4.0891
G3 X-162.757 Y50.3383 I11.6177 J3.8854
G3 X-160.8406 Y49.0752 I14.1694 J19.4124
G3 X-160.8358 Y49.0723 I5.0983 J8.6028
G3 X-157.6432 Y47.336 I25.4871 J43.061
G3 X-146.1129 Y43.5254 I16.8753 J31.7119
G3 X-145.0351 Y43.4225 I1.4879 J9.8887
G3 X-138.8944 Y43.7153 I1.4235 J34.684
G3 X-137.6321 Y43.8766 I-13.4961 J110.632
G3 X-137.7415 Y41.753 I11.3771 J-1.651
G3 X-137.7005 Y41.1707 I9.9915 J0.411
G3 X-134.6685 Y33.5802 I14.688 J1.4664
G3 X-132.2314 Y30.7448 I21.4216 J15.9474
G2 X-131.9617 Y30.3115 I-1.6813 J-1.3471
G3 X-131.8793 Y30.1399 I9.0559 J4.2416
G2 X-130.8705 Y27.7766 I-21.5213 J-10.5843
G2 X-129.0111 Y21.796 I-64.8408 J-23.4384
G3 X-125.8382 Y13.0414 I41.4743 J10.0791
G3 X-125.1604 Y11.8047 I13.0918 J6.3708
G2 X-143.5604 Y9.5117 I-90.0122 J647.3339
G3 X-143.5642 Y9.5113 I1.0957 J-9.9398
G2 X-144.442 Y9.4181 I-11.1351 J100.6594
G3 X-151.944 Y11.1326 I-15.8084 J-51.8987
G3 X-152.0186 Y11.1439 I-1.531 J-9.8821
G3 X-158.8082 Y10.8622 I-2.653 J-18.0211
G3 X-166.9584 Y4.3888 I2.754 J-11.8347
G3 X-167.0413 Y4.2159 I8.974 J-4.4122
G3 X-167.1687 Y-7.5947 I12.9153 J-6.0453
G3 X-167.0703 Y-7.8105 I9.1463 J4.043
G3 X-163.0647 Y-13.3332 I16.5518 J7.7907
G2 X-162.5966 Y-15.0375 I-9.9697 J-3.6546
G2 X-162.0056 Y-20.9767 I-37.6618 J-6.7469
G3 X-162.003 Y-21.0757 I9.9978 J0.2111
G2 X-161.6562 Y-43.5537 I-720.9321 J-22.3635
G3 X-161.2851 Y-58.3058 I196.7927 J-2.4293
G3 X-161.0908 Y-59.7367 I9.9804 J0.6261
G3 X-158.7391 Y-66.2684 I24.6199 J5.1751
G3 X-156.4445 Y-70.4258 I56.4401 J28.4392
G3 X-151.4577 Y-76.7911 I22.9515 J12.845
G3 X-140.3959 Y-79.6742 I8.1406 J8.571
G3 X-138.6483 Y-79.0509 I-2.4713 J9.6898
G3 X-132.6214 Y-72.8433 I-5.1179 J10.9985
G3 X-131.4831 Y-69.0568 I-14.7489 J6.4982
G3 X-131.478 Y-69.0268 I-9.8574 J1.6825
G3 X-131.1102 Y-64.2298 I-26.5479 J4.4481
G3 X-131.1182 Y-63.9387 I-9.9992 J-0.1296
G3 X-132.767 Y-32.1137 I-1643.5637 J-69.1963
G1 X-132.9372 Y-29.2029
G2 X-132.3482 Y-30.7739 I-17.3635 J-7.406
G2 X-130.8371 Y-36.2734 I-61.8233 J-19.945
G3 X-127.3229 Y-47.515 I61.9847 J13.2066
G3 X-122.8145 Y-53.8838 I16.1578 J6.6579
G3 X-122.7677 Y-53.9254 I6.666 J7.4541
G3 X-113.1575 Y-57.0088 I8.3241 J9.4264
G3 X-109.8001 Y-56.0509 I-1.0226 J9.9476
G3 X-104.5288 Y-51.0804 I-5.3233 J10.9257
G3 X-84.2234 Y-47.8045 I-107.7597 J732.5152
G3 X-80.6328 Y-47.1273 I-13.2442 J80.0749
G3 X-81.1358 Y-50.8003 I9.4844 J-3.1696
G3 X-78.1641 Y-58.098 I11.9223 J0.601
G3 X-76.6576 Y-59.7276 I16.5766 J13.8131
G3 X-76.6515 Y-59.7336 I6.9842 J7.1569
G3 X-74.0215 Y-62.0928 I29.9677 J30.7609
G3 X-74.0179 Y-62.0958 I6.3657 J7.7122
G3 X-69.3256 Y-65.7453 I66.2494 J80.3385
G3 X-69.2915 Y-65.7702 I5.9115 J8.0656
G2 X-64.6827 Y-69.7133 I-22.4584 J-30.9151
G3 X-64.5628 Y-69.8316 I7.0835 J7.0586
G2 X-62.4385 Y-72.8122 I-7.0681 J-7.2846
G3 X-59.8201 Y-77.7427 I23.3744 J9.2527
G3 X-49.1436 Y-84.1672 I11.8722 J7.6462
G3 X-47.4614 Y-84.1682 I0.8467 J9.9641
G3 X-37.9138 Y-79.933 I-1.3315 J15.8814
G3 X-33.9617 Y-75.6234 I-19.5396 J21.8853
G3 X-33.8762 Y-75.5074 I-8.007 J5.9906
G3 X-28.8874 Y-66.3808 I-33.0539 J23.9947
G3 X-26.0109 Y-57.9146 I-76.0526 J30.5623
G3 X-26.0063 Y-57.8981 I-9.6298 J2.6958
G3 X-21.49 Y-34.5889 I-143.3476 J39.8661
G3 X-20.49 Y-22.8619 I-156.3323 J19.2378
G0 Z5.0
G0 X-10.3634 Y-19.5477
G1 Z0.0
G2 X-4.1751 Y-17.281 I9.879 J-17.3898
G2 X9.3134 Y-15.0531 I57.5791 J-306.6586
G2 X7.9623 Y-8.1732 I44.8826 J12.3865
G2 X0.4058 Y-5.9276 I4.3291 J28.4049
G2 X-7.4165 Y-2.0579 I41.7285 J94.1911
G2 X-10.4406 Y-8.7517 I-24.0007 J6.8129
G3 X-10.4019 Y-10.0954 I22.2843 J-0.031
G2 X-10.3748 Y-10.7206 I-19.9653 J-1.1781
G2 X-10.3634 Y-19.5477 I-167.4475 J-4.6305
G0 Z5.0
G0 X-5.4239 Y-28.2426
G1 Z0.0
G3 X-10.4564 Y-37.6846 I4.9395 J-8.6949
G3 X-7.1787 Y-45.9375 I14.8254 J1.1106
G3 X-3.9474 Y-49.3486 I19.6598 J15.3878
G3 X-1.2524 Y-51.5331 I23.1822 J25.8445
G3 X5.5921 Y-54.5335 I9.3825 J12.0966
G3 X8.944 Y-54.5273 I1.6579 J9.8616
G3 X15.1364 Y-52.8421 I-5.7008 J33.1661
G3 X19.6147 Y-51.1982 I-57.0026 J162.2187
G3 X19.8084 Y-51.1218 I-3.5757 J9.3389
G2 X29.3287 Y-49.0552 I10.6832 J-26.2521
G2 X34.3862 Y-49.6961 I-1.8946 J-35.2238
G3 X34.5318 Y-49.7243 I1.9709 J9.8039
G2 X40.9882 Y-51.0614 I-29.1281 J-156.8986
G2 X54.2626 Y-54.3392 I-92.3034 J-402.3235
G3 X54.2855 Y-54.3453 I2.5577 J9.6674
G2 X95.9041 Y-66.4828 I-199.9078 J-762.8894
G3 X116.2288 Y-72.3344 I84.2284 J254.3321
G3 X124.8076 Y-73.6401 I11.1938 J44.7098
G3 X125.594 Y-73.6539 I0.5674 J9.9839
G3 X141.0567 Y-71.0782 I-1.2029 J54.9246
G3 X161.6286 Y-63.8613 I-106.2104 J335.6796
G3 X167.8882 Y-61.3639 I-58.3244 J155.2822
G3 X174.8403 Y-57.8851 I-18.6969 J46.0508
G3 X180.3902 Y-51.4808 I-6.2497 J11.0228
G3 X179.9792 Y-43.2783 I-9.3121 J3.6448
G3 X172.6364 Y-37.5933 I-9.7292 J-4.9816
G3 X171.0707 Y-37.2719 I-4.2501 J-16.7308
G1 X171.0705
G3 X168.5953 Y-36.9813 I-4.9313 J-31.3246
G3 X168.5886 Y-36.9808 I-0.7745 J-9.97
G3 X164.6809 Y-36.7853 I-5.5923 J-72.6153
G3 X164.6774 Y-36.7852 I-0.2313 J-9.9973
G3 X157.5893 Y-36.7571 I-4.2894 J-188.2133
G1 X157.5885
G3 X143.9539 Y-37.141 I7.7158 J-516.3686
G2 X128.407 Y-37.6933 I-72.676 J1826.9109
G3 X128.3194 Y-37.6964 I0.3125 J-9.9951
G2 X113.8277 Y-37.8491 I-9.8358 J245.6741
G2 X108.7768 Y-37.0847 I19.886 J148.4609
G3 X108.8854 Y-36.3884 I-163.6289 J25.8873
G3 X110.2504 Y-18.8961 I-104.7984 J16.9771
G3 X119.9661 Y-25.7679 I472.1442 J657.2376
G3 X128.4778 Y-31.2129 I70.0387 J100.1112
G3 X133.6662 Y-33.3204 I9.1947 J15.1957
G3 X135.5582 Y-33.5715 I2.2557 J9.7423
G3 X147.7992 Y-25.0205 I0.4509 J12.3916
G3 X148.7295 Y-18.6966 I-17.1925 J5.7596
G3 X148.7287 Y-18.6719 I-9.9952 J-0.3112
G3 X145.0488 Y-7.8771 I-19.6063 J-0.659
G3 X139.5824 Y-1.8933 I-26.2572 J-18.4983
G3 X139.5722 Y-1.8846 I-6.4731 J-7.6223
G3 X125.0235 Y5.9935 I-26.0867 J-30.802
G2 X129.2935 Y6.4943 I13.8299 J-99.4673
G3 X137.4062 Y9.9086 I-0.2298 J11.8914
G3 X138.7804 Y11.5924 I-7.0143 J7.1274
G3 X140.3316 Y21.1067 I-10.0506 J6.5222
G3 X140.253 Y21.3936 I-9.6832 J-2.4973
G3 X139.8251 Y22.637 I-12.8223 J-3.7171
G3 X142.1189 Y23.4834 I-5.609 J18.7308
G3 X149.4031 Y31.6781 I-4.886 J11.6778
G3 X149.7518 Y33.5668 I-9.614 J2.7516
G3 X147.3627 Y41.6367 I-11.4686 J0.9933
G3 X145.3644 Y43.8128 I-12.4823 J-9.4568
G3 X145.3537 Y43.8224 I-6.6948 J-7.4283
G3 X142.4695 Y46.0693 I-17.4113 J-19.3754
G3 X142.4652 Y46.0722 I-5.5768 J-8.3006
G3 X137.9154 Y48.8242 I-31.4755 J-46.9001
G3 X132.9764 Y51.3933 I-51.216 J-92.4305
G3 X131.5984 Y52.0599 I-14.302 J-27.8063
G3 X131.9579 Y52.3256 I-8.6513 J12.0828
G3 X132.1822 Y52.5018 I-6.0635 J7.952
G3 X136.7775 Y62.4787 I-7.7917 J9.6355
G3 X136.7636 Y62.7975 I-9.9962 J-0.2756
G3 X131.9062 Y72.2995 I-13.268 J-0.79
G3 X127.8773 Y74.9467 I-13.0572 J-15.4828
G3 X118.5913 Y77.7828 I-11.5953 J-21.345
G3 X116.1612 Y77.7181 I-0.9507 J-9.9547
G3 X110.0484 Y76.5478 I11.3252 J-75.7066
G2 X110.3248 Y79.7177 I130.2123 J-9.76
G3 X110.3358 Y79.8347 I-9.9509 J0.9902
G2 X110.5203 Y80.8965 I6.3529 J-0.5569
G3 X111.0387 Y91.823 I-15.0994 J6.192
G3 X110.6492 Y92.8865 I-9.5699 J-2.9012
G3 X105.5162 Y98.8963 I-12.3075 J-5.3151
G3 X102.2079 Y100.6674 I-11.5906 J-17.6755
G3 X102.1833 Y100.6778 I-3.9184 J-9.2003
G3 X97.2086 Y102.3989 I-15.3368 J-36.279
G3 X89.4452 Y103.7474 I-9.3484 J-30.7977
G3 X80.2836 Y100.4995 I-0.773 J-12.3648
G3 X78.9789 Y99.0383 I6.771 J-7.3589
G3 X77.3885 Y88.6658 I9.2003 J-6.7189
G3 X79.5417 Y84.6184 I13.1314 J4.3895
G1 X79.542 Y84.6181
G3 X80.6358 Y83.3036 I17.4882 J13.441
G2 X80.9945 Y80.9947 I-38.8608 J-7.2197
G2 X81.6256 Y74.621 I-125.9837 J-15.6911
G2 X81.9728 Y69.3763 I-373.7404 J-27.3814
G3 X70.5855 Y65.9933 I86.5992 J-312.3477
G3 X63.1509 Y62.898 I11.5317 J-38.1748
G3 X57.5203 Y55.1571 I5.1226 J-9.6444
G3 X57.5653 Y51.4332 I9.8469 J-1.743
G3 X62.5514 Y43.6811 I12.4226 J2.5105
G3 X62.5919 Y43.6519 I5.8677 J8.0976
G3 X63.1889 Y43.2447 I8.9298 J12.4536
G3 X58.2833 Y42.7628 I0.6118 J-31.4374
G3 X49.9169 Y36.967 I1.9476 J-11.7478
G3 X49.0688 Y35.0626 I8.6612 J-4.9983
G3 X48.4555 Y30.5312 I12.1417 J-3.9503
G3 X47.7386 Y31.0934 I-12.4436 J-15.1275
G3 X47.7223 Y31.1056 I-5.9867 J-8.0099
G3 X43.8429 Y33.6254 I-21.6726 J-29.1203
G3 X39.4942 Y35.8377 I-22.8333 J-39.5024
G3 X32.2306 Y37.7238 I-8.7643 J-18.8228
G3 X31.1798 Y37.7446 I-0.7228 J-9.9738
G3 X20.2897 Y32.59 I0.4965 J-15.1301
G3 X20.24 Y32.5676 I4.0797 J-9.13
G2 X17.6377 Y31.4842 I-18.6774 J41.1942
G2 X11.6011 Y29.3509 I-49.3194 J129.9517
G2 X-1.1752 Y25.3968 I-127.4814 J389.2945
G3 X-3.2544 Y7.0681 I2.8002 J-9.6
G3 X4.503 Y3.1947 I45.3888 J81.1954
G3 X9.7726 Y1.6689 I7.7884 J17.0371
G3 X12.5069 Y1.6752 I1.3446 J9.9092
G3 X17.8962 Y2.9164 I-4.4254 J31.5362
G3 X17.6408 Y-3.1298 I82.7867 J-6.5257
G3 X17.6425 Y-3.3836 I9.9998 J-0.0577
G3 X19.131 Y-13.0162 I36.5534 J0.7171
G3 X21.9854 Y-20.8856 I59.894 J17.2719
G2 X22.9347 Y-23.6397 I-18.7611 J-8.0074
G3 X12.6525 Y-24.6841 I7.7213 J-127.1507
G3 X-2.3298 Y-27.1092 I40.7515 J-299.2555
G3 X-5.4239 Y-28.2426 I1.8454 J-9.8283
G0 Z5.0
G0 X-19.6261 Y36.9721
G1 Z0.0
G2 X-6.7755 Y44.5967 I21.2511 J-21.1752
G3 X0.8123 Y46.894 I-109.1047 J374.0487
G2 X-2.3356 Y50.6106 I682.2093 J581.0013
G2 X-8.2555 Y61.7632 I22.945 J19.3269
G2 X-8.7546 Y59.965 I-29.1429 J7.1196
G2 X-25.8367 Y40.5008 I-30.4226 J9.4716
G2 X-23.8446 Y39.4107 I-23.0687 J-44.5211
G2 X-19.6261 Y36.9721 I-62.3827 J-112.7819
G0 Z5.0
G0 X12.8741 Y63.5999
G1 Z0.0
G3 X12.961 Y63.4952 I7.7353 J6.3376
G3 X22.3801 Y52.4985 I670.0605 J564.4001
G3 X32.6984 Y41.4311 I129.1865 J110.0985
G3 X37.5318 Y38.1958 I10.4822 J10.4317
G3 X41.8316 Y37.449 I3.8197 J9.2417
G3 X50.9059 Y41.919 I-0.6096 J12.6831
G3 X53.5439 Y45.9499 I-13.5215 J11.7275
G3 X53.5521 Y45.9672 I-9.0282 J4.3001
G3 X55.3183 Y53.9785 I-16.5708 J7.8537
G3 X54.607 Y59.9003 I-25.9765 J-0.1167
G3 X45.837 Y73.0966 I-21.7364 J-4.9332
G3 X35.0005 Y78.4858 I-20.3285 J-27.2866
G3 X34.5975 Y78.5939 I-2.7896 J-9.603
G3 X27.0693 Y79.7306 I-9.9846 J-40.6286
G3 X20.5728 Y79.9374 I-6.1613 J-91.3834
G3 X12.8741 Y63.5999 I0.0366 J-9.9999
G0 Z5.0
G0 X-8.8161 Y136.0
G1 Z0.0
G2 X-6.3265 Y134.5476 I-44.5711 J-79.2601
G2 X-2.5368 Y136.0 I26.9359 J-64.6101
G0 Z5.0
G0 X-37.0187
G1 Z0.0
G2 X-11.3699 Y125.9109 I-16.3686 J-79.2601
G2 X-7.0833 Y123.1645 I-41.1503 J-68.9437
G2 X20.3898 Y129.9371 I27.6927 J-53.227
G2 X30.2377 Y129.6303 I0.5182 J-141.5899
G2 X38.735 Y128.7104 I-5.6248 J-91.6651
G2 X45.0657 Y136.0 I48.3196 J-35.5698
G0 Z5.0
G0 X121.0724
G1 Z0.0
G2 X127.2086 Y132.5039 I-27.1468 J-54.7792
G2 X146.6932 Y110.2507 I-28.8668 J-44.9324
G2 X157.4743 Y103.0615 I-27.8442 J-53.434
G2 X176.273 Y69.3914 I-33.9788 J-41.054
G2 X179.0895 Y65.9971 I-41.3927 J-37.2115
G2 X184.0 Y58.2964 I-40.8063 J-31.437
G0 Z5.0
G0 Y10.9582
G1 Z0.0
G2 X182.2162 Y7.7852 I-46.7671 J24.203
G2 X184.0 Y3.9647 I-53.0937 J-27.1161
G0 Z5.0
G0 Y-63.4917
G1 Z0.0
G2 X179.8988 Y-66.512 I-15.4094 J16.6294
G2 X171.7181 Y-70.6016 I-30.7075 J51.1989
G2 X165.1875 Y-73.2066 I-68.4139 J162.0225
G2 X144.0815 Y-80.6098 I-130.3412 J337.808
G2 X125.8129 Y-83.6515 I-19.6904 J61.8805
G2 X124.2403 Y-83.624 I-0.4379 J19.9952
G2 X113.8227 Y-82.0407 I3.1823 J55.9994
G2 X92.8013 Y-75.9894 I66.3097 J269.8899
G3 X51.7507 Y-64.0187 I-238.4236 J-741.2453
G2 X51.7048 Y-64.0066 I5.0696 J19.3468
G3 X38.7552 Y-60.8089 I-103.02 J-389.3783
G3 X32.7065 Y-59.5563 I-33.3515 J-145.814
G2 X32.4154 Y-59.5 I3.6506 J19.664
G3 X29.2772 Y-59.0715 I-4.9813 J-24.7789
G3 X23.5777 Y-60.3842 I1.2144 J-18.3024
G2 X23.1904 Y-60.5371 I-7.5386 J18.5248
G2 X18.5559 Y-62.2398 I-65.0566 J169.9138
G2 X10.6381 Y-64.3828 I-15.3127 J40.8786
G2 X3.9341 Y-64.3951 I-3.3881 J19.7109
G2 X-7.2612 Y-59.5274 I4.196 J24.9586
G2 X-10.5775 Y-56.8349 I26.496 J36.0233
G2 X-14.4346 Y-52.8691 I23.0586 J26.2852
G2 X-16.3719 Y-60.5775 I-154.9193 J34.837
G2 X-16.3811 Y-60.6104 I-19.2687 J5.3588
G2 X-19.5913 Y-70.0665 I-88.5589 J24.7919
G2 X-25.7837 Y-81.382 I-47.3388 J18.5538
G2 X-25.9547 Y-81.614 I-16.1851 J11.7492
G2 X-31.1739 Y-87.3211 I-31.4987 J23.5662
G2 X-46.6259 Y-94.1332 I-17.619 J19.0343
G2 X-49.9904 Y-94.1313 I-1.671 J19.9301
G2 X-68.1495 Y-83.2775 I2.0425 J24.0348
G2 X-71.5285 Y-77.0064 I29.0854 J19.718
G2 X-71.7662 Y-76.7719 I13.9294 J14.3518
G3 X-75.1688 Y-73.8607 I-19.9837 J-19.9134
G2 X-75.2371 Y-73.8109 I11.7548 J16.181
G2 X-80.38 Y-69.8109 I67.4686 J92.0536
G2 X-80.3872 Y-69.805 I12.7242 J15.4303
G2 X-83.6296 Y-66.8964 I33.7035 J40.8324
G2 X-83.6418 Y-66.8845 I13.9562 J14.3256
G2 X-85.7607 Y-64.6021 I22.0543 J22.5996
G2 X-89.3816 Y-58.8304 I16.5472 J14.4028
G2 X-99.0502 Y-60.3709 I-122.9069 J740.2652
G2 X-105.4201 Y-65.0407 I-16.0732 J15.2457
G2 X-112.1349 Y-66.9564 I-8.7601 J17.9795
G2 X-121.1377 Y-66.0594 I-2.3087 J22.4574
G2 X-121.6155 Y-70.6792 I-36.8882 J1.4807
G2 X-121.6256 Y-70.7392 I-19.725 J3.3049
G2 X-123.4527 Y-76.8353 I-25.7447 J4.3941
G2 X-134.4295 Y-88.1174 I-20.3135 J8.7829
G2 X-137.9246 Y-89.364 I-8.4377 J18.133
G2 X-158.3143 Y-84.0704 I-5.3925 J21.144
G2 X-165.0898 Y-75.4536 I24.8213 J26.4896
G2 X-167.6324 Y-70.8417 I62.7908 J37.6244
G2 X-170.877 Y-61.7938 I31.1615 J16.28
G2 X-171.2654 Y-58.932 I19.5723 J4.1141
G2 X-171.6562 Y-43.4921 I206.4019 J12.9489
G3 X-171.9982 Y-21.3857 I-711.2789 J0.053
G2 X-172.0034 Y-21.1878 I19.9904 J0.6201
G3 X-172.2302 Y-18.1617 I-28.255 J-0.5966
G2 X-176.1181 Y-12.0692 I21.7117 J18.142
G2 X-176.315 Y-11.6377 I18.0957 J8.5174
G2 X-178.0 Y-6.1405 I22.1889 J9.8082
G0 Z5.0
G0 Y2.4817
G1 Z0.0
G2 X-176.0983 Y8.4552 I23.874 J-4.3111
G2 X-175.9323 Y8.801 I18.1139 J-8.4786
G2 X-161.077 Y20.6014 I19.8782 J-9.7735
G2 X-150.5622 Y21.0373 I6.4054 J-27.4787
G2 X-150.413 Y21.0147 I-2.9129 J-19.7867
G2 X-143.5773 Y19.5713 I-9.8374 J-63.4954
G3 X-138.9136 Y20.1106 I-71.5953 J639.5672
G3 X-140.2693 Y24.3616 I-56.7977 J-15.7725
G3 X-140.4913 Y24.9295 I-13.1313 J-4.8059
G2 X-142.6312 Y27.5302 I27.2444 J24.5981
G2 X-146.011 Y33.4621 I19.6187 J15.1068
G2 X-147.6009 Y33.6367 I1.386 J19.9519
G2 X-162.2186 Y38.4433 I6.833 J45.4112
G2 X-165.9293 Y40.4667 I26.8699 J53.6901
G2 X-165.9389 Y40.4724 I10.187 J17.2112
G2 X-168.5329 Y42.1741 I17.3513 J29.2783
G2 X-176.9518 Y53.3988 I12.6826 J18.2818
G2 X-176.2359 Y67.9204 I18.9674 J6.3434
G2 X-160.4369 Y80.055 I19.1503 J-8.581
G2 X-150.8317 Y80.8063 I8.8585 J-51.4775
G3 X-138.1013 Y82.0746 I-5.7334 J122.0732
G2 X-137.8585 Y82.1102 I3.0217 J-19.7704
G3 X-131.7637 Y82.9971 I-83.8611 J597.6956
G2 X-133.3359 Y90.9853 I19.7568 J8.0372
G2 X-131.0753 Y100.2678 I19.9999 J0.046
G2 X-117.521 Y111.0799 I18.9675 J-9.876
G2 X-109.3953 Y112.3166 I9.5257 J-35.2765
G2 X-104.6 Y112.4377 I4.5978 J-87.0143
G2 X-94.9776 Y111.6683 I0.3969 J-55.5904
G2 X-81.1507 Y106.2677 I-5.4235 J-34.2858
G2 X-81.1139 Y106.2431 I-11.0915 J-16.6427
G2 X-71.3238 Y95.0575 I-15.9804 J-23.864
G2 X-69.5791 Y95.431 I81.0634 J-374.3773
G2 X-69.5662 Y95.4337 I4.1414 J-19.5665
G2 X-62.7855 Y96.7187 I34.5297 J-163.6695
G2 X-53.9167 Y97.6597 I11.0685 J-62.0581
G2 X-53.0578 Y97.6712 I0.6979 J-19.9878
G2 X-32.0037 Y91.643 I-0.3295 J-40.9313
G2 X-26.0692 Y87.3593 I-20.5164 J-34.6757
G2 X-26.0131 Y87.3103 I-13.1301 J-15.0864
G2 X-21.3644 Y82.0383 I-18.1164 J-20.6597
G2 X-17.4936 Y66.9339 I-18.8524 J-12.8795
G2 X-18.3025 Y62.9376 I-19.9048 J1.9489
G2 X-32.1595 Y48.7305 I-20.8747 J6.499
G2 X-43.2254 Y46.6277 I-12.8085 J37.235
G2 X-46.0886 Y46.4853 I-6.4752 J101.3794
G2 X-45.9958 Y41.3758 I-19.7864 J-2.915
G2 X-47.5331 Y35.3119 I-22.5453 J2.4888
G2 X-41.4982 Y35.3208 I3.0563 J-26.5575
G2 X-38.5845 Y34.773 I-2.2284 J-19.8755
G2 X-28.7669 Y30.7055 I-10.3209 J-38.7932
G2 X-23.3692 Y27.5373 I-57.4605 J-104.0767
G2 X-18.0822 Y24.0108 I-43.5363 J-70.9978
G2 X-18.0649 Y23.9983 I-11.7246 J-16.2029
G2 X-16.9651 Y23.1731 I-24.9462 J-34.3969
G2 X-3.9753 Y34.9968 I18.5901 J-7.3763
G3 X8.4881 Y38.854 I-111.9049 J383.6487
G3 X14.0864 Y40.8324 I-40.1698 J122.5819
G3 X14.5431 Y41.0097 I-12.5238 J32.9295
G2 X17.2288 Y43.1863 I17.1332 J-18.3952
G2 X14.8044 Y45.9708 I134.3379 J119.4107
G2 X5.3127 Y57.0529 I668.2171 J581.9246
G2 X20.5362 Y89.9374 I15.2967 J12.8846
G2 X27.7004 Y89.7107 I0.3718 J-101.5902
G2 X36.984 Y88.3049 I-3.0876 J-51.7454
G2 X37.7901 Y88.0889 I-4.773 J-19.4221
G2 X51.7355 Y81.1722 I-12.2815 J-42.2788
G2 X59.9763 Y72.5135 I-18.865 J-26.2051
G2 X67.6248 Y75.5451 I22.1409 J-44.6951
G2 X71.4094 Y76.7199 I100.9472 J-318.5165
G3 X71.1448 Y79.1549 I-116.3986 J-11.4164
G2 X67.9104 Y85.4774 I19.3751 J13.9003
G2 X70.9032 Y104.9359 I20.2688 J6.842
G2 X73.5126 Y107.8584 I16.1515 J-11.7953
G2 X89.9982 Y113.7323 I15.1596 J-16.4757
G2 X99.9752 Y112.0094 I-2.138 J-42.131
G2 X106.0771 Y109.8886 I-13.1287 J-47.6107
G2 X106.1263 Y109.8677 I-7.7876 J-18.4215
G2 X110.9369 Y107.2999 I-12.2006 J-28.6469
G2 X119.8297 Y96.8512 I-12.5952 J-19.7284
G2 X120.6086 Y94.7242 I-18.361 J-7.9293
G2 X121.738 Y87.456 I-25.1877 J-7.6358
G2 X132.4963 Y83.8173 I-5.456 J-33.8543
G2 X138.2962 Y79.9918 I-13.6472 J-27.0005
G2 X146.7459 Y63.3918 I-14.8007 J-17.9843
G2 X146.7737 Y62.7543 I-19.9646 J-1.1887
G2 X145.8597 Y55.7766 I-22.3832 J-0.6171
G2 X148.0378 Y54.3756 I-34.87 J-56.6045
G2 X148.0462 Y54.3699 I-11.1451 J-16.6068
G2 X152.0377 Y51.2605 I-20.1038 J-29.9228
G2 X152.0592 Y51.2411 I-13.368 J-14.876
G2 X155.2934 Y47.7282 I-17.1788 J-19.0612
G2 X159.7145 Y32.7039 I-17.0103 J-13.1681
G2 X159.017 Y28.9265 I-19.9254 J1.7258
G2 X150.6789 Y16.9233 I-21.7841 J6.2347
G2 X147.169 Y6.1488 I-21.949 J1.1913
G2 X146.5734 Y5.2819 I-16.777 J10.8872
G2 X153.1968 Y-2.0794 I-27.7818 J-31.6573
G2 X158.7231 Y-18.3359 I-24.0743 J-17.2515
G2 X158.7247 Y-18.3854 I-19.9887 J-0.6719
G2 X157.722 Y-26.7543 I-28.118 J-0.8755
G2 X164.9053 Y-26.7878 I2.666 J-198.2442
G2 X164.9122 Y-26.788 I-0.4557 J-19.9948
G2 X169.3565 Y-27.0103 I-1.916 J-82.8082
G2 X169.3698 Y-27.0114 I-1.5357 J-19.941
G2 X172.6254 Y-27.3935 I-3.2307 J-41.5851
G1 X172.6259 Y-27.3936
G2 X174.9661 Y-27.8678 I-4.2396 J-26.9305
G2 X184.0 Y-32.4797 I-4.7161 J-20.3921
G0 Z5.0
G0 Y-75.7007
G1 Z0.0
G2 X175.5513 Y-79.838 I-34.8087 J60.3876
G2 X168.7471 Y-82.5518 I-72.2471 J171.2589
G2 X147.1058 Y-90.1415 I-133.9007 J347.1531
G2 X126.0319 Y-93.6491 I-22.7147 J71.4122
G2 X123.6729 Y-93.6079 I-0.6569 J29.9928
G2 X111.418 Y-91.7472 I3.7497 J65.9833
G2 X89.6996 Y-85.4962 I68.7144 J279.5965
G3 X49.2158 Y-73.6921 I-235.3219 J-731.7384
G2 X49.1471 Y-73.674 I7.6045 J29.0202
G3 X36.5223 Y-70.5564 I-100.4623 J-379.7109
G3 X30.8812 Y-69.3883 I-31.1185 J-136.0665
G2 X30.4445 Y-69.3038 I5.4759 J29.496
G3 X29.2932 Y-69.1178 I-3.0104 J-14.9751
G3 X27.347 Y-69.6466 I1.1983 J-8.2561
G2 X26.7661 Y-69.876 I-11.3079 J27.7873
G2 X21.9671 Y-71.6405 I-68.6323 J179.2526
G2 X12.3321 Y-74.2383 I-18.7239 J50.2792
G2 X2.2762 Y-74.2567 I-5.0821 J29.5664
G2 X-8.9898 Y-70.3172 I5.854 J34.8202
G2 X-10.2959 Y-73.7539 I-95.9502 J34.4987
G2 X-17.6911 Y-87.2566 I-56.6342 J22.2412
G2 X-17.9476 Y-87.6046 I-24.2776 J17.6238
G2 X-24.4383 Y-94.7127 I-39.5058 J29.5568
G2 X-45.7904 Y-104.0982 I-24.3546 J26.4259
G2 X-50.8371 Y-104.0954 I-2.5064 J29.8951
G2 X-76.4749 Y-88.8176 I2.8892 J33.9989
G2 X-79.8505 Y-82.8988 I37.4108 J25.258
G3 X-81.0462 Y-81.9512 I-11.8994 J-13.7864
G2 X-81.1486 Y-81.8765 I17.6322 J24.2715
G2 X-86.7422 Y-77.5261 I73.3801 J100.1192
G2 X-86.7529 Y-77.5172 I19.0864 J23.1454
G2 X-90.6077 Y-74.0592 I40.0692 J48.5445
G2 X-90.626 Y-74.0414 I20.9344 J21.4884
G2 X-93.3617 Y-71.1006 I29.0385 J29.7565
G2 X-94.4463 Y-69.7775 I24.1482 J20.9013
G2 X-94.4887 Y-69.7841 I-117.8422 J751.2122
G2 X-101.04 Y-74.0304 I-20.6347 J24.6589
G2 X-111.1122 Y-76.9039 I-13.1401 J26.9692
G2 X-112.8721 Y-77.0368 I-3.3313 J32.4049
G2 X-114.2844 Y-80.8282 I-34.4982 J10.6917
G2 X-130.2106 Y-97.1838 I-29.4818 J12.7759
G2 X-135.4534 Y-99.0539 I-12.6566 J27.1995
G2 X-165.1689 Y-91.3515 I-7.8638 J30.8338
G2 X-173.7302 Y-80.4892 I31.6759 J33.7707
G2 X-176.5281 Y-75.4102 I71.4312 J42.66
G2 X-178.0 Y-72.2979 I40.0571 J20.8486
G0 Z5.0
G0 Y22.5235
G1 Z0.0
G2 X-166.5426 Y29.4195 I21.9458 J-23.496
G2 X-166.7914 Y29.5495 I25.7748 J49.6284
G2 X-171.0229 Y31.8612 I31.4427 J62.5839
G2 X-171.0372 Y31.8697 I15.2805 J25.8168
G2 X-174.3159 Y34.0154 I22.4496 J37.881
G2 X-178.0 Y37.0151 I18.4656 J26.4405
G0 Z5.0
G0 Y82.201
G1 Z0.0
G2 X-162.086 Y89.9182 I20.9145 J-22.8616
G2 X-151.0149 Y90.8091 I10.5076 J-61.3407
G3 X-143.3329 Y91.4547 I-5.5502 J112.0704
G2 X-139.945 Y104.8861 I29.997 J-0.4235
G2 X-120.0914 Y120.744 I27.8372 J-14.4943
G2 X-109.8531 Y122.3063 I12.0961 J-44.9406
G2 X-104.6237 Y122.4378 I5.0556 J-97.004
G2 X-93.3656 Y121.5376 I0.4206 J-65.5905
G2 X-75.605 Y114.589 I-7.0356 J-44.1551
G2 X-75.5498 Y114.5522 I-16.6372 J-24.964
G2 X-66.5749 Y106.2084 I-21.5445 J-32.173
G2 X-64.4918 Y106.5722 I31.5384 J-174.4442
G2 X-54.2656 Y107.6536 I12.7749 J-71.9115
G2 X-52.9773 Y107.6709 I1.0469 J-29.9817
G2 X-26.8453 Y100.2101 I-0.41 J-50.931
G2 X-19.5042 Y94.9026 I-25.6749 J-43.2428
G2 X-19.4199 Y94.829 I-19.6951 J-22.6297
G2 X-13.0932 Y87.6586 I-24.7095 J-28.1783
G2 X-8.4419 Y77.4223 I-27.1236 J-18.4998
G2 X20.4996 Y99.9373 I29.0513 J-7.4848
G2 X28.3333 Y99.6907 I0.4084 J-111.5901
G2 X39.3705 Y98.016 I-3.7205 J-61.7255
G2 X40.5797 Y97.6919 I-7.1596 J-29.1332
G2 X56.8889 Y89.7889 I-15.0711 J-51.8818
G2 X62.8274 Y110.8336 I31.2903 J2.5305
G2 X66.7416 Y115.2172 I24.2273 J-17.6929
G2 X90.5461 Y123.7173 I21.9307 J-23.8346
G2 X102.7398 Y121.6202 I-2.6859 J-52.1161
G2 X109.9709 Y119.0993 I-15.8933 J-57.2214
G2 X110.0447 Y119.068 I-11.6814 J-27.6323
G2 X116.36 Y115.7017 I-16.119 J-37.8472
G2 X129.0102 Y100.8159 I-18.0183 J-28.1303
G2 X130.1785 Y97.6254 I-27.5415 J-11.894
G2 X130.7629 Y95.4587 I-34.7576 J-10.537
G2 X137.1174 Y92.6861 I-14.4808 J-41.857
G2 X144.6883 Y87.6822 I-18.2684 J-35.8694
G2 X156.7282 Y63.9862 I-21.1928 J-25.6747
G2 X156.7699 Y63.0298 I-29.947 J-1.7831
G2 X156.7347 Y60.3849 I-32.3794 J-0.8926
G2 X158.7217 Y58.6985 I-28.7923 J-35.9378
G2 X158.7539 Y58.6695 I-20.052 J-22.314
G2 X163.2252 Y53.8182 I-23.8736 J-26.4895
G2 X169.6772 Y31.841 I-24.942 J-19.2581
G2 X168.631 Y26.175 I-29.8881 J2.5887
G2 X160.0881 Y11.8324 I-31.3981 J8.9863
G2 X158.7498 Y7.087 I-31.3583 J6.2821
G2 X161.3457 Y3.7168 I-39.9582 J-33.4624
G2 X168.6675 Y-16.9392 I-32.2233 J-23.0477
G2 X170.1243 Y-17.0399 I-5.6713 J-92.6569
G2 X170.1444 Y-17.0414 I-2.3036 J-29.9114
G2 X174.1804 Y-17.5151 I-4.0052 J-51.5551
G1 X174.1811 Y-17.5152
G2 X177.3012 Y-18.144 I-5.7948 J-36.8089
G2 X184.0 Y-20.5539 I-7.0512 J-30.1159
G0 Z5.0
G0 Y-87.0118
G1 Z0.0
G2 X179.3869 Y-89.0733 I-34.8087 J71.6986
G2 X172.3071 Y-91.8967 I-76.0826 J180.4942
G2 X150.1298 Y-99.6733 I-137.4608 J356.4981
G2 X126.2508 Y-103.6467 I-25.7387 J80.944
G2 X123.1056 Y-103.5918 I-0.8758 J39.9904
G2 X109.0144 Y-101.4541 I4.317 J75.9672
G2 X86.5987 Y-95.0034 I71.1181 J289.3034
G3 X46.681 Y-83.3655 I-232.2211 J-722.2312
G2 X46.5893 Y-83.3413 I10.1393 J38.6936
G3 X34.2894 Y-80.304 I-97.9045 J-370.0436
G3 X29.9062 Y-79.3811 I-28.8857 J-126.3189
G2 X25.3726 Y-81.0431 I-71.7724 J188.7577
G2 X14.0261 Y-84.0937 I-22.1294 J59.6819
G2 X0.6183 Y-84.1183 I-6.7761 J39.4219
G2 X-3.5709 Y-83.2084 I7.5119 J44.6818
G2 X-9.5986 Y-93.1312 I-63.3592 J31.6957
G2 X-9.9406 Y-93.5952 I-32.3702 J23.4983
G2 X-17.7045 Y-102.1059 I-47.5128 J35.5474
G2 X-44.955 Y-114.0633 I-31.0884 J33.8191
G2 X-51.6838 Y-114.0595 I-3.3419 J39.8601
G2 X-84.7989 Y-94.3597 I3.7359 J43.9629
G2 X-87.7596 Y-89.426 I45.7348 J30.8001
G2 X-93.1043 Y-85.2412 I79.9911 J107.6687
G2 X-93.1186 Y-85.2294 I25.4485 J30.8606
G2 X-96.021 Y-82.7021 I46.4349 J56.2567
G2 X-96.66 Y-83.0202 I-19.1024 J37.5768
G2 X-105.7237 Y-86.1571 I-17.5201 J35.9589
G2 X-125.9918 Y-106.2503 I-38.0426 J18.1048
G2 X-132.9821 Y-108.7437 I-16.8754 J36.266
G2 X-172.0228 Y-98.6333 I-10.3351 J40.5237
G2 X-178.0 Y-92.0624 I38.5299 J41.0525
G0 Z5.0
G0 X-90.1942 Y-131.0
G1 Z0.0
G2 X-98.5533 Y-124.2544 I42.2463 J60.9035
G2 X-108.5459 Y-131.0 I-45.2129 J56.202
G0 Z5.0
G0 X-68.0058
G1 Z0.0
G2 X-98.0441 Y-110.1206 I20.0579 J60.9035
G2 X-117.554 Y-124.3833 I-45.7222 J42.0683
G2 X-128.0395 Y-128.1234 I-25.3131 J54.3989
G2 X-178.0 Y-119.3954 I-15.2776 J59.9033
G0 Z5.0
G0 Y94.5864
G1 Z0.0
G2 X-163.7384 Y99.7808 I20.9145 J-35.247
G2 X-152.1223 Y100.8096 I12.16 J-71.2033
G2 X-148.8147 Y109.5044 I38.7864 J-9.7784
G2 X-122.6635 Y130.4076 I36.7069 J-19.1125
G2 X-110.3144 Y132.2958 I14.6682 J-54.6042
G2 X-104.6463 Y132.4379 I5.5169 J-106.9936
G2 X-91.7521 Y131.4067 I0.4433 J-75.5905
G2 X-70.0592 Y122.9104 I-8.6491 J-54.0241
G2 X-69.9857 Y122.8612 I-22.183 J-33.2854
G2 X-62.7733 Y116.9587 I-27.1087 J-40.4821
G2 X-54.6146 Y117.6475 I11.0564 J-82.2981
G2 X-52.8968 Y117.6706 I1.3958 J-39.9756
G2 X-21.6868 Y108.7771 I-0.4905 J-60.9306
G2 X-12.9391 Y102.4458 I-30.8333 J-51.8098
G2 X-12.8268 Y102.3477 I-26.2602 J-30.1729
G2 X-8.2002 Y97.6865 I-31.3026 J-35.697
G2 X20.463 Y109.9372 I28.8096 J-27.749
G2 X28.9674 Y109.6707 I0.445 J-121.5901
G2 X41.757 Y107.727 I-4.3545 J-71.7054
G2 X43.3693 Y107.2949 I-9.5461 J-38.8442
G2 X48.9102 Y105.4067 I-17.8607 J-61.4849
G2 X54.7517 Y116.7312 I39.269 J-13.0873
G2 X59.9705 Y122.5761 I32.303 J-23.5906
G2 X91.0919 Y133.7024 I28.7017 J-31.1935
G2 X105.5034 Y131.2311 I-3.2317 J-62.1012
G2 X113.8647 Y128.3101 I-18.6569 J-66.8324
G2 X113.9631 Y128.2684 I-15.5752 J-36.8431
G2 X121.7841 Y124.1029 I-20.0374 J-47.0476
G2 X138.1907 Y104.7805 I-23.4424 J-36.5315
G2 X138.9309 Y102.943 I-36.722 J-15.8586
G2 X141.7394 Y101.5543 I-22.6488 J-49.3412
G2 X151.0812 Y95.372 I-22.8904 J-44.7376
G2 X166.6877 Y64.9387 I-27.5856 J-33.3645
G2 X171.1572 Y59.9078 I-31.8074 J-32.7588
G2 X179.6399 Y30.9781 I-32.8741 J-25.3476
G2 X178.245 Y23.4234 I-39.8508 J3.4515
G2 X170.3516 Y8.2741 I-41.0121 J11.7379
G2 X177.4126 Y-7.9318 I-41.2292 J-27.605
G2 X179.6379 Y-8.4208 I-9.0264 J-46.3923
G2 X184.0 Y-9.7083 I-9.3879 J-39.8392
G0 Z5.0
G0 Y-97.9855
G1 Z0.0
G2 X183.2242 Y-98.3079 I-34.8087 J82.6724
G2 X175.8677 Y-101.2414 I-79.92 J189.7288
G2 X153.1534 Y-109.2053 I-141.0213 J365.8428
G2 X126.4698 Y-113.6443 I-28.7623 J90.476
G2 X122.5382 Y-113.5757 I-1.0948 J49.988
G2 X106.6115 Y-111.1611 I4.8844 J85.9511
G2 X83.4989 Y-104.5109 I73.5209 J299.0104
G3 X44.1462 Y-93.0389 I-229.1212 J-712.7237
G2 X44.0316 Y-93.0087 I12.6741 J48.367
G3 X32.0567 Y-90.0515 I-95.3468 J-360.3762
G3 X30.7107 Y-89.7519 I-26.653 J-116.5714
G2 X28.7741 Y-90.4471 I-72.5769 J199.1286
G2 X15.7202 Y-93.9492 I-25.5309 J69.0859
G2 X1.6296 Y-94.355 I-8.4702 J49.2773
G2 X-1.506 Y-99.0057 I-68.5598 J42.8423
G2 X-1.9335 Y-99.5858 I-40.4627 J29.3729
G2 X-10.9716 Y-109.4998 I-55.5199 J41.538
G2 X-44.1195 Y-124.0283 I-37.8213 J41.213
G2 X-52.5306 Y-124.0236 I-4.1774 J49.8252
G2 X-93.1221 Y-99.9028 I4.5827 J53.927
G2 X-95.4754 Y-96.1305 I54.058 J36.3432
G2 X-97.8068 Y-94.3044 I87.7069 J114.3732
G2 X-98.9523 Y-94.6859 I-16.3733 J47.2431
G2 X-121.7729 Y-115.3168 I-44.8139 J26.6336
G2 X-130.5108 Y-118.4335 I-21.0943 J45.3324
G2 X-178.0 Y-106.7233 I-12.8064 J50.2135
G0 Z5.0
G0 Y105.8373
G1 Z0.0
G2 X-165.3924 Y109.6431 I20.9145 J-46.4978
G2 X-159.4164 Y110.4373 I13.814 J-81.0656
G2 X-157.6844 Y114.1226 I46.0804 J-19.4061
G2 X-135.7778 Y136.0 I45.5766 J-23.7308
G0 Z5.0
G0 X-178.0 Y127.1734
G1 Z0.0
G2 X-172.3684 Y128.6597 I20.9145 J-67.834
G2 X-167.0228 Y136.0 I60.2605 J-38.2679
G0 Z5.0
G0 X-178.0 Y116.626
G1 Z0.0
G2 X-167.0473 Y119.5053 I20.9145 J-57.2865
G2 X-166.0616 Y119.6675 I15.4689 J-90.9277
G2 X-153.1926 Y136.0 I53.9537 J-29.2757
G0 Z5.0
G0 X-72.9849
G1 Z0.0
G2 X-64.5135 Y131.2317 I-27.4162 J-58.6174
G2 X-64.4215 Y131.1703 I-27.7287 J-41.6067
G2 X-59.3744 Y127.3824 I-32.6728 J-48.7911
G2 X-54.9635 Y127.6414 I7.6575 J-92.7218
G2 X-52.8163 Y127.6703 I1.7448 J-49.9695
G2 X-16.5284 Y117.344 I-0.571 J-70.9303
G2 X-7.7243 Y111.1346 I-35.9918 J-60.3768
G2 X20.4264 Y119.9372 I28.3337 J-41.1971
G2 X29.6022 Y119.6505 I0.4816 J-131.59
G2 X43.4391 Y117.6079 I-4.9894 J-81.6852
G2 X46.6759 Y122.6289 I44.7401 J-25.2885
G2 X53.1995 Y129.935 I40.3788 J-29.4882
G2 X61.2152 Y136.0 I35.4727 J-38.5523
G0 Z5.0
G0 X139.2687
G1 Z0.0
G2 X154.2364 Y117.5069 I-40.927 J-48.4286
G2 X163.8677 Y110.7508 I-35.3873 J-60.6902
G2 X184.0 Y80.5824 I-40.3721 J-48.7433
G0 Z5.0
G0 X180.3371 Y136.0
G1 Z0.0
G2 X183.0483 Y133.8182 I-61.4881 J-79.1833
G2 X184.0 Y133.0182 I-59.5527 J-71.8108
G0 Z5.0
G0 X166.248 Y136.0
G1 Z0.0
G2 X169.0372 Y131.8291 I-67.9063 J-48.4286
G2 X176.6547 Y126.1291 I-50.1882 J-75.0123
G2 X184.0 Y119.2499 I-53.1591 J-64.1217
G0 Z5.0
G0 X153.5064 Y136.0
G1 Z0.0
G2 X161.6711 Y124.6909 I-55.1647 J-48.4286
G2 X170.2611 Y118.44 I-42.8221 J-67.8741
G2 X184.0 Y103.37 I-46.7656 J-56.4325
G0 Z5.0
G0 Y-108.8037
G1 Z0.0
G2 X179.4286 Y-110.586 I-80.6958 J200.2246
G2 X156.1768 Y-118.7373 I-144.5823 J375.1874
G2 X126.6887 Y-123.6419 I-31.7857 J100.008
G2 X121.9708 Y-123.5596 I-1.3137 J59.9856
G2 X104.2093 Y-120.8683 I5.4517 J95.935
G2 X80.3999 Y-114.0187 I75.9232 J308.7176
G3 X41.6114 Y-102.7123 I-226.0222 J-703.2159
G2 X41.4738 Y-102.6761 I15.2089 J58.0404
G3 X31.3462 Y-100.1518 I-92.789 J-350.7088
G2 X17.4142 Y-103.8047 I-28.103 J78.7906
G2 X6.7389 Y-104.6697 I-10.1642 J59.1328
G2 X6.5865 Y-104.8803 I-73.6691 J53.157
G2 X6.0735 Y-105.5764 I-48.5553 J35.2475
G2 X-4.2393 Y-116.8941 I-63.5269 J47.5286
G2 X-28.4274 Y-131.0 I-44.5536 J48.6074
G0 Z5.0
G0 X67.7666
G1 Z0.0
G3 X36.5417 Y-122.0591 I-213.3889 J-686.2347
G2 X36.3583 Y-122.0108 I20.2786 J77.3872
G3 X32.1047 Y-120.9145 I-87.6735 J-331.3741
G2 X20.8023 Y-123.5156 I-28.8615 J99.5532
G2 X16.7378 Y-124.1073 I-13.5523 J78.8437
G2 X9.9718 Y-131.0 I-74.1912 J66.0595
G0 Z5.0
G0 X103.5779
G1 Z0.0
G2 X101.8075 Y-130.5756 I23.8447 J103.3754
G2 X77.3017 Y-123.5268 I78.3249 J318.4249
G3 X39.0766 Y-112.3857 I-222.924 J-693.7079
G2 X38.9161 Y-112.3434 I17.7437 J67.7138
G3 X31.8249 Y-110.5457 I-90.2313 J-341.0415
G2 X19.1082 Y-113.6602 I-28.5817 J89.1845
G2 X11.7682 Y-114.5259 I-11.8582 J68.9883
G2 X2.4928 Y-124.2888 I-69.2216 J56.4782
G2 X-5.9736 Y-131.0 I-51.2857 J56.002
G0 Z5.0
G0 X184.0 Y-130.248
G1 Z0.0
G2 X181.9939 Y-131.0 I-149.1537 J394.8494
G0 Z5.0
G0 X184.0 Y-119.5468
G1 Z0.0
G2 X182.9899 Y-119.9304 I-80.6958 J210.9677
G2 X159.2 Y-128.2693 I-148.1436 J384.5318
G2 X149.0075 Y-131.0 I-34.8089 J109.54
G0 Z5.0
M5
M30
