( Made using CamBam - http://www.cambam.co.uk )
( body 1/3/2014 12:57:41 PM )
( T0 : 0.0 )
G20 G90 G64 G40
G0 Z0.125
( T0 : 0.0 )
T0 M6
( Profile1 )
G17
M3 S1000
G0 X288.9053 Y277.084
G0 Z0.0775
G1 F1000.0 Z0.0
G3 X288.2509 Y281.667 I-26.3332 J-1.4219
G3 X287.4049 Y284.5647 I-27.1205 J-6.3457
G2 X288.3032 Y281.4381 I-26.5256 J-9.3136
G2 X288.9053 Y277.084 I-25.8053 J-5.7872
G0 Z0.125
G0 X211.0143 Y256.5637
G0 Z0.0775
G1 Z0.0
G2 X211.2629 Y255.1646 I-8.4114 J-2.216
G2 X211.2827 Y254.9073 I-7.3152 J-0.6936
G2 X211.2621 Y253.7669 I-7.0653 J-0.4424
G2 X210.8885 Y252.0963 I-6.8549 J0.6559
G2 X210.8414 Y251.9697 I-7.286 J2.6372
G2 X210.0479 Y250.4326 I-7.151 J2.7184
G1 X209.7892 Y250.04
G1 X209.7714 Y250.0129
G1 X209.6425 Y249.8151
G1 X209.2272 Y249.1737
G1 X209.0128 Y248.8394
G1 X208.6664 Y248.2949
G1 X207.83 Y246.9786
G1 X207.5149 Y246.484
G1 X207.4094 Y246.3195
G1 X207.3607 Y246.2429
G2 X207.2828 Y246.1214 I-4.6447 J2.8927
G2 X207.206 Y246.0018 I-4.2105 J2.6208
G2 X207.1302 Y245.8842 I-3.8767 J2.4127
G2 X206.7387 Y245.2804 I-87.5223 J56.3256
G2 X206.1868 Y244.4444 I-59.2462 J38.5148
G2 X206.054 Y244.247 I-23.3531 J15.5704
G2 X205.6192 Y243.6107 I-58.5614 J39.5482
G1 X205.5719 Y243.5428
G1 X205.5474 Y243.5072
G1 X205.5208 Y243.4691
G1 X205.4694 Y243.3953
G1 X205.362 Y243.2424
G1 X205.3338 Y243.2021
G2 X205.2835 Y243.1308 I-1.5868 J1.0673
G2 X205.0643 Y242.8228 I-34.0953 J24.0295
G2 X203.8553 Y241.2226 I-31.5299 J22.5648
G2 X203.6269 Y240.9375 I-32.6672 J25.9377
G2 X203.1875 Y240.4089 I-16.7125 J13.4456
G2 X202.6943 Y239.8433 I-21.9743 J18.6624
G1 X202.6907 Y239.8392
G2 X202.5979 Y239.7362 I-20.4808 J18.3454
G2 X202.5062 Y239.6351 I-21.3847 J19.3352
G2 X202.419 Y239.5402 I-2.2255 J1.9553
G2 X202.3423 Y239.4574 I-2.1516 J1.916
G2 X202.275 Y239.3852 I-2.0801 J1.8747
G2 X202.1565 Y239.2596 I-2.8933 J2.6109
G2 X202.067 Y239.1659 I-2.6802 J2.4689
G2 X201.932 Y239.0263 I-3.5881 J3.3341
G2 X201.7959 Y238.8877 I-4.1746 J3.9636
G3 X186.0557 Y219.4678 I89.3857 J-88.5377
G2 X184.4319 Y217.1638 I-36.1283 J23.7372
G2 X184.4084 Y217.1325 I-35.988 J27.0867
G1 X184.3852 Y217.102
G2 X184.3375 Y217.0391 I-34.4578 J26.103
G1 X184.2932 Y216.9807
G2 X183.4431 Y215.9029 I-33.0753 J25.2116
G2 X183.3173 Y215.7491 I-33.5157 J27.3021
G2 X181.5222 Y213.7114 I-30.4699 J25.0318
G2 X178.5511 Y210.8757 I-28.2461 J26.6203
G2 X178.47 Y210.8061 I-25.7037 J29.9052
G2 X178.382 Y210.7314 I-25.5058 J29.9402
G2 X177.013 Y209.6227 I-25.1059 J29.6003
G2 X175.0841 Y208.2245 I-24.1197 J31.2449
G2 X173.2803 Y207.0683 I-22.1199 J32.5219
G2 X172.8252 Y206.7979 I-10.9563 J17.9235
G3 X171.2464 Y205.8636 I122.9527 J-209.5777
G1 X170.5923 Y205.4716
G3 X168.0617 Y203.9282 I150.0924 J-248.9413
G3 X165.264 Y202.1746 I146.845 J-237.3751
G3 X165.0832 Y202.0593 I130.5139 J-204.9544
G1 X163.9909 Y201.3604
G1 X162.7464 Y200.5555
G1 X162.0843 Y200.1237
G3 X161.4417 Y199.703 I112.3482 J-172.3292
G3 X160.5752 Y199.1304 I153.4651 J-233.1499
G2 X160.1323 Y198.8523 I-4.8282 J7.1976
G2 X159.6972 Y198.6134 I-4.2024 J7.1381
G2 X159.3167 Y198.4305 I-3.1124 J5.9895
G2 X158.464 Y198.1198 I-2.6163 J5.8553
G2 X158.3761 Y198.095 I-1.8792 J6.483
G2 X158.1662 Y198.0424 I-1.395 J5.1234
G2 X155.7187 Y198.0701 I-1.167 J5.0309
G2 X154.9749 Y198.3096 I1.3956 J5.6082
G2 X154.6073 Y198.4666 I2.2457 J5.7682
G1 X154.5924 Y198.4737
G2 X154.4286 Y198.552 I3.0838 J6.6659
G1 X154.427 Y198.5527
G1 X154.4256 Y198.5534
G2 X154.249 Y198.6436 I3.2506 J6.5861
G2 X153.386 Y199.0981 I88.4379 J168.9556
G2 X152.5229 Y199.5527 I85.2974 J162.9891
G2 X151.9475 Y199.8558 I67.7683 J129.3563
G2 X151.1804 Y200.2599 I76.2674 J145.7196
G2 X150.1575 Y200.7987 I85.2604 J163.0936
G2 X149.573 Y201.1066 I62.8414 J119.9961
G2 X148.9051 Y201.4585 I65.8336 J125.7705
G2 X148.1417 Y201.8607 I68.8319 J131.5687
G2 X147.2692 Y202.3204 I71.8169 J137.3549
G2 X146.2722 Y202.8458 I74.768 J143.0912
G1 X138.2972 Y207.0515
G2 X137.7828 Y207.323 I44.2316 J84.4234
G2 X137.2518 Y207.6033 I44.4977 J84.9367
G2 X136.7036 Y207.8927 I44.7591 J85.4406
G2 X136.1379 Y208.1915 I45.0154 J85.9348
G2 X135.5538 Y208.4999 I45.2665 J86.419
G2 X134.951 Y208.8183 I45.5124 J86.893
G1 X134.3648 Y209.1283
G1 X133.3436 Y209.6677
G1 X128.5225 Y212.2178
G2 X128.1055 Y212.4395 I11.5938 J22.3092
G2 X127.6891 Y212.6623 I11.3444 J21.695
G2 X127.4118 Y212.8115 I9.3596 J17.7325
G2 X127.0425 Y213.011 I10.9921 J20.7943
G2 X126.8315 Y213.1253 I8.6267 J16.1733
G2 X126.5935 Y213.2545 I9.5254 J17.8287
G1 X126.5875 Y213.2577
G2 X126.3206 Y213.403 I10.6867 J19.9569
G2 X126.3104 Y213.4085 I115.617 J212.1523
G2 X126.001 Y213.5773 I12.2746 J22.8683
G2 X125.6419 Y213.7736 I14.6483 J27.2338
G2 X125.2316 Y213.9981 I18.8261 J34.8876
G3 X125.1045 Y214.0681 I-107.5497 J-195.0886
G1 X124.4493 Y214.4266
G3 X124.3532 Y214.4798 I-31.4408 J-56.6906
G3 X124.1376 Y214.5972 I-106.6714 J-195.5702
G1 X122.6774 Y215.3929
G1 X121.841 Y215.8439
G1 X120.8823 Y216.3539
G1 X120.3893 Y216.6127
G3 X119.1924 Y217.229 I-56.706 J-108.6525
G2 X118.306 Y217.7332 I4.3825 J8.736
G2 X118.2041 Y217.7986 I5.6922 J8.976
G2 X118.0125 Y217.9286 I4.3999 J6.6925
G2 X117.9571 Y217.9672 I5.5624 J8.0364
G2 X117.7386 Y218.1278 I3.3789 J4.827
G2 X117.3168 Y218.475 I4.1353 J5.454
G2 X117.2981 Y218.4915 I5.2873 J6.0161
G1 X117.2812 Y218.507
G2 X117.2121 Y218.5704 I4.5928 J5.0747
G1 X117.1859 Y218.5944
G2 X117.0622 Y218.7142 I4.31 J4.5775
G2 X116.9766 Y218.8002 I4.8118 J4.8676
G2 X116.0726 Y220.0259 I3.9093 J3.8296
G2 X115.5557 Y221.4585 I4.5984 J2.4688
G2 X115.4333 Y222.0548 I287.7541 J59.3414
G1 X115.3767 Y222.3307
G1 X115.2118 Y223.1491
G1 X115.1514 Y223.4537
G2 X115.0792 Y223.8176 I288.1583 J57.3462
G1 X115.0596 Y223.9167
G1 X115.054 Y223.9455
G2 X114.545 Y226.59 I288.2558 J56.8545
G2 X114.4805 Y226.9326 I30.2215 J5.8629
G2 X114.412 Y227.2982 I31.9117 J6.165
G2 X114.3394 Y227.6882 I33.9295 J6.5258
G2 X114.2622 Y228.1043 I36.3929 J6.9668
G2 X114.1802 Y228.5481 I39.4919 J7.5222
G2 X114.0931 Y229.0217 I43.5483 J8.2503
G2 X114.0007 Y229.5269 I49.1684 J9.2605
G2 X113.9024 Y230.0658 I57.6785 J10.7923
G2 X113.798 Y230.6407 I72.8125 J13.52
G2 X113.5605 Y231.955 I339.6592 J62.0715
G1 X113.4499 Y232.5683
G2 X113.3918 Y232.8909 I49.6355 J9.1133
G1 X112.9287 Y235.46
G2 X112.9274 Y235.7363 I0.8613 J0.1422
G2 X112.9687 Y235.9387 I1.5047 J-0.2019
G2 X113.0073 Y236.0761 I2.6933 J-0.6811
G2 X113.0601 Y236.2492 I5.5406 J-1.5961
G1 X113.0951 Y236.3657
G1 X113.1104 Y236.4223
G3 X113.1377 Y236.5347 I-3.2947 J0.8601
G1 X113.7939 Y236.9165
G1 X114.0039 Y236.6399
G1 X114.2173 Y236.3658
G1 X114.5376 Y235.9621
G2 X114.937 Y235.4581 I-45.4505 J-36.4256
G2 X114.9787 Y235.405 I-1.1959 J-0.9813
G2 X115.019 Y235.3534 I-1.1265 J-0.9224
G2 X115.6264 Y234.5413 I-14.4567 J-11.4464
G2 X115.6365 Y234.527 I-9.4367 J-6.7004
G2 X116.1768 Y233.6895 I-8.7103 J-6.2111
G1 X116.54 Y233.065
G1 X117.0457 Y232.2047
G1 X117.1092 Y232.0974
G1 X117.5905 Y231.2912
G1 X117.7622 Y231.0064
G1 X117.9936 Y230.6259
G3 X118.6179 Y229.616 I94.1453 J57.5033
G1 X118.9801 Y229.0424
G3 X119.0121 Y228.9922 I69.2915 J44.1033
G3 X119.5257 Y228.1966 I78.9177 J50.3893
G3 X119.9683 Y227.5269 I68.7458 J44.9491
G1 X120.2379 Y227.1268
G1 X120.5285 Y226.702
G1 X120.8377 Y226.2578
G3 X121.3369 Y225.5572 I53.5986 J37.667
G3 X121.4187 Y225.444 I41.0936 J29.6088
G3 X121.5738 Y225.2321 I43.2161 J31.4724
G3 X122.4375 Y224.0872 I42.5559 J31.202
G3 X122.533 Y223.9643 I37.2332 J28.8254
G3 X122.6118 Y223.8638 I39.8976 J31.2017
G1 X122.8583 Y223.5521
G1 X123.0918 Y223.2616
G3 X123.9875 Y222.1891 I37.3139 J30.2529
G3 X124.5307 Y221.569 I30.1717 J25.8833
G3 X126.7498 Y219.28 I30.0777 J26.9389
G3 X126.8799 Y219.1567 I27.4094 J28.7924
G1 X127.0516 Y218.9958
G3 X128.7449 Y217.4736 I40.9409 J43.8427
G3 X129.7481 Y216.6284 I36.5518 J42.366
G1 X130.1389 Y216.3108
G3 X131.2304 Y215.4597 I32.5958 J40.6822
G3 X131.5654 Y215.2095 I26.6942 J35.3818
G3 X132.8389 Y214.3018 I26.8868 J36.3722
G3 X132.9589 Y214.2204 I4.2398 J6.1283
G3 X133.0252 Y214.1776 I2.8008 J4.263
G3 X133.1944 Y214.0705 I3.9672 J6.0781
G3 X133.9231 Y213.6792 I3.8843 J6.3596
G3 X134.0245 Y213.6331 I2.0828 J4.4462
G3 X134.4833 Y213.4579 I2.123 J4.873
G3 X134.5226 Y213.4449 I1.3782 J4.0976
G3 X135.0799 Y213.3036 I1.4833 J4.6805
G3 X135.7035 Y213.2353 I0.7816 J4.252
G3 X135.9474 Y213.2343 I0.1382 J4.1519
G3 X136.8213 Y213.3539 I-0.1478 J4.3329
G3 X137.043 Y213.4139 I-1.1524 J4.696
G3 X137.0486 Y213.4156 I-1.2434 J4.1532
G3 X137.5529 Y213.5968 I-1.6795 J5.4675
G3 X138.2339 Y213.9313 I-2.5694 J6.0908
G3 X138.2975 Y213.9683 I-2.9706 J5.1848
G3 X138.5452 Y214.1183 I-4.4412 J7.6113
G3 X138.9783 Y214.4087 I-5.3159 J8.3964
G3 X138.9939 Y214.4198 I-5.122 J7.1709
G3 X138.9947 Y214.4204 I-0.0954 J0.1555
G3 X139.0138 Y214.434 I-5.7655 J8.0943
G3 X139.0151 Y214.4351 I-0.1153 J0.1413
G3 X139.0166 Y214.436 I-0.096 J0.1556
G3 X139.0345 Y214.4488 I-5.7874 J8.0787
G3 X139.0364 Y214.4504 I-0.1154 J0.1419
G3 X139.3916 Y214.7183 I-7.157 J9.8603
G1 X139.5603 Y214.8526
G3 X139.5689 Y214.8595 I-7.4937 J9.3726
G3 X140.4993 Y215.6848 I-8.7326 J10.7817
G1 X140.5332 Y215.718
G3 X140.6729 Y215.8572 I-7.0314 J7.1977
G3 X140.886 Y216.0804 I-8.1275 J7.9715
G3 X140.8862 Y216.0807 I-7.3842 J6.8353
G1 X140.8863 Y216.0808
G3 X141.3083 Y216.5614 I-8.3409 J7.7479
G3 X141.3186 Y216.5738 I-6.9462 J5.7772
G3 X141.3305 Y216.5885 I-7.3823 J6.0359
G3 X141.868 Y217.3102 I-7.9493 J6.4808
G1 X141.8998 Y217.3578
G3 X141.9051 Y217.3659 I-6.628 J4.4232
G3 X142.119 Y217.7066 I-7.543 J4.9728
G3 X142.3371 Y218.0964 I-6.6224 J3.9603
G3 X142.4176 Y218.2551 I-7.0653 J3.6846
G3 X142.6638 Y218.8084 I-6.921 J3.4118
G3 X142.8145 Y219.2241 I-6.3002 J2.5182
G3 X142.9349 Y219.6379 I-6.6157 J2.1505
G3 X143.0934 Y220.4645 I-6.5713 J1.6887
G3 X143.0962 Y222.1392 I-6.6863 J0.8485
G3 X143.0629 Y222.3813 I-7.207 J-0.8694
G3 X143.043 Y222.499 I-6.6964 J-1.0685
G3 X142.8214 Y223.4245 I-7.9735 J-1.4203
G3 X142.6735 Y223.8654 I-9.1678 J-2.8296
G3 X142.5637 Y224.1504 I-8.9259 J-3.2742
G3 X142.0336 Y225.2532 I-9.1883 J-3.7381
G3 X142.0057 Y225.3025 I-8.286 J-4.662
G3 X141.9125 Y225.4637 I-10.895 J-6.1914
G3 X141.0068 Y226.7988 I-11.0617 J-6.5288
G3 X138.1917 Y230.0043 I-26.7236 J-20.6303
G3 X136.075 Y231.9541 I-24.2435 J-24.1961
G3 X135.6421 Y232.3138 I-21.7966 J-25.7889
G1 X135.2672 Y232.6165
G1 X134.9121 Y232.8955
G3 X132.6821 Y234.4934 I-22.5223 J-29.0772
G3 X132.5347 Y234.5902 I-19.8666 J-30.0808
G3 X129.2119 Y236.5386 I-21.8112 J-33.3897
G1 X128.7633 Y236.7732
G1 X128.3146 Y237.0076
G1 X128.2342 Y237.0498
G3 X128.0706 Y237.1351 I-465.3431 J-891.2198
G1 X127.8754 Y237.238
G1 X127.4179 Y237.478
G1 X127.1622 Y237.6134
G1 X127.0942 Y237.6495
G1 X127.0735 Y237.6605
G1 X127.0217 Y237.6882
G1 X126.8703 Y237.7688
G2 X126.1088 Y238.1799 I27.4654 J51.7882
G2 X124.9467 Y238.8349 I26.2685 J47.9603
G2 X124.3585 Y239.182 I20.2951 J35.0627
G2 X123.7084 Y239.5818 I17.6531 J29.4342
G2 X123.574 Y239.6665 I22.8294 J36.3769
G2 X123.4876 Y239.7216 I0.7438 J1.2622
G2 X122.7062 Y240.2373 I14.9974 J23.5745
G2 X120.7087 Y241.7359 I14.9989 J22.0717
G1 X120.648 Y241.787
G2 X120.4619 Y241.9434 I16.7885 J20.1661
G3 X119.3489 Y242.8139 I-10.237 J-11.942
G3 X119.3279 Y242.8288 I-8.9687 J-12.6139
G1 X119.068 Y243.0092
G3 X118.993 Y243.0599 I-6.9453 J-10.1718
G3 X118.9754 Y243.0714 I-2.859 J-4.3853
G3 X118.7434 Y243.2234 I-6.6543 J-9.9053
G3 X118.2268 Y243.5351 I-6.6207 J-10.386
G3 X117.3497 Y243.9877 I-5.9058 J-10.3691
G3 X117.2771 Y244.021 I-3.9377 J-8.5053
G3 X117.0522 Y244.1189 I-4.2516 J-9.4568
G3 X116.1649 Y244.4416 I-3.7647 J-8.9705
G3 X116.1317 Y244.4518 I-2.2705 J-7.298
G3 X114.5613 Y244.7575 I-2.2678 J-7.4653
G3 X114.5439 Y244.759 I-0.6669 J-7.6138
G3 X112.4373 Y244.6177 I-0.5931 J-6.9336
G3 X112.3393 Y244.595 I1.5099 J-6.7365
G3 X111.493 Y244.338 I1.753 J-7.2943
G3 X110.639 Y243.963 I2.9745 J-7.9356
G3 X109.8389 Y243.5015 I3.8938 J-7.6738
G2 X109.5232 Y243.3299 I-1.148 J1.7363
G2 X109.2607 Y243.2393 I-0.6179 J1.3647
G2 X109.2024 Y243.2263 I-0.3575 J1.4595
G2 X109.1447 Y243.2152 I-0.2251 J1.0214
G2 X108.7216 Y243.2335 I-0.1692 J0.9875
G2 X108.637 Y243.2587 I0.2558 J1.0141
G2 X108.2985 Y243.4655 I0.3403 J0.9373
G2 X108.1202 Y243.6691 I0.7686 J0.8528
G2 X108.1181 Y243.6723 I1.5753 J1.0812
G2 X108.0834 Y243.7235 I1.1289 J0.8026
G2 X107.9492 Y243.9751 I1.5896 J1.0089
G2 X107.8524 Y244.247 I1.7463 J0.7752
G2 X107.8501 Y244.2552 I2.4785 J0.717
G2 X107.7764 Y244.6016 I2.3194 J0.6745
G2 X107.7631 Y244.6966 I1.6348 J0.2765
G2 X107.7521 Y244.7818 I1.4017 J0.2241
G2 X107.7485 Y244.8116 I6.7865 J0.8401
G2 X107.7466 Y244.8274 I1.0645 J0.1338
G2 X107.7185 Y245.1238 I6.792 J0.7945
G2 X107.7144 Y245.1829 I0.9957 J0.0981
G2 Y245.184 I6.8242 J0.439
G1 X107.7143 Y245.1846
G2 X107.704 Y245.3511 I13.9778 J0.9476
G1 X107.7018 Y245.3874
G1 X107.7 Y245.4279
G2 X107.6936 Y245.5692 I13.9921 J0.7043
G1 X107.6931 Y245.5782
G2 X107.6929 Y245.5849 I33.9005 J1.0934
G2 X107.687 Y245.7675 I13.9992 J0.5473
G1 X107.685 Y245.8714
G2 X107.6795 Y246.1493 I33.9087 J0.8003
G1 X107.6794 Y246.1573
G1 X107.6792 Y246.1743
G2 X107.6776 Y246.2919 I33.9145 J0.4974
G1 Y246.2943
G2 X107.676 Y246.4217 I3.4728 J0.1086
G1 X107.6754 Y246.463
G1 X107.6685 Y246.8778
G1 X107.6665 Y246.974
G1 X107.6616 Y247.1324
G1 X107.6545 Y247.3012
G1 X107.6456 Y247.4605
G3 X107.6292 Y247.6869 I-12.2455 J-0.7736
G3 X107.5264 Y248.4355 I-7.094 J-0.5933
G1 X107.4561 Y248.7823
G3 X107.172 Y250.0779 I-50.7302 J-10.4436
G1 X107.0589 Y250.545
G1 X106.9973 Y250.7884
G3 X106.983 Y250.844 I-28.9409 J-7.4628
G1 X106.9278 Y251.053
G3 X106.5843 Y252.2379 I-28.8714 J-7.7274
G3 X106.5816 Y252.2472 I-1.8528 J-0.5342
G3 X106.5543 Y252.3326 I-19.2839 J-6.1091
G3 X106.5512 Y252.3416 I-1.8228 J-0.629
G3 X106.505 Y252.4841 I-19.4842 J-6.247
G3 X106.4837 Y252.5481 I-19.2073 J-6.3459
G3 X105.9912 Y253.875 I-19.8302 J-6.6053
G2 X105.8536 Y254.2462 I3.9334 J1.6695
G2 X105.7615 Y254.5856 I2.8281 J0.9491
G2 X105.7518 Y254.6347 I3.0164 J0.6209
G2 X105.7169 Y254.8648 I2.8716 J0.5533
G2 X105.7136 Y254.9004 I1.8204 J0.1905
G2 X105.7115 Y255.1836 I1.5772 J0.1532
G2 X105.7134 Y255.2088 I1.8259 J-0.1283
G2 X105.8341 Y255.6536 I1.2394 J-0.0974
G2 X105.8644 Y255.7098 I1.0848 J-0.5487
G2 X106.1642 Y256.058 I1.0186 J-0.574
G2 X106.248 Y256.1187 I0.7547 J-0.9531
G2 X106.2487 Y256.1192 I1.1287 J-1.7009
G2 X106.5675 Y256.2919 I0.9741 J-1.4177
G2 X106.9502 Y256.4214 I1.0988 J-2.6167
G2 X107.0848 Y256.4555 I0.6955 J-2.4642
G2 X107.2202 Y256.4868 I0.4735 J-1.7369
G2 X107.489 Y256.5412 I1.015 J-4.3234
G2 X107.494 Y256.5422 I1.4635 J-7.8513
G2 X107.5645 Y256.5549 I0.21 J-0.9587
G2 X107.5765 Y256.557 I1.388 J-7.865
G2 X107.6511 Y256.5697 I0.2075 J-0.9947
G2 X107.8897 Y256.6054 I1.3015 J-7.8798
G1 X107.8954 Y256.6062
G1 X107.8992 Y256.6067
G2 X107.9899 Y256.6184 I1.9502 J-14.7557
G1 X108.0676 Y256.6285
G2 X108.1937 Y256.6427 I2.8908 J-25.2049
G2 X108.3568 Y256.66 I1.6557 J-14.7916
G2 X108.402 Y256.6647 I2.6016 J-25.2364
G1 X108.423 Y256.6666
G2 X108.8614 Y256.7022 I1.4264 J-14.8155
G1 X108.9051 Y256.7051
G1 X108.9441 Y256.7079
G1 X109.0032 Y256.7115
G1 X109.1371 Y256.7202
G1 X109.2754 Y256.7279
G1 X109.3959 Y256.7351
G1 X109.7349 Y256.7536
G3 X109.7686 Y256.7553 I-1.7912 J34.7881
G1 X109.8724 Y256.7611
G1 X110.2016 Y256.7808
G3 X110.751 Y256.8208 I-2.258 J34.7609
G1 X111.2586 Y256.8632
G2 X111.4279 Y256.8765 I0.3738 J-3.6707
G1 X111.4304 Y256.8767
G1 X111.4326 Y256.8768
G1 X111.7523 Y256.901
G1 X112.0621 Y256.9233
G1 X112.0872 Y256.925
G1 X112.1052 Y256.9263
G2 X112.2988 Y256.9397 I0.4109 J-4.5418
G2 X112.4021 Y256.9467 I0.2848 J-3.4375
G2 X112.5123 Y256.954 I0.2994 J-3.6487
G2 X112.6298 Y256.9618 I0.3158 J-3.8893
G2 X112.7552 Y256.97 I0.3345 J-4.1672
G2 X112.8889 Y256.9786 I0.3563 J-4.4947
G2 X113.0316 Y256.9876 I0.3822 J-4.8892
G2 X113.1838 Y256.9972 I0.414 J-5.3784
G2 X113.3461 Y257.0073 I0.4545 J-6.0102
G2 X113.5193 Y257.0179 I0.5093 J-6.8738
G2 X113.704 Y257.0292 I0.5903 J-8.1663
G1 X114.5487 Y257.0803
G1 X115.3302 Y257.1287
G1 X115.5541 Y257.1433
G1 X116.1608 Y257.184
G1 X116.2041 Y257.1869
G1 X116.8757 Y257.2366
G3 X117.3663 Y257.2767 I-9.769 J122.5678
G3 X117.9129 Y257.3255 I-6.0443 J70.7097
G3 X119.5658 Y257.5094 I-4.8835 J51.4281
G3 X119.6473 Y257.5199 I-3.9962 J31.1488
G3 X120.2931 Y257.612 I-4.7883 J35.9074
G3 X121.6416 Y257.8467 I-5.1218 J33.4192
G3 X122.8977 Y258.1961 I-1.6431 J8.3396
G3 X123.9443 Y258.682 I-2.4616 J6.6721
G3 X123.9451 Y258.6825 I-3.4952 J6.1578
G3 X125.2531 Y259.696 I-2.8842 J5.0727
G3 X125.6158 Y260.1095 I-4.1557 J4.012
G3 X126.305 Y261.2122 I-4.5975 J3.64
G3 X126.5993 Y261.9377 I-6.1305 J2.9097
G3 X126.7377 Y262.4 I-6.9304 J2.3268
G3 X126.8832 Y263.083 I-7.67 J1.9906
G3 X126.9939 Y264.2718 I-8.7705 J1.4164
G3 X126.9946 Y264.3009 I-8.7322 J0.2125
G3 X126.9424 Y265.5981 I-10.9189 J0.2101
G3 X126.8064 Y266.4002 I-5.7898 J-0.569
G3 X126.7903 Y266.4641 I-4.0893 J-0.9964
G3 X126.7875 Y266.4738 I-1.481 J-0.4215
G3 X126.7737 Y266.526 I-3.8859 J-1.001
G3 X126.7063 Y266.7459 I-4.0566 J-1.1222
G3 X126.6264 Y266.9656 I-3.6423 J-1.2013
G3 X126.5146 Y267.2188 I-3.7247 J-1.4927
G3 X126.4389 Y267.3665 I-3.4505 J-1.6743
G3 X126.1079 Y267.8581 I-2.8703 J-1.5759
G3 X125.4384 Y268.4339 I-1.9732 J-1.6171
G3 X125.2431 Y268.5383 I-1.2963 J-2.1908
G3 X124.5896 Y268.7491 I-1.1257 J-2.3719
G3 X124.5857 Y268.7497 I-0.4474 J-2.5059
G3 X124.5796 Y268.7509 I-0.5375 J-2.9237
G3 X124.5778 Y268.7512 I-0.4622 J-2.5844
G3 X124.5752 Y268.7517 I-0.5231 J-2.8583
G3 X124.0877 Y268.7985 I-0.5269 J-2.9256
G3 X124.004 Y268.7982 I-0.033 J-2.9055
G3 X123.3318 Y268.7301 I0.067 J-4.0095
G3 X123.2807 Y268.7198 I0.7197 J-3.744
G3 X123.1006 Y268.6795 I1.0295 J-5.012
G3 X122.4445 Y268.4725 I1.3697 J-5.4854
G3 X122.3291 Y268.4268 I2.4197 J-6.2723
G1 X122.2003 Y268.3719
G3 X121.7776 Y268.1745 I3.5758 J-8.2115
G1 X121.6547 Y268.112
G1 X121.5151 Y268.0381
G3 X121.5061 Y268.0332 I4.7987 J-8.999
G3 X121.4789 Y268.0184 I4.27 J-7.8728
G3 X121.0024 Y267.7453 I7.5679 J-13.7541
G3 X121.001 Y267.7444 I5.3115 J-8.7062
G1 X120.8113 Y267.6291
G1 X120.6463 Y267.5264
G1 X120.4075 Y267.3745
G1 X119.8464 Y267.0115
G1 X119.5029 Y266.79
G2 X115.0952 Y265.0402 I-6.6907 J10.4273
G2 X113.5184 Y264.8405 I-2.4617 J13.1073
G2 X111.4014 Y264.8516 I-0.9818 J14.6316
G2 X111.0059 Y264.8955 I0.2662 J4.2022
G2 X110.9202 Y264.9099 I0.3017 J2.0478
G2 X110.7596 Y264.9411 I0.4504 J2.7476
G2 X110.5047 Y265.0113 I0.6055 J2.6982
G2 X110.4129 Y265.0429 I0.5947 J1.8726
G2 X110.1616 Y265.1573 I0.607 J1.6664
G2 X110.1611 Y265.1576 I0.9378 J1.7266
G2 X110.1049 Y265.1897 I0.5978 J1.1144
G2 X109.9246 Y265.3217 I0.6238 J1.041
G2 X109.8926 Y265.3508 I0.8344 J0.9503
G2 X109.6364 Y265.7272 I0.6965 J0.7496
G2 X109.5696 Y265.9855 I0.9812 J0.3916
G2 X109.5633 Y266.0358 I1.5122 J0.2132
G2 X109.5546 Y266.1892 I1.3866 J0.1554
G2 X109.5602 Y266.3288 I1.5271 J0.0095
G2 X109.5701 Y266.421 I2.7089 J-0.2439
G2 X109.6657 Y266.8731 I2.5095 J-0.2947
G2 X109.7555 Y267.1426 I3.4256 J-0.9921
G2 X109.7866 Y267.2247 I1.3754 J-0.4745
G2 X109.8574 Y267.397 I3.9263 J-1.512
G2 X109.8857 Y267.4604 I3.5081 J-1.5291
G2 X110.1662 Y268.0922 I62.6574 J-27.4335
G2 X110.447 Y268.7239 I64.5921 J-28.3396
G2 X110.6344 Y269.1448 I54.3726 J-23.9523
G2 X110.8845 Y269.7061 I64.8845 J-28.5784
G2 X111.2183 Y270.4542 I78.9124 J-34.762
G2 X111.4093 Y270.8817 I63.0788 J-27.9174
G2 X111.6276 Y271.3702 I70.9581 J-31.4214
G2 X111.8772 Y271.9284 I81.2112 J-35.9863
G2 X112.1627 Y272.5662 I95.4809 J-42.3471
G2 X112.489 Y273.2951 I117.6491 J-52.2416
G2 X112.8622 Y274.1281 I160.3505 J-71.3269
G1 X113.8571 Y276.3493
G1 X115.1814 Y279.3121
G1 X115.9355 Y281.0062
G1 X116.7939 Y282.9438
G2 X117.1162 Y283.6117 I8.994 J-3.9274
G2 X117.6438 Y284.4941 I8.7454 J-4.6308
G2 X118.0467 Y285.0438 I6.867 J-4.6103
G2 X119.0067 Y286.0575 I6.4082 J-5.1071
G2 X119.3245 Y286.3268 I5.5041 J-6.1738
G2 X119.9875 Y286.811 I5.3726 J-6.6609
G2 X120.5569 Y287.1579 I4.9213 J-7.4362
G1 X120.6294 Y287.1983
G2 X120.8985 Y287.3411 I5.3827 J-9.8215
G2 X121.751 Y287.7344 I4.8715 J-9.4396
G1 X122.5343 Y288.0584
G1 X122.9641 Y288.2381
G1 X123.7593 Y288.5729
G1 X123.8369 Y288.6057
G1 X124.5295 Y288.9027
G1 X124.8599 Y289.0463
G3 X126.0638 Y289.5811 I-43.197 J98.8564
G1 X126.474 Y289.7674
G3 X126.622 Y289.8351 I-25.1772 J55.2598
G3 X126.6444 Y289.8458 I-2.4041 J5.0345
G3 X126.6754 Y289.8596 I-2.2252 J5.0479
G3 X126.7835 Y289.9095 I-25.3786 J55.1675
G3 X126.831 Y289.9323 I-2.3644 J4.9843
G3 X128.0546 Y290.5153 I-26.6895 J57.5917
G1 X128.3116 Y290.6418
G3 X129.4985 Y291.2452 I-28.17 J56.8821
G3 X130.5931 Y291.8342 I-25.8498 J49.3516
G3 X131.1596 Y292.1535 I-24.8087 J44.6696
G3 X131.5997 Y292.4083 I-19.6608 J34.475
G3 X132.2387 Y292.7925 I-21.5457 J36.5587
G3 X132.3602 Y292.8665 I-14.6965 J24.2538
G3 X134.0946 Y294.0018 I-20.8614 J33.7621
G3 X134.1213 Y294.0203 I-18.2226 J26.3704
G3 X135.4159 Y294.9665 I-20.3186 J29.1584
G3 X136.1374 Y295.5373 I-19.1925 J25.0024
G3 X137.7021 Y296.9009 I-20.2655 J24.8349
G3 X138.9209 Y298.0979 I-23.8906 J25.5437
G3 X140.0155 Y299.2892 I-23.1457 J22.3646
G3 X140.9621 Y300.4248 I-24.2674 J21.191
G1 X141.1598 Y300.6769
G3 X143.9394 Y304.9766 I-23.592 J18.3001
G3 X145.3662 Y308.0801 I-26.7619 J14.183
G2 X145.4705 Y308.3413 I17.3727 J-6.7823
G2 X145.5109 Y308.44 I42.9222 J-17.5218
G2 X145.8685 Y309.2866 I34.7183 J-14.1652
G2 X145.9436 Y309.4576 I5.0655 J-2.1231
G2 X146.0302 Y309.6525 I5.2175 J-2.2029
G2 X146.0805 Y309.7643 I57.4397 J-25.7622
G1 X146.0879 Y309.7808
G1 X146.0986 Y309.8043
G2 X146.7498 Y311.2003 I57.3714 J-25.914
G2 X146.8483 Y311.4055 I5.9984 J-2.753
G2 X146.9537 Y311.6241 I6.6281 J-3.062
G2 X147.0666 Y311.8572 I7.5139 J-3.4949
G2 X147.1873 Y312.1057 I8.8738 J-4.1575
G1 X147.8312 Y313.4303
G1 X148.1914 Y314.1832
G3 X148.1959 Y314.1929 I-158.5716 J75.3752
G1 X148.3851 Y314.596
G1 X148.5854 Y315.031
G1 X148.7544 Y315.407
G3 X148.8437 Y315.6091 I-45.4419 J20.1948
G1 X148.9611 Y315.8787
G3 X149.0877 Y316.1742 I-45.6486 J19.7231
G1 X149.1221 Y316.2554
G3 X149.2892 Y316.8546 I-2.5357 J1.0301
G3 X149.309 Y316.9954 I-4.5312 J0.7101
G3 X149.3433 Y317.463 I-5.303 J0.624
G3 X149.3444 Y317.7292 I-9.7109 J0.1713
G1 X149.3429 Y317.8271
G3 X149.342 Y317.8683 I-9.7105 J-0.1928
G1 X149.3338 Y318.087
G1 X149.3275 Y318.2105
G1 X149.324 Y318.2702
G1 X149.2744 Y319.0425
G1 X149.1515 Y321.1775
G1 X149.0394 Y323.0454
G1 X148.8382 Y326.314
G2 X148.7626 Y327.5397 I210.0027 J13.5744
G2 X148.7297 Y328.076 I100.4614 J6.4372
G2 X148.6684 Y329.0815 I116.7646 J7.6208
G2 X148.6154 Y329.9613 I95.9759 J6.2192
G2 X148.5697 Y330.7313 I83.4341 J5.3391
G2 X148.5303 Y331.405 I74.9186 J4.7199
G2 X148.4963 Y331.9945 I68.6998 J4.254
G2 X148.4671 Y332.5104 I63.9163 J3.8873
G2 X148.4418 Y332.9618 I60.088 J3.5894
G2 X148.3985 Y333.7517 I80.7346 J4.8241
G2 X148.3668 Y334.3443 I73.3982 J4.2231
G2 X148.3206 Y335.2331 I97.4719 J5.5038
G2 X148.2764 Y336.1221 I119.0771 J6.3761
G2 X148.4041 Y337.57 I5.1637 J0.2741
G2 X148.407 Y337.582 I5.1259 J-1.2441
G2 X148.4104 Y337.5965 I5.0455 J-1.1872
G2 X148.7519 Y338.5602 I4.9175 J-1.1999
G2 X148.9383 Y338.9218 I4.7781 J-2.2344
G2 X148.9867 Y339.0058 I6.2783 J-3.5638
G2 X149.2917 Y339.4832 I5.8336 J-3.3913
G2 X149.3216 Y339.5254 I7.2795 J-5.122
G2 X149.4727 Y339.7313 I5.895 J-4.1674
G2 X149.4781 Y339.7383 I8.4494 J-6.4895
G2 X149.9697 Y340.3316 I7.0931 J-5.3771
G2 X150.2555 Y340.6397 I7.9524 J-7.0898
G2 X150.3651 Y340.7525 I4.2957 J-4.0671
G2 X150.6379 Y341.025 I10.9413 J-10.6746
G2 X150.8408 Y341.2192 I9.5073 J-9.7335
G1 X150.9545 Y341.329
G3 X151.344 Y341.7208 I-11.9985 J12.3165
G3 X152.0972 Y342.5564 I-13.6847 J13.0936
G3 X152.2296 Y342.7151 I-13.1412 J11.0891
G1 X152.4147 Y342.9407
G1 X152.6228 Y343.2011
G3 X152.6662 Y343.2562 I-23.3641 J18.4327
G3 X152.6675 Y343.2578 I-11.9034 J9.2447
G1 X152.7695 Y343.3887
G1 X152.8677 Y343.5161
G3 X152.9048 Y343.5642 I-19.4366 J15.0068
G3 X153.163 Y343.9072 I-23.646 J18.0696
G3 X153.2151 Y343.9771 I-31.9228 J23.851
G3 X153.2421 Y344.0139 I-19.7839 J14.5458
G1 X153.5633 Y344.4544
G3 X154.2691 Y345.4513 I-124.3656 J88.7925
G1 X154.6594 Y346.01
G1 X154.6622 Y346.014
G2 X155.1594 Y346.7207 I62.9411 J-43.7489
G1 X155.1995 Y346.7777
G2 X155.4739 Y347.1609 I20.6576 J-14.5046
G1 X155.6469 Y347.3977
G2 X155.7705 Y347.5669 I61.9564 J-45.1326
G3 X156.0588 Y348.0114 I-4.1885 J3.0322
G1 X156.0877 Y348.0622
G3 X156.2547 Y348.3697 I-15.0894 J8.3949
G1 X156.3769 Y348.6038
G2 X156.4299 Y348.7054 I1.9809 J-0.9681
G2 X156.4766 Y348.7941 I1.2567 J-0.6052
G2 X156.5167 Y348.8694 I0.984 J-0.4759
G2 X156.7587 Y349.2884 I5.847 J-3.0985
G1 X156.797 Y349.3471
G2 X156.8311 Y349.3994 I5.9 J-3.8057
G2 X157.0195 Y349.6514 I2.4624 J-1.6445
G2 X157.0289 Y349.663 I2.8603 J-2.3348
G2 X157.1162 Y349.7618 I1.9195 J-1.6081
G2 X157.1403 Y349.7876 I2.1772 J-2.0068
G2 X157.2999 Y349.9385 I1.2603 J-1.1726
G2 X157.4418 Y350.0458 I1.0911 J-1.295
G2 X157.5428 Y350.1073 I0.621 J-0.9071
G2 X157.6714 Y350.166 I0.4304 J-0.7735
G2 X157.8331 Y350.2079 I0.2814 J-0.7532
G2 X157.8415 Y350.2092 I0.1401 J-0.874
G2 X157.8742 Y350.2129 I0.0831 J-0.5847
G2 X158.0984 Y350.1889 I0.0515 J-0.5783
G2 X158.2833 Y350.0936 I-0.1738 J-0.5644
G2 X158.2915 Y350.0872 I-0.5727 J-0.741
G2 X158.4038 Y349.9829 I-0.4504 J-0.5974
G2 X158.4166 Y349.9679 I-0.968 J-0.8424
G2 X158.4713 Y349.8988 I-0.7061 J-0.6153
G2 X158.4787 Y349.8882 I-1.3213 J-0.9205
G2 X158.6121 Y349.6533 I-1.0429 J-0.7476
G2 X158.6125 Y349.6524 I-2.4959 J-1.0982
G2 X158.6223 Y349.6306 I-1.4625 J-0.6741
G2 X158.7373 Y349.307 I-2.0884 J-0.9244
G2 X158.7432 Y349.2861 I-0.0691 J-0.0306
G3 X160.883 Y343.9581 I24.2128 J6.6307
G3 X160.8999 Y343.9271 I21.8929 J11.8864
G3 X162.4187 Y341.4859 I22.5398 J12.3305
G3 X164.2061 Y339.2188 I22.1231 J15.6029
G2 X164.3524 Y339.0373 I-1.5419 J-1.3932
G2 X164.4613 Y338.8706 I-1.755 J-1.2657
G2 X164.5605 Y338.6713 I-1.0818 J-0.6626
G2 X164.6051 Y338.5373 I-1.0729 J-0.4318
G2 X164.6337 Y338.3815 I-0.813 J-0.2297
G2 X164.6276 Y338.1795 I-0.8284 J-0.0759
G2 X164.6236 Y338.1583 I-0.7476 J0.1273
G2 X164.6226 Y338.1524 I-0.8316 J0.1494
G2 X164.5562 Y337.9635 I-0.7201 J0.1469
G2 X164.4645 Y337.8237 I-0.6762 J0.3433
G2 X164.3196 Y337.676 I-0.7452 J0.5863
G2 X164.2157 Y337.597 I-0.7341 J0.8573
G2 X164.0919 Y337.5193 I-0.8591 J1.2322
G2 X163.8311 Y337.3926 I-1.0251 J1.7778
G3 X163.4022 Y337.1699 I1.0393 J-2.5254
G3 X163.304 Y337.0999 I0.8106 J-1.2414
G3 X163.2723 Y337.0746 I1.01 J-1.2983
G3 X163.2721 Y337.0744 I0.9405 J-1.1461
G1 X163.272
G3 X163.2699 Y337.0727 I0.7526 J-0.9305
G3 X163.2233 Y337.0328 I0.7548 J-0.9288
G3 X163.0833 Y336.8818 I0.781 J-0.8651
G3 X163.0677 Y336.8609 I0.6151 J-0.4725
G3 X162.9703 Y336.6768 I0.667 J-0.4707
G3 X162.9702 Y336.6764 I0.7281 J-0.2675
G3 X162.9525 Y336.2862 I0.6368 J-0.2245
G3 X162.9549 Y336.2767 I0.8499 J0.208
G3 X163.0265 Y336.0896 I0.9533 J0.2579
G3 X163.0348 Y336.0742 I0.7759 J0.4045
G3 X163.1793 Y335.8591 I1.2541 J0.6863
G3 X163.352 Y335.6748 I1.4762 J1.2108
G3 X163.3584 Y335.669 I1.0846 J1.1928
G3 X163.39 Y335.6404 I1.8427 J2.0006
G1 X163.4257 Y335.6091
G3 X163.4573 Y335.5823 I1.7754 J2.0606
G3 X163.7061 Y335.3975 I1.9623 J2.3814
G2 X163.8871 Y335.2694 I-1.4727 J-2.274
G2 X164.0119 Y335.17 I-1.7013 J-2.2643
G2 X164.047 Y335.1404 I-2.2473 J-2.7024
G2 X164.3425 Y334.8322 I-1.316 J-1.5572
G2 X164.5165 Y334.5489 I-1.0797 J-0.8584
G2 X164.6286 Y334.1665 I-1.2223 J-0.5659
G2 X164.6408 Y334.035 I-1.3658 J-0.1928
G2 X164.6413 Y334.0149 I-2.2717 J-0.0726
G2 X164.6415 Y333.8828 I-1.7901 J-0.0688
G2 X164.6361 Y333.7992 I-2.5897 J0.1271
G2 X164.5866 Y333.464 I-2.267 J0.1632
G2 X164.5248 Y333.2075 I-5.6153 J1.2161
G2 X164.4324 Y332.888 I-6.242 J1.6342
G1 X164.4229 Y332.8576
G2 X164.3465 Y332.6125 I-26.7202 J8.201
G1 X164.3369 Y332.5819
G1 X164.2854 Y332.4169
G1 X164.251 Y332.3047
G3 X164.0268 Y331.4987 I18.7985 J-5.6619
G3 X163.9319 Y331.103 I18.4556 J-4.6361
G3 X163.811 Y330.5176 I15.8029 J-3.5701
G3 X163.8074 Y330.4985 I15.3845 J-2.8677
G3 X163.7296 Y330.0324 I12.1739 J-2.2717
G3 X163.6601 Y329.4845 I12.4499 J-1.8576
G3 X163.6046 Y328.671 I12.0425 J-1.2312
G3 X163.6037 Y328.142 I8.5678 J-0.2781
G3 X163.604 Y328.1307 I7.3601 J0.1649
G3 X163.612 Y327.9317 I9.2508 J0.2751
G3 X163.6773 Y327.2556 I7.274 J0.3612
G3 X163.7705 Y326.7402 I7.2865 J1.0514
G3 X165.1909 Y322.0419 I33.632 J7.6038
G3 X165.256 Y321.8736 I31.2082 J11.9667
G3 X165.6946 Y320.7963 I34.8214 J13.5494
G3 X167.349 Y317.3966 I34.8624 J14.863
G3 X167.4869 Y317.1476 I37.2765 J20.4834
G3 X168.8561 Y314.8658 I37.7567 J21.1033
G3 X169.0065 Y314.6337 I35.7694 J23.0143
G3 X170.361 Y312.665 I42.5068 J27.7964
G3 X170.4017 Y312.6092 I46.8411 J34.1021
G1 X170.5095 Y312.462
G3 X171.932 Y310.6056 I46.6927 J34.3051
G3 X172.7472 Y309.6093 I44.7768 J35.8097
G1 X172.8838 Y309.4466
G3 X173.578 Y308.6361 I51.9054 J43.7514
G3 X173.6029 Y308.6076 I43.6242 J38.131
G1 X174.0467 Y308.1035
G1 X174.51 Y307.5877
G1 X174.9932 Y307.0601
G2 X175.1368 Y306.9044 I-4.7696 J-4.5459
G2 X175.2803 Y306.7485 I-4.8556 J-4.612
G2 X175.3758 Y306.6445 I-4.0415 J-3.8061
G2 X175.503 Y306.5056 I-4.7335 J-4.4642
G2 X175.6724 Y306.3202 I-5.5825 J-5.2708
G1 X175.7783 Y306.2035
G1 X176.2812 Y305.6498
G2 X177.332 Y304.482 I-170.6711 J-154.6262
G2 X177.6898 Y304.0819 I-266.7755 J-238.9806
G2 X177.8684 Y303.8823 I-16.794 J-15.2032
G1 X178.721 Y302.9296
G1 X179.4527 Y302.115
G1 X179.6788 Y301.8646
G1 X180.132 Y301.3642
G1 X180.6619 Y300.7831
G1 X181.1846 Y300.2157
G1 X181.3261 Y300.0634
G1 X181.7904 Y299.566
G3 X182.4486 Y298.872 I66.2538 J62.1747
G3 X182.4604 Y298.8597 I53.9906 J51.9524
G1 X182.9155 Y298.3884
G3 X183.758 Y297.5337 I65.1287 J63.3524
G3 X183.789 Y297.5021 I4.3606 J4.2525
G3 X183.8583 Y297.4331 I47.8496 J48.0427
G3 X183.8833 Y297.4089 I4.2603 J4.353
G3 X183.9051 Y297.3868 I4.2854 J4.2049
G3 X183.9869 Y297.3058 I47.7335 J48.1581
G3 X184.001 Y297.2922 I4.1818 J4.308
G3 X184.0131 Y297.2799 I4.2165 J4.1618
G3 X184.1083 Y297.1862 I47.6254 J48.265
G3 X184.1116 Y297.183 I4.1092 J4.2678
G3 X184.1303 Y297.1645 I42.9979 J43.5901
G3 X185.8018 Y295.5781 I47.5082 J48.3803
G1 X186.1392 Y295.2686
G1 X186.1456 Y295.2626
G1 X186.1547 Y295.2543
G2 X186.4224 Y295.0042 I-24.9993 J-27.0265
G1 X186.4738 Y294.9562
G2 X186.6637 Y294.7744 I-18.5049 J-19.5218
G2 X186.8073 Y294.6357 I-25.5083 J-26.5466
G1 X186.9476 Y294.4971
G1 X187.0151 Y294.4294
G1 X187.0812 Y294.3624
G2 X187.1119 Y294.3309 I-12.2238 J-11.9374
G2 X187.1276 Y294.315 I-19.143 J-18.8965
G2 X187.5446 Y293.8692 I-8.937 J-8.7779
G1 X187.5812 Y293.8279
G2 X187.5874 Y293.8211 I-12.7238 J-11.4029
G2 X188.073 Y293.2311 I-6.8199 J-6.1081
G2 X188.4842 Y292.6385 I-5.9158 J-4.5447
G2 X188.6981 Y292.2744 I-5.8248 J-3.6653
G2 X188.9434 Y291.7801 I-5.2992 J-2.9385
G2 X189.4342 Y290.1938 I-6.3483 J-2.8332
G2 X189.5545 Y289.2827 I-8.052 J-1.5269
G2 X189.5654 Y289.1299 I-8.9291 J-0.7132
G3 X189.7841 Y288.1989 I2.9734 J0.2072
G3 X189.8254 Y288.1039 I2.7302 J1.1324
G3 X189.8454 Y288.0607 I3.2472 J1.4703
G3 X190.257 Y287.3883 I3.4329 J1.6393
G3 X190.3064 Y287.3261 I2.8157 J2.1859
G3 X190.7095 Y286.8875 I3.7776 J3.0672
G3 X190.8945 Y286.7188 I3.5742 J3.7349
G3 X191.3676 Y286.3534 I3.8213 J4.4578
G3 X192.0014 Y285.9703 I3.4502 J4.9922
G3 X192.0017 Y285.9701 I0.3361 J0.576
G3 X192.0056 Y285.968 I2.7142 J5.2065
G3 X192.0597 Y285.94 I3.091 J5.8922
G3 X192.6047 Y285.6911 I3.2088 J6.3064
G3 X192.7738 Y285.6251 I2.4593 J6.0487
G3 X193.95 Y285.306 I2.3228 J6.2351
G3 X194.1324 Y285.2771 I1.114 J6.4338
G3 X195.034 Y285.2187 I0.832 J5.8562
G3 X196.0576 Y285.3491 I-0.0713 J4.642
G3 X196.233 Y285.4117 I-0.3209 J1.1764
G3 X196.3116 Y285.4507 I-0.4791 J1.0655
G3 X196.4283 Y285.5211 I-0.8851 J1.597
G3 X196.5432 Y285.6032 I-1.4108 J2.0989
G3 X196.7179 Y285.7472 I-3.4323 J4.3382
G1 X196.8599 Y285.875
G1 X196.941 Y285.9499
G3 X196.9504 Y285.959 I-3.83 J3.9914
G2 X197.0765 Y286.0752 I5.9995 J-6.3848
G1 X197.0919 Y286.0894
G2 X197.2105 Y286.1939 I1.6806 J-1.7877
G2 X197.333 Y286.2935 I1.2555 J-1.4201
G2 X197.3101 Y286.3205 I3.8382 J3.271
G1 X197.2744 Y286.3627
G2 X197.1691 Y286.4962 I2.1415 J1.7984
G2 X197.1652 Y286.5013 I11.3237 J8.6328
G2 X197.1645 Y286.5022 I4.006 J3.0631
G1 X197.1642 Y286.5025
G2 X196.9933 Y286.7318 I11.3285 J8.6265
G1 X196.9582 Y286.7787
G3 X196.8327 Y286.9399 I-2.3854 J-1.7276
G3 X196.8044 Y286.9742 I-2.1507 J-1.7444
G3 X196.7442 Y287.0437 I-2.9093 J-2.4606
G3 X196.6508 Y287.1429 I-2.0623 J-1.8481
G3 X196.6054 Y287.1873 I-0.9328 J-0.9096
G3 X196.3623 Y287.3657 I-0.9681 J-1.0639
G3 X195.8331 Y287.6491 I-10.8459 J-19.6198
G1 X195.7213 Y287.7066
G1 X195.3505 Y287.8914
G1 X194.6992 Y288.2056
G1 X194.6969 Y288.2067
G2 X194.5747 Y288.2652 I2.1388 J4.6239
G1 X194.1155 Y288.4869
G1 X194.0983 Y288.4954
G1 X194.0815 Y288.5036
G1 X193.889 Y288.5992
G1 X193.7728 Y288.6568
G2 X193.6449 Y288.7217 I1.0142 J2.1573
G2 X193.5333 Y288.7791 I0.9552 J1.9921
G2 X193.045 Y289.0414 I6.0371 J11.8266
G2 X192.7646 Y289.2041 I5.0859 J9.0845
G2 X192.5857 Y289.3304 I0.7684 J1.2785
G2 X192.4226 Y289.4765 I1.05 J1.336
G2 X192.4163 Y289.4828 I2.1297 J2.1382
G2 X192.1734 Y289.7577 I1.934 J1.9535
G2 X192.136 Y289.8067 I2.3789 J1.857
G1 X192.1249 Y289.8227
G2 X192.0666 Y289.9063 I2.2255 J1.6136
G1 X192.0645 Y289.9093
G2 X191.9194 Y290.1767 I1.2533 J0.853
G2 X191.9141 Y290.189 I1.5861 J0.6876
G2 X191.904 Y290.2152 I0.7082 J0.29
G2 X191.8811 Y290.2888 I0.622 J0.2339
G2 X191.87 Y290.3387 I0.7412 J0.1902
G2 X191.8635 Y290.3977 I0.3237 J0.0657
G2 X191.876 Y290.4946 I0.2579 J0.016
G2 X191.9917 Y290.7407 I1.1609 J-0.3959
G2 X192.0947 Y290.8889 I1.1606 J-0.6963
G2 X192.0952 Y290.8895 I1.8544 J-1.4557
G2 X192.2423 Y291.0598 I1.5291 J-1.1724
G2 X192.2585 Y291.0763 I1.8711 J-1.8225
G2 X192.5817 Y291.3537 I1.6906 J-1.6431
G2 X192.8529 Y291.5244 I1.3001 J-1.7647
G2 X193.1787 Y291.665 I0.9835 J-1.8302
G2 X193.7469 Y291.811 I1.4803 J-4.5822
G2 X194.0231 Y291.8571 I0.9648 J-4.9331
G2 X194.3119 Y291.8857 I0.5294 J-3.8772
G2 X194.9077 Y291.877 I0.2471 J-3.4913
G2 X195.7865 Y291.6633 I-0.2689 J-3.0197
G2 X196.3805 Y291.3389 I-1.1342 J-2.7828
G2 X196.4142 Y291.3147 I-1.8761 J-2.6492
G2 X196.4951 Y291.2542 I-1.7754 J-2.4574
G2 X196.5172 Y291.2366 I-2.2042 J-2.7913
G2 X196.8729 Y290.9097 I-2.0127 J-2.547
G2 X196.953 Y290.8216 I-2.7209 J-2.5523
G2 X197.2764 Y290.396 I-2.6621 J-2.3586
G2 X199.3193 Y286.4858 I-17.9578 J-11.8713
G2 X200.735 Y282.9021 I-884.3866 J-351.4313
G2 X203.1994 Y276.6255 I-2164.1155 J-853.3308
G2 X203.6605 Y275.4482 I-500.0912 J-196.5175
G2 X204.0926 Y274.3444 I-411.5159 J-161.7348
G2 X204.4976 Y273.3097 I-352.594 J-138.609
G3 X204.5754 Y273.1103 I311.1322 J121.2262
G1 X204.8387 Y272.4379
G3 X204.8773 Y272.3395 I310.7911 J122.0979
G3 X204.9071 Y272.2633 I279.9613 J109.0763
G1 X205.228 Y271.4438
G3 X205.2334 Y271.4301 I279.6106 J109.972
G3 X205.2382 Y271.4178 I255.9175 J99.7219
G1 X205.3861 Y271.0402
G1 X207.4056 Y265.8906
G1 X208.5636 Y262.9496
G1 X209.8927 Y259.5906
G1 X210.6045 Y257.8003
G2 X210.9213 Y256.8928 I-9.7077 J-3.8976
G1 X210.9509 Y256.7918
G2 X211.0143 Y256.5637 I-8.348 J-2.4441
G0 Z0.125
G0 X195.0361 Y295.1836
G0 Z0.0775
G1 Z0.0
G3 X194.8662 Y295.2834 I-13.8015 J-23.3165
G3 X194.842 Y295.2972 I-5.5436 J-9.6383
G1 X194.475 Y295.5054
G1 X193.9291 Y295.8083
G1 X193.8489 Y295.8527
G1 X193.8444 Y295.8552
G1 X193.8294 Y295.8636
G2 X193.2431 Y296.1987 I9.3128 J16.9765
G1 X193.2291 Y296.2068
G1 X193.1102 Y296.2779
G1 X192.9841 Y296.3549
G2 X192.4671 Y296.6941 I5.0457 J8.2547
G2 X192.0955 Y296.9698 I3.7546 J5.4505
G2 X191.9736 Y297.0693 I3.7788 J4.7496
G2 X191.8198 Y297.2391 I0.6282 J0.7236
G2 X191.7786 Y297.302 I0.7958 J0.5663
G2 X191.7141 Y297.4199 I1.3019 J0.7887
G2 X191.6318 Y297.6209 I1.3748 J0.6809
G2 X191.6286 Y297.6304 I3.3252 J1.1101
G2 X191.5853 Y297.7684 I2.4799 J0.8547
G2 X191.5721 Y297.8188 I4.536 J1.2097
G2 X191.4934 Y298.1898 I3.3848 J0.9122
G2 X191.4489 Y298.5221 I4.6279 J0.7883
G2 X191.4209 Y298.8418 I7.0752 J0.781
G3 X191.0833 Y301.1377 I-16.6413 J-1.2741
G3 X190.9775 Y301.586 I-15.8421 J-3.5021
G3 X190.6293 Y302.8016 I-19.0318 J-4.7937
G1 X190.5388 Y303.0756
G3 X190.1422 Y304.1459 I-21.4437 J-7.3373
G3 X190.1094 Y304.2266 I-18.1965 J-7.3537
G1 X189.9672 Y304.5692
G3 X189.5293 Y305.5427 I-25.7869 J-11.0163
G3 X188.6989 Y307.1688 I-29.7729 J-14.1771
G1 X188.5251 Y307.485
G3 X188.4325 Y307.6501 I-49.7337 J-27.7653
G1 X188.1848 Y308.0859
G3 X188.1187 Y308.2007 I-49.3934 J-28.3663
G1 X187.8153 Y308.7197
G3 X187.7728 Y308.7915 I-2.0438 J-1.1627
G3 X187.7298 Y308.8638 I-2.0731 J-1.183
G3 X187.6864 Y308.9367 I-2.1044 J-1.2047
G3 X187.6425 Y309.01 I-2.1381 J-1.2277
G3 X187.6187 Y309.0506 I-2.1743 J-1.2523
G3 X187.6052 Y309.0727 I-19.4006 J-11.7847
G3 X187.5983 Y309.0839 I-2.137 J-1.3149
G3 X187.5963 Y309.0873 I-2.2132 J-1.2785
G3 X187.592 Y309.0943 I-19.3783 J-11.8215
G3 X187.4567 Y309.319 I-97.8961 J-58.818
G1 X187.0715 Y309.9513
G1 X186.6605 Y310.6176
G2 X185.7314 Y312.1191 I219.7994 J137.0411
G3 X185.6611 Y312.2038 I-0.424 J-0.281
G3 X185.6491 Y312.2144 I-0.2817 J-0.3058
G3 X185.5882 Y312.2623 I-0.4234 J-0.4752
G3 X185.5708 Y312.2734 I-0.2807 J-0.4242
G3 X185.5466 Y312.2888 I-0.8243 J-1.2624
G1 X185.4751 Y312.3305
G1 X185.3945 Y312.3729
G1 X185.3646 Y312.3882
G2 X185.1692 Y312.4888 I2.35 J4.8064
G1 X185.1496 Y312.4989
G2 X185.0677 Y312.5442 I0.4027 J0.8246
G1 X185.0273 Y312.5677
G1 X184.9873 Y312.5918
G2 X184.8016 Y312.2957 I-87.4875 J54.6587
G1 X184.7544 Y312.2222
G1 X184.7224 Y312.1714
G2 X184.466 Y311.7785 I-17.0294 J10.8312
G2 X184.1923 Y311.3797 I-11.9085 J7.8836
G2 X183.9801 Y311.0894 I-8.2237 J5.7888
G2 X183.947 Y311.0455 I-11.4225 J8.5726
G1 X183.8709 Y310.9472
G2 X183.7882 Y310.8435 I-5.8345 J4.5668
G2 X183.712 Y310.7515 I-6.294 J5.1377
G2 X183.6842 Y310.7181 I-7.7435 J6.4171
G2 X183.6189 Y310.6427 I-5.8418 J4.9978
G2 X183.5921 Y310.6122 I-6.1247 J5.3385
G2 X183.5816 Y310.6006 I-4.7466 J4.2981
G2 X183.557 Y310.5731 I-5.7392 J5.1153
G2 X183.4069 Y310.416 I-3.7661 J3.4497
G2 X183.3526 Y310.3616 I-4.5614 J4.4943
G1 X183.3148 Y310.326
G2 X183.2938 Y310.3061 I-3.5239 J3.6968
G2 X183.2603 Y310.2748 I-1.3098 J1.3683
G2 X183.1552 Y310.1852 I-1.2521 J1.3626
G2 X183.1284 Y310.164 I-0.2864 J0.3341
G2 X182.9726 Y310.0502 I-1.2576 J1.558
G2 X182.7953 Y309.9463 I-0.8331 J1.2184
G2 X182.5652 Y309.8552 I-0.6129 J1.2112
G2 X182.0239 Y309.8406 I-0.298 J1.0089
G2 X181.9976 Y309.8472 I0.243 J1.0315
G2 X181.755 Y309.9349 I0.3466 J1.3377
G2 X181.5715 Y310.0346 I0.6444 J1.4045
G2 X181.4301 Y310.129 I1.0935 J1.7914
G2 X181.3204 Y310.2119 I1.5872 J2.2136
G1 X181.2478 Y310.2712
G2 X181.1107 Y310.3914 I2.5589 J3.0564
G2 X180.8652 Y310.6342 I2.7768 J3.054
G2 X180.3209 Y311.2645 I6.2946 J5.9846
G1 X180.2821 Y311.3136
G1 X180.2739 Y311.3238
G1 X180.2702 Y311.3285
G1 X180.2555 Y311.3471
G2 X179.9863 Y311.6984 I8.9204 J7.1149
G2 X179.4072 Y312.5015 I26.307 J19.5795
G2 X178.5584 Y313.7843 I21.9332 J15.4348
G2 X177.8018 Y315.1235 I14.7534 J9.2188
G2 X177.734 Y315.2949 I1.1886 J0.5691
G2 X177.6857 Y315.4948 I1.3322 J0.4278
G2 X177.6495 Y315.8821 I2.0186 J0.3841
G2 X177.6517 Y315.9718 I1.2902 J0.0121
G2 X177.6706 Y316.128 I1.2921 J-0.0766
G2 X177.6797 Y316.1717 I0.4907 J-0.0799
G2 X177.705 Y316.2456 I0.4406 J-0.1093
G2 X177.726 Y316.2872 I0.2152 J-0.0824
G2 X177.7764 Y316.3433 I0.1607 J-0.0939
G2 X177.9501 Y316.4403 I0.6801 J-1.0134
G2 X178.1394 Y316.5094 I0.5232 J-1.1405
G2 X178.1452 Y316.511 I0.8911 J-3.2234
G2 X178.6205 Y316.5847 I0.5199 J-1.7834
G2 X178.8299 Y316.5775 I0.0536 J-1.4937
G2 X178.9103 Y316.567 I-0.1165 J-1.206
G2 X179.1455 Y316.5034 I-0.1735 J-1.1085
G2 X179.3115 Y316.4331 I-3.6709 J-8.9041
G1 X179.4656 Y316.3636
G2 X179.7502 Y316.2249 I-3.8093 J-8.179
G2 X180.0495 Y316.0675 I-5.4831 J-10.791
G2 X180.1463 Y316.0143 I-2.8848 J-5.3625
G2 X180.3344 Y315.9075 I-5.8792 J-10.5805
G2 X180.4114 Y315.8633 I-0.6499 J-1.221
G1 X180.5076 Y315.807
G1 X180.5763 Y315.7675
G1 X180.7568 Y315.6609
G1 X180.8196 Y315.6241
G1 X181.3632 Y315.3044
G1 X181.6768 Y315.127
G1 X182.116 Y314.8875
G1 X182.4467 Y314.7102
G3 X182.6951 Y314.578 I6.6614 J12.2154
G1 X182.9584 Y314.438
G3 X182.9988 Y314.4168 I35.2385 J67.0877
G1 X183.4404 Y314.1816
G1 X183.8271 Y314.5708
G2 X183.7476 Y314.698 I6.9935 J4.4633
G2 X183.7441 Y314.7037 I8.6878 J5.3462
G2 X183.7186 Y314.7454 I0.4614 J0.3106
G2 X183.583 Y314.9751 I8.7167 J5.2989
G1 X183.5016 Y315.1151
G1 X183.4008 Y315.2884
G1 X183.3398 Y315.3909
G3 X183.172 Y315.6579 I-10.1809 J-6.2119
G3 X183.1694 Y315.6618 I-5.7375 J-3.8099
G1 X183.0795 Y315.7924
G3 X183.0561 Y315.8253 I-13.9162 J-9.8625
G1 X183.012 Y315.8853
G3 X183.0059 Y315.8933 I-4.0216 J-3.068
G3 X182.871 Y316.0608 I-5.3578 J-4.1763
G1 X182.792 Y316.1489
G3 X182.5115 Y316.4327 I-6.0849 J-5.7346
G1 X182.4001 Y316.5381
G1 X182.1667 Y316.75
G1 X181.7511 Y317.1128
G1 X181.699 Y317.1586
G1 X181.5678 Y317.2728
G1 X181.4848 Y317.3463
G1 X181.4488 Y317.3785
G1 X181.4402 Y317.3861
G2 X181.2032 Y317.604 I6.5023 J7.3097
G1 X181.1982 Y317.6086
G1 X181.1842 Y317.6221
G2 X181.1274 Y317.6768 I6.7583 J7.0737
G1 X181.0945 Y317.7086
G2 X180.5791 Y318.2793 I3.7518 J3.9057
G2 X180.446 Y318.4805 I1.4862 J1.1282
G2 X180.3211 Y318.7392 I1.6987 J0.9796
G2 X180.2519 Y318.9239 I2.3362 J0.9802
G2 X180.2413 Y318.9567 I7.1919 J2.3423
G2 X180.161 Y319.2231 I4.0715 J1.3721
G1 X180.1573 Y319.2372
G2 X180.1525 Y319.2544 I7.2865 J2.029
G1 X180.1456 Y319.2816
G1 X180.1232 Y319.3664
G1 X180.1024 Y319.4502
G1 X180.0884 Y319.505
G1 X180.0422 Y319.6936
G3 X180.0416 Y319.6961 I-7.329 J-1.7148
G1 X180.0284 Y319.7492
G3 X179.987 Y319.9141 I-6.7714 J-1.612
G3 X179.8877 Y320.2549 I-7.2739 J-1.9353
G1 X180.253 Y320.1371
G1 X180.5539 Y320.043
G3 X180.5583 Y320.0416 I7.398 J24.3126
G2 X180.8699 Y319.9428 I-5.6102 J-18.2286
G2 X181.2434 Y319.8168 I-2.7438 J-8.7501
G2 X181.5117 Y319.7159 I-1.8306 J-5.2762
G2 X181.5897 Y319.6847 I-0.5194 J-1.412
G2 X181.8213 Y319.5854 I-1.5036 J-3.8271
G2 X181.8937 Y319.5456 I-0.3512 J-0.7236
G2 X182.0782 Y319.3909 I-0.4386 J-0.711
G2 X182.0868 Y319.3813 I-1.9549 J-1.7558
G2 X182.2529 Y319.1744 I-1.261 J-1.1824
G2 X182.2785 Y319.1384 I-2.1296 J-1.5393
G1 X182.3309 Y319.0627
G2 X182.39 Y318.9758 I-1.6253 J-1.1683
G1 X182.458 Y318.877
G1 X182.7151 Y318.5107
G3 X182.7166 Y318.5087 I24.7536 J17.6519
G2 X182.9752 Y318.1404 I-37.1255 J-26.3439
G1 X183.1354 Y317.9121
G1 X183.3216 Y317.6469
G2 X183.5239 Y317.3585 I-24.7958 J-17.6067
G2 X183.7229 Y317.0745 I-19.8319 J-14.11
G2 X184.5195 Y315.9341 I-314.2324 J-220.3579
G1 X184.5234 Y315.9285
G1 X184.5289 Y315.9206
G2 X185.1842 Y314.9759 I-315.0385 J-219.204
G1 X185.2073 Y314.9425
G1 X185.2285 Y314.9117
G2 X185.2829 Y314.833 I-315.738 J-218.1951
G1 X185.3325 Y314.7607
G1 X185.5962 Y314.3778
G1 X185.8799 Y313.963
G1 X185.9591 Y313.8476
G1 X185.9885 Y313.8042
G1 X186.0386 Y313.7309
G1 X186.5411 Y312.9896
G1 X186.5643 Y312.955
G1 X186.5879 Y312.9202
G1 X186.8061 Y312.5941
G1 X187.1107 Y312.1392
G2 X187.1611 Y312.0633 I-119.8986 J-79.6173
G1 X187.172 Y312.047
G2 X188.5803 Y309.8805 I-96.2759 J-64.1242
G2 X188.599 Y309.8512 I-121.3682 J-77.3586
G1 X188.614 Y309.8273
G2 X188.9413 Y309.3076 I-97.718 J-61.9045
G1 X188.9869 Y309.2353
G1 X189.0245 Y309.1746
G2 X189.2997 Y308.7315 I-98.1284 J-61.2518
G2 X189.8205 Y307.8769 I-74.8968 J-46.2313
G1 X189.8262 Y307.8676
G2 X190.6492 Y306.4702 I-66.8467 J-40.3127
G2 X190.8095 Y306.191 I-76.2463 J-43.97
G1 X191.0824 Y305.7087
G1 X191.335 Y305.2547
G1 X191.5689 Y304.8274
G2 X192.6948 Y302.6619 I-53.8366 J-29.3659
G2 X192.7192 Y302.6125 I-3.6628 J-1.8414
G2 X193.0626 Y301.9057 I-54.9868 J-27.1511
G2 X193.3915 Y301.2071 I-49.4797 J-23.7183
G2 X194.1829 Y299.4113 I-48.2531 J-22.3372
G2 X194.2139 Y299.3371 I-1.9251 J-0.8481
G2 X194.2202 Y299.3219 I-49.0755 J-20.4673
G2 X194.4946 Y298.6509 I-27.7319 J-11.7303
G2 X194.5289 Y298.5649 I-1.8317 J-0.7821
G1 X194.5384 Y298.5408
G2 X194.667 Y298.2148 I-49.4 J-19.671
G2 X194.7799 Y297.8685 I-2.7164 J-1.0769
G2 X194.7964 Y297.8052 I-2.6729 J-0.7311
G2 X194.8658 Y297.469 I-3.747 J-0.9492
G2 X194.8943 Y297.2726 I-4.4435 J-0.7446
G2 X194.9285 Y296.9507 I-4.9088 J-0.6847
G2 X194.9569 Y296.5204 I-11.0233 J-0.9431
G1 X194.9589 Y296.4752
G2 X194.9794 Y296.0165 I-27.768 J-1.4662
G1 Y296.0152
G1 X194.9891 Y295.8077
G3 X194.9914 Y295.7577 I9.9055 J0.4322
G3 X195.0361 Y295.1836 I12.6153 J0.6935
G0 Z0.125
G0 X113.1859 Y283.6163
G0 Z0.0775
G1 Z0.0
G2 X113.2125 Y283.1999 I-2.6925 J-0.3805
G2 X113.2122 Y283.1906 I-2.8738 J0.0622
G2 X113.2119 Y283.1704 I-2.7141 J0.0423
G2 X113.0205 Y282.2275 I-2.8747 J0.0925
G2 X112.9109 Y281.9377 I-28.6992 J10.6845
G2 X112.8012 Y281.6478 I-30.4289 J11.3521
G2 X112.5814 Y281.0683 I-47.5704 J17.7085
G2 X112.4346 Y280.682 I-44.6144 J16.7357
G2 X112.2385 Y280.1671 I-60.9928 J22.9384
G2 X111.9763 Y279.4809 I-101.0431 J38.2182
G1 X111.7967 Y279.0132
G1 X111.7375 Y278.8584
G2 X111.473 Y278.1715 I-90.9667 J34.6358
G2 X111.2241 Y277.5279 I-65.5913 J24.9985
G2 X110.9898 Y276.9249 I-53.9566 J20.612
G2 X110.7694 Y276.3598 I-46.9308 J17.9826
G2 X110.562 Y275.8304 I-42.1033 J16.1887
G2 X110.3669 Y275.3343 I-38.5234 J14.8674
G2 X110.1833 Y274.8695 I-35.7301 J13.8428
G2 X110.0106 Y274.434 I-33.4691 J13.0178
G2 X108.749 Y271.306 I-268.7081 J106.5627
G1 X108.6906 Y271.1626
G1 X108.3888 Y270.4302
G1 X108.0646 Y269.6499
G1 X107.716 Y268.8187
G1 X107.5561 Y268.4415
G2 X107.3408 Y267.9336 I-266.2536 J112.5552
G2 X107.2405 Y267.7501 I-1.0779 J0.4702
G2 X107.1514 Y267.6324 I-1.0084 J0.6706
G2 X107.1422 Y267.6214 I-1.2284 J1.0286
G2 X107.0619 Y267.5341 I-0.9283 J0.7723
G2 X106.9808 Y267.4576 I-1.1389 J1.1269
G2 X106.9013 Y267.3906 I-2.2015 J2.5314
G2 X106.6343 Y267.1937 I-1.8804 J2.2707
G2 X106.5067 Y267.1132 I-1.855 J2.7953
G2 X106.4961 Y267.1066 I-2.6434 J4.2845
G2 X106.466 Y267.0883 I-0.1172 J0.1586
G2 X106.3834 Y267.0395 I-2.6027 J4.3093
G1 X106.3472 Y267.0189
G1 X106.3126 Y266.9987
G1 X106.2606 Y266.9697
G1 X106.2157 Y266.9442
G1 X106.1645 Y266.9162
G1 X106.1372 Y266.901
G1 X106.1106 Y266.8867
G1 X106.0676 Y266.8633
G1 X105.8072 Y266.724
G3 X105.8057 Y266.7232 I7.25 J-13.7103
G1 X105.6676 Y266.6492
G1 X105.4017 Y266.5017
G1 X105.3339 Y266.4623
G1 X105.191 Y266.3756
G3 X105.042 Y266.2778 I4.8624 J-7.5762
G3 X104.9985 Y266.3966 I-4.8758 J-1.7174
G1 X104.96 Y266.4948
G1 X104.8691 Y266.7081
G3 X104.7758 Y266.9121 I-16.9136 J-7.6142
G1 X104.6662 Y267.1439
G2 X104.6403 Y267.1982 I1.3497 J0.6764
G2 X104.4444 Y267.6209 I10.986 J5.3479
G1 X104.4095 Y267.7014
G2 X104.3519 Y267.839 I3.8176 J1.6781
G2 X104.262 Y268.0854 I3.2438 J1.3221
G2 X104.2115 Y268.2568 I2.6285 J0.8679
G2 X104.1989 Y268.3057 I3.3841 J0.9044
G2 X104.16 Y268.4992 I1.8649 J0.4754
G2 X104.1408 Y268.7142 I1.4344 J0.2364
G2 X104.1611 Y268.979 I1.3693 J0.0279
G2 X105.3592 Y275.33 I482.3559 J-87.7026
G2 X105.4416 Y275.7529 I50.64 J-9.653
G2 X105.5297 Y276.2032 I52.757 J-10.0884
G1 X105.53 Y276.2048
G2 X105.6199 Y276.6627 I55.1391 J-10.5802
G2 X105.6291 Y276.7096 I715.7103 J-140.6552
G2 X105.7151 Y277.1465 I57.8505 J-11.1644
G2 X105.7368 Y277.2564 I715.615 J-141.139
G2 X105.816 Y277.657 I60.9874 J-11.8477
G2 X105.8537 Y277.8471 I715.5141 J-141.6496
G2 X105.9233 Y278.1979 I64.6843 J-12.6575
G2 X105.9796 Y278.4807 I715.4068 J-142.1904
G2 X106.0386 Y278.7768 I69.1428 J-13.6318
G2 X106.1122 Y279.1452 I715.2915 J-142.7693
G2 X106.1659 Y279.4131 I74.6754 J-14.8201
G2 X106.2465 Y279.8144 I715.1642 J-143.4056
G2 X106.3126 Y280.1428 I81.8087 J-16.3008
G2 X106.3805 Y280.4794 I715.0175 J-144.1353
G2 X106.4835 Y280.988 I91.4946 J-18.2577
G2 X106.5163 Y281.1498 I714.8466 J-144.9806
G2 X106.6654 Y281.883 I105.7174 J-21.1059
G2 X107.3151 Y285.06 I960.3084 J-194.7412
G2 X107.3806 Y285.3773 I177.4821 J-36.4688
G2 X107.4587 Y285.755 I959.5931 J-198.2356
G2 X107.5901 Y286.3898 I112.3341 J-22.926
G2 X107.7058 Y286.9492 I83.3911 J-16.959
G2 X107.8796 Y287.7881 I89.8534 J-18.1786
G2 X107.9667 Y288.2075 I57.827 J-11.7763
G2 X108.0537 Y288.627 I54.7395 J-11.1435
G2 X108.1552 Y288.9667 I1.958 J-0.3998
G2 X108.2406 Y289.1631 I2.2512 J-0.862
G2 X108.3569 Y289.3867 I2.9179 J-1.3762
G1 X108.3821 Y289.4308
G1 X108.3908 Y289.4466
G1 X108.4009 Y289.4637
G1 X108.4151 Y289.4885
G1 X108.4595 Y289.5626
G1 X108.4743 Y289.5875
G1 X108.478 Y289.5935
G1 X108.4839 Y289.6033
G1 X108.5648 Y289.7331
G2 X108.586 Y289.7665 I0.3719 J-0.2128
G1 X108.6185 Y289.817
G1 X108.6267 Y289.83
G1 X108.6654 Y289.8899
G1 X108.6835 Y289.9181
G1 X108.7495 Y290.0203
G1 X108.904 Y290.2633
G3 X109.0791 Y290.5605 I-7.5537 J4.6491
G1 X109.3994 Y290.5291
G2 X109.4796 Y290.5212 I-0.0483 J-0.9009
G2 X109.5396 Y290.5153 I-0.0583 J-0.8994
G2 X109.6297 Y290.5064 I-0.0898 J-1.3726
G2 X109.7197 Y290.4976 I-0.1886 J-2.3733
G2 X109.7968 Y290.2596 I-8.6997 J-2.9478
G2 X109.8214 Y290.1798 I-0.9833 J-0.3478
G2 X109.8539 Y290.0734 I-1.5169 J-0.5209
G1 X109.897 Y289.9315
G1 X109.9555 Y289.7426
G1 X109.9661 Y289.7095
G1 X110.0241 Y289.5332
G3 X110.0485 Y289.4613 I4.1177 J1.3569
G3 X110.0897 Y289.3505 I4.5101 J1.6143
G3 X110.1195 Y289.2721 I3.3887 J1.2439
G3 X110.249 Y288.9814 I4.0223 J1.6179
G1 X110.3036 Y288.8704
G2 X110.3216 Y288.8333 I-0.393 J-0.2134
G1 X110.3927 Y288.6844
G2 X110.4128 Y288.6417 I-0.472 J-0.2483
G2 X110.4357 Y288.5928 I-0.5212 J-0.2738
G1 X110.4699 Y288.5184
G2 X110.645 Y288.1363 I-28.0558 J-13.0956
G1 X110.7904 Y287.8175
G3 X110.7936 Y287.8099 I1.307 J0.5593
G3 X110.8218 Y287.7491 I33.984 J15.7015
G3 X110.8224 Y287.7478 I1.2756 J0.6276
G1 X110.9292 Y287.5197
G3 X110.9772 Y287.4185 I33.8485 J15.9917
G1 X111.0857 Y287.1973
G3 X111.1468 Y287.0753 I7.5103 J3.6879
G3 X111.4342 Y286.559 I9.0885 J4.7209
G1 X111.5025 Y286.4482
G3 X111.6259 Y286.2588 I4.3224 J2.6822
G3 X111.7791 Y286.0468 I4.5563 J3.1297
G3 X112.0498 Y285.7207 I4.0458 J3.0836
G2 X112.4155 Y285.2873 I-4.2279 J-3.9382
G1 X112.4544 Y285.2348
G1 X112.4868 Y285.1926
G2 X112.5013 Y285.1727 I-0.1297 J-0.1102
G2 X112.6127 Y285.015 I-3.2485 J-2.4115
G2 X112.7312 Y284.8289 I-3.4386 J-2.3208
G2 X112.7539 Y284.7906 I-0.7871 J-0.4926
G2 X112.7969 Y284.7153 I-3.5799 J-2.0964
G2 X112.9532 Y284.4041 I-3.124 J-1.7637
G1 X112.9575 Y284.3946
G2 X113.0617 Y284.1294 I-2.7391 J-1.2286
G2 X113.1859 Y283.6163 I-2.5682 J-0.8936
G0 Z0.125
G0 X102.6491 Y285.8644
G0 Z0.0775
G1 Z0.0
G1 X102.6318 Y285.7837
G2 X102.3389 Y284.8699 I-4.8189 J1.0411
G2 X101.8662 Y284.0347 I-3.9333 J1.6745
G2 X101.7579 Y283.9083 I-1.1627 J0.8872
G2 X101.4792 Y283.679 I-1.0996 J1.0523
G2 X101.1926 Y283.522 I-1.0454 J1.5683
G2 X101.1706 Y283.5124 I-0.7925 J1.7835
G2 X100.9206 Y283.4274 I-0.5791 J1.2938
G2 X100.6592 Y283.3906 I-0.2916 J1.1246
G2 X100.5883 Y283.4085 I0.0039 J0.1653
G2 X100.5468 Y283.4332 I0.0859 J0.1914
G2 X100.4561 Y283.5121 I0.3005 J0.4372
G2 X100.4308 Y283.5399 I1.0709 J0.9965
G2 X100.3056 Y283.7034 I1.0261 J0.9151
G2 X100.3028 Y283.7078 I1.8685 J1.2196
G2 X100.1417 Y284.0022 I1.7629 J1.1559
G2 X100.1241 Y284.0421 I2.0324 J0.9208
G2 X100.0929 Y284.1204 I0.9689 J0.4316
G2 X100.0225 Y284.4126 I1.0303 J0.4028
G2 X100.0172 Y284.5046 I9.7021 J0.5975
G1 X100.0129 Y284.5803
G2 X100.009 Y284.7002 I11.4939 J0.4347
G2 X100.0065 Y285.2282 I9.7155 J0.3099
G2 X100.0112 Y285.4001 I5.2916 J-0.0564
G2 X100.0225 Y285.6522 I7.3775 J-0.2068
G2 X100.0269 Y285.7348 I1.33 J-0.0287
G1 X100.0284 Y285.7585
G1 X100.0325 Y285.8333
G1 X100.0529 Y286.1491
G1 X100.0544 Y286.1695
G1 X100.0547 Y286.1748
G1 X100.061 Y286.2632
G1 X100.0697 Y286.3858
G3 X100.0699 Y286.3885 I-4.3997 J0.4065
G1 X100.0965 Y286.761
G3 X100.0985 Y286.7865 I-11.3064 J0.8999
G3 X100.0989 Y286.7965 I-1.8006 J0.085
G1 X100.1182 Y287.0962
G1 X100.3842 Y291.5604
G1 X100.5478 Y294.2966
G1 X100.9147 Y300.4464
G1 X101.1826 Y304.9531
G3 X101.1858 Y305.0231 I-3.1056 J0.1779
G3 Y305.0239 I-0.6696 J-0.0043
G3 X101.1859 Y305.0261 I-1.1093 J0.055
G3 X101.1872 Y305.0737 I-3.1089 J0.1049
G3 X101.1871 Y305.0948 I-1.1106 J0.0051
G1 X101.185 Y305.2365
G1 X101.1812 Y305.3309
G1 X101.1781 Y305.3883
G1 X101.1731 Y305.48
G1 X101.1659 Y305.6059
G1 X101.1614 Y305.6981
G1 X101.1608 Y305.7083
G1 X101.1607 Y305.7116
G1 X101.1605 Y305.7162
G2 X101.1596 Y305.7404 I0.1811 J0.0192
G2 X101.1652 Y306.0988 I2.4249 J0.1408
G2 X101.1657 Y306.1041 I2.4298 J-0.2092
G2 X101.2549 Y306.479 I1.1967 J-0.0867
G2 X101.3024 Y306.587 I2.5499 J-1.0584
G2 X101.3522 Y306.694 I1.5687 J-0.6637
G2 X101.4574 Y306.9053 I6.5684 J-3.1411
G2 X101.4878 Y306.9633 I0.8171 J-0.391
G2 X101.4972 Y306.981 I6.137 J-3.2499
G2 X101.7556 Y307.4338 I7.0782 J-3.7396
G2 X101.767 Y307.4523 I39.7063 J-24.4552
G2 X102.0777 Y307.9491 I14.1189 J-8.4823
G2 X102.3053 Y308.3046 I39.3843 J-24.9705
G1 X102.3597 Y308.3899
G1 X102.4334 Y308.5072
G1 X102.5811 Y308.7461
G1 X102.6984 Y308.6327
G3 X102.7847 Y308.5533 I3.8544 J4.1046
G3 X102.8178 Y308.5247 I1.78 J2.0228
G3 X102.9863 Y308.3802 I7.74 J8.857
G3 X103.0161 Y308.3559 I3.5665 J4.3571
G3 X103.0462 Y308.3311 I0.2068 J0.2197
G1 X103.2073 Y308.1998
G3 X103.2504 Y308.1649 I0.7084 J0.8311
G1 X103.2661 Y308.1521
G3 X103.2707 Y308.1485 I7.2917 J9.2296
G2 X103.3138 Y308.1135 I-0.5184 J-0.6843
G1 X103.4763 Y307.9807
G1 X103.4795 Y307.9781
G1 X103.4798 Y307.9779
G1 X103.4802 Y307.9776
G1 X103.4847 Y307.9738
G1 X103.6089 Y307.8695
G1 X103.6153 Y307.8639
G1 X103.6242 Y307.8564
G2 X103.6866 Y307.8023 I-0.9749 J-1.1856
G2 X103.9592 Y307.5439 I-2.317 J-2.7182
G2 X104.1123 Y307.3722 I-2.5061 J-2.3892
G2 X104.1189 Y307.364 I-1.6073 J-1.2965
G2 X104.1208 Y307.3617 I-2.7493 J-2.2799
G2 X104.272 Y307.1444 I-1.3913 J-1.1293
G2 X104.2809 Y307.1297 I-1.767 J-1.0687
G2 X104.3072 Y307.0819 I-1.0588 J-0.6147
G2 X104.4092 Y306.8145 I-1.0432 J-0.551
G2 X104.4363 Y306.7003 I-3.2788 J-0.8393
G2 X104.4628 Y306.5859 I-1.8972 J-0.4994
G2 X104.4801 Y306.5096 I-1.2477 J-0.3228
G2 X104.5027 Y306.4077 I-1.248 J-0.3305
G1 X104.5222 Y306.3144
G2 X104.5643 Y306.1138 I-26.1748 J-5.5915
G1 X104.5883 Y305.9993
G1 X104.6414 Y305.7261
G1 X104.6495 Y305.6815
G2 X104.7087 Y305.3566 I-26.302 J-4.9586
G2 X104.7152 Y305.3195 I-0.4394 J-0.096
G2 X104.7957 Y304.8308 I-26.3677 J-4.5965
G1 X104.8087 Y304.7479
G1 X104.8213 Y304.6663
G2 X104.8694 Y304.3447 I-28.2264 J-4.3843
G1 X104.9124 Y304.0428
G2 X105.0617 Y302.9094 I-74.7479 J-10.4194
G1 X105.062 Y302.9065
G1 X105.0639 Y302.8915
G1 X105.0968 Y302.6282
G1 X105.2604 Y301.3052
G1 X105.2711 Y301.2187
G1 X105.3725 Y300.4228
G1 X105.4951 Y299.5073
G1 X104.106 Y292.7955
G1 X104.0323 Y292.4419
G1 X103.9852 Y292.2143
G1 X103.9016 Y291.8121
G1 X103.8623 Y291.6236
G1 X103.7874 Y291.2658
G1 X103.6402 Y290.5588
G2 X103.5798 Y290.2702 I-12.1506 J2.39
G1 X103.3032 Y288.9512
G1 X103.2696 Y288.792
G1 X103.2509 Y288.7028
G1 X103.2125 Y288.5203
G1 X103.0807 Y287.8969
G1 X102.9852 Y287.4442
G1 X102.944 Y287.2503
G1 X102.9232 Y287.1518
G1 X102.8558 Y286.8348
G1 X102.8146 Y286.6407
G1 X102.7992 Y286.5687
G1 X102.7778 Y286.4677
G1 X102.6491 Y285.8644
G0 Z0.125
G0 X130.0537 Y227.29
G0 Z0.0775
G1 Z0.0
G2 X130.4821 Y227.2645 I0.0647 J-2.5185
G2 X130.888 Y227.1781 I-0.3813 J-2.7884
G2 X131.0028 Y227.1435 I-0.3816 J-1.4751
G2 X131.4077 Y226.9864 I-1.0334 J-3.2632
G2 X131.4764 Y226.9541 I-1.9015 J-4.1382
G2 X131.8456 Y226.7556 I-1.7606 J-3.7161
G2 X132.0301 Y226.639 I-2.3394 J-3.9073
G2 X132.3993 Y226.3695 I-2.7525 J-4.159
G1 X132.4378 Y226.3379
G2 X132.5073 Y226.2808 I-3.6654 J-4.5303
G1 X132.5313 Y226.2611
G2 X132.5814 Y226.2179 I-4.0653 J-4.7656
G2 X133.1124 Y225.6965 I-3.809 J-4.4102
G2 X133.1577 Y225.6458 I-4.6464 J-4.201
G2 X134.0337 Y224.3656 I-4.59 J-4.0807
G2 X134.1521 Y224.1234 I-5.5678 J-2.8701
G2 X134.2159 Y223.9771 I-4.9091 J-2.2304
G2 X134.2368 Y223.9277 I-5.6482 J-2.412
G2 X134.4308 Y223.3618 I-4.2998 J-1.7902
G1 X134.4331 Y223.3534
G1 X134.4458 Y223.306
G2 X134.5375 Y222.8652 I-3.7296 J-1.0054
G2 X134.5778 Y222.3975 I-3.3193 J-0.5216
G2 X134.5542 Y221.939 I-2.9832 J-0.0764
G1 X134.5476 Y221.8916
G2 X134.5459 Y221.8789 I-3.3295 J0.452
G2 X133.9248 Y222.2622 I3.9152 J7.0385
G2 X133.355 Y222.6886 I4.223 J6.2368
G2 X133.3494 Y222.6933 I5.4468 J6.6125
G2 X133.0887 Y222.9168 I5.1117 J6.2242
G2 X132.8106 Y223.1776 I5.8711 J6.541
G2 X132.6325 Y223.3571 I5.9912 J6.1236
G2 X132.1664 Y223.8808 I6.3273 J6.1008
G2 X131.7291 Y224.448 I7.9617 J6.5902
G2 X131.6568 Y224.5496 I11.7841 J8.4586
G2 X131.5608 Y224.6872 I9.8274 J6.9587
G1 X131.5078 Y224.765
G1 X131.5002 Y224.7763
G2 X131.0379 Y225.5051 I12.0129 J8.1303
G2 X130.6578 Y226.1649 I17.5081 J10.5271
G2 X130.5742 Y226.3165 I22.5013 J12.5167
G1 X130.566 Y226.3315
G2 X130.1754 Y227.058 I45.7031 J25.0421
G2 X130.1613 Y227.0848 I0.4723 J0.2661
G2 X130.1508 Y227.1046 I46.1078 J24.2889
G2 X130.135 Y227.1346 I0.4731 J0.2679
G2 X130.1265 Y227.1509 I46.134 J24.239
G2 X130.1083 Y227.1855 I0.4735 J0.2704
G2 X130.1022 Y227.1973 I46.1608 J24.1881
G2 X130.0812 Y227.2373 I0.4737 J0.2733
G2 X130.0779 Y227.2436 I46.1879 J24.1363
G2 X130.0537 Y227.29 I0.4736 J0.2767
G0 Z0.125
G0 X12.7172 Y240.9143
G0 Z0.0775
G1 Z0.0
G2 X12.5396 Y239.8294 I-11.7127 J1.36
G2 X12.4963 Y239.6307 I-12.0785 J2.5269
G2 X12.397 Y239.2219 I-14.5648 J3.3239
G2 X12.1635 Y238.4124 I-14.1744 J3.6487
G2 X12.1452 Y238.3554 I-14.232 J4.5422
G2 X12.113 Y238.2567 I-13.8996 J4.4758
G2 X12.102 Y238.2233 I-0.46 J0.1338
G2 X11.8092 Y237.422 I-13.8563 J4.6079
G1 X11.805 Y237.4116
G2 X11.4406 Y236.5557 I-16.0046 J6.3088
G2 X11.3603 Y236.3833 I-20.1038 J9.2541
G2 X10.5063 Y234.7495 I-18.6659 J8.7168
G2 X9.3 Y232.7838 I-33.9972 J19.5118
G1 X9.2722 Y232.742
G2 X9.0381 Y232.3899 I-32.7956 J21.5452
G1 X9.0204 Y232.3632
G1 X9.0061 Y232.3424
G2 X8.9167 Y232.2104 I-32.5295 J21.9449
G1 X8.8036 Y232.0457
G2 X8.7066 Y231.9058 I-25.9865 J17.9072
G2 X7.1905 Y229.9053 I-24.9489 J17.3343
G2 X6.8597 Y229.5099 I-24.3734 J20.0476
G1 X6.5803 Y229.1879
G2 X6.4368 Y229.0266 I-20.0555 J17.6987
G2 X6.3966 Y228.9815 I-22.6791 J20.2134
G2 X6.3596 Y228.9408 I-30.8199 J27.9924
G2 X6.0312 Y228.5845 I-19.8348 J17.9458
G2 X5.9132 Y228.4584 I-30.4546 J28.3895
G2 X5.02 Y227.5631 I-17.7871 J16.8532
G2 X5.0051 Y227.5489 I-18.4952 J19.3235
G2 X4.4971 Y227.0797 I-16.2279 J17.0607
G2 X3.9741 Y226.6233 I-16.371 J18.2319
G2 X0.6994 Y224.3222 I-14.1401 J16.6416
G2 X0.233 Y224.0627 I-10.827 J18.9134
G2 X-2.9419 Y222.6611 I-10.3217 J19.0849
G2 X-3.7303 Y222.3862 I-135.2243 J386.4746
G1 X-3.896 Y222.3284
G1 X-4.1137 Y222.2531
G2 X-4.6235 Y222.0769 I-134.0524 J386.8826
G1 X-4.7914 Y222.0188
G2 X-5.0228 Y221.9393 I-164.5462 J478.667
G2 X-7.3688 Y221.1405 I-133.1433 J387.1964
G2 X-7.5699 Y221.0727 I-161.9687 J479.5453
G2 X-8.1374 Y220.8816 I-18.3868 J53.6821
G2 X-10.8809 Y219.9686 I-161.2002 J479.8042
G2 X-11.1217 Y219.8893 I-19.3698 J58.4074
G2 X-11.2834 Y219.8361 I-158.2159 J480.7966
G2 X-11.776 Y219.6742 I-21.5797 J64.8178
G2 X-12.3666 Y219.4802 I-24.6274 J73.992
G2 X-12.9968 Y219.2738 I-29.3888 J88.6395
G2 X-14.4377 Y218.8033 I-73.0146 J221.21
G1 X-14.4527 Y218.7985
G1 X-14.4809 Y218.7893
G2 X-15.4311 Y218.4801 I-51.1941 J155.7283
G2 X-16.1438 Y218.2486 I-29.8277 J90.6154
G2 X-16.6784 Y218.0752 I-21.6274 J65.7356
G2 X-17.0793 Y217.9451 I-16.8854 J51.3786
G2 X-17.6808 Y217.7501 I-18.9372 J57.3865
G2 X-18.2822 Y217.5552 I-17.2897 J52.3192
G2 X-19.0266 Y217.3482 I-2.6784 J8.1895
G2 X-19.551 Y217.2441 I-1.7345 J7.3649
G2 X-20.4692 Y217.1515 I-1.1874 J7.178
G2 X-20.989 Y217.1504 I-0.2742 J6.8166
G2 X-22.2773 Y217.3206 I0.2252 J6.6661
G2 X-23.2467 Y217.6208 I1.5667 J6.774
G2 X-24.0512 Y217.991 I2.6613 J6.8427
G2 X-24.0657 Y217.9988 I4.3873 J8.1613
G2 X-25.0191 Y218.5918 I4.069 J7.6052
G2 X-25.1411 Y218.6802 I6.0088 J8.4172
G1 X-25.1457 Y218.6835
G2 X-25.2195 Y218.7385 I6.2276 J8.4373
G2 X-25.9453 Y219.3369 I6.2092 J8.2705
G2 X-31.2508 Y224.437 I71.8467 J80.0505
G2 X-31.4912 Y224.6849 I78.1575 J75.9963
G2 X-36.051 Y229.7285 I73.2337 J70.7924
G2 X-36.633 Y230.4225 I80.0076 J67.6978
G2 X-40.2316 Y235.0233 I75.0854 J62.4351
G2 X-45.5142 Y243.002 I78.0926 J57.4427
G2 X-45.6156 Y243.1769 I16.767 J9.834
G1 X-45.6611 Y243.2555
G1 X-45.7127 Y243.3486
G2 X-45.7824 Y243.4743 I16.9656 J9.4874
G1 X-45.7988 Y243.5038
G1 X-45.8051 Y243.5157
G2 X-45.8184 Y243.5402 I17.058 J9.3202
G2 X-46.0726 Y244.0291 I11.7655 J6.4266
G2 X-46.3944 Y244.7039 I16.8257 J8.4373
G2 X-46.4065 Y244.7304 I25.3917 J11.6075
G2 X-46.5383 Y245.024 I22.106 J10.1006
G2 X-46.6584 Y245.2997 I25.5356 J11.2874
G2 X-46.939 Y245.9723 I25.4686 J11.0223
G1 X-46.9751 Y246.0618
G1 X-47.0647 Y246.2833
G1 X-47.0877 Y246.3412
G1 X-47.115 Y246.4091
G1 X-47.313 Y246.9096
G2 X-47.3638 Y247.0389 I4.8527 J1.9809
G2 X-47.4162 Y247.1724 I7.2005 J2.9019
G1 X-47.5279 Y247.4571
G1 X-47.7848 Y248.1071
G3 X-47.7935 Y248.1292 I-32.9853 J-12.9794
G3 X-47.9186 Y248.4393 I-74.4947 J-29.8574
G1 X-48.0813 Y248.835
G1 X-48.2213 Y249.1659
G3 X-48.4183 Y249.614 I-32.5488 J-14.0382
G3 X-48.7734 Y250.3704 I-24.4261 J-11.0075
G1 X-48.921 Y250.6627
G3 X-48.9816 Y250.7789 I-17.1316 J-8.851
G1 X-49.1115 Y251.0211
G1 X-49.2482 Y251.2656
G3 X-49.252 Y251.2723 I-13.4702 J-7.6982
G1 X-49.3979 Y251.522
G3 X-50.3673 Y253.0724 I-37.9693 J-22.6612
G3 X-50.4474 Y253.1943 I-36.5576 J-23.9351
G3 X-50.4485 Y253.1959 I-2.1339 J-1.3437
G3 X-51.5448 Y254.7827 I-36.9188 J-24.3352
G1 X-51.6983 Y254.993
G1 X-51.8636 Y255.2162
G3 X-52.2214 Y255.6898 I-29.9731 J-22.2745
G3 X-53.3269 Y257.0606 I-30.427 J-23.408
G3 X-53.3888 Y257.1338 I-26.8001 J-22.5767
G3 X-54.7201 Y258.6173 I-28.4479 J-24.1921
G3 X-56.8496 Y260.6767 I-25.031 J-23.751
G3 X-57.6196 Y261.3383 I-21.4601 J-24.1984
G3 X-58.1515 Y261.7712 I-20.6516 J-24.8311
G3 X-58.5946 Y262.1183 I-41.5271 J-52.5697
G1 X-58.9309 Y262.3735
G3 X-59.4384 Y262.7457 I-23.9835 J-32.1674
G3 X-59.4429 Y262.7489 I-18.8712 J-26.2674
G1 X-59.6968 Y262.9294
G3 X-59.7024 Y262.9333 I-18.6128 J-26.4511
G1 X-59.9595 Y263.1123
G2 X-60.9833 Y263.8179 I131.3857 J191.7525
G2 X-62.0067 Y264.524 I131.3146 J191.403
G2 X-62.6888 Y264.9951 I107.7835 J156.7714
G2 X-63.5979 Y265.6237 I124.8415 J181.5367
G2 X-64.8096 Y266.4625 I145.3229 J211.2222
G2 X-65.5017 Y266.9422 I111.6952 J161.9147
G2 X-66.2926 Y267.4906 I120.8324 J175.0615
G2 X-67.1961 Y268.1179 I131.3246 J190.1355
G2 X-68.2284 Y268.8352 I143.6554 J207.8239
G2 X-69.4076 Y269.6557 I158.6043 J229.235
G2 X-70.7549 Y270.5941 I177.5146 J256.2794
G2 X-71.4731 Y271.0949 I136.4365 J196.4452
G2 X-72.2391 Y271.6293 I146.5764 J210.8963
G2 X-73.056 Y272.1997 I158.946 J228.519
G2 X-73.9271 Y272.8084 I174.5759 J250.7805
G2 X-74.849 Y273.453 I195.3093 J280.3063
G1 X-74.8643 Y273.4637
G2 X-75.7983 Y274.1172 I224.8798 J322.3964
G2 X-75.9904 Y274.2516 I2073.8515 J2962.9909
G2 X-80.3751 Y277.3258 I1295.3824 J1852.2578
G2 X-84.1406 Y279.9736 I2078.4283 J2959.7823
G2 X-87.1095 Y282.1519 I52.7677 J75.0332
G2 X-87.1895 Y282.2131 I1.6925 J2.2928
G2 X-87.2691 Y282.2742 I1.6993 J2.2962
G2 X-87.3483 Y282.3352 I1.7062 J2.2995
G2 X-89.8363 Y284.3232 I58.0277 J75.172
G2 X-92.9463 Y287.0287 I53.594 J64.7459
G2 X-95.11 Y289.0767 I55.6828 J60.9976
G2 X-95.4378 Y289.3999 I16.0563 J16.6082
G2 X-104.9077 Y300.6606 I57.0526 J57.5921
G1 X-105.1563 Y301.0164
G3 X-106.7573 Y303.2902 I-356.121 J-249.0545
G1 X-107.4207 Y304.2233
G3 X-107.6228 Y304.5067 I-353.8566 J-252.2614
G1 X-108.4894 Y305.7158
G1 X-109.3706 Y306.9366
G3 X-109.4134 Y306.9957 I-502.1139 J-363.4932
G1 X-110.2387 Y308.1325
G1 X-111.0364 Y309.2257
G1 X-111.7863 Y310.2491
G1 X-113.1971 Y312.1646
G1 X-114.4356 Y313.8375
G1 X-115.5218 Y315.2996
G1 X-116.5919 Y316.7359
G1 X-118.8204 Y319.7239
G2 X-119.0069 Y319.9739 I59.5092 J44.5782
G1 X-119.0666 Y320.0539
G2 X-119.2846 Y320.3463 I52.6897 J39.525
G1 X-119.3037 Y320.3718
G2 X-119.7775 Y321.0071 I65.0712 J49.0267
G2 X-120.1982 Y321.5713 I55.0503 J41.4871
G2 X-120.5662 Y322.0651 I47.8928 J36.0784
G2 X-120.8881 Y322.4972 I42.4166 J31.933
G2 X-123.1372 Y325.5249 I857.0573 J639.0139
G3 X-125.9577 Y329.1816 I-98.5166 J-73.0722
G3 X-127.0484 Y330.5248 I-113.4604 J-91.0181
G3 X-128.241 Y331.9564 I-129.748 J-106.8673
G3 X-128.2677 Y331.9885 I-9.5646 J-7.9298
G3 X-128.364 Y332.1025 I-111.1505 J-93.8251
G3 X-128.39 Y332.1328 I-9.4416 J-8.0758
G3 X-128.9304 Y332.768 I-130.7608 J-110.7045
G1 X-129.3051 Y333.2048
G1 X-129.7347 Y333.7017
G1 X-130.1949 Y334.2298
G1 X-130.688 Y334.7913
G1 X-131.2164 Y335.3881
G3 X-131.3034 Y335.486 I-127.6144 J-113.2449
G3 X-131.3209 Y335.5054 I-44.5169 J-39.9835
G3 X-132.3585 Y336.6619 I-337.4343 J-301.7043
G1 X-132.8476 Y337.2015
G1 X-133.8 Y338.2427
G1 X-134.6979 Y339.2142
G1 X-135.5435 Y340.1213
G1 X-136.3393 Y340.9689
G1 X-137.0877 Y341.7614
G1 X-138.485 Y343.2314
G3 X-138.5122 Y343.2599 I-588.0033 J-560.9891
G1 X-139.7318 Y344.5351
G1 X-141.8763 Y346.768
G1 X-141.9025 Y346.7953
G2 X-142.3063 Y347.2153 I89.7105 J86.6423
G2 X-142.6875 Y347.6119 I56.5151 J54.6989
G2 X-143.0448 Y347.9838 I44.1751 J42.798
G2 X-143.3797 Y348.3326 I37.2284 J36.0824
G2 X-143.6935 Y348.6596 I32.6197 J31.6157
G2 X-143.9876 Y348.9664 I29.2725 J28.3634
G2 X-144.2633 Y349.254 I26.6968 J25.8545
G2 X-144.5215 Y349.5238 I24.6329 J23.8396
G2 X-144.7635 Y349.7769 I22.9284 J22.1722
G2 X-144.9903 Y350.0142 I21.4881 J20.7608
G2 X-145.2029 Y350.2368 I20.2469 J19.5427
G2 X-145.402 Y350.4456 I19.1607 J18.4755
G2 X-145.7751 Y350.8373 I25.4344 J24.6005
G2 X-145.9986 Y351.0723 I338.0398 J321.6047
G1 X-146.0206 Y351.0955
G1 X-146.0746 Y351.1524
G2 X-146.5456 Y351.6492 I338.3392 J321.2896
G1 X-146.7826 Y351.899
G1 X-147.567 Y352.7305
G1 X-147.8545 Y353.0372
G2 X-148.374 Y353.5913 I340.1191 J319.4049
G1 X-148.6664 Y353.9031
G1 X-148.9507 Y354.2042
G3 X-149.9532 Y355.254 I-200.3428 J-190.3059
G3 X-149.9936 Y355.2959 I-104.8354 J-101.1498
G3 X-150.0059 Y355.3089 I-5.1834 J-4.8812
G3 X-150.0803 Y355.3863 I-199.2876 J-191.4106
G3 X-150.1023 Y355.4088 I-5.0968 J-4.9717
G3 X-150.1319 Y355.44 I-5.6054 J-5.2859
G3 X-150.1786 Y355.4885 I-199.1616 J-191.5417
G3 X-150.2184 Y355.5292 I-5.5292 J-5.3656
G3 X-150.3422 Y355.6576 I-6.1179 J-5.7779
G1 X-151.0794 Y356.4204
G3 X-151.1744 Y356.5181 I-198.2141 J-192.5221
G2 X-151.3837 Y356.7343 I48.2929 J46.9556
G2 X-151.5864 Y356.9438 I15.6721 J15.3668
G2 X-151.7827 Y357.1469 I11.3024 J11.1241
G2 X-151.9728 Y357.3437 I9.2565 J9.1302
G2 X-152.1568 Y357.5345 I8.0126 J7.9123
G1 X-152.2469 Y357.6283
G1 X-152.3253 Y357.7095
G1 X-152.7959 Y358.2002
G1 X-152.868 Y358.2753
G2 X-153.0231 Y358.4379 I5.2494 J5.1647
G1 X-153.3103 Y358.7409
G1 X-153.5313 Y358.9736
G2 X-153.6088 Y359.0558 I81.8015 J77.1351
G1 X-153.622 Y359.0698
G1 X-153.6416 Y359.0907
G2 X-153.9929 Y359.466 I81.9118 J77.0179
G1 X-154.1425 Y359.6259
G2 X-155.3779 Y360.9807 I55.2732 J51.6435
G2 X-155.9602 Y361.642 I44.9035 J40.1266
G2 X-156.0114 Y361.7011 I3.9284 J3.4557
G2 X-157.3652 Y363.3221 I45.5371 J39.4062
G1 X-157.4743 Y363.4593
G2 X-157.6313 Y363.6567 I44.4429 J35.505
G2 X-158.532 Y364.8224 I62.5844 J49.2863
G2 X-159.9944 Y366.8079 I68.1896 J51.7555
G2 X-160.1468 Y367.0215 I113.6034 J81.2168
G1 X-160.2148 Y367.1163
G1 X-160.6176 Y367.6856
G1 X-160.9922 Y368.2214
G2 X-161.589 Y369.086 I81.7353 J57.06
G2 X-162.2397 Y370.0441 I115.1981 J78.9387
G2 X-162.3817 Y370.2548 I8.7778 J6.0686
G2 X-162.5281 Y370.4726 I9.2902 J6.4016
G2 X-162.6788 Y370.6975 I9.9034 J6.801
G2 X-162.8342 Y370.9299 I10.6536 J7.2906
G2 X-162.9943 Y371.17 I11.6006 J7.9097
G2 X-163.1593 Y371.418 I12.8468 J8.7259
G2 X-163.3294 Y371.6742 I14.5906 J9.8698
G2 X-163.5046 Y371.9388 I17.2828 J11.6386
G1 X-163.8184 Y372.4146
G1 X-164.0599 Y372.7802
G1 X-164.2012 Y372.9951
G1 X-164.3033 Y373.15
G3 X-164.4385 Y373.3563 I-833.5882 J-546.023
G1 X-165.2435 Y374.5817
G1 X-166.4292 Y376.3818
G2 X-166.7035 Y376.8406 I4.0463 J2.731
G2 X-166.7084 Y376.8498 I4.7551 J2.532
G2 X-166.7347 Y376.9003 I2.3938 J1.2772
G2 X-166.8594 Y377.186 I2.21 J1.135
G2 X-166.8981 Y377.2981 I2.5448 J0.9409
G2 X-166.939 Y377.4527 I1.3555 J0.4411
G2 X-166.967 Y377.6832 I1.2522 J0.269
G2 X-166.9679 Y377.7187 I1.4244 J0.056
G2 X-166.9665 Y377.7741 I0.9914 J0.0017
G2 X-166.9663 Y377.7776 I1.2797 J-0.0524
G2 X-166.898 Y378.0862 I0.9656 J-0.0519
G2 X-166.7089 Y378.3887 I0.9215 J-0.3657
G2 X-166.6868 Y378.4128 I1.4032 J-1.2634
G2 X-166.6091 Y378.4924 I1.0575 J-0.9538
G2 X-166.5309 Y378.562 I1.3637 J-1.4556
G2 X-166.3047 Y378.7275 I1.2252 J-1.4366
G2 X-165.9613 Y378.9218 I1.8473 J-2.8647
G2 X-165.843 Y378.9788 I2.8267 J-5.7166
G2 X-165.825 Y378.9875 I8.744 J-18.0793
G2 X-165.8026 Y378.9976 I3.7245 J-8.2436
G2 X-165.4194 Y379.1591 I2.6681 J-5.7924
G2 X-165.3453 Y379.1878 I3.5149 J-8.9716
G2 X-164.8623 Y379.3579 I3.2449 J-8.444
G2 X-163.4314 Y379.8301 I142.7823 J-430.3029
G2 X-162.0004 Y380.3021 I171.5982 J-517.8086
G2 X-159.1382 Y381.2456 I409.9252 J-1238.7567
G1 X-158.1836 Y381.5597
G1 X-157.2671 Y381.8618
G2 X-155.8427 Y382.3305 I189.4174 J-573.2334
G2 X-154.5073 Y382.7696 I152.2157 J-460.6773
G2 X-153.2552 Y383.181 I130.3307 J-394.5673
G2 X-152.0813 Y383.5664 I115.4486 J-349.6813
G2 X-150.9807 Y383.9274 I104.454 J-316.5676
G2 X-149.9488 Y384.2656 I95.8785 J-290.7731
G2 X-148.9813 Y384.5825 I88.9285 J-269.8913
G2 X-148.0742 Y384.8793 I83.1316 J-252.4903
G2 X-147.2237 Y385.1575 I78.1872 J-237.6584
G2 X-142.0696 Y386.8378 I994.0245 J-3040.1662
G1 X-141.5913 Y386.9936
G1 X-141.0072 Y387.183
G2 X-139.199 Y387.7695 I987.808 J-3042.1918
G1 X-138.2632 Y388.0731
G1 X-137.5877 Y388.2912
G2 X-134.458 Y389.3018 I984.3885 J-3043.2999
G2 X-133.7916 Y389.5141 I77.7148 J-242.7387
G1 X-133.4253 Y389.6308
G1 X-132.4555 Y389.9341
G1 X-132.326 Y389.974
G2 X-129.6566 Y390.7869 I75.5828 J-243.411
G2 X-129.3356 Y390.8833 I10.3066 J-33.7605
G2 X-128.6019 Y391.1028 I20.2803 J-66.4432
G1 X-127.7632 Y391.353
G1 X-125.5267 Y392.0208
G1 X-124.2497 Y392.4055
G1 X-122.792 Y392.851
G1 X-122.0156 Y393.092
G3 X-121.8819 Y393.1336 I-47.234 J151.7992
G3 X-121.8641 Y393.1394 I-5.0561 J15.7779
G3 X-119.9695 Y393.7438 I-77.6226 J246.5637
G3 X-117.8936 Y394.4365 I-49.2801 J151.1473
G2 X-117.6051 Y394.5348 I27.5038 J-80.2724
G1 X-117.5652 Y394.5484
G1 X-117.5173 Y394.5645
G2 X-117.2905 Y394.6406 I27.1275 J-80.4003
G1 X-117.2362 Y394.6589
G1 X-117.2133 Y394.6664
G2 X-116.7047 Y394.8341 I26.8235 J-80.5022
G2 X-116.5888 Y394.8717 I27.0338 J-83.087
G1 X-116.5769 Y394.8756
G1 X-116.553 Y394.8833
G2 X-116.2003 Y394.9965 I26.8821 J-83.1362
G1 X-116.1364 Y395.017
G1 X-116.0872 Y395.0325
G2 X-115.5928 Y395.1876 I26.4163 J-83.2854
G1 X-115.5479 Y395.2018
G2 X-113.4873 Y395.8128 I23.895 J-76.7936
G2 X-112.0468 Y396.2077 I23.8164 J-84.0658
G2 X-111.7457 Y396.2869 I26.6037 J-100.5435
G2 X-107.8596 Y397.2239 I25.6363 J-97.791
G2 X-107.7446 Y397.2492 I1.7537 J-7.7079
G2 X-107.645 Y397.2709 I21.6351 J-98.7533
G2 X-107.5035 Y397.3017 I1.7859 J-7.8783
G2 X-107.0683 Y397.3949 I21.3941 J-98.8058
G1 X-107.0192 Y397.4052
G2 X-106.3964 Y397.5358 I25.1682 J-118.4609
G1 X-106.3356 Y397.5486
G1 X-106.2814 Y397.5596
G2 X-105.5674 Y397.7044 I24.4305 J-118.6153
G1 X-105.5531 Y397.7073
G1 X-105.5411 Y397.7097
G2 X-103.8805 Y398.0289 I23.6901 J-118.7654
G2 X-103.487 Y398.1012 I3.8495 J-19.8411
G2 X-103.0994 Y398.1712 I4.18 J-22.0253
G2 X-100.3837 Y398.6313 I23.5576 J-130.7908
G2 X-99.0466 Y398.839 I23.3666 J-146.0755
G2 X-98.7424 Y398.8848 I3.1334 J-19.7782
G2 X-98.7303 Y398.8866 I33.0004 J-222.6286
G1 X-98.7212 Y398.8879
G2 X-94.5134 Y399.4707 I30.6751 J-206.0061
G2 X-92.24 Y399.752 I28.7714 J-223.2145
G2 X-92.0349 Y399.7765 I1.6569 J-12.9926
G2 X-91.8281 Y399.8011 I1.6636 J-13.1141
G2 X-91.6197 Y399.8257 I1.6713 J-13.2448
G2 X-89.8406 Y400.0309 I41.3018 J-350.2275
G1 X-89.469 Y400.0722
G1 X-88.7121 Y400.1571
G1 X-88.1546 Y400.2181
G1 X-87.9422 Y400.2416
G2 X-87.7029 Y400.2677 I2.0888 J-18.0527
G2 X-87.4618 Y400.2939 I2.1423 J-18.5991
G2 X-87.2188 Y400.3202 I2.2021 J-19.2045
G2 X-86.9738 Y400.3467 I2.2694 J-19.8795
G2 X-86.7269 Y400.3732 I2.3456 J-20.6372
G2 X-86.4781 Y400.3999 I2.4325 J-21.495
G2 X-85.9725 Y400.454 I3.7425 J-32.6152
G2 X-85.4589 Y400.5087 I4.137 J-36.4261
G2 X-84.9371 Y400.564 I4.7199 J-42.0096
G2 X-84.4071 Y400.6201 I5.6963 J-51.3078
G1 X-82.1458 Y400.859
G1 X-80.3062 Y401.0557
G1 X-78.4902 Y401.2529
G2 X-77.7139 Y401.3377 I12.0185 J-106.4759
G2 X-76.9373 Y401.4206 I8.9657 J-80.2832
G2 X-76.4194 Y401.4749 I6.3405 J-57.9539
G2 X-75.7289 Y401.5462 I6.6896 J-61.4315
G2 X-75.3342 Y401.5864 I4.7084 J-44.302
G2 X-74.8831 Y401.6318 I4.8489 J-45.8835
G2 X-74.3712 Y401.6828 I5.012 J-47.7338
G2 X-73.0154 Y401.815 I41.7651 J-421.2643
G2 X-70.2408 Y402.0746 I50.5918 J-525.7436
G2 X-69.6904 Y402.1248 I5.0016 J-51.8565
G2 X-69.1033 Y402.1779 I5.3334 J-55.7121
G2 X-68.4769 Y402.2341 I5.7585 J-60.6271
G2 X-67.8088 Y402.2937 I6.3251 J-67.1476
G2 X-67.0961 Y402.3569 I7.1253 J-76.3168
G2 X-66.3359 Y402.4239 I8.3637 J-90.4598
G2 X-65.5249 Y402.4952 I10.6392 J-116.3927
G1 X-61.1999 Y402.8758
G1 X-58.729 Y403.0986
G2 X-58.4365 Y403.1222 I0.6221 J-5.8975
G2 X-58.1434 Y403.1379 I0.5633 J-7.7741
G2 X-57.7452 Y403.1423 I0.2598 J-5.4687
G2 X-57.3102 Y403.1117 I-0.0816 J-4.2719
G2 X-57.1518 Y403.0876 I-0.2758 J-2.3461
G2 X-56.8803 Y403.02 I-0.3061 J-1.8075
G2 X-56.8548 Y403.0119 I-0.7057 J-2.2544
G2 X-56.651 Y402.9263 I-0.3855 J-1.2027
G2 X-56.2344 Y402.542 I-0.4501 J-0.9061
G2 X-56.1157 Y402.2658 I-0.8884 J-0.5453
G2 X-56.0666 Y402.0333 I-1.3706 J-0.4111
G2 X-56.0462 Y401.7988 I-1.9176 J-0.285
G2 X-56.0487 Y401.535 I-2.567 J-0.1073
G1 X-56.0488 Y401.5339
G2 X-56.0733 Y401.2334 I-4.2876 J0.1995
G2 X-56.0742 Y401.2262 I-6.917 J0.8052
G2 X-56.1212 Y400.8946 I-5.775 J0.6504
G2 X-56.1387 Y400.7943 I-6.8691 J1.1439
G2 X-56.251 Y400.2554 I-9.1861 J1.6327
G2 X-56.3975 Y399.6364 I-194.7598 J45.7635
G1 X-56.4783 Y399.2946
G1 X-56.6825 Y398.4552
G1 X-56.7017 Y398.3779
G2 X-56.8602 Y397.7361 I-194.3091 J47.641
G1 X-57.485 Y395.2209
G1 X-57.6593 Y394.5052
G3 X-58.1079 Y392.5781 I122.8299 J-29.6099
G3 X-58.2031 Y392.0897 I7.6392 J-1.7426
G3 X-58.2359 Y391.8354 I4.9436 J-0.7673
G3 X-58.2406 Y391.789 I2.5274 J-0.2789
G3 X-58.2483 Y391.433 I3.0608 J-0.2439
G3 X-58.2283 Y391.2157 I2.5397 J0.1235
G3 X-58.2206 Y391.1654 I1.7375 J0.2412
G3 X-58.1869 Y391.0105 I1.8923 J0.3308
G3 X-58.1491 Y390.8848 I1.6594 J0.4305
G3 X-58.0446 Y390.6427 I1.6583 J0.5721
G3 X-57.9757 Y390.5236 I1.5171 J0.7984
G3 X-57.7983 Y390.2868 I1.8553 J1.2046
G3 X-57.5427 Y390.0347 I1.8116 J1.5812
G3 X-57.168 Y389.7622 I2.3446 J2.8308
G2 X-57.0576 Y389.6672 I-0.2682 J-0.4232
G2 X-57.0325 Y389.6367 I-0.4065 J-0.3607
G2 X-57.0286 Y389.6315 I-0.8884 J-0.6612
G2 X-56.9566 Y389.521 I-0.669 J-0.5145
G2 X-56.948 Y389.5046 I-1.3116 J-0.7018
G2 X-56.8798 Y389.3531 I-0.9729 J-0.5291
G2 X-56.8366 Y389.2235 I-1.3884 J-0.534
G2 X-56.8209 Y389.166 I-3.1205 J-0.8824
G2 X-56.7932 Y389.0539 I-2.43 J-0.661
G2 X-56.7852 Y389.0155 I-3.7178 J-0.7963
G2 X-56.7274 Y388.6328 I-3.172 J-0.6743
G2 X-56.7197 Y388.5449 I-3.7836 J-0.3752
G2 X-56.7095 Y388.386 I-6.5196 J-0.4993
G2 X-56.7365 Y387.3584 I-6.417 J-0.3456
G2 X-56.7458 Y387.2785 I-7.7047 J0.8548
G2 X-56.7837 Y387.0068 I-6.4936 J0.7671
G3 X-57.6662 Y378.8531 I68.1402 J-11.4995
G3 X-57.723 Y377.3457 I70.1863 J-3.4027
G3 X-57.7452 Y376.076 I69.0868 J-1.8411
G3 X-57.5839 Y370.6423 I72.1843 J-0.5765
G3 X-57.5785 Y370.5628 I75.3634 J5.1392
G1 X-57.5634 Y370.3504
G3 X-57.5374 Y370.0011 I75.343 J5.4311
G3 X-57.364 Y368.0673 I80.311 J6.2283
G3 X-57.313 Y367.5855 I75.1435 J7.7142
G1 X-57.2593 Y367.1075
G3 X-57.2421 Y366.9604 I75.0388 J8.674
G1 X-57.2006 Y366.6139
G3 X-57.1909 Y366.5352 I74.9801 J9.1676
G1 X-57.1032 Y365.8498
G3 X-57.102 Y365.8406 I74.8827 J9.9316
G1 X-57.0039 Y365.1279
G1 X-56.9724 Y364.9053
G2 X-56.9619 Y364.831 I-0.7875 J-0.1489
G1 X-56.9237 Y364.5612
G1 X-56.918 Y364.5211
G1 X-56.8482 Y364.0452
G1 X-56.8252 Y363.8905
G1 X-56.7901 Y363.6718
G1 X-56.7439 Y363.3936
G1 X-56.7127 Y363.2152
G1 X-56.6851 Y363.0631
G1 X-56.6276 Y362.7702
G3 X-56.4611 Y362.0532 I14.5786 J3.0062
G3 X-56.4383 Y361.9663 I14.0429 J3.6492
G3 X-56.438 Y361.9654 I9.0729 J2.4235
G3 X-56.3311 Y361.5958 I10.4124 J2.812
G3 X-56.0483 Y360.8125 I8.9657 J2.794
G2 X-55.4736 Y359.3906 I-49.4916 J-20.8309
G1 X-55.3945 Y359.1862
G2 X-54.7877 Y357.542 I-59.0783 J-22.7373
G1 X-54.7701 Y357.4917
G2 X-54.6265 Y357.0801 I-59.4631 J-20.9818
G1 X-54.6227 Y357.0692
G2 X-54.568 Y356.9099 I-64.7657 J-22.3119
G2 X-54.4976 Y356.7029 I-59.6652 J-20.4
G2 X-54.4173 Y356.464 I-64.8908 J-21.9456
G2 X-53.3358 Y352.9109 I-65.153 J-21.7725
G2 X-53.2793 Y352.7054 I-5.216 J-1.5465
G2 X-53.2237 Y352.5013 I-5.3351 J-1.5626
G2 X-53.1691 Y352.2987 I-5.4595 J-1.5798
G2 X-53.1154 Y352.0975 I-5.59 J-1.5982
G2 X-52.9848 Y351.5984 I-80.2552 J-21.2735
G1 X-52.9833 Y351.5929
G1 X-52.982 Y351.5877
G2 X-52.7079 Y350.4959 I-80.3886 J-20.7636
G2 X-52.435 Y349.3472 I-68.398 J-16.8546
G2 X-52.3454 Y348.9521 I-73.4562 J-16.8683
G2 X-52.2745 Y348.6335 I-14.5356 J-3.4021
G2 X-52.1978 Y348.2844 I-16.3559 J-3.7796
G2 X-52.1235 Y347.9406 I-18.9516 J-4.2755
G2 X-52.0532 Y347.6102 I-23.0949 J-5.0836
G2 X-52.0472 Y347.5815 I-103.7217 J-21.9022
G2 X-51.9384 Y347.0595 I-54.1128 J-11.5413
G2 X-51.4672 Y344.6236 I-103.8364 J-21.3515
G2 X-51.4194 Y344.3604 I-12.8253 J-2.4659
G2 X-51.3714 Y344.0928 I-12.4949 J-2.3809
G2 X-51.2917 Y343.6381 I-170.4784 J-30.0967
G2 X-50.8402 Y340.9116 I-142.4404 J-24.9861
G2 X-50.4595 Y338.3697 I-171.0096 J-26.9154
G2 X-50.4336 Y338.189 I-8.7085 J-1.3416
G2 X-50.4076 Y338.0069 I-8.7855 J-1.3469
G2 X-50.3815 Y337.8233 I-8.8677 J-1.353
G2 X-50.3553 Y337.6383 I-8.955 J-1.3598
G2 X-50.3291 Y337.4518 I-9.048 J-1.3675
G1 X-50.3278 Y337.4425
G1 X-50.3254 Y337.4253
G1 X-50.2266 Y336.7141
G1 X-50.1353 Y336.0471
G1 X-50.1197 Y335.931
G1 X-50.1099 Y335.8598
G1 X-50.0728 Y335.5821
G1 X-49.9672 Y334.7962
G1 X-49.9043 Y334.3201
G1 X-49.8831 Y334.161
G1 X-49.8637 Y334.0125
G1 X-49.8226 Y333.7013
G1 X-49.3224 Y329.8683
G1 X-49.196 Y328.9102
G3 X-49.1815 Y328.7976 I62.9121 J8.0228
G3 X-49.1023 Y328.2075 I367.2064 J48.9971
G1 X-48.9578 Y327.1395
G1 X-48.8052 Y326.0376
G1 X-48.6869 Y325.2034
G1 X-48.57 Y324.3956
G1 X-48.4546 Y323.6135
G1 X-48.2254 Y322.0987
G1 X-48.0042 Y320.6795
G1 X-47.7919 Y319.35
G1 X-47.5887 Y318.1042
G1 X-47.3949 Y316.9368
G1 X-47.2106 Y315.8427
G1 X-46.8591 Y313.7924
G1 X-46.546 Y311.9993
G1 X-46.2687 Y310.431
G1 X-45.7779 Y307.6874
G3 X-45.7364 Y307.4551 I267.3682 J47.6117
G3 X-45.7146 Y307.3353 I185.1168 J33.7408
G1 X-45.4305 Y305.7596
G1 X-45.4303 Y305.7587
G1 X-45.4301 Y305.7574
G1 X-45.3646 Y305.3941
G3 X-45.3592 Y305.3649 I57.0919 J10.4805
G3 X-45.3534 Y305.3321 I50.2784 J8.8888
G1 X-45.3039 Y305.0572
G3 X-45.2926 Y304.9958 I50.2231 J9.1965
G2 X-45.1676 Y304.3036 I-61.6339 J-11.4882
G2 X-45.0582 Y303.698 I-51.7855 J-9.6624
G2 X-44.9626 Y303.1681 I-44.8171 J-8.3606
G2 X-44.879 Y302.7044 I-39.5242 J-7.3658
G1 X-44.7539 Y302.0068
G1 X-44.5935 Y301.1167
G1 X-44.2969 Y299.458
G3 X-44.2039 Y299.0147 I7.9034 J1.4263
G3 X-44.1799 Y298.9201 I6.4318 J1.5805
G3 X-43.8976 Y298.0 I11.3815 J2.9892
G3 X-43.6439 Y297.3245 I22.1508 J7.9338
G1 X-43.4858 Y296.9322
G1 X-43.2872 Y296.4457
G2 X-43.2326 Y296.3123 I-2.5715 J-1.1308
G2 X-43.0213 Y295.7845 I-21.7218 J-9.0021
G2 X-43.0161 Y295.7711 I-0.951 J-0.3748
G2 X-42.9966 Y295.7202 I-21.9383 J-8.4609
G2 X-42.925 Y295.5313 I-6.0351 J-2.3926
G1 X-42.9194 Y295.5159
G2 X-42.8447 Y295.3125 I-22.035 J-8.2057
G1 X-42.5914 Y295.3477
G1 X-42.2115 Y295.4003
G1 X-41.8315 Y295.4526
G2 X-41.8177 Y296.0394 I13.9999 J-0.0371
G2 X-41.8014 Y296.3911 I20.7116 J-0.7827
G1 X-41.7847 Y296.808
G1 X-41.783 Y296.8589
G1 X-41.7796 Y296.9975
G3 X-41.7783 Y297.1974 I-10.0736 J0.1673
G3 X-41.788 Y297.5871 I-9.3646 J-0.0384
G3 X-41.8525 Y298.1699 I-5.3907 J-0.3018
G1 X-42.071 Y299.4032
G1 X-42.4862 Y301.7144
G1 X-42.8539 Y303.736
G1 X-43.1562 Y305.3864
G2 X-43.5174 Y307.3578 I857.5817 J158.1696
G2 X-43.6232 Y307.9362 I139.8205 J25.8649
G2 X-43.7369 Y308.558 I109.3347 J20.3227
G2 X-43.8434 Y309.141 I92.4473 J17.1862
G2 X-43.943 Y309.6875 I81.3903 J15.1196
G2 X-44.0363 Y310.2 I73.4633 J13.6284
G2 X-44.1235 Y310.6804 I67.4435 J12.4884
G2 X-44.7466 Y314.1601 I616.0595 J112.1108
G1 X-44.7924 Y314.4177
G1 X-44.9823 Y315.502
G1 X-45.1824 Y316.6589
G1 X-45.3275 Y317.5111
G2 X-45.3926 Y317.8936 I617.2635 J105.2801
G2 X-45.4945 Y318.5336 I33.4048 J5.6471
G2 X-45.6541 Y319.7523 I32.1268 J4.8264
G2 X-45.6828 Y320.0173 I33.6663 J3.7884
G2 X-45.8543 Y322.1538 I40.5321 J4.3278
G2 X-45.9086 Y323.4124 I42.2769 J2.4534
G2 X-45.9331 Y324.7954 I50.7759 J1.5932
G2 X-45.8866 Y325.1015 I1.0643 J-0.0053
G1 X-45.8862 Y325.1028
G2 X-45.8668 Y325.1624 I1.5273 J-0.4637
G1 X-45.8658 Y325.1653
G1 X-45.8648 Y325.1679
G2 X-45.8275 Y325.2641 I1.506 J-0.5289
G2 X-45.7338 Y325.4529 I1.5335 J-0.644
G2 X-45.6785 Y325.5478 I2.2718 J-1.2602
G2 X-45.6434 Y325.6036 I3.8714 J-2.3925
G2 X-45.4489 Y325.8845 I3.1125 J-1.9471
G2 X-45.4463 Y325.888 I3.6419 J-2.7292
G1 X-45.4318 Y325.907
G2 X-45.3604 Y326.0002 I37.781 J-28.8347
G1 X-45.2586 Y326.1333
G3 X-45.2344 Y326.1638 I-15.6175 J12.428
G2 X-45.2032 Y326.204 I37.5836 J-29.0915
G1 X-45.0622 Y326.3844
G3 X-45.0555 Y326.3929 I-4.645 J3.6835
G3 X-44.9744 Y326.4991 I-15.8206 J12.1684
G3 X-44.9375 Y326.5474 I-3.6505 J2.8253
G3 X-44.7095 Y326.8794 I-4.7698 J3.5204
G1 X-44.6249 Y326.7444
G1 X-44.4995 Y326.5497
G1 X-44.4333 Y326.4478
G1 X-44.1758 Y326.0563
G2 X-43.9288 Y325.6731 I-15.4599 J-10.2366
G1 X-43.907 Y325.6391
G2 X-43.7635 Y325.4045 I-9.4907 J-5.9684
G2 X-43.7567 Y325.3933 I-15.8722 J-9.5848
G2 X-43.6936 Y325.2855 I-8.1733 J-4.8546
G2 X-43.6541 Y325.2166 I-9.7041 J-5.6147
G1 X-43.6379 Y325.1874
G2 X-43.6029 Y325.1245 I-8.2921 J-4.6488
G1 X-43.5903 Y325.1018
G1 X-43.5842 Y325.0903
G2 X-43.5633 Y325.0518 I-8.3458 J-4.5516
G2 X-43.3882 Y324.7007 I-5.1613 J-2.793
G2 X-43.3549 Y324.6253 I-6.7623 J-3.033
G1 X-43.3232 Y324.5535
G2 X-43.2118 Y324.273 I-6.917 J-2.9092
G1 X-43.1958 Y324.229
G2 X-43.17 Y324.1578 I-6.9546 J-2.5613
G1 X-43.1668 Y324.1489
G2 X-43.161 Y324.1324 I-10.8161 J-3.7997
G2 X-43.1391 Y324.0694 I-6.9895 J-2.4648
G2 X-43.1351 Y324.0576 I-16.1219 J-5.419
G2 X-43.0129 Y323.6786 I-10.8477 J-3.7085
G1 X-43.0108 Y323.6715
G2 X-42.9357 Y323.4219 I-16.2503 J-5.0211
G2 X-42.9101 Y323.3351 I-1.601 J-0.5191
G1 X-42.7906 Y322.9313
G1 X-42.6921 Y322.6125
G3 X-42.6805 Y322.5744 I1.3224 J0.3824
G3 X-42.6744 Y322.5558 I9.7231 J3.1855
G3 X-42.6633 Y322.5242 I1.3047 J0.4392
G3 X-42.6521 Y322.4888 I1.1199 J0.3375
G3 X-42.6513 Y322.4865 I9.6946 J3.2711
G3 X-42.6413 Y322.4582 I1.1078 J0.3752
G3 X-42.6377 Y322.4466 I1.3636 J0.4137
G3 X-42.6087 Y322.3632 I9.6803 J3.3133
G3 X-42.6073 Y322.3595 I1.3311 J0.5088
G3 X-42.6063 Y322.3561 I1.3955 J0.4427
G3 X-42.5723 Y322.2612 I9.6488 J3.4038
G3 X-42.4486 Y322.0038 I1.5318 J0.5778
G3 X-42.4417 Y321.9912 I0.8813 J0.4689
G3 X-42.4304 Y321.9729 I1.3156 J0.8026
G3 X-42.3245 Y321.8053 I12.7615 J7.944
G1 X-42.2946 Y321.7587
G3 X-42.2913 Y321.7537 I12.6256 J8.1582
G2 X-42.2467 Y321.6851 I-5.1167 J-3.3755
G2 X-42.2125 Y321.6314 I-3.1728 J-2.0558
G2 X-42.1304 Y321.4935 I-1.6207 J-1.0589
G2 X-42.0239 Y321.2612 I-1.3563 J-0.7621
G2 X-41.1564 Y318.792 I-916.3072 J-323.3091
G2 X-40.2901 Y316.3223 I-939.9595 J-331.1119
G2 X-39.7282 Y314.7194 I-879.8665 J-309.3163
G1 X-39.6922 Y314.6167
G2 X-39.0803 Y312.8709 I-1317.9737 J-462.9495
G1 X-36.9654 Y306.8373
G3 X-33.7983 Y297.8491 I4093.5068 J1437.3444
G3 X-33.6327 Y297.447 I4.1042 J1.4551
G3 X-33.5722 Y297.3247 I3.7555 J1.7818
G3 X-33.3298 Y296.8814 I7.6579 J3.9002
G3 X-33.3263 Y296.8756 I5.4942 J3.2897
G1 X-33.1967 Y296.6607
G1 X-33.0559 Y296.4315
G1 X-33.009 Y296.3559
G2 X-32.9573 Y296.2727 I-2.1466 J-1.3931
G1 X-32.952 Y296.2642
G1 X-32.9221 Y296.2162
G2 X-32.7631 Y295.9563 I-11.4397 J-7.1809
G2 X-32.6055 Y295.6851 I-6.8486 J-4.1609
G1 X-31.8369 Y295.9292
G2 X-31.8788 Y296.243 I16.0518 J2.3047
G2 X-31.9245 Y296.6251 I25.0837 J3.1922
G1 X-32.0047 Y297.3219
G1 X-32.029 Y297.5208
G3 X-32.1024 Y298.0502 I-28.3191 J-3.6569
G3 X-32.2298 Y298.7401 I-10.2954 J-1.545
G3 X-32.2328 Y298.7534 I-9.7933 J-2.1745
G1 X-32.2754 Y298.936
G1 X-33.3898 Y303.4734
G1 X-35.3454 Y311.4126
G1 X-36.6172 Y316.5663
G1 X-37.3381 Y319.4871
G3 X-37.3658 Y319.5989 I-1153.3826 J-285.8003
G2 X-37.848 Y321.5525 I725.018 J180.0124
G2 X-38.2699 Y323.2618 I557.8895 J138.6038
G2 X-38.639 Y324.7575 I461.1841 J114.5954
G2 X-38.9619 Y326.0663 I395.5563 J98.2753
G2 X-39.2443 Y327.2115 I346.9215 J86.1656
G2 X-39.4914 Y328.2136 I308.8079 J76.6675
G2 X-39.9235 Y329.9672 I386.007 J96.0575
G2 X-40.2475 Y331.2825 I316.5044 J78.6532
G2 X-40.4903 Y332.2689 I264.2925 J65.5882
G2 X-40.8544 Y333.7487 I312.2909 J77.6235
G2 X-41.2183 Y335.2285 I300.5347 J74.6767
G1 X-41.2869 Y335.5092
G1 X-41.3334 Y335.7019
G1 X-41.3718 Y335.8601
G1 X-41.3873 Y335.9258
G1 X-41.4138 Y336.0358
G2 X-41.5278 Y336.522 I50.139 J12.0126
G2 X-41.6169 Y336.9155 I34.8185 J8.0907
G1 X-41.642 Y337.0316
G2 X-41.6995 Y337.2976 I50.3672 J11.0168
G1 X-41.7389 Y337.4804
G2 X-41.9079 Y338.3384 I27.3049 J5.8225
G2 X-42.127 Y339.7588 I25.9135 J4.7237
G2 X-42.1389 Y339.8692 I2.9345 J0.3733
G2 X-42.1477 Y340.2559 I2.485 J0.2501
G2 X-42.1001 Y340.6058 I1.8655 J-0.0756
G2 X-42.0852 Y340.6644 I1.4692 J-0.3423
G2 X-42.0838 Y340.67 I2.0341 J-0.52
G2 X-41.999 Y340.899 I1.2646 J-0.3377
G2 X-41.9984 Y340.9005 I1.3681 J-0.6356
G2 X-41.8233 Y341.1617 I0.8935 J-0.4096
G2 X-41.7059 Y341.2695 I0.7265 J-0.6731
G2 X-41.671 Y341.2944 I0.5653 J-0.7562
G2 X-41.6467 Y341.311 I0.5662 J-0.8035
G2 X-41.5041 Y341.3847 I0.5027 J-0.7978
G2 X-41.1813 Y341.4566 I0.3635 J-0.8714
G2 X-41.1689 Y341.4571 I0.0675 J-1.4455
G2 X-40.9728 Y341.4517 I0.0639 J-1.2321
G2 X-40.9537 Y341.4493 I-0.2241 J-1.8814
G2 X-40.8591 Y341.4356 I-0.16 J-1.4382
G2 X-40.5072 Y341.3351 I-0.3532 J-1.9031
G2 X-40.4579 Y341.315 I-1.1084 J-2.7909
G1 X-40.4362 Y341.3064
G2 X-40.2842 Y341.2364 I-0.6738 J-1.6629
G2 X-40.1367 Y341.1577 I-0.9392 J-1.9376
G2 X-39.4057 Y340.6816 I-3.4102 J-6.0346
G2 X-39.0648 Y340.4114 I-3.5727 J-4.858
G2 X-38.6096 Y339.9802 I-3.3921 J-4.0373
G2 X-38.5563 Y339.9235 I-4.3688 J-4.1567
G2 X-38.2842 Y339.5981 I-2.9999 J-2.7854
G2 X-38.1067 Y339.3427 I-2.5408 J-1.955
G2 X-37.8848 Y338.9209 I-2.521 J-1.5958
G1 X-37.4739 Y337.9495
G1 X-37.4404 Y337.8689
G1 X-37.3986 Y337.77
G2 X-37.3664 Y337.6931 I-1.82 J-0.807
G2 X-37.3321 Y337.6111 I-1.9381 J-0.858
G1 X-37.1505 Y337.1734
G1 X-37.1336 Y337.132
G1 X-37.1192 Y337.0974
G1 X-36.9663 Y336.7235
G1 X-36.931 Y336.6356
G1 X-36.9117 Y336.5884
G2 X-36.7926 Y336.2926 I-12.2965 J-5.1211
G2 X-36.6939 Y336.0422 I-18.321 J-7.365
G2 X-36.6332 Y335.8872 I-6.0507 J-2.4595
G2 X-36.5749 Y335.737 I-4.9133 J-1.9948
G2 X-36.1393 Y334.5659 I-35.3398 J-13.8113
G2 X-35.87 Y333.7823 I-28.4684 J-10.2198
G2 X-35.7907 Y333.5394 I-27.6736 J-9.1695
G2 X-35.4311 Y332.3329 I-25.772 J-8.3392
G2 X-35.408 Y332.2481 I-1.7993 J-0.5348
G2 X-35.4044 Y332.2347 I-27.39 J-7.3462
G2 X-35.3999 Y332.2178 I-28.1392 J-7.6218
G2 X-35.2155 Y331.4899 I-19.3609 J-5.2924
G2 X-35.1986 Y331.4169 I-2.5601 J-0.6313
G2 X-35.1554 Y331.2248 I-19.5622 J-4.4916
G1 X-35.1537 Y331.217
G2 X-35.0996 Y330.9668 I-22.3893 J-4.9752
G2 X-34.956 Y330.2804 I-1132.573 J-237.3135
G1 X-34.7988 Y329.529
G1 X-34.5096 Y328.1357
G1 X-34.4254 Y327.7259
G2 X-33.3245 Y322.3314 I-1133.2472 J-234.0726
G2 X-33.2083 Y321.7553 I-84.2564 J-17.2986
G2 X-33.0845 Y321.1407 I-90.4823 J-18.5429
G2 X-32.9527 Y320.4851 I-98.0314 J-20.0506
G2 X-32.8123 Y319.7857 I-107.4766 J-21.9361
G2 X-32.6628 Y319.0397 I-119.8065 J-24.3965
G2 X-32.5036 Y318.2438 I-136.9187 J-27.81
G2 X-32.3339 Y317.3949 I-163.0993 J-33.031
G2 X-32.1532 Y316.4894 I-211.136 J-42.608
G2 X-32.0722 Y316.0831 I-8104.0667 J-1616.2358
G1 X-32.0698 Y316.0711
G2 X-31.6883 Y314.157 I-625.4843 J-125.6455
G1 X-31.6757 Y314.0938
G2 X-31.5207 Y313.3164 I-191.3229 J-38.5508
G1 X-30.6402 Y308.8999
G3 X-30.5396 Y308.3953 I1408.4021 J280.4344
G3 X-30.519 Y308.2943 I90.1724 J18.3244
G3 X-30.4896 Y308.1446 I84.749 J16.5954
G3 X-30.4196 Y307.7945 I1408.2515 J281.1897
G3 X-30.3725 Y307.5628 I84.6496 J17.0952
G3 X-30.2303 Y306.8541 I80.0924 J15.6994
G3 X-30.0924 Y306.1676 I76.1229 J14.9402
G3 X-29.9585 Y305.5026 I72.6946 J14.2886
G3 X-29.8286 Y304.8584 I69.7004 J13.7231
G3 X-29.7024 Y304.2344 I67.0616 J13.228
G3 X-29.6582 Y304.0127 I64.7177 J12.7912
G3 X-29.6182 Y303.8151 I1407.4202 J285.3216
G3 X-29.58 Y303.63 I64.6334 J13.2105
G3 X-29.5515 Y303.4869 I62.6209 J12.4031
G3 X-29.4832 Y303.1506 I1407.3135 J285.8474
G3 X-29.4612 Y303.0445 I62.5241 J12.8825
G3 X-29.4435 Y302.9556 I60.7348 J12.0564
G3 X-29.3572 Y302.5317 I1407.2055 J286.3786
G3 X-29.3459 Y302.4773 I60.6308 J12.5692
G3 X-29.3364 Y302.4296 I59.0293 J11.7451
G3 X-29.2377 Y301.9462 I1407.0983 J286.9047
G3 X-29.2339 Y301.9279 I58.9211 J12.2762
G3 X-29.2306 Y301.9113 I57.4807 J11.4645
G3 X-29.1555 Y301.5438 I1406.9925 J287.423
G1 X-28.7531 Y299.5836
G1 X-28.3198 Y297.4936
G3 X-28.2864 Y297.333 I655.982 J136.1969
G3 X-28.2788 Y297.2972 I48.0552 J10.19
G3 X-25.585 Y284.9346 I643.3138 J133.7046
G3 X-24.614 Y281.2861 I54.6273 J12.5842
G3 X-24.5486 Y281.0726 I50.02 J15.2168
G1 X-24.378 Y280.5273
G3 X-23.9468 Y279.2251 I55.3406 J17.6031
G3 X-23.9341 Y279.1884 I52.9891 J18.2937
G1 X-23.7875 Y278.7694
G3 X-22.9082 Y276.4291 I62.1209 J22.003
G3 X-22.1566 Y274.619 I61.015 J24.2739
G3 X-20.7962 Y271.6597 I67.6482 J29.3058
G3 X-19.4674 Y269.0533 I77.4838 J37.8598
G3 X-18.6097 Y267.4788 I87.8287 J46.8258
G3 X-18.536 Y267.347 I75.2973 J42.0407
G3 X-18.5283 Y267.3333 I75.2235 J42.1726
G3 X-18.4429 Y267.1815 I86.1813 J48.3626
G3 X-17.0868 Y264.8514 I88.7488 J50.0926
G3 X-16.3271 Y263.6057 I89.8805 J53.961
G3 X-16.2301 Y263.4494 I8.2532 J5.0123
G3 X-16.1953 Y263.3928 I8.6592 J5.2833
G3 X-16.1554 Y263.3289 I83.8483 J52.3031
G3 X-16.1322 Y263.2921 I8.5845 J5.4038
G3 X-16.1168 Y263.2671 I9.1377 J5.6015
G3 X-16.0332 Y263.1338 I83.7698 J52.4289
G2 X-15.9974 Y263.0762 I-0.6949 J-0.4717
G2 X-15.9833 Y263.053 I-4.1978 J-2.5687
G2 X-15.9631 Y263.0193 I-0.7313 J-0.4609
G2 X-15.9178 Y262.9413 I-4.2321 J-2.5118
G1 X-15.8483 Y262.8244
G3 X-15.8356 Y262.8027 I1.54 J0.891
G3 X-15.7189 Y262.6311 I2.5154 J1.5845
G3 X-15.6372 Y262.5324 I1.4106 J1.0843
G3 X-15.6213 Y262.5151 I0.5379 J0.478
G3 X-15.5946 Y262.4891 I0.6735 J0.665
G3 X-15.4487 Y262.3813 I0.4932 J0.5151
G3 X-15.0885 Y262.2104 I2.2864 J4.3526
G3 X-15.0571 Y262.1977 I1.3922 J3.3983
G3 X-14.8264 Y262.1075 I3.4002 J8.3612
G3 X-14.8226 Y262.1062 I1.6641 J4.6264
G1 X-14.6079 Y262.0296
G1 X-14.3254 Y261.9341
G1 X-14.2942 Y261.9237
G2 X-14.1789 Y261.8851 I-0.6687 J-2.1887
G2 X-13.8345 Y261.7651 I-2.4382 J-7.5569
G2 X-13.8219 Y261.8915 I1.4107 J-0.077
G2 X-13.8052 Y262.0174 I1.8004 J-0.1744
G1 X-13.7989 Y262.057
G2 X-13.7828 Y262.1624 I6.4881 J-0.939
G1 X-13.7343 Y262.4596
G3 X-13.7246 Y262.5184 I-3.1975 J0.5572
G3 X-13.7068 Y262.6591 I-3.21 J0.4783
G3 X-13.6872 Y262.9597 I-2.7295 J0.3284
G3 X-13.6978 Y263.1481 I-1.3144 J0.0208
G3 X-13.7427 Y263.3589 I-1.3392 J-0.175
G3 X-13.8268 Y263.593 I-5.1571 J-1.7197
G3 X-13.9137 Y263.8004 I-4.2273 J-1.6502
G3 X-13.9153 Y263.8044 I-0.5905 J-0.2327
G3 X-13.9378 Y263.8542 I-5.0963 J-2.2779
G3 X-13.9418 Y263.862 I-0.5664 J-0.2865
G3 X-14.0505 Y264.0855 I-6.8272 J-3.18
G3 X-14.0831 Y264.1478 I-4.9611 J-2.5591
G3 X-14.1066 Y264.1941 I-3.4433 J-1.7182
G3 X-14.1723 Y264.316 I-6.6624 J-3.5121
G3 X-14.1795 Y264.3288 I-3.3541 J-1.8864
G1 X-14.2642 Y264.4828
G1 X-14.2857 Y264.5214
G1 X-14.3425 Y264.6233
G2 X-14.476 Y264.8636 I13.2176 J7.501
G2 X-14.6003 Y265.0943 I8.4854 J4.7209
G2 X-14.6617 Y265.214 I6.12 J3.2136
G2 X-14.6688 Y265.2281 I8.6711 J4.3705
G1 X-14.6706 Y265.2319
G2 X-14.739 Y265.3736 I6.1903 J3.076
G1 X-14.7584 Y265.4137
G2 X-14.7798 Y265.4606 I0.6433 J0.3224
G2 X-14.8111 Y265.5314 I0.8233 J0.4067
G2 X-14.8413 Y265.6025 I0.9108 J0.4283
G1 X-15.8181 Y267.9503
G2 X-16.0832 Y268.5874 I104.4233 J43.8206
G1 X-16.7095 Y270.0928
G2 X-16.9137 Y270.5841 I42.0405 J17.7569
G2 X-17.1145 Y271.0678 I36.8626 J15.5839
G2 X-17.3119 Y271.5441 I33.2378 J14.0567
G2 X-17.506 Y272.013 I30.5288 J12.9103
G2 X-17.6968 Y272.4748 I28.4134 J12.0104
G2 X-17.7906 Y272.7021 I19.1549 J8.0367
G2 X-17.8835 Y272.9277 I18.6136 J7.8047
G2 X-17.9757 Y273.1515 I18.1213 J7.5931
G2 X-18.0671 Y273.3736 I17.671 J7.3989
G2 X-18.1577 Y273.594 I17.2576 J7.2201
G2 X-18.2474 Y273.8128 I16.8774 J7.0549
G2 X-18.3364 Y274.0298 I16.5261 J6.9017
G2 X-18.4246 Y274.2453 I16.2011 J6.7594
G2 X-18.5121 Y274.459 I15.8994 J6.6267
G2 X-18.5987 Y274.6712 I15.619 J6.5028
G2 X-18.6846 Y274.8817 I15.3579 J6.3869
G2 X-18.7697 Y275.0906 I15.1144 J6.2782
G2 X-18.854 Y275.298 I14.8869 J6.1762
G2 X-18.9376 Y275.5037 I14.6745 J6.0803
G2 X-20.1301 Y278.4769 I279.8456 J113.972
G2 X-20.4669 Y279.3323 I260.3531 J102.9938
G1 X-20.8263 Y280.2539
G1 X-21.2059 Y281.2384
G1 X-21.3187 Y281.5347
G2 X-21.5206 Y282.0641 I282.2267 J107.9411
G2 X-21.6375 Y282.3733 I17.6252 J6.8403
G2 X-22.0363 Y283.4388 I193.5336 J73.0479
G2 X-22.6373 Y285.0783 I165.9018 J61.7427
G2 X-24.0405 Y289.1165 I150.6434 J54.6082
G1 X-24.0739 Y289.2178
G2 X-24.1526 Y289.4546 I167.9393 J55.9638
G2 X-24.2796 Y289.8408 I19.8238 J6.7333
G2 X-24.4076 Y290.2336 I18.4065 J6.214
G2 X-24.5519 Y290.6813 I131.2134 J42.5474
G1 X-24.5547 Y290.6898
G1 X-24.5578 Y290.6996
G2 X-24.7636 Y291.3475 I131.3636 J42.0814
G1 X-24.782 Y291.4054
G2 X-25.3733 Y293.3357 I121.0139 J38.1249
G2 X-25.5232 Y293.8417 I132.179 J39.4453
G2 X-25.59 Y294.07 I8.235 J2.5329
G1 X-25.6446 Y294.2602
G2 X-25.7882 Y294.7601 I121.8766 J35.2702
G1 X-25.8611 Y295.0142
G2 X-26.3407 Y296.761 I114.2755 J32.3106
G2 X-26.3544 Y296.8124 I122.5726 J32.7694
G1 X-26.3584 Y296.8276
G2 X-26.4135 Y297.0359 I114.7727 J30.4973
G2 X-27.1173 Y299.8586 I101.4029 J26.7821
G1 X-27.1209 Y299.8736
G1 X-27.1232 Y299.8837
G2 X-27.2496 Y300.4295 I102.1125 J23.9343
G1 X-27.2605 Y300.4766
G1 X-27.2778 Y300.5529
G2 X-27.3435 Y300.8436 I102.2671 J23.2651
G1 X-27.3628 Y300.9294
G1 X-27.3994 Y301.094
G2 X-27.4064 Y301.1258 I102.3887 J22.724
G1 X-27.4382 Y301.2693
G1 X-27.4486 Y301.3172
G2 X-27.531 Y301.6953 I102.4379 J22.5009
G1 X-27.5391 Y301.7335
G1 X-27.5491 Y301.7796
G1 X-27.6572 Y302.2905
G2 X-27.705 Y302.5287 I22.0955 J4.5565
G1 X-27.7146 Y302.5767
G1 X-27.7249 Y302.632
G2 X-27.7609 Y302.8259 I22.1632 J4.215
G1 X-27.7646 Y302.8457
G2 X-27.9087 Y303.7442 I23.2003 J4.181
G2 X-27.9133 Y303.7777 I2.4641 J0.3617
G2 X-27.9245 Y303.8591 I23.3491 J3.249
G1 X-27.976 Y304.2403
G1 X-28.0184 Y304.5742
G1 X-28.0215 Y304.6003
G2 X-28.108 Y305.3203 I66.6373 J8.365
G1 X-28.1591 Y305.7551
G3 X-28.1602 Y305.7645 I-57.4668 J-6.613
G3 X-28.3042 Y306.9131 I-68.7883 J-8.0423
G2 X-28.2083 Y306.9449 I0.936 J-2.6602
G2 X-28.1244 Y306.9727 I0.7966 J-2.2627
G2 X-27.5371 Y307.167 I24.8778 J-74.221
G1 X-27.4158 Y306.98
G3 X-27.4154 Y306.9794 I0.7414 J0.4506
G3 X-27.4138 Y306.977 I4.5097 J3.0584
G1 X-27.2016 Y306.6642
G2 X-27.1811 Y306.6347 I-11.1639 J-7.7522
G2 X-27.1669 Y306.614 I-1.4321 J-1.0022
G2 X-27.0918 Y306.5037 I-11.1986 J-7.702
G2 X-26.9055 Y306.2194 I-8.8451 J-6.0001
G2 X-26.8784 Y306.1767 I-11.46 J-7.3075
G2 X-26.6798 Y305.8335 I-3.9331 J-2.504
G2 X-26.5801 Y305.6299 I-3.7144 J-1.9465
G3 X-24.3155 Y300.8665 I130.5367 J59.1393
G3 X-24.2502 Y300.7359 I121.0162 J60.4514
G3 X-24.2435 Y300.7222 I5.0873 J2.4653
G3 X-24.1941 Y300.6235 I128.2001 J64.047
G3 X-24.1859 Y300.6074 I5.0313 J2.5777
G3 X-24.1774 Y300.5901 I5.1115 J2.4839
G3 X-24.1317 Y300.4989 I128.134 J64.1791
G3 X-24.1217 Y300.4794 I5.0573 J2.5924
G3 X-23.3059 Y298.8789 I134.0726 J67.3244
G3 X-23.0155 Y298.321 I127.2625 J65.8904
G3 X-22.8777 Y298.0571 I120.6545 J62.8691
G3 X-22.0127 Y296.4341 I132.8286 J69.7466
G3 X-19.9563 Y292.7432 I154.8118 J83.8363
G1 X-19.884 Y292.6172
G3 X-19.6339 Y292.183 I152.6831 J87.6533
G1 X-19.2393 Y291.5037
G3 X-19.1995 Y291.4355 I152.0384 J88.7668
G1 X-18.6766 Y290.5471
G1 X-18.0948 Y289.5717
G3 X-18.0776 Y289.5431 I155.9604 J93.5882
G3 X-18.0534 Y289.5029 I150.8767 J90.7273
G3 X-15.8056 Y285.8558 I183.6133 J110.648
G3 X-14.76 Y284.2141 I195.6942 J123.4894
G1 X-14.3511 Y283.5804
G3 X-14.2283 Y283.3908 I194.2397 J125.7648
G1 X-13.7091 Y282.5944
G1 X-13.1668 Y281.7702
G1 X-12.6555 Y280.9996
G1 X-12.31 Y280.4829
G3 X-9.3462 Y276.1457 I252.0508 J169.0559
G3 X-8.254 Y274.5889 I240.5182 J167.5797
G1 X-7.814 Y273.9666
G1 X-7.0409 Y272.8799
G1 X-6.4585 Y272.0667
G1 X-5.5812 Y270.8497
G1 X-4.6997 Y269.6357
G1 X-3.9394 Y268.5953
G1 X-3.224 Y267.6216
G1 X-2.5515 Y266.7103
G1 X-1.286 Y265.0049
G1 X-0.1749 Y263.5154
G1 X1.7754 Y260.9131
G1 X3.0276 Y259.2467
G1 X3.0288 Y259.245
G2 X3.5476 Y258.5549 I-187.6923 J-141.6183
G1 X4.6008 Y257.1529
G1 X4.7056 Y257.0134
G2 X5.0716 Y256.5258 I-89.6831 J-67.6927
G2 X5.3918 Y256.0989 I-74.9043 J-56.5167
G2 X5.9516 Y255.3518 I-88.7632 J-67.0945
G2 X6.3712 Y254.7911 I-70.4975 J-53.1913
G2 X6.6856 Y254.3704 I-58.1862 J-43.8188
G2 X7.1568 Y253.7391 I-68.331 J-51.4937
G2 X7.6274 Y253.1074 I-66.0836 J-49.7233
G2 X8.1816 Y252.3198 I-15.2244 J-11.3007
G1 X8.1879 Y252.3104
G2 X8.228 Y252.2507 I-28.376 J-19.1436
G1 X8.4177 Y251.9639
G1 X8.9152 Y251.2139
G3 X9.1959 Y250.8002 I52.6821 J35.4472
G1 X9.3027 Y250.6479
G1 X9.4183 Y250.4866
G1 X9.5438 Y250.3161
G1 X9.6804 Y250.1363
G1 X9.8296 Y249.9473
G2 X10.813 Y248.597 I-12.345 J-10.0244
G2 X10.983 Y248.3289 I-12.9241 J-8.3836
G2 X11.0141 Y248.2788 I-13.6505 J-8.5089
G2 X11.1886 Y247.9873 I-11.1812 J-6.8925
G2 X11.8289 Y246.7364 I-10.754 J-6.2931
G2 X11.8485 Y246.6921 I-11.996 J-5.3501
G2 X12.2338 Y245.6963 I-10.2967 J-4.5565
G2 X12.5575 Y244.5134 I-10.3339 J-3.4634
G2 X12.6993 Y243.6963 I-10.6491 J-2.2695
G2 X12.7934 Y242.5122 I-10.7369 J-1.4484
G2 X12.7936 Y242.5005 I-11.467 J-0.2539
G2 X12.7941 Y242.4811 I-10.8852 J-0.2566
G2 X12.7945 Y242.456 I-11.7896 J-0.2067
G2 X12.7702 Y241.4868 I-11.4681 J-0.1977
G1 X12.762 Y241.3749
G2 X12.7475 Y241.2071 I-12.3009 J0.9814
G2 X12.7172 Y240.9143 I-11.743 J1.0672
G0 Z0.125
G0 X-29.6606 Y318.5918
G0 Z0.0775
G1 Z0.0
G1 X-30.2637 Y318.4854
G1 X-30.3454 Y318.7564
G3 X-30.3692 Y318.8322 I-17.7192 J-5.5237
G1 X-30.4708 Y319.148
G2 X-30.5017 Y319.2426 I16.0637 J5.2849
G2 X-30.5146 Y319.2829 I1.4003 J0.4719
G2 X-30.5241 Y319.3127 I16.1074 J5.15
G2 X-30.5394 Y319.361 I1.1549 J0.3915
G2 X-30.6066 Y319.58 I16.1322 J5.0719
G1 X-30.622 Y319.63
G1 X-30.6376 Y319.6847
G2 X-30.6674 Y319.7878 I16.2304 J4.7482
G1 X-30.6753 Y319.8167
G1 X-30.6781 Y319.8267
G2 X-30.811 Y320.4258 I5.0868 J1.4428
G1 X-30.8785 Y320.846
G3 X-30.9698 Y321.4123 I-681.8788 J-109.6818
G2 X-31.1187 Y322.3371 I201.9817 J32.9837
G2 X-31.2581 Y323.2042 I144.2291 J23.6364
G2 X-31.3886 Y324.0171 I117.5578 J19.288
G2 X-31.5107 Y324.7792 I101.5475 J16.6547
G2 X-31.6248 Y325.4938 I90.6915 J14.8516
