( Made using CamBam - http://www.cambam.co.uk )
( Untitled 1/2/2014 11:56:59 AM )
( T0 : 0.0 )
G21 G90 G64 G40
G0 Z3.0
( T0 : 0.0 )
T0 M6
( Profile1 )
G17
M3 S1000
G0 X0.6797 Y49.957
G0 Z1.4
G1 F300.0 Z0.0
G1 F800.0 Y0.0
G1 X5.3203
G1 Y23.9063
G1 X30.7031
G1 Y0.0
G1 X35.3438
G1 Y49.957
G1 X30.7031
G1 Y28.0898
G1 X5.3203
G1 Y49.957
G1 X0.6797
G0 Z3.0
M5
M30
