( Made using CamBam - http://www.cambam.co.uk )
( Circle 12/31/2013 4:06:01 PM )
( T0 : 0.0 )
G21 G90 G64 G40
G0 Z3.0
( T0 : 0.0 )
T0 M6
( Profile1 )
G17
M3 S1000
G0 X-149.9916 Y21.7814
G0 Z1.4
G1 F300.0 Z0.0
G2 F2000.0 X-149.2692 Y22.2592 I1.3133 J-1.2007
G2 X-147.7988 Y22.4922 I1.3649 J-3.8569
G2 X-145.6016 Y21.0273 I0.1755 J-2.1171
G2 X-145.1396 Y17.7963 I-13.2423 J-3.542
G2 X-145.0645 Y14.5332 I-61.5166 J-3.0485
G1 Y9.7969
G1 X-150.8262
G1 Y14.5332
G2 X-150.7642 Y17.8912 I78.8674 J0.2234
G2 X-150.3379 Y21.2227 I14.1692 J-0.1201
G2 X-149.9916 Y21.7814 I1.6596 J-0.6419
G0 Z3.0
G0 X-44.8707 Y17.4152
G0 Z1.4
G1 F300.0 Z0.0
G2 F2000.0 X-44.8397 Y18.069 I55.2118 J-2.2933
G2 X-44.332 Y21.1738 I11.0178 J-0.2075
G2 X-43.3704 Y22.2068 I1.887 J-0.7926
G2 X-41.9883 Y22.4922 I1.2944 J-2.7788
G2 X-39.6934 Y21.1738 I0.2539 J-2.2146
G2 X-39.2278 Y18.0658 I-11.4945 J-3.3105
G2 X-39.1563 Y14.9238 I-60.1012 J-2.9412
G1 Y-14.959
G2 X-39.24 Y-17.7158 I-39.8885 J-0.1675
G2 X-39.7422 Y-20.4277 I-9.2316 J0.3069
G2 X-40.6852 Y-21.432 I-1.7588 J0.7066
G2 X-42.0371 Y-21.6973 I-1.2622 J2.8557
G2 X-44.332 Y-20.3301 I-0.2127 J2.2527
G2 X-44.8338 Y-17.3475 I10.6682 J3.3282
G2 X-44.918 Y-14.3242 I47.3636 J2.8315
G1 Y14.9238
G2 X-44.8707 Y17.4152 I55.2591 J0.1981
G0 Z3.0
G0 X114.9817 Y15.711
G0 Z1.4
G1 F300.0 Z0.0
G2 F2000.0 X115.0572 Y18.069 I55.2563 J-0.5891
G2 X115.5649 Y21.1738 I11.0178 J-0.2075
G2 X116.5265 Y22.2068 I1.887 J-0.7926
G2 X117.9086 Y22.4922 I1.2944 J-2.7788
G2 X120.2035 Y21.1738 I0.2539 J-2.2146
G2 X120.6691 Y18.0658 I-11.4945 J-3.3105
G2 X120.7406 Y14.9238 I-60.1012 J-2.9412
G1 Y-14.959
G2 X120.6569 Y-17.7158 I-39.8885 J-0.1675
G2 X120.1547 Y-20.4277 I-9.2316 J0.3069
G2 X119.2117 Y-21.432 I-1.7588 J0.7066
G2 X117.8598 Y-21.6973 I-1.2622 J2.8557
G2 X115.5649 Y-20.3301 I-0.2127 J2.2527
G2 X115.0631 Y-17.3475 I10.6682 J3.3282
G2 X114.9789 Y-14.3242 I47.3636 J2.8315
G1 Y14.9238
G2 X114.9817 Y15.711 I55.2591 J0.1981
G0 Z3.0
G0 X229.2856
G0 Z1.4
G1 F300.0 Z0.0
G1 F2000.0 Y16.4863
G2 X229.3675 Y18.9531 I32.506 J0.1543
G2 X229.8715 Y21.3691 I7.1888 J-0.2388
G2 X230.9107 Y22.2653 I1.7617 J-0.9924
G2 X232.2641 Y22.4922 I1.2698 J-3.4241
G2 X234.6567 Y21.2715 I0.2806 J-2.405
G2 X235.195 Y18.9082 I-6.6061 J-2.748
G2 X235.2914 Y16.4863 I-26.708 J-2.2756
G1 Y-13.4941
G2 X235.0507 Y-18.6512 I-43.737 J-0.5425
G2 X234.6567 Y-20.3301 I-6.7301 J0.6938
G2 X233.5997 Y-21.4085 I-1.9758 J0.8792
G2 X232.1176 Y-21.6973 I-1.3875 J3.174
G2 X229.8715 Y-20.4766 I-0.2282 J2.2568
G2 X229.3715 Y-17.8875 I8.2347 J2.9331
G2 X229.2856 Y-15.252 I35.3557 J2.4721
G1 Y15.711
G0 Z3.0
G0 X235.2914 Y28.6445
G0 Z1.4
G1 F300.0 Z0.0
G3 F2000.0 X229.725 Y32.5996 I-12.2346 J-11.3245
G3 X223.0356 Y33.9668 I-6.4926 J-14.7185
G3 X214.8813 Y31.5742 I-0.3544 J-13.8841
G3 X212.2198 Y29.2129 I7.3663 J-10.9834
G3 X210.4867 Y26.1055 I6.8136 J-5.8369
G3 X209.7103 Y20.835 I25.486 J-6.447
G3 X209.559 Y15.5098 I83.0963 J-5.0257
G1 Y-14.8125
G3 X209.7143 Y-20.0159 I77.5403 J-0.2895
G3 X210.4867 Y-25.1641 I26.1275 J1.2881
G3 X212.1987 Y-28.3284 I9.0109 J2.8297
G3 X214.8324 Y-30.7793 I10.5446 J8.6909
G3 X222.7914 Y-33.1719 I7.6497 J11.0127
G3 X229.3344 Y-31.707 I0.0238 J15.2386
G3 X235.2914 Y-27.3125 I-8.9675 J18.3907
G1 Y-32.0
G1 X255.018
G1 Y47.0527
G1 X235.2914
G1 Y28.6445
G0 Z3.0
G0 X203.0649
G0 Z1.4
G1 F300.0 Z0.0
G1 F2000.0 Y47.0527
G1 X182.7524
G1 Y-32.0
G1 X203.0649
G1 Y28.6445
G0 Z3.0
G0 X178.3578
G0 Z1.4
G1 F300.0 Z0.0
G1 F2000.0 Y33.9668
G3 X170.738 Y30.895 I0.7728 J-12.904
G3 X165.9067 Y24.25 I12.9577 J-14.4998
G1 X166.6879 Y32.7949
G1 X146.9613
G1 Y-32.0
G1 X166.6879
G1 Y-6.4141
G2 X166.7674 Y-0.3978 I199.8684 J0.3662
G2 X167.2738 Y5.5977 I41.0778 J-0.4505
G2 X170.3988 Y9.6992 I6.0116 J-1.339
G2 X174.2917 Y10.9025 I5.2155 J-9.9744
G2 X178.3578 Y11.1641 I3.8507 J-28.1254
G1 Y28.6445
G0 Z3.0
G0 X139.6524 Y19.638
G0 Z1.4
G1 F300.0 Z0.0
G3 F2000.0 X139.4906 Y20.2949 I-25.795 J-6.0023
G3 X135.975 Y26.8379 I-17.2417 J-5.0482
G3 X132.6094 Y29.8628 I-11.8569 J-9.8077
G3 X128.602 Y31.9648 I-12.2616 J-18.505
G3 X123.0128 Y33.5301 I-9.3296 J-22.5527
G3 X117.225 Y33.9668 I-5.6069 J-35.7366
G3 X110.522 Y33.3105 I-0.2511 J-31.9947
G3 X104.2367 Y30.8906 I4.0531 J-19.8996
G3 X97.2055 Y22.7363 I8.0925 J-14.0865
G3 X95.6253 Y15.7642 I27.5541 J-9.9101
G3 X95.2524 Y8.625 I61.9392 J-6.8148
G1 Y-7.9766
G3 X95.4434 Y-14.2077 I91.4525 J-0.314
G3 X96.3266 Y-20.3789 I35.7371 J1.9654
G3 X99.891 Y-27.4102 I17.0503 J4.2245
G3 X103.1373 Y-30.0617 I9.9807 J8.9065
G3 X106.9711 Y-31.7559 I9.5033 J16.3202
G3 X118.0551 Y-33.1719 I10.3172 J36.6707
G3 X128.4067 Y-31.5117 I0.5104 J29.9201
G3 X135.8285 Y-26.2871 I-5.8626 J16.2121
G3 X139.5883 Y-18.6699 I-13.9913 J11.6424
G3 X140.3166 Y-12.2688 I-43.142 J8.1508
G3 X140.4672 Y-5.8281 I-123.5373 J6.1103
G1 Y10.041
G3 X140.2954 Y15.1981 I-69.3866 J0.2697
G3 X139.6524 Y19.638 I-26.4381 J-1.5624
G0 Z3.0
G0 X89.8595 Y25.42
G0 Z1.4
G1 F300.0 Z0.0
G1 F2000.0 X92.3715 Y47.0527
G1 X72.4008
G3 X66.6391 Y-9.0996 I670.1257 J-97.1325
G1 X64.393 Y20.9785
G3 X62.1469 Y47.0527 I-2167.4301 J-173.5736
G1 X40.7602
G3 X37.4243 Y19.9813 I1052.1921 J-143.3985
G3 X35.0961 Y-7.1953 I515.7815 J-57.8739
G1 X32.9965 Y19.4648
G1 X30.8481 Y47.0527
G1 X10.8774
G1 X20.057 Y-32.0
G1 X45.5942
G3 X51.307 Y9.4551 I-2929.5676 J424.8425
G3 X57.5082 Y-32.0 I559.865 J62.5576
G1 X83.1918
G1 X89.8595 Y25.42
G0 Z3.0
G0 X-19.6544 Y15.9236
G0 Z1.4
G1 F300.0 Z0.0
G3 F2000.0 X-20.4063 Y20.2949 I-26.3852 J-2.288
G3 X-23.9219 Y26.8379 I-17.2417 J-5.0482
G3 X-27.2875 Y29.8628 I-11.8569 J-9.8077
G3 X-31.2949 Y31.9648 I-12.2616 J-18.505
G3 X-36.8841 Y33.5301 I-9.3296 J-22.5527
G3 X-42.6719 Y33.9668 I-5.6069 J-35.7366
G3 X-49.3749 Y33.3105 I-0.2511 J-31.9947
G3 X-55.6602 Y30.8906 I4.0531 J-19.8996
G3 X-62.6914 Y22.7363 I8.0925 J-14.0865
G3 X-64.2716 Y15.7642 I27.5541 J-9.9101
G3 X-64.6445 Y8.625 I61.9392 J-6.8148
G1 Y-7.9766
G3 X-64.4534 Y-14.2077 I91.4525 J-0.314
G3 X-63.5703 Y-20.3789 I35.7371 J1.9654
G3 X-60.0059 Y-27.4102 I17.0503 J4.2245
G3 X-56.7596 Y-30.0617 I9.9807 J8.9065
G3 X-52.9258 Y-31.7559 I9.5033 J16.3202
G3 X-41.8418 Y-33.1719 I10.3172 J36.6707
G3 X-31.4902 Y-31.5117 I0.5104 J29.9201
G3 X-24.0684 Y-26.2871 I-5.8626 J16.2121
G3 X-20.3086 Y-18.6699 I-13.9913 J11.6424
G3 X-19.5803 Y-12.2688 I-43.142 J8.1508
G3 X-19.4297 Y-5.8281 I-123.5373 J6.1103
G1 Y10.041
G3 X-19.6015 Y15.1981 I-69.3866 J0.2697
G3 X-19.6544 Y15.9236 I-26.4381 J-1.5624
G0 Z3.0
G0 X-71.1387
G0 Z1.4
G1 F300.0 Z0.0
G1 F2000.0 Y47.0527
G1 X-91.4512
G1 Y-32.0
G1 X-71.1387
G1 Y15.9236
G0 Z3.0
G0 X-98.5313
G0 Z1.4
G1 F300.0 Z0.0
G1 F2000.0 Y47.0527
G1 X-118.8438
G1 Y-32.0
G1 X-98.5313
G1 Y15.9236
G0 Z3.0
G0 X-125.5253 Y13.512
G0 Z1.4
G1 F300.0 Z0.0
G3 F2000.0 X-125.7058 Y15.2462 I-59.5725 J-5.3223
G3 X-127.4863 Y22.4434 I-27.4764 J-2.9786
G3 X-130.5609 Y27.2614 I-14.824 J-6.0698
G3 X-135.0547 Y30.793 I-13.8343 J-12.9786
G3 X-141.6796 Y33.2889 I-10.9001 J-18.8922
G3 X-148.7266 Y33.9668 I-6.7856 J-33.5703
G3 X-160.7383 Y31.3301 I-0.5047 J-26.3791
G3 X-168.2578 Y23.8105 I6.6372 J-14.1567
G3 X-170.1037 Y17.2409 I21.6714 J-9.6332
G3 X-170.5527 Y10.4316 I46.805 J-6.5059
G1 Y-8.4648
G3 X-170.3658 Y-14.0127 I74.2996 J-0.2737
G3 X-169.5273 Y-19.5 I30.947 J1.921
G3 X-165.8652 Y-26.4336 I17.6524 J4.8895
G3 X-158.3945 Y-31.3652 I13.3925 J12.1634
G3 X-147.3594 Y-33.1719 I10.4917 J29.4789
G3 X-141.9239 Y-32.7941 I0.1994 J36.4177
G3 X-136.666 Y-31.3652 I-3.0578 J21.6412
G3 X-129.5859 Y-25.8477 I-6.7926 J16.0174
G3 X-127.4686 Y-22.5889 I-19.3714 J14.9036
G3 X-126.0703 Y-18.9629 I-12.9053 J7.0592
G3 X-125.4325 Y-14.3696 I-28.0714 J6.2391
G3 X-125.2891 Y-9.7344 I-67.5596 J4.4098
G1 Y-4.9492
G1 X-143.9902
G1 Y-13.4941
G2 X-144.1098 Y-16.798 I-40.2624 J-0.1971
G2 X-144.7715 Y-20.0371 I-10.9215 J0.5439
G2 X-145.996 Y-21.3421 I-2.3585 J0.9861
G2 X-147.75 Y-21.6973 I-1.641 J3.5955
G2 X-150.1914 Y-20.4277 I-0.2613 J2.4798
G2 X-150.7368 Y-17.6213 I8.4264 J3.0938
G2 X-150.8262 Y-14.7637 I39.9826 J2.6803
G1 Y-0.75
G1 X-125.2891
G1 Y7.8438
G3 X-125.5253 Y13.512 I-59.8087 J0.3459
G0 Z3.0
G0 X-177.6328
G0 Z1.4
G1 F300.0 Z0.0
G1 F2000.0 Y47.0527
G1 X-198.1895
G1 Y18.7813
G1 X-204.3418
G1 Y47.0527
G1 X-224.8984
G1 Y-32.0
G1 X-204.3418
G1 Y1.2031
G1 X-198.1895
G1 Y-32.0
G1 X-177.6328
G1 Y13.512
G0 Z3.0
M5
M30
