( Made using CamBam - http://www.cambam.co.uk )
( Qiaofeng_3Mx3M 1/16/2014 12:20:00 PM )
( T0 : 0.0 )
G21 G90 G64 G40
G0 Z5.0
( T0 : 0.0 )
T0 M6
( Profile1 )
G17
M3 S1000
G0 X35.0442 Y-30.1293
G1 F2000.0 Z0.0
G3 X33.2926 Y-31.8808 I-0.0003 J-1.7512
G3 X35.0442 Y-33.6323 I1.7515 J0.0
G3 X36.7957 Y-31.8808 I-0.0002 J1.7517
G3 X35.0442 Y-30.1293 I-1.7513 J0.0002
G0 Z5.0
G0 X36.3549 Y-28.9447
G1 Z0.0
G3 X37.5122 Y-29.4587 I1.1573 J1.0459
G3 X39.0721 Y-27.8987 I0.0 J1.5599
G3 X37.5122 Y-26.3388 I-1.5597 J0.0002
G3 X35.9523 Y-27.8987 I-0.0001 J-1.5598
G3 X36.3549 Y-28.9447 I1.5599 J-0.0002
G0 Z5.0
G0 X33.6988 Y-28.3333
G1 Z0.0
G3 X33.7401 Y-27.9698 I-1.5804 J0.3638
G3 X32.1186 Y-26.3487 I-1.6212 J-0.0001
G3 X30.4975 Y-27.9698 I-0.0002 J-1.6209
G3 X32.1186 Y-29.5913 I1.6215 J0.0001
G3 X33.6988 Y-28.3333 I-0.0002 J1.6217
G0 Z5.0
G0 X34.1021 Y-25.5078
G1 Z0.0
G3 X34.3237 Y-25.5235 I0.2215 J1.5519
G3 X35.8914 Y-23.9561 I0.0002 J1.5675
G3 X34.3237 Y-22.3885 I-1.5675 J0.0002
G3 X32.756 Y-23.9561 I0.0002 J-1.5679
G3 X34.1021 Y-25.5078 I1.5677 J0.0003
G0 Z5.0
G0 X30.2353 Y-24.4747
G1 Z0.0
G3 X30.2846 Y-24.1 I-1.4036 J0.375
G3 X28.832 Y-22.6473 I-1.4525 J0.0001
G3 X27.3794 Y-24.1 I0.0001 J-1.4527
G3 X28.832 Y-25.5526 I1.4527 J0.0001
G3 X30.2353 Y-24.4747 I-0.0003 J1.4529
G0 Z5.0
G0 X30.4085 Y-20.9481
G1 Z0.0
G3 X30.4688 Y-20.9496 I0.06 J1.2213
G3 X31.6915 Y-19.7269 I-0.0001 J1.2228
G3 X30.4688 Y-18.504 I-1.2227 J0.0001
G3 X29.2458 Y-19.7269 I-0.0001 J-1.223
G3 X30.4085 Y-20.9481 I1.2227 J0.0
G0 Z5.0
G0 X34.2158 Y-19.8971
G1 Z0.0
G3 X35.6456 Y-20.9859 I1.4301 J0.3948
G3 X37.129 Y-19.5027 I0.0 J1.4835
G3 X35.6456 Y-18.0194 I-1.4833 J-0.0001
G3 X34.1623 Y-19.5027 I0.0 J-1.4833
G3 X34.2158 Y-19.8971 I1.4835 J0.0003
G0 Z5.0
G0 X33.4753 Y-16.0894
G1 Z0.0
G3 X34.4335 Y-14.9266 I-0.2261 J1.1625
G3 X33.2489 Y-13.7426 I-1.1844 J-0.0003
G3 X32.0649 Y-14.9266 I-0.0001 J-1.184
G3 X33.2489 Y-16.1111 I1.184 J-0.0005
G3 X33.4753 Y-16.0894 I0.0003 J1.1842
G0 Z5.0
G0 X37.8284 Y-16.3266
G1 Z0.0
G3 X37.8262 Y-16.4064 I1.4659 J-0.0799
G3 X39.2943 Y-17.8743 I1.4678 J-0.0002
G3 X40.7623 Y-16.4064 I0.0002 J1.4677
G3 X39.2943 Y-14.9384 I-1.4681 J-0.0001
G3 X37.8284 Y-16.3266 I-0.0001 J-1.4681
G0 Z5.0
G0 X37.8989 Y-13.4508
G1 Z0.0
G3 X37.9322 Y-13.4512 I0.0339 J1.3837
G3 X39.3157 Y-12.0673 I-0.0002 J1.3837
G3 X37.9322 Y-10.6838 I-1.3834 J0.0001
G3 X36.5486 Y-12.0673 I-0.0002 J-1.3833
G3 X37.8989 Y-13.4508 I1.3841 J0.0003
G0 Z5.0
G0 X41.3892 Y-10.1586
G1 Z0.0
G3 X42.4069 Y-10.5976 I1.0175 J0.9597
G3 X43.8061 Y-9.1987 I0.0001 J1.3991
G3 X42.4069 Y-7.7996 I-1.3996 J-0.0004
G3 X41.0081 Y-9.1987 I0.0003 J-1.3991
G3 X41.3892 Y-10.1586 I1.3987 J-0.0002
G0 Z5.0
G0 X43.602 Y-12.8612
G1 Z0.0
G3 X43.0808 Y-13.9615 I0.9009 J-1.1003
G3 X44.5028 Y-15.3835 I1.4221 J0.0001
G3 X45.9248 Y-13.9615 I-0.0001 J1.4221
G3 X44.5028 Y-12.5395 I-1.4221 J-0.0001
G3 X43.602 Y-12.8612 I0.0001 J-1.4221
G0 Z5.0
G0 X46.876 Y-10.8061
G1 Z0.0
G3 X48.0287 Y-11.4435 I1.1526 J0.7235
G3 X49.3891 Y-10.0828 I-0.0005 J1.3608
G3 X48.0287 Y-8.7221 I-1.3604 J0.0003
G3 X46.6678 Y-10.0828 I-0.0003 J-1.3606
G3 X46.876 Y-10.8061 I1.3608 J0.0001
G0 Z5.0
G0 X47.2023 Y-6.7116
G1 Z0.0
G3 X47.3133 Y-6.7161 I0.1111 J1.3946
G3 X48.7126 Y-5.3172 I0.0001 J1.3992
G3 X47.3133 Y-3.9179 I-1.3995 J-0.0002
G3 X45.9144 Y-5.3172 I0.0004 J-1.3992
G3 X47.2023 Y-6.7116 I1.399 J0.0001
G0 Z5.0
G0 X51.3253 Y-6.2528
G1 Z0.0
G3 X53.1726 Y-7.9057 I1.847 J0.2055
G3 X55.0315 Y-6.0471 I0.0005 J1.8584
G3 X53.1726 Y-4.188 I-1.859 J0.0001
G3 X51.3139 Y-6.0471 I0.0002 J-1.8589
G3 X51.3253 Y-6.2528 I1.8584 J-0.0002
G0 Z5.0
G0 X55.4132 Y-6.9443
G1 Z0.0
G3 X55.3825 Y-7.3108 I2.1649 J-0.3662
G3 X57.5789 Y-9.5071 I2.1961 J-0.0002
G3 X59.7748 Y-7.3108 I0.0 J2.1959
G3 X57.5789 Y-5.1149 I-2.196 J-0.0001
G3 X55.4132 Y-6.9443 I-0.0007 J-2.1957
G0 Z5.0
G0 X51.5357 Y-1.6033
G1 Z0.0
G3 X52.1157 Y-0.4647 I-0.8262 J1.138
G3 X50.7091 Y0.9419 I-1.4068 J-0.0001
G3 X49.3027 Y-0.4647 I-0.0001 J-1.4063
G3 X50.7091 Y-1.8716 I1.4066 J-0.0003
G3 X51.5357 Y-1.6033 I0.0004 J1.4062
G0 Z5.0
G0 X54.6298 Y1.3202
G1 Z0.0
G3 X55.9641 Y0.7452 I1.3344 J1.2609
G3 X57.8001 Y2.5809 I0.0001 J1.8358
G3 X55.9641 Y4.4172 I-1.8362 J0.0
G3 X54.1283 Y2.5809 I0.0001 J-1.8358
G3 X54.6298 Y1.3202 I1.8359 J0.0001
G0 Z5.0
G0 X52.5924 Y4.2557
G1 Z0.0
G3 X53.1805 Y5.3797 I-0.78 J1.1239
G3 X51.8121 Y6.7483 I-1.3684 J0.0001
G3 X50.4439 Y5.3797 I0.0 J-1.3683
G3 X51.8121 Y4.0115 I1.3682 J0.0
G3 X52.5924 Y4.2557 I0.0004 J1.368
G0 Z5.0
G0 X48.4432 Y4.4733
G1 Z0.0
G3 X48.445 Y4.5407 I-1.2825 J0.0673
G3 X47.1612 Y5.8245 I-1.2838 J0.0
G3 X45.8769 Y4.5407 I-0.0002 J-1.2841
G3 X47.1612 Y3.2564 I1.2841 J-0.0002
G3 X48.4432 Y4.4733 I-0.0004 J1.2842
G0 Z5.0
G0 X49.1708 Y8.9251
G1 Z0.0
G3 X49.3831 Y8.9079 I0.212 J1.2973
G3 X50.6981 Y10.2223 I0.0002 J1.3147
G3 X49.3831 Y11.5372 I-1.3147 J0.0002
G3 X48.0684 Y10.2223 I-0.0001 J-1.3147
G3 X49.1708 Y8.9251 I1.3145 J0.0001
G0 Z5.0
G0 X54.4254 Y9.021
G1 Z0.0
G3 X55.6863 Y7.783 I1.2607 J0.023
G3 X56.9472 Y9.044 I0.0003 J1.2607
G3 X55.6863 Y10.3051 I-1.2609 J0.0002
G3 X54.4252 Y9.044 I0.0002 J-1.2613
G3 X54.4254 Y9.021 I1.261 J0.0
G0 Z5.0
G0 X54.1415 Y12.8527
G1 Z0.0
G3 X55.3734 Y14.1792 I-0.0983 J1.3265
G3 X54.0433 Y15.5091 I-1.3301 J-0.0002
G3 X52.713 Y14.1792 I0.0001 J-1.3303
G3 X54.0433 Y12.8491 I1.3303 J0.0003
G3 X54.1415 Y12.8527 I0.0 J1.3301
G0 Z5.0
G0 X50.8066 Y15.481
G1 Z0.0
G3 X51.0525 Y16.1903 I-0.8999 J0.7092
G3 X49.9066 Y17.3364 I-1.1459 J0.0002
G3 X48.7605 Y16.1903 I0.0001 J-1.1461
G3 X49.9066 Y15.0444 I1.1461 J0.0002
G3 X50.8066 Y15.481 I0.0002 J1.1457
G0 Z5.0
G0 X54.3037 Y19.0512
G1 Z0.0
G3 X55.1701 Y18.6976 I0.8662 J0.8843
G3 X56.4084 Y19.9354 I0.0 J1.2383
G3 X55.1701 Y21.1738 I-1.2382 J0.0001
G3 X53.9321 Y19.9354 I0.0001 J-1.2381
G3 X54.3037 Y19.0512 I1.2379 J0.0001
G0 Z5.0
G0 X51.3516 Y22.0671
G1 Z0.0
G3 X51.627 Y22.7218 I-0.6412 J0.655
G3 X50.711 Y23.6378 I-0.9156 J0.0003
G3 X49.7947 Y22.7218 I-0.0003 J-0.916
G3 X50.711 Y21.8056 I0.9163 J0.0001
G3 X51.3516 Y22.0671 I-0.0006 J0.9166
G0 Z5.0
G0 X54.0881 Y26.1729
G1 Z0.0
G3 X54.7194 Y25.9818 I0.6312 J0.947
G3 X55.858 Y27.12 I0.0001 J1.1385
G3 X54.7194 Y28.2585 I-1.1385 J0.0
G3 X53.5812 Y27.12 I0.0 J-1.1383
G3 X54.0881 Y26.1729 I1.1381 J0.0
G0 Z5.0
G0 X57.5155 Y24.5463
G1 Z0.0
G3 X57.3397 Y23.7659 I1.6451 J-0.7807
G3 X59.1601 Y21.9453 I1.8205 J-0.0002
G3 X60.9808 Y23.7659 I0.0002 J1.8205
G3 X59.1601 Y25.5866 I-1.8207 J0.0
G3 X57.5155 Y24.5463 I0.0005 J-1.821
G0 Z5.0
G0 X59.1302 Y26.2626
G1 Z0.0
G3 X60.6718 Y25.6514 I1.5417 J1.6386
G3 X62.052 Y26.1244 I0.0 J2.25
G3 X61.7432 Y25.0185 I1.826 J-1.1058
G3 X63.8779 Y22.8835 I2.1348 J-0.0002
G3 X66.0127 Y25.0185 I0.0 J2.1348
G3 X63.8779 Y27.1533 I-2.135 J-0.0001
G3 X62.585 Y26.7172 I0.0001 J-2.1347
G3 X62.9218 Y27.9011 I-1.9132 J1.1842
G3 X61.0042 Y30.1262 I-2.2496 J0.0001
G3 X61.387 Y31.3438 I-1.7441 J1.2175
G3 X60.2382 Y33.2324 I-2.1271 J-0.0002
G3 X61.0233 Y33.7497 I-0.8395 J2.1286
G3 X60.999 Y33.4169 I2.256 J-0.3325
G3 X63.2793 Y31.1365 I2.2804 J0.0001
G3 X63.6361 Y31.1646 I-0.0002 J2.2806
G3 X62.8384 Y29.4603 I1.4216 J-1.7042
G3 X65.0576 Y27.2412 I2.2191 J0.0
G3 X67.2767 Y29.4603 I0.0002 J2.2189
G3 X65.0576 Y31.6797 I-2.2191 J0.0003
G3 X64.7268 Y31.6549 I0.0001 J-2.2193
G3 X65.5597 Y33.4169 I-1.4477 J1.7622
G3 X63.2793 Y35.6975 I-2.2805 J0.0002
G3 X61.6621 Y35.0248 I0.0 J-2.2804
G3 X61.6869 Y35.361 I-2.2634 J0.3362
G3 X61.6317 Y35.8601 I-2.288 J-0.0003
G3 X62.3943 Y35.7295 I0.7621 J2.157
G3 X64.4649 Y37.0439 I0.0 J2.2882
G3 X64.4329 Y36.6633 I2.2486 J-0.3809
G3 X66.7136 Y34.383 I2.2809 J0.0006
G3 X66.9675 Y34.3971 I0.0 J2.2803
G3 X66.1942 Y32.7136 I1.4457 J-1.6834
G3 X68.4132 Y30.4945 I2.2191 J0.0
G3 X70.6323 Y32.7136 I0.0 J2.2191
G3 X68.4132 Y34.9327 I-2.2187 J0.0004
G3 X68.1847 Y34.9209 I-0.0001 J-2.219
G3 X68.9939 Y36.6633 I-1.4711 J1.7424
G3 X68.3569 Y38.2441 I-2.2806 J-0.0003
G3 X69.4489 Y37.9535 I1.0918 J1.9057
G3 X70.191 Y38.0826 I0.0003 J2.1956
G3 X69.3179 Y36.33 I1.3231 J-1.753
G3 X71.5141 Y34.1337 I2.1962 J-0.0001
G3 X73.7101 Y36.33 I0.0 J2.196
G3 X71.5141 Y38.5259 I-2.196 J-0.0001
G3 X70.772 Y38.3967 I0.0 J-2.1963
G3 X71.6448 Y40.1494 I-1.3228 J1.7524
G3 X71.3323 Y41.2786 I-2.1965 J-0.0002
G3 X71.7953 Y41.2299 I0.463 J2.1781
G3 X74.0222 Y43.4568 I-0.0004 J2.2273
G3 X73.0766 Y45.2781 I-2.2264 J0.0002
G3 X74.3843 Y47.3014 I-0.9115 J2.0233
G3 X72.5886 Y49.48 I-2.2194 J0.0
G3 X74.5986 Y51.5528 I-0.0639 J2.0729
G3 X72.5252 Y53.6262 I-2.0732 J0.0002
G3 X70.784 Y52.6784 I0.0003 J-2.0737
G3 X70.8327 Y53.1481 I-2.239 J0.4696
G3 X69.6724 Y55.139 I-2.2882 J0.0
G3 X71.0857 Y57.2533 I-0.8751 J2.1144
G3 X69.5128 Y59.4265 I-2.2881 J-0.0002
G3 X69.9093 Y60.7135 I-1.8914 J1.2872
G3 X69.7751 Y61.4855 I-2.2883 J-0.0001
G3 X71.7481 Y63.7316 I-0.2921 J2.2462
G3 X71.5245 Y64.7127 I-2.2652 J-0.0002
G3 X72.3864 Y64.4915 I0.862 J1.5689
G3 X74.1764 Y66.2815 I0.0001 J1.7899
G3 X72.3864 Y68.0712 I-1.7901 J-0.0004
G3 X70.5964 Y66.2815 I-0.0002 J-1.7898
G3 X70.7195 Y65.6294 I1.7901 J0.0001
G3 X69.483 Y65.9967 I-1.2366 J-1.8979
G3 X69.1536 Y65.9726 I-0.0003 J-2.2648
G3 X69.5965 Y67.3256 I-1.8453 J1.353
G3 X67.3083 Y69.6135 I-2.2878 J0.0001
G3 X66.6554 Y69.5184 I-0.0002 J-2.2877
G3 X67.8052 Y71.4989 I-1.1302 J1.9802
G3 X65.8065 Y73.7618 I-2.2803 J0.0
G3 X66.6001 Y75.4837 I-1.4716 J1.7221
G3 X64.3351 Y77.7487 I-2.2648 J0.0002
G3 X62.6979 Y77.0491 I-0.0003 J-2.2647
G3 X62.0634 Y78.0321 I-2.1759 J-0.7081
G3 X62.5263 Y77.9827 I0.4627 J2.1389
G3 X64.7147 Y80.1711 I-0.0004 J2.1888
G3 X62.5263 Y82.3597 I-2.1887 J-0.0001
G3 X60.3894 Y80.6435 I0.0 J-2.1885
G3 X58.1937 Y82.2876 I-2.1957 J-0.6442
G3 X57.9834 Y82.2779 I0.0001 J-2.2883
G3 X59.1265 Y83.1769 I-0.7696 J2.1549
G3 X60.9905 Y82.1984 I1.8645 J1.2871
G3 X63.2555 Y84.4638 I-0.0002 J2.2652
G3 X62.978 Y85.5504 I-2.2647 J0.0003
G3 X64.0438 Y85.2722 I1.0659 J1.9024
G3 X64.7792 Y85.3999 I0.0 J2.181
G3 X63.6886 Y83.4937 I1.1208 J-1.9063
G3 X65.8999 Y81.2821 I2.2113 J-0.0003
G3 X68.1115 Y83.4937 I0.0 J2.2115
G3 X65.8999 Y85.705 I-2.2116 J-0.0003
G3 X65.1517 Y85.5745 I0.0001 J-2.2114
G3 X66.2248 Y87.4531 I-1.1078 J1.8786
G3 X64.0438 Y89.6337 I-2.181 J-0.0004
G3 X63.8741 Y89.6271 I-0.0001 J-2.1805
G3 X64.2684 Y90.8512 I-1.702 J1.2238
G3 X62.1721 Y92.9477 I-2.0966 J-0.0001
G3 X61.3615 Y92.7846 I0.0001 J-2.0967
G3 X61.45 Y93.403 I-2.1154 J0.6186
G3 X59.2461 Y95.6067 I-2.2038 J0.0
G3 X57.0424 Y93.403 I-0.0001 J-2.2036
G3 X59.2461 Y91.1992 I2.2041 J0.0004
G3 X60.1464 Y91.3915 I-0.0001 J2.204
G3 X60.0755 Y90.8512 I2.0259 J-0.5405
G3 X62.1721 Y88.7546 I2.0963 J-0.0002
G3 X62.297 Y88.7584 I-0.0001 J2.0963
G3 X61.8632 Y87.4531 I1.7468 J-1.3052
G3 X62.1192 Y86.4277 I2.1806 J-0.0003
G3 X60.9905 Y86.7288 I-1.1284 J-1.9636
G3 X59.1055 Y85.7197 I0.0 J-2.2651
G3 X58.5393 Y86.2976 I-1.8919 J-1.2873
G3 X60.2277 Y88.5057 I-0.5999 J2.2083
G3 X57.9395 Y90.7936 I-2.2882 J-0.0003
G3 X57.1506 Y90.6533 I-0.0002 J-2.2877
G3 X57.194 Y91.0966 I-2.2449 J0.4434
G3 X55.91 Y93.1526 I-2.2882 J0.0
G3 X56.7208 Y94.8928 I-1.4621 J1.7402
G3 X54.6864 Y97.1528 I-2.2724 J0.0001
G3 X55.2632 Y98.5441 I-1.3896 J1.3914
G3 X53.2971 Y100.5102 I-1.9658 J0.0003
G3 X51.3311 Y98.5441 I-0.0001 J-1.9659
G3 X52.9566 Y96.6076 I1.9666 J0.0002
G3 X52.1754 Y94.8928 I1.4912 J-1.7146
G3 X53.4416 Y92.855 I2.2729 J0.0
G3 X52.6176 Y91.0966 I1.4642 J-1.7584
G3 X52.6524 Y90.6992 I2.2883 J0.0001
G3 X51.9909 Y90.8808 I-0.9254 J-2.076
G3 X52.6329 Y92.4701 I-1.6462 J1.5893
G3 X51.2632 Y94.5657 I-2.2877 J0.0002
G3 X51.9571 Y96.2069 I-1.5946 J1.6416
G3 X50.4144 Y98.3702 I-2.2882 J0.0
G3 X51.5006 Y100.3044 I-1.1788 J1.9341
G3 X49.2356 Y102.5694 I-2.2652 J-0.0002
G3 X48.1748 Y102.3057 I0.0 J-2.2654
G3 Y102.3203 I-2.2804 J0.0149
G3 X46.4594 Y104.5298 I-2.2807 J-0.0001
G3 X47.3733 Y106.1698 I-1.014 J1.6397
G3 X45.4456 Y108.0975 I-1.9278 J-0.0001
G3 X43.7788 Y107.1386 I-0.0001 J-1.9277
G3 X43.8323 Y107.6266 I-2.2043 J0.4882
G3 X43.7116 Y108.3545 I-2.2574 J-0.0002
G3 X44.1053 Y108.3164 I0.3939 J2.0202
G3 X46.1633 Y110.3747 I-0.0003 J2.0584
G3 X44.1053 Y112.4327 I-2.0583 J-0.0002
G3 X42.0472 Y110.3747 I0.0003 J-2.0584
G3 X42.1246 Y109.8158 I2.0583 J0.0001
G3 X41.5747 Y109.8838 I-0.5497 J-2.1895
G3 X41.2036 Y109.8531 I0.0 J-2.2576
G3 X41.2501 Y110.3075 I-2.1956 J0.4547
G3 X39.0079 Y112.5497 I-2.2425 J-0.0003
G3 X38.2373 Y112.4131 I0.0002 J-2.2424
G3 X38.4197 Y113.2699 I-1.9219 J0.8569
G3 X36.3153 Y115.3742 I-2.104 J0.0003
G3 X35.0542 Y114.9544 I0.0001 J-2.1043
G3 X35.0849 Y115.3015 I-1.9509 J0.3472
G3 X33.1034 Y117.2831 I-1.9817 J-0.0002
G3 X31.3496 Y116.2238 I0.0003 J-1.9819
G3 X29.3342 Y117.7442 I-2.0159 J-0.5764
G3 X27.4251 Y116.5143 I-0.0002 J-2.0964
G3 X25.8042 Y117.2518 I-1.6209 J-1.4124
G3 X24.2225 Y116.5582 I0.0002 J-2.1505
G3 X22.3306 Y117.6262 I-1.9018 J-1.1592
G3 X22.465 Y118.3565 I-1.9162 J0.7303
G3 X20.4148 Y120.4067 I-2.0502 J0.0
G3 X18.7473 Y119.5497 I-0.0001 J-2.0505
G3 X17.1361 Y120.2647 I-1.6115 J-1.4584
G3 X15.3226 Y119.2889 I0.0003 J-2.1736
G3 X13.4144 Y120.8069 I-1.9084 J-0.4406
G3 X11.5171 Y119.3353 I-0.0004 J-1.9584
G3 X9.4995 Y120.6756 I-2.0172 J-0.8477
G3 X7.7115 Y119.749 I0.0001 J-2.1886
G3 X5.7691 Y121.2357 I-1.9423 J-0.5254
G3 X3.757 Y119.2236 I0.0003 J-2.0124
G3 X4.3863 Y117.7619 I2.0122 J0.0001
G3 X4.0863 Y117.7823 I-0.2998 J-2.1911
G3 X3.2296 Y117.6097 I-0.0002 J-2.2111
G3 X3.4483 Y118.5109 I-1.7475 J0.9013
G3 X1.4821 Y120.4772 I-1.9664 J-0.0002
G3 X-0.4842 Y118.5109 I0.0002 J-1.9665
G3 X-0.282 Y117.6425 I1.9662 J0.0
G3 X-0.3591 Y117.6438 I-0.077 J-2.2562
G3 X-1.3135 Y117.432 I0.0001 J-2.2571
G3 X-1.2466 Y117.9557 I-2.0141 J0.5233
G3 X-3.3278 Y120.0369 I-2.0812 J0.0
G3 X-5.4087 Y117.9557 I0.0 J-2.0809
G3 X-5.1878 Y117.0223 I2.081 J-0.0003
G3 X-6.1508 Y116.7159 I0.1808 J-2.235
G3 X-6.0162 Y117.4535 I-1.9542 J0.7378
G3 X-8.1049 Y119.5423 I-2.0888 J0.0
G3 X-10.1936 Y117.4535 I0.0001 J-2.0888
G3 X-9.1592 Y115.6503 I2.0885 J-0.0001
G3 X-9.207 Y115.6508 I-0.0478 J-2.2186
G3 X-11.4261 Y113.4318 I0.0 J-2.2191
G3 X-10.5437 Y111.6605 I2.2191 J0.0
G3 X-11.3998 Y111.243 I0.5288 J-2.1711
G3 X-11.2606 Y112.0185 I-2.0873 J0.7751
G3 X-12.6084 Y114.0645 I-2.2263 J0.0003
G3 X-12.5102 Y114.062 I0.0985 J1.9716
G3 X-10.5361 Y116.0358 I0.0004 J1.9737
G3 X-12.5102 Y118.0098 I-1.9738 J0.0003
G3 X-14.4839 Y116.0358 I0.0003 J-1.974
G3 X-13.3278 Y114.2394 I1.974 J0.0003
G3 X-13.4872 Y114.2451 I-0.1591 J-2.2206
G3 X-14.6945 Y113.8894 I0.0001 J-2.227
G3 X-14.6634 Y114.2592 I-2.1806 J0.3699
G3 X-16.8747 Y116.4704 I-2.2113 J0.0
G3 X-18.4439 Y115.8174 I-0.0003 J-2.2113
G3 X-20.4687 Y117.7376 I-2.0247 J-0.1073
G3 X-22.4961 Y115.7099 I-0.0003 J-2.0271
G3 X-20.4687 Y113.6824 I2.0276 J0.0001
G3 X-19.086 Y114.2271 I-0.0003 J2.0279
G3 X-17.8859 Y112.2923 I2.2114 J0.0321
G3 X-17.895 I-0.0091 J-2.2344
G3 X-20.1294 Y110.0579 I0.0 J-2.2344
G3 X-18.2737 Y107.8558 I2.2344 J0.0
G3 X-19.0159 Y107.1927 I1.1169 J-1.9969
G3 X-21.0632 Y108.4889 I-2.0474 J-0.9688
G3 X-22.85 Y107.616 I0.0 J-2.2651
G3 X-22.7907 Y108.1226 I-2.1371 J0.5071
G3 X-23.2877 Y109.5137 I-2.1966 J-0.0004
G3 X-22.1187 Y109.1726 I1.1689 J1.8319
G3 X-19.9456 Y111.3457 I0.0001 J2.173
G3 X-22.1187 Y113.5188 I-2.1734 J-0.0003
G3 X-24.2918 Y111.3457 I0.0002 J-2.1733
G3 X-23.8025 Y109.9719 I2.1731 J0.0
G3 X-24.9869 Y110.3188 I-1.1848 J-1.8497
G3 X-27.1829 Y108.1226 I0.0003 J-2.1962
G3 X-25.597 Y106.013 I2.196 J0.0
G3 X-27.5703 Y103.7737 I0.2839 J-2.2394
G3 X-25.3128 Y101.5162 I2.2576 J0.0001
G3 X-23.5645 Y102.3456 I0.0002 J2.2571
G3 X-23.6982 Y101.5816 I2.1161 J-0.764
G3 X-21.4485 Y99.3319 I2.2497 J0.0
G3 X-19.2353 Y101.178 I0.0 J2.2497
G3 X-18.5645 Y100.2567 I2.0821 J0.8111
G3 X-20.3682 Y98.1824 I0.4497 J-2.2124
G3 X-22.2357 Y99.2026 I-1.8673 J-1.1987
G3 X-23.8354 Y98.5213 I0.0003 J-2.2194
G3 X-23.7079 Y99.2612 I-2.0838 J0.7399
G3 X-25.9192 Y101.4728 I-2.2114 J0.0002
G3 X-28.1308 Y99.2612 I0.0 J-2.2116
G3 X-25.9192 Y97.0499 I2.2115 J0.0003
G3 X-24.3262 Y97.7275 I0.0 J2.2112
G3 X-24.4547 Y96.9836 I2.0909 J-0.7443
G3 X-23.3688 Y95.0756 I2.2194 J0.0001
G3 X-24.5293 Y94.6569 I0.1676 J-2.2821
G3 X-26.7041 Y96.6746 I-2.1744 J-0.1628
G3 X-28.0823 Y96.1838 I0.0002 J-2.1808
G3 X-27.8968 Y97.0783 I-2.0642 J0.8946
G3 X-30.1465 Y99.3281 I-2.2498 J0.0
G3 X-31.1604 Y99.0867 I0.0 J-2.2498
G3 X-31.011 Y99.8931 I-2.1 J0.8061
G3 X-31.0899 Y100.4837 I-2.2503 J-0.0002
G3 X-29.544 Y99.8713 I1.5457 J1.6446
G3 X-27.2864 Y102.1288 I0.0001 J2.2574
G3 X-29.544 Y104.3864 I-2.2577 J-0.0002
G3 X-31.8012 Y102.1288 I0.0002 J-2.2574
G3 X-31.7215 Y101.5339 I2.257 J-0.0005
G3 X-33.2607 Y102.1432 I-1.5397 J-1.641
G3 X-35.4179 Y100.5335 I-0.0001 J-2.2501
G3 X-37.4265 Y102.1173 I-2.0086 J-0.4817
G3 X-39.4925 Y100.0518 I-0.0003 J-2.0657
G3 X-37.4265 Y97.9859 I2.066 J0.0001
G3 X-35.4602 Y99.4186 I0.0 J2.0655
G3 X-33.2607 Y97.6434 I2.1994 J0.4749
G3 X-32.2468 Y97.8847 I0.0003 J2.2494
G3 X-32.3963 Y97.0783 I2.1003 J-0.8064
G3 X-30.1465 Y94.8286 I2.2497 J0.0
G3 X-28.7115 Y95.3458 I0.0 J2.2497
G3 X-28.8848 Y94.494 I2.0075 J-0.852
G3 X-26.7041 Y92.3134 I2.1804 J-0.0002
G3 X-25.4868 Y92.6845 I0.0004 J2.1805
G3 X-23.884 Y90.61 I2.2853 J0.1092
G3 X-24.3678 Y89.2216 I1.7507 J-1.3885
G3 X-22.1334 Y86.9872 I2.2344 J0.0
G3 X-19.899 Y89.2216 I0.0 J2.2344
G3 X-21.4319 Y91.343 I-2.2344 J0.0
G3 X-21.008 Y92.1415 I-1.7691 J1.4508
G3 X-19.2356 Y91.2911 I1.7726 J1.4224
G3 X-17.0382 Y92.9833 I0.0 J2.2729
G3 X-15.5902 Y92.4576 I1.4481 J1.7317
G3 X-13.5889 Y93.6706 I0.0 J2.2575
G3 X-12.0246 Y93.0377 I1.5644 J1.6169
G3 X-10.7442 Y93.4376 I0.0 J2.2497
G3 X-10.7646 Y93.1491 I2.0306 J-0.2889
G3 X-8.7139 Y91.0985 I2.0507 J0.0002
G3 X-6.6636 Y93.1491 I0.0 J2.0502
G3 X-8.7139 Y95.1998 I-2.0504 J0.0003
G3 X-9.8119 Y94.8809 I0.0003 J-2.051
G3 X-9.7749 Y95.2874 I-2.2127 J0.4065
G3 X-9.7797 Y95.4336 I-2.2497 J0.0
G3 X-9.2705 Y95.3757 I0.5092 J2.2071
G3 X-7.6747 Y96.0333 I0.0 J2.2651
G3 X-5.4805 Y94.0963 I2.1942 J0.2743
G3 X-3.4977 Y95.3288 I-0.0002 J2.2114
G3 X-1.4142 Y93.6581 I2.0839 J0.4643
G3 X0.7207 Y95.7928 I-0.0001 J2.1349
G3 X0.5836 Y96.5453 I-2.1346 J0.0001
G3 X1.2848 Y96.3423 I0.9766 J2.0609
G3 X1.01 Y95.2906 I1.8752 J-1.0517
G3 X3.16 Y93.1403 I2.1505 J0.0002
G3 X5.3099 Y95.2906 I0.0 J2.1499
G3 X4.9162 Y96.5308 I-2.15 J0.0
G3 X6.0595 Y96.2174 I1.1433 J1.9288
G3 X6.5467 Y96.2711 I-0.0003 J2.2422
G3 X5.6202 Y94.5685 I1.1011 J-1.7027
G3 X7.6478 Y92.5411 I2.0275 J0.0
G3 X9.6752 Y94.5685 I0.0002 J2.0272
G3 X9.5982 Y95.1225 I-2.0273 J0.0003
G3 X10.7495 Y94.769 I1.1509 J1.6966
G3 X12.7999 Y96.8192 I0.0 J2.0504
G3 X11.0859 Y98.8421 I-2.0507 J0.0
G3 X11.5233 Y99.4697 I-1.5937 J1.5769
G3 X13.6121 Y98.0926 I2.089 J0.896
G3 X15.3461 Y98.8964 I-0.0002 J2.2727
G3 X15.1713 Y98.1076 I1.6916 J-0.7886
G3 X17.0379 Y96.2412 I1.8667 J0.0003
G3 X18.9043 Y98.1076 I-0.0004 J1.8668
G3 X17.9242 Y99.7503 I-1.8666 J-0.0001
G3 X19.8392 Y101.4124 I-0.1868 J2.1496
G3 X20.8644 Y100.72 I1.7411 J1.4727
G3 X18.9765 Y98.8155 I0.0165 J-1.9044
G3 X20.8813 Y96.9105 I1.9048 J-0.0002
G3 X22.771 Y98.5739 I-0.0001 J1.9052
G3 X24.5473 Y97.6744 I1.7764 J1.3043
G3 X26.6313 Y99.1614 I0.0 J2.2037
G3 X27.501 Y98.7315 I1.422 J1.7823
G3 X25.4461 Y96.628 I0.0491 J-2.1034
G3 Y96.6246 I2.1044 J-0.0001
G3 X23.8672 Y97.5984 I-1.5788 J-0.793
G3 X22.1004 Y95.8316 I0.0 J-1.7668
G3 X23.8672 Y94.0644 I1.7667 J-0.0004
G3 X25.6327 Y95.7616 I0.0003 J1.7666
G3 X27.5504 Y94.5235 I1.9178 J0.8663
G3 X29.1628 Y95.2761 I-0.0004 J2.1044
G3 X29.6163 Y94.2869 I2.1318 J0.3787
G3 X28.9314 Y94.4105 I-0.6849 J-1.8347
G3 X26.9726 Y92.452 I0.0 J-1.9588
G3 X28.9314 Y90.4934 I1.9588 J0.0002
G3 X30.8897 Y92.452 I0.0 J1.9583
G3 X30.4825 Y93.6477 I-1.9583 J0.0002
G3 X31.2949 Y93.4896 I0.8121 J2.0071
G3 X31.7544 Y93.5389 I0.0002 J2.1654
G3 X31.7106 Y93.1034 I2.1447 J-0.4354
G3 X33.899 Y90.915 I2.1883 J-0.0002
G3 X35.1417 Y91.3022 I-0.0004 J2.1888
G3 X34.9278 Y90.383 I1.867 J-0.9189
G3 X37.0087 Y88.3016 I2.081 J-0.0003
G3 X39.0899 Y90.383 I0.0 J2.0812
G3 X38.9954 Y91.003 I-2.0813 J-0.0001
G3 X40.99 Y89.8364 I1.9942 J1.1212
G3 X41.6732 Y89.9408 I0.0 J2.2882
G3 X41.6723 Y89.8776 I2.2865 J-0.0629
G3 X41.7108 Y89.4599 I2.2883 J0.0001
G3 X40.4827 Y89.8538 I-1.2284 J-1.7182
G3 X38.3709 Y87.7418 I0.0003 J-2.1121
G3 X40.4827 Y85.6303 I2.1116 J0.0
G3 X42.5946 Y87.7418 I-0.0002 J2.1121
G3 X42.5704 Y88.0601 I-2.1121 J-0.0001
G3 X43.4727 Y87.642 I1.3902 J1.8176
G3 X42.3016 Y85.6812 I1.0554 J-1.9604
G3 X44.5282 Y83.4546 I2.2267 J0.0001
G3 X46.5127 Y84.6712 I0.0 J2.2269
G3 X48.573 Y82.6908 I2.2687 J0.2983
G3 X48.0654 Y81.2563 I1.7725 J-1.4343
G3 X50.3457 Y78.9759 I2.2803 J0.0
G3 X52.4323 Y80.3357 I0.0002 J2.2805
G3 X52.8007 Y79.8491 I1.9917 J1.1255
G3 X51.0965 Y77.6367 I0.5839 J-2.2124
G3 X52.3868 Y75.5777 I2.2883 J0.0001
G3 X51.8023 Y75.6578 I-0.5848 J-2.0933
G3 X49.6292 Y73.4847 I0.0003 J-2.1734
G3 X51.8023 Y71.3114 I2.1735 J0.0002
G3 X53.9755 Y73.4847 I-0.0001 J2.1732
G3 X52.7589 Y75.4358 I-2.1735 J-0.0003
G3 X53.3847 Y75.3485 I0.6259 J2.201
G3 X54.3722 Y75.5726 I0.0002 J2.2877
G3 X54.3711 Y75.5003 I2.2871 J-0.0723
G3 X55.1608 Y73.7714 I2.2879 J0.0002
G3 X53.8851 Y71.7197 I1.0125 J-2.0519
G3 X53.9567 Y71.1521 I2.2883 J0.0001
G3 X53.023 Y71.3629 I-0.9337 J-1.9623
G3 X50.8498 Y69.1898 I-0.0001 J-2.1731
G3 X52.5648 Y67.0656 I2.1734 J0.0003
G3 X51.9891 Y65.6073 I1.5589 J-1.4582
G3 X54.1237 Y63.4726 I2.1346 J-0.0001
G3 X54.9234 Y63.6281 I0.0 J2.1346
G3 X54.8566 Y63.0796 I2.2214 J-0.5489
G3 X56.03 Y61.0813 I2.2882 J0.0
G3 X54.1762 Y58.8924 I0.3649 J-2.1885
G3 X55.6527 Y56.8013 I2.219 J-0.0001
G3 X53.8165 Y54.6876 I0.2985 J-2.1138
G3 X55.4564 Y52.6107 I2.1351 J-0.0001
G3 X54.7129 Y51.009 I1.3527 J-1.6013
G3 X56.8091 Y48.9123 I2.0966 J-0.0001
G3 X58.1759 Y49.4189 I0.0002 J2.0965
G3 X58.0265 Y48.6061 I2.1389 J-0.8132
G3 X58.5095 Y47.2 I2.2882 J0.0
G3 X56.6465 Y45.0295 I0.3332 J-2.1708
G3 X58.219 Y42.9236 I2.1959 J-0.0003
G3 X57.2687 Y41.0673 I1.338 J-1.8564
G3 X59.5567 Y38.7795 I2.2881 J0.0002
G3 X60.2822 Y38.8976 I0.0 J2.2882
G3 X60.1061 Y38.0173 I2.1121 J-0.8803
G3 X60.1613 Y37.518 I2.2877 J-0.0002
G3 X59.3987 Y37.6487 I-0.7624 J-2.1572
G3 X57.1108 Y35.361 I-0.0005 J-2.2874
G3 X58.4146 Y33.2954 I2.2882 J0.0
G3 X57.133 Y31.3438 I0.8454 J-1.9517
G3 X58.873 Y29.2521 I2.1266 J-0.0006
G3 X58.4221 Y27.9011 I1.7991 J-1.3512
G3 X59.1302 Y26.2626 I2.2498 J0.0001
G0 Z5.0
G0 X64.6502 Y37.6345
G1 Z0.0
G2 X65.3209 Y38.4691 I2.0634 J-0.9715
G2 X64.6061 Y38.6034 I0.0597 J2.2869
G2 X64.6825 Y38.0173 I-2.2119 J-0.5861
G2 X64.6502 Y37.6345 I-2.2882 J0.0003
G0 Z5.0
G0 X66.7759 Y38.9428
G1 Z0.0
G2 X67.8577 Y38.6357 I-0.0626 J-2.2798
G2 X67.3325 Y39.5621 I1.591 J1.514
G2 X66.7759 Y38.9428 I-1.9518 J1.1943
G0 Z5.0
G0 X67.5961 Y41.3289
G1 Z0.0
G2 X69.4489 Y42.3457 I1.8527 J-1.1795
G2 X69.8922 Y42.3004 I-0.0005 J-2.1965
G2 X69.5689 Y43.4104 I1.903 J1.1563
G2 X67.6283 Y42.2756 I-1.9408 J1.0923
G2 X67.0092 Y42.3635 I0.0004 J2.227
G2 X67.5961 Y41.3289 I-1.6286 J-1.6075
G0 Z5.0
G0 X66.0327 Y42.9495
G1 Z0.0
G2 X65.4017 Y44.5026 I1.596 J1.5531
G2 X65.503 Y45.1663 I2.2268 J-0.0002
G2 X64.6843 Y44.8151 I-1.2941 J1.8873
G2 X65.054 Y43.5682 I-1.9186 J-1.247
G2 X64.9847 Y43.0098 I-2.2885 J0.0005
G2 X65.3808 Y43.0443 I0.3959 J-2.2532
G2 X66.0327 Y42.9495 I-0.0001 J-2.2883
G0 Z5.0
G0 X63.1621 Y41.3148
G1 Z0.0
G2 X62.7658 Y41.2802 I-0.3966 J2.2539
G2 X61.8051 Y41.4917 I0.0003 J2.2884
G2 X61.8449 Y41.0673 I-2.2485 J-0.4244
G2 X61.6688 Y40.1874 I-2.2882 J0.0003
G2 X62.3943 Y40.3055 I0.7256 J-2.1701
G2 X63.1692 Y40.1703 I-0.0001 J-2.2883
G2 X63.0929 Y40.7561 I2.2114 J0.5857
G2 X63.1621 Y41.3148 I2.2877 J0.0005
G0 Z5.0
G0 X60.5174 Y43.1441
G1 Z0.0
G2 X60.4776 Y43.5633 I2.2487 J0.4246
G2 X60.1621 Y43.2739 I-1.6352 J1.4661
G2 X60.5174 Y43.1441 I-0.6055 J-2.2066
G0 Z5.0
G0 X61.0383 Y45.0687
G1 Z0.0
G2 X62.2904 Y45.8065 I1.7275 J-1.5005
G2 X61.9221 Y46.9776 I1.9186 J1.2469
G2 X60.6073 Y46.3367 I-1.6074 J1.6285
G2 X61.0383 Y45.0687 I-1.7643 J-1.3069
G0 Z5.0
G0 X62.6016 Y48.6819
G1 Z0.0
G2 X63.1183 Y49.0649 I1.6074 J-1.6285
G2 X62.1825 Y50.9105 I1.3519 J1.8455
G2 X62.1988 Y51.1829 I2.2882 J0.0
G2 X61.3728 Y50.6348 I-1.648 J1.5872
G2 X62.6016 Y48.6819 I-1.0576 J-2.0285
G0 Z5.0
G0 X65.5613 Y48.8992
G1 Z0.0
G2 X66.1336 Y48.291 I-1.3523 J-1.8459
G2 X66.0622 Y48.8582 I2.2167 J0.5672
G2 X66.1077 Y49.3121 I2.2883 J-0.0001
G2 X65.5613 Y48.8992 I-1.6367 J1.5982
G0 Z5.0
G0 X66.4258 Y47.6206
G1 Z0.0
G2 X66.4972 Y47.0534 I-2.2168 J-0.5672
G2 X66.3866 Y46.3507 I-2.2883 J0.0001
G2 X67.5189 Y46.7264 I1.2419 J-1.8483
G2 X66.4258 Y47.6206 I0.8314 J2.1317
G0 Z5.0
G0 X68.4498 Y46.5722
G1 Z0.0
G2 X69.8547 Y44.5488 I-0.8211 J-2.0695
G2 X70.885 Y45.4888 I1.9406 J-1.0923
G2 X69.9476 Y47.2198 I1.2802 J1.8126
G2 X68.4498 Y46.5722 I-1.5973 J1.6384
G0 Z5.0
G0 X70.6379 Y48.9117
G1 Z0.0
G2 X72.1138 Y49.5202 I1.5272 J-1.6098
G2 X70.4518 Y51.5528 I0.4113 J2.0321
G2 X70.4886 Y51.9412 I2.0737 J-0.0003
G2 X69.2373 Y50.9675 I-1.9435 J1.2068
G2 X70.6379 Y48.9117 I-0.887 J-2.1094
G0 Z5.0
G0 X67.6578 Y51.039
G1 Z0.0
G2 X66.2567 Y53.1481 I0.8866 J2.1089
G2 X66.3018 Y53.6001 I2.2882 J0.0
G2 X65.535 Y52.9362 I-1.8437 J1.3544
G2 X66.7586 Y50.9105 I-1.0641 J-2.0251
G2 X66.7132 Y50.4567 I-2.2876 J-0.0002
G2 X67.6578 Y51.039 I1.6373 J-1.5986
G0 Z5.0
G0 X66.7008 Y54.5027
G1 Z0.0
G2 X67.6698 Y55.2624 I1.8442 J-1.3546
G2 X66.5096 Y57.2533 I1.1279 J1.9908
G2 X66.906 Y58.5405 I2.2877 J0.0002
G2 X66.3883 Y58.7863 I0.7151 J2.1732
G2 X65.4818 Y57.0011 I-2.2879 J0.0389
G2 X66.7458 Y54.955 I-1.0237 J-2.0459
G2 X66.7008 Y54.5027 I-2.2877 J-0.0005
G0 Z5.0
G0 X63.3937 Y52.9294
G1 Z0.0
G2 X62.7362 Y53.448 I1.0642 J2.0257
G2 X62.8389 Y52.7703 I-2.1855 J-0.6779
G2 X62.8226 Y52.4978 I-2.288 J-0.0002
G2 X63.3937 Y52.9294 I1.6481 J-1.5873
G0 Z5.0
G0 X62.2725 Y54.2772
G1 Z0.0
G2 X62.1697 Y54.955 I2.1855 J0.6779
G2 X63.0767 Y56.7789 I2.2883 J-0.0004
G2 X61.8123 Y58.8092 I1.0238 J2.0464
G2 X61.2465 Y58.593 I-1.0923 J2.0106
G2 X62.3262 Y56.6499 I-1.2083 J-1.9429
G2 X61.4701 Y54.8654 I-2.2878 J-0.0001
G2 X62.2725 Y54.2772 I-0.9194 J-2.0954
G0 Z5.0
G0 X59.1186 Y54.5548
G1 Z0.0
G2 X57.75 Y56.6499 I0.9191 J2.0949
G2 X57.8136 Y57.1858 I2.2882 J-0.0001
G2 X56.6846 Y56.6923 I-1.4184 J1.7066
G2 X58.0859 Y54.6876 I-0.7334 J-2.0048
G2 X57.3136 Y53.0439 I-2.1351 J-0.0001
G2 X58.278 Y52.5049 I-0.5046 J-2.0352
G2 X58.2625 Y52.7703 I2.2727 J0.2653
G2 X59.1186 Y54.5548 I2.288 J0.0
G0 Z5.0
G0 X58.8981 Y51.1876
G1 Z0.0
G2 X58.9057 Y51.009 I-2.0892 J-0.1789
G2 X58.785 Y50.3074 I-2.0965 J-0.0002
G2 X59.4929 Y50.7413 I1.5298 J-1.7017
G2 X58.8981 Y51.1876 I1.0578 J2.029
G0 Z5.0
G0 X58.5578 Y58.3947
G1 Z0.0
G2 X59.5116 Y58.8767 I1.4804 J-1.7448
G2 X58.4318 Y60.8195 I1.2082 J1.943
G2 X58.4656 Y61.2113 I2.2881 J0.0001
G2 X57.497 Y60.8187 I-1.3211 J1.8687
G2 X58.6144 Y58.8924 I-1.1017 J-1.9262
G2 X58.5578 Y58.3947 I-2.2191 J0.0
G0 Z5.0
G0 X59.3992 Y62.688
G1 Z0.0
G2 X59.6966 Y62.8661 I1.3207 J-1.8684
G2 X59.4321 Y63.0168 I0.9984 J2.0589
G2 X59.3992 Y62.688 I-2.2877 J0.0631
G0 Z5.0
G0 X61.7181 Y62.8785
G1 Z0.0
G2 X63.0081 Y60.8358 I-0.9982 J-2.0591
G2 X64.1005 Y61.1134 I1.0924 J-2.0107
G2 X65.3336 Y60.7527 I0.0 J-2.2882
G2 X65.5193 Y61.6177 I2.2874 J-0.0387
G2 X64.6327 Y61.439 I-0.8867 J2.1094
G2 X62.3729 Y63.3696 I0.0002 J2.2881
G2 X61.7181 Y62.8785 I-1.6783 J1.5553
G0 Z5.0
G0 X62.9547 Y65.2827
G1 Z0.0
G2 X64.6327 Y66.0153 I1.6779 J-1.5551
G2 X65.6045 Y65.7987 I-0.0001 J-2.2883
G2 X65.0205 Y67.3256 I1.7041 J1.5269
G2 X65.0367 Y67.5974 I2.2877 J0.0002
G2 X62.8434 Y65.9612 I-2.1933 J0.652
G2 X62.7334 Y65.9639 I0.0 J2.2881
G2 X62.9547 Y65.2827 I-2.0382 J-1.0388
G0 Z5.0
G0 X60.8048 Y67.2102
G1 Z0.0
G2 X60.5552 Y68.2494 I2.0385 J1.0392
G2 X61.1616 Y69.801 I2.2883 J-0.0001
G2 X60.6839 Y69.7506 I-0.4777 J2.2378
G2 X58.4532 Y71.529 I0.0 J2.2882
G2 X57.9659 Y70.2977 I-2.2798 J0.1903
G2 X57.9839 Y70.2978 I0.0178 J-2.2876
G2 X60.272 Y68.0096 I0.0 J-2.2882
G2 X60.0976 Y67.1336 I-2.2882 J0.0003
G2 X60.6946 Y67.2128 I0.5969 J-2.2084
G2 X60.8048 Y67.2102 I0.0005 J-2.2877
G0 Z5.0
G0 X58.5811 Y65.801
G1 Z0.0
G2 X57.9839 Y65.7217 I-0.5972 J2.2089
G2 X55.696 Y68.0096 I-0.0001 J2.2878
G2 X56.1913 Y69.4316 I2.2877 J0.0005
G2 X56.1733 I-0.0178 J2.2876
G2 X55.1405 Y69.6779 I0.0001 J2.2883
G2 X55.1961 Y69.1898 I-2.1176 J-0.4881
G2 X54.5949 Y67.6893 I-2.1731 J0.0
G2 X56.2584 Y65.6073 I-0.4712 J-2.082
G2 X56.2129 Y65.1691 I-2.1346 J0.0
G2 X57.1448 Y65.3674 I0.932 J-2.0898
G2 X58.4076 Y64.9876 I0.0003 J-2.2879
G2 X58.5811 Y65.801 I2.2868 J-0.0624
G0 Z5.0
G0 X62.3657 Y70.4872
G1 Z0.0
G2 X62.8434 Y70.5376 I0.4778 J-2.2378
G2 X63.505 Y70.4398 I-0.0001 J-2.2883
G2 X63.2442 Y71.4989 I2.0194 J1.0589
G2 X64.0483 Y73.2369 I2.2804 J-0.0001
G2 X62.1854 Y74.77 I0.2868 J2.2469
G2 X61.3778 Y74.219 I-1.6635 J1.5712
G2 X62.9721 Y72.0388 I-0.6933 J-2.18
G2 X62.3657 Y70.4872 I-2.2882 J0.0
G0 Z5.0
G0 X64.8682 Y69.315
G1 Z0.0
G2 X65.1315 Y68.2494 I-2.025 J-1.0656
G2 X65.1153 Y67.9777 I-2.2882 J0.0
G2 X66.1749 Y69.3131 I2.1928 J-0.6519
G2 X65.5249 Y69.2185 I-0.6498 J2.1855
G2 X64.8682 Y69.315 I-0.0005 J2.2802
G0 Z5.0
G0 X66.3368 Y65.2541
G1 Z0.0
G2 X66.9209 Y63.7271 I-1.7043 J-1.5271
G2 X66.7347 Y62.8231 I-2.2882 J0.0
G2 X67.3446 Y62.985 I0.8863 J-2.1091
G2 X67.218 Y63.7316 I2.1384 J0.7467
G2 X67.6506 Y65.0632 I2.2648 J0.0003
G2 X67.3083 Y65.0375 I-0.3422 J2.2624
G2 X66.3368 Y65.2541 I0.0003 J2.2881
G0 Z5.0
G0 X58.4037 Y72.2295
G1 Z0.0
G2 X59.8281 Y74.1607 I2.2797 J-0.1906
G2 X58.8355 Y74.7947 I0.6939 J2.1804
G2 X57.6716 Y73.4488 I-2.1764 J0.7059
G2 X58.4037 Y72.2295 I-1.4981 J-1.7289
G0 Z5.0
G0 X58.3454 Y77.0471
G1 Z0.0
G2 X58.7409 Y77.7777 I2.1766 J-0.706
G2 X58.1937 Y77.7112 I-0.5473 J2.2218
G2 X55.9213 Y79.731 I0.0 J2.2882
G2 X55.008 Y79.2491 I-1.4968 J1.7307
G2 X55.6726 Y77.6367 I-1.6235 J-1.6123
G2 X55.6714 Y77.5643 I-2.2877 J-0.0005
G2 X56.6592 Y77.7885 I0.9879 J-2.064
G2 X58.3454 Y77.0471 I0.0002 J-2.2877
G0 Z5.0
G0 X59.9747 Y78.5629
G1 Z0.0
G2 X60.522 Y78.6293 I0.5473 J-2.2218
G2 X61.0326 Y78.5716 I0.0 J-2.2882
G2 X60.4335 Y79.5311 I1.4935 J1.5994
G2 X59.9747 Y78.5629 I-2.2398 J0.4684
G0 Z5.0
G0 X57.4242 Y82.1543
G1 Z0.0
G2 X57.2138 Y82.1446 I-0.2104 J2.2785
G2 X56.578 Y82.2347 I-0.0001 J2.2879
G2 X56.6969 Y81.73 I-2.1535 J-0.7734
G2 X57.4242 Y82.1543 I1.4969 J-1.7307
G0 Z5.0
G0 X55.0604 Y83.6593
G1 Z0.0
G2 X55.0011 Y83.8504 I2.1533 J0.7732
G2 X54.8504 Y83.7095 I-1.6364 J1.5995
G2 X55.0604 Y83.6593 I-0.4259 J-2.2482
G0 Z5.0
G0 X52.939 Y83.2017
G1 Z0.0
G2 X51.0769 Y85.4498 I0.4265 J2.2485
G2 X51.2811 Y86.3947 I2.2881 J0.0001
G2 X49.5797 Y87.8793 I0.4463 J2.2287
G2 X48.9892 Y87.2482 I-1.936 J1.2197
G2 X51.0694 Y84.9695 I-0.2077 J-2.2785
G2 X50.5572 Y83.5268 I-2.2884 J0.0003
G2 X52.3295 Y82.3815 I-0.211 J-2.2704
G2 X52.939 Y83.2017 I2.0951 J-0.9203
G0 Z5.0
G0 X55.5777 Y86.0318
G1 Z0.0
G2 X56.614 Y86.6405 I1.6366 J-1.5996
G2 X55.6516 Y88.5057 I1.3254 J1.8647
G2 X55.6949 Y88.9488 I2.2877 J0.0002
G2 X54.9058 Y88.8084 I-0.7892 J2.1478
G2 X53.9667 Y89.01 I0.0001 J2.2883
G2 X53.9999 Y88.6233 I-2.2398 J-0.3868
G2 X53.802 Y87.6958 I-2.2729 J0.0001
G2 X55.5777 Y86.0318 I-0.4374 J-2.2461
G0 Z5.0
G0 X50.0869 Y90.1965
G1 Z0.0
G2 X49.5836 Y90.3122 I0.2578 J2.2736
G2 X49.8082 Y89.8409 I-1.9399 J-1.2136
G2 X50.0869 Y90.1965 I1.9193 J-1.2177
G0 Z5.0
G0 X48.4049 Y91.2565
G1 Z0.0
G2 X48.0566 Y92.4701 I1.9399 J1.2136
G2 X48.7505 Y94.1111 I2.2883 J-0.0004
G2 X47.3808 Y96.2069 I0.9183 J2.0957
G2 X47.3821 Y96.2857 I2.2882 J0.0
G2 X46.4189 Y95.7294 I-1.5916 J1.6436
G2 X48.1228 Y93.5349 I-0.5612 J-2.1945
G2 X45.8577 Y91.2699 I-2.2651 J0.0001
G2 X45.7747 Y91.2714 I-0.0003 J2.2647
G2 X46.071 Y90.7607 I-1.8141 J-1.3939
G2 X47.6438 Y91.3869 I1.5726 J-1.6615
G2 X48.4049 Y91.2565 I-0.0001 J-2.2883
G0 Z5.0
G0 X45.5331 Y88.2157
G1 Z0.0
G2 X45.0245 Y87.852 I-1.573 J1.6619
G2 X46.7335 Y85.9902 I-0.4965 J-2.171
G2 X47.4359 Y86.8203 I2.0479 J-1.0208
G2 X45.5331 Y88.2157 I0.2076 J2.2782
G0 Z5.0
G0 X44.0551 Y92.1633
G1 Z0.0
G2 X43.5927 Y93.5349 I1.8023 J1.3713
G2 X43.7714 Y94.4167 I2.2652 J-0.0001
G2 X42.5979 Y93.7522 I-1.6364 J1.5215
G2 X43.2782 Y92.1243 I-1.608 J-1.628
G2 X43.2773 Y92.0611 I-2.2882 J0.0003
G2 X43.9602 Y92.1653 I0.6824 J-2.1832
G2 X44.0551 Y92.1633 I0.0004 J-2.2878
G0 Z5.0
G0 X44.1953 Y95.0733
G1 Z0.0
G2 X45.2298 Y95.7112 I1.6626 J-1.5384
G2 X44.36 Y96.1438 I0.5609 J2.2185
G2 X44.3695 Y95.9382 I-2.225 J-0.2056
G2 X44.1953 Y95.0733 I-2.2345 J0.0001
G0 Z5.0
G0 X43.5144 Y97.6961
G1 Z0.0
G2 X43.5024 Y97.9294 I2.2764 J0.2336
G2 X43.5209 Y98.2203 I2.2877 J0.0002
G2 X43.0362 Y97.9828 I-1.242 J1.9219
G2 X43.5144 Y97.6961 I-0.9011 J-2.0447
G0 Z5.0
G0 X41.3762 Y98.0397
G1 Z0.0
G2 X40.9312 Y98.2933 I0.9033 J2.1028
G2 X40.8001 Y97.7299 I-2.2466 J0.2257
G2 X41.3762 Y98.0397 I1.3352 J-1.7922
G0 Z5.0
G0 X40.039 Y96.7124
G1 Z0.0
G2 X39.2175 Y96.3248 I-1.3545 J1.8066
G2 X40.0982 Y94.5396 I-1.3688 J-1.785
G2 X40.0756 Y94.2218 I-2.2494 J-0.0003
G2 X40.5448 Y94.3687 I0.9144 J-2.0976
G2 X39.9004 Y95.9382 I1.5906 J1.57
G2 X40.039 Y96.7124 I2.2349 J-0.0005
G0 Z5.0
G0 X37.3141 Y96.7248
G1 Z0.0
G2 X37.1135 Y96.8976 I1.3707 J1.7936
G2 X37.0429 Y96.64 I-2.1785 J0.4587
G2 X37.3141 Y96.7248 I0.8055 J-2.1006
G0 Z5.0
G0 X35.7219 Y95.2738
G1 Z0.0
G2 X34.9347 Y95.1301 I-0.7869 J2.0826
G2 X34.6916 Y95.1433 I-0.0005 J2.2264
G2 X35.5994 Y94.4811 I-0.7926 J-2.0399
G2 X35.5987 Y94.5396 I2.2492 J0.0588
G2 X35.7219 Y95.2738 I2.2498 J-0.0002
G0 Z5.0
G0 X34.1326 Y95.2794
G1 Z0.0
G2 X33.4603 Y95.6878 I0.8016 J2.0771
G2 X33.4605 Y95.6553 I-2.1649 J-0.0324
G2 X33.4201 Y95.2389 I-2.1654 J-0.0002
G2 X33.899 Y95.2919 I0.4789 J-2.1354
G2 X34.1326 Y95.2794 I-0.0001 J-2.1885
G0 Z5.0
G0 X32.7086 Y97.2957
G1 Z0.0
G2 X32.7078 Y97.3567 I2.2256 J0.0608
G2 X32.7196 Y97.5854 I2.2273 J-0.0004
G2 X32.5226 Y97.4392 I-1.4375 J1.7306
G2 X32.7086 Y97.2957 I-1.2272 J-1.7837
G0 Z5.0
G0 X33.5189 Y99.0754
G1 Z0.0
G2 X33.7329 Y99.2313 I1.4161 J-1.7191
G2 X33.5316 Y99.3448 I1.0218 J2.0468
G2 X33.5318 Y99.3159 I-2.2496 J-0.0289
G2 X33.5189 Y99.0754 I-2.2497 J0.0
G0 Z5.0
G0 X32.4675 Y101.228
G1 Z0.0
G2 X32.467 Y101.2735 I2.2871 J0.0501
G2 X32.4267 Y101.2527 I-1.0652 J2.0164
G2 X32.4675 Y101.228 I-1.1447 J-1.9368
G0 Z5.0
G0 X29.1479 Y102.9445
G1 Z0.0
G2 X29.1428 Y102.9797 I2.2541 J0.3452
G2 X29.103 Y102.9685 I-0.6179 J2.1237
G2 X29.1479 Y102.9445 I-1.0495 J-2.0246
G0 Z5.0
G0 X27.4839 Y103.152
G1 Z0.0
G2 X27.442 Y103.1749 I1.041 J1.9506
G2 X27.4311 Y103.1377 I-2.1936 J0.6234
G2 X27.4839 Y103.152 I0.6226 J-2.1939
G0 Z5.0
G0 X26.4133 Y105.7585
G1 Z0.0
G2 X26.49 Y105.9676 I2.1122 J-0.6556
G2 X25.482 Y106.3394 I0.2657 J2.2723
G2 X25.4135 Y106.0725 I-2.239 J0.432
G2 X26.4133 Y105.7585 I-0.1654 J-2.2747
G0 Z5.0
G0 X28.8384 Y107.2921
G1 Z0.0
G2 X28.8984 Y107.2827 I-0.3136 J-2.1896
G2 X28.8712 Y107.3678 I2.1359 J0.7307
G2 X28.8384 Y107.2921 I-2.1153 J0.8725
G0 Z5.0
G0 X28.9516 Y108.8839
G1 Z0.0
G2 X30.566 Y110.2215 I2.0828 J-0.8708
G2 X30.2894 Y110.5388 I1.527 J1.6105
G2 X28.7036 Y109.4408 I-1.9642 J1.1426
G2 X28.9516 Y108.8839 I-1.9476 J-1.2008
G0 Z5.0
G0 X30.6261 Y105.7931
G1 Z0.0
G2 X30.7073 Y105.4618 I-2.1014 J-0.6906
G2 X31.402 Y105.5701 I0.6943 J-2.1717
G2 X32.1294 Y105.451 I0.0001 J-2.2802
G2 X32.2537 Y106.1136 I2.2566 J-0.0803
G2 X31.0344 Y105.7559 I-1.2197 J1.9001
G2 X30.6261 Y105.7931 I-0.0001 J2.2575
G0 Z5.0
G0 X33.1663 Y107.2709
G1 Z0.0
G2 X33.6375 Y107.501 I1.2197 J-1.9002
G2 X33.2854 Y107.841 I1.3882 J1.7898
G2 X33.1663 Y107.2709 I-2.2513 J0.1727
G0 Z5.0
G0 X32.767 Y109.4608
G1 Z0.0
G2 X32.8034 Y109.7295 I2.2585 J-0.1698
G2 X32.5732 Y109.6653 I-0.7104 J2.102
G2 X32.767 Y109.4608 I-1.5382 J-1.6516
G0 Z5.0
G0 X34.2748 Y111.4279
G1 Z0.0
G2 X35.0255 Y111.5559 I0.7506 J-2.1368
G2 X35.0964 Y111.5547 I0.0003 J-2.2647
G2 X34.2112 Y113.2699 I1.2189 J1.7152
G2 X34.253 Y113.6877 I2.1043 J0.0
G2 X33.6626 Y113.4006 I-1.1497 J1.6139
G2 X34.3119 Y111.8319 I-1.5698 J-1.5685
G2 X34.2748 Y111.4279 I-2.2189 J-0.0003
G0 Z5.0
G0 X36.2964 Y111.1658
G1 Z0.0
G2 X36.8001 Y110.6986 I-1.2706 J-1.8747
G2 X36.9853 Y111.2752 I2.208 J-0.3913
G2 X36.3153 Y111.1658 I-0.6699 J1.9948
G2 X36.2964 I0.0 J2.1042
G0 Z5.0
G0 X37.2576 Y108.906
G1 Z0.0
G2 X37.1023 Y108.3869 I-2.2323 J0.385
G2 X37.6331 Y108.5362 I0.8806 J-2.1114
G2 X37.2576 Y108.906 I1.3743 J1.771
G0 Z5.0
G0 X35.889 Y107.1969
G1 Z0.0
G2 X35.7722 Y107.1524 I-0.8637 J2.0941
G2 X35.846 Y107.0924 I-1.3869 J-1.7813
G2 X35.889 Y107.1969 I2.1368 J-0.8169
G0 Z5.0
G0 X36.4862 Y104.545
G1 Z0.0
G2 X35.5361 Y103.429 I-2.101 J0.8262
G2 X36.0582 Y103.1591 I-0.7813 J-2.151
G2 X36.9016 Y104.259 I2.1518 J-0.7767
G2 X36.4862 Y104.545 I1.0819 J2.0164
G0 Z5.0
G0 X39.2917 Y104.3983
G1 Z0.0
G2 X39.5434 Y104.2415 I-1.0816 J-2.0165
G2 X39.6701 Y104.7295 I2.2642 J-0.3275
G2 X39.2917 Y104.3983 I-1.6872 J1.5459
G0 Z5.0
G0 X40.1209 Y105.4596
G1 Z0.0
G2 X40.3866 Y105.7069 I1.6867 J-1.5456
G2 X40.2249 Y105.817 I1.188 J1.9195
G2 X40.1209 Y105.4596 I-2.2419 J0.4585
G0 Z5.0
G0 X42.9933 Y105.8705
G1 Z0.0
G2 X44.0959 Y103.9135 I-1.1857 J-1.9571
G2 X44.0869 Y103.7105 I-2.2882 J0.0
G2 X44.8362 Y104.3404 I1.8079 J-1.39
G2 X43.5177 Y106.1698 I0.6092 J1.8288
G2 X43.5537 Y106.5403 I1.9277 J0.0
G2 X42.9933 Y105.8705 I-1.9792 J1.0864
G0 Z5.0
G0 X43.623 Y102.5206
G1 Z0.0
G2 X43.308 Y102.1859 I-1.8153 J1.3929
G2 X43.6395 Y101.982 I-1.0289 J-2.0437
G2 X43.6143 Y102.3203 I2.2549 J0.3382
G2 X43.623 Y102.5206 I2.2805 J0.0002
G0 Z5.0
G0 X44.5415 Y100.4848
G1 Z0.0
G2 X44.5673 Y100.1421 I-2.2623 J-0.3427
G2 X44.5487 Y99.8511 I-2.2883 J0.0001
G2 X45.2148 Y100.1437 I1.2414 J-1.9216
G2 X44.5415 Y100.4848 I0.6796 J2.1765
G0 Z5.0
G0 X46.4702 Y100.114
G1 Z0.0
G2 X47.0136 Y99.863 I-0.6795 J-2.1845
G2 X46.9702 Y100.3044 I2.2216 J0.4414
G2 Y100.3098 I2.2654 J-0.0003
G2 X46.4702 Y100.114 I-1.0758 J2.0108
G0 Z5.0
G0 X48.0327 Y98.3849
G1 Z0.0
G2 X48.0785 Y97.9294 I-2.242 J-0.4554
G2 X48.0771 Y97.8506 I-2.288 J0.0
G2 X48.4873 Y98.1664 I1.5919 J-1.6437
G2 X48.0327 Y98.3849 I0.7479 J2.138
G0 Z5.0
G0 X40.7788 Y101.8699
G1 Z0.0
G2 X40.4747 Y102.054 I1.0292 J2.0437
G2 X39.6146 Y100.5756 I-2.2644 J0.3281
G2 X40.0006 Y100.353 I-0.9292 J-2.0569
G2 X40.7788 Y101.8699 I2.2783 J-0.2107
G0 Z5.0
G0 X37.2852 Y100.2894
G1 Z0.0
G2 X36.9073 Y100.5013 I0.925 J2.0925
G2 X35.96 Y99.3332 I-2.1521 J0.7773
G2 X36.4725 Y98.9669 I-1.0258 J-1.9768
G2 X37.2852 Y100.2894 I2.2125 J-0.4488
G0 Z5.0
G0 X36.0872 Y93.14
G1 Z0.0
G2 X36.0875 Y93.1034 I-2.1882 J-0.0366
G2 X35.8496 Y92.1115 I-2.1888 J0.0004
G2 X36.9809 Y92.464 I1.1591 J-1.7281
G2 X36.0872 Y93.14 I0.8678 J2.0759
G0 Z5.0
G0 X37.8423 Y92.2899
G1 Z0.0
G2 X38.8126 Y91.4209 I-0.8337 J-1.907
G2 X38.7018 Y92.1243 I2.177 J0.7033
G2 X38.7279 Y92.4688 I2.2882 J0.0
G2 X37.8484 Y92.2899 I-0.8792 J2.0705
G2 X37.8423 I0.0002 J2.25
G0 Z5.0
G0 X30.0548 Y97.4305
G1 Z0.0
G2 X29.0706 Y98.903 I1.2273 J1.8854
G2 X28.0823 Y98.6638 I-1.0171 J2.041
G2 X29.6168 Y97.024 I-0.5317 J-2.0355
G2 X30.0548 Y97.4305 I1.6777 J-1.3686
G0 Z5.0
G0 X23.8757 Y101.9771
G1 Z0.0
G2 X23.7225 Y102.1034 I1.3725 J1.8211
G2 X23.6275 Y101.8808 I-2.1424 J0.7818
G2 X23.8757 Y101.9771 I0.9198 J-2.0027
G0 Z5.0
G0 X22.5571 Y100.8246
G1 Z0.0
G2 X21.5803 Y100.6047 I-0.977 J2.0607
G2 X21.5327 Y100.6052 I0.0001 J2.2804
G2 X22.3488 Y100.0298 I-0.6515 J-1.7903
G2 X22.5571 Y100.8246 I2.1986 J-0.1516
G0 Z5.0
G0 X19.3455 Y103.3386
G1 Z0.0
G2 X19.3963 Y103.5411 I2.2351 J-0.4535
G2 X19.1757 Y103.5083 I-0.4436 J2.2285
G2 X19.3455 Y103.3386 I-1.4385 J-1.6083
G0 Z5.0
G0 X21.1304 Y105.1209
G1 Z0.0
G2 X21.5803 Y105.1657 I0.4502 J-2.2357
G2 X21.6242 Y105.1653 I-0.0004 J-2.2808
G2 X21.2242 Y105.7107 I1.6188 J1.6065
G2 X21.1304 Y105.1209 I-2.2714 J0.0588
G0 Z5.0
G0 X23.0885 Y109.0467
G1 Z0.0
G2 X23.243 Y109.0519 I0.1539 J-2.275
G2 X24.5084 Y108.6685 I-0.0002 J-2.2806
G2 X24.6085 Y109.0296 I2.2478 J-0.4288
G2 X24.2821 Y109.006 I-0.3263 J2.2417
G2 X23.0511 Y109.3698 I0.0004 J2.2654
G2 X23.0885 Y109.0467 I-2.2411 J-0.4232
G0 Z5.0
G0 X22.7382 Y112.9285
G1 Z0.0
G2 X24.2821 Y113.5364 I1.5442 J-1.6575
G2 X24.3307 Y113.5359 I0.0004 J-2.265
G2 X23.9982 Y113.9347 I1.4731 J1.5659
G2 X22.6192 Y113.1928 I-1.6772 J1.465
G2 X22.7382 Y112.9285 I-2.0154 J-1.0666
G0 Z5.0
G0 X25.8011 Y112.9518
G1 Z0.0
G2 X26.1974 Y112.481 I-1.5186 J-1.6805
G2 X26.5324 Y113.0789 I2.1276 J-0.7995
G2 X25.8042 Y112.9518 I-0.7282 J2.0228
G2 X25.8011 I-0.0003 J2.15
G0 Z5.0
G0 X27.5208 Y113.8074
G1 Z0.0
G2 X28.1114 Y113.9444 I0.8042 J-2.1259
G2 X27.7759 Y114.2448 I1.2225 J1.7029
G2 X27.5208 Y113.8074 I-1.9717 J0.857
G0 Z5.0
G0 X29.594 Y113.5673
G1 Z0.0
G2 X30.1921 Y112.9776 I-1.2688 J-1.8851
G2 X31.6106 Y113.9983 I1.9006 J-1.1453
G2 X31.2109 Y114.7138 I1.4925 J1.3032
G2 X29.594 Y113.5673 I-1.8771 J0.9339
G0 Z5.0
G0 X20.11 Y115.1342
G1 Z0.0
G2 X20.0941 Y115.3993 I2.211 J0.2654
G2 X20.2888 Y116.3097 I2.2272 J-0.0003
G2 X18.9604 Y116.9107 I0.1258 J2.0465
G2 X18.3917 Y116.3178 I-1.8243 J1.1807
G2 X20.11 Y115.1342 I-0.2713 J-2.2329
G0 Z5.0
G0 X18.3407 Y111.8456
G1 Z0.0
G2 X18.12 Y111.8348 I-0.2207 J2.2389
G2 X16.396 Y112.6393 I0.0002 J2.2499
G2 X16.5426 Y111.8334 I-2.1416 J-0.8059
G2 X16.5228 Y111.5333 I-2.2884 J0.0003
G2 X17.0805 Y111.605 I0.5576 J-2.1319
G2 X18.6526 Y110.9457 I0.0 J-2.2038
G2 X18.3407 Y111.8456 I1.9513 J1.1801
G0 Z5.0
G0 X18.9708 Y110.5341
G1 Z0.0
G2 X19.048 Y110.3941 I-1.8903 J-1.1329
G2 X19.0786 Y110.4306 I1.7624 J-1.4471
G2 X18.9708 Y110.5341 I1.5253 J1.6952
G0 Z5.0
G0 X17.1859 Y107.2
G1 Z0.0
G2 X17.0805 Y107.1975 I-0.1053 J2.2012
G2 X15.7646 Y107.6337 I0.0004 J2.2041
G2 X15.6062 Y106.8459 I-2.2877 J0.0501
G2 X16.7526 Y106.3414 I-0.3068 J-2.2518
G2 X17.1859 Y107.2 I2.1999 J-0.5715
G0 Z5.0
G0 X14.8787 Y109.492
G1 Z0.0
G2 X14.8892 Y109.6352 I2.2018 J-0.0906
G2 X14.733 Y109.596 I-0.6351 J2.1985
G2 X14.8787 Y109.492 I-1.2561 J-1.9127
G0 Z5.0
G0 X16.0122 Y113.2983
G1 Z0.0
G2 X16.011 Y113.3016 I2.108 J0.7864
G2 X16.0099 Y113.3011 I-0.9637 J2.0498
G2 X16.0122 Y113.2983 I-1.7555 J-1.4677
G0 Z5.0
G0 X13.2979 Y113.9121
G1 Z0.0
G2 X13.2937 Y113.9172 I1.7489 J1.4392
G2 X13.2776 Y113.9026 I-1.5262 J1.6625
G2 X13.2979 Y113.9121 I0.9768 J-2.0692
G0 Z5.0
G0 X12.7267 Y113.537
G1 Z0.0
G2 X12.4476 Y113.4279 I-0.9593 J2.0428
G2 X12.4807 Y113.279 I-2.2159 J-0.5709
G2 X12.7267 Y113.537 I1.7737 J-1.4456
G0 Z5.0
G0 X11.7368 Y117.8375
G1 Z0.0
G2 X11.6381 Y118.023 I1.6773 J1.0111
G2 X11.587 Y117.8305 I-2.1386 J0.4644
G2 X11.7368 Y117.8375 I0.1802 J-2.2503
G0 Z5.0
G0 X14.9345 Y117.6137
G1 Z0.0
G2 X15.0154 Y117.6162 I0.1123 J-2.2622
G2 X14.9988 Y117.6973 I2.1206 J0.4754
G2 X14.9345 Y117.6137 I-1.5842 J1.1509
G0 Z5.0
G0 X7.4554 Y117.7054
G1 Z0.0
G2 X7.3661 Y117.9993 I2.0437 J0.7817
G2 X6.9699 Y117.6089 I-1.5968 J1.2241
G2 X7.4554 Y117.7054 I0.6769 J-2.1378
G0 Z5.0
G0 X6.3416 Y117.2946
G1 Z0.0
G2 X5.7691 Y117.2114 I-0.5724 J1.9289
G2 X5.557 Y117.2227 I0.0001 J2.0122
G2 X5.8848 Y116.8581 I-1.4705 J-1.6519
G2 X6.3416 Y117.2946 I1.762 J-1.3869
G0 Z5.0
G0 X5.81 Y114.1852
G1 Z0.0
G2 X4.5764 Y113.4144 I-1.7236 J1.3859
G2 X4.7362 Y112.8675 I-2.0994 J-0.9101
G2 X6.0549 Y113.8923 I1.9617 J-1.1634
G2 X5.81 Y114.1852 I1.5914 J1.579
G0 Z5.0
G0 X4.4464 Y111.3398
G1 Z0.0
G2 X4.4223 Y111.2999 I-1.9695 J1.1649
G2 X4.4459 Y111.3001 I0.0234 J-2.2569
G2 X4.4532 Y111.3 I0.0005 J-2.2571
G2 X4.4464 Y111.3398 I2.2444 J0.4042
G0 Z5.0
G0 X6.671 Y109.4239
G1 Z0.0
G2 X6.7034 Y109.0428 I-2.2247 J-0.3809
G2 X6.6954 Y108.8528 I-2.2575 J0.0
G2 X8.4487 Y109.6839 I1.7533 J-1.434
G2 X8.4886 Y109.6835 I-0.0001 J-2.2651
G2 X8.4868 Y109.775 I2.2864 J0.0915
G2 X8.5779 Y110.4142 I2.2883 J0.0
G2 X6.6974 Y109.4237 I-1.8805 J1.29
G2 X6.671 Y109.4239 I0.0001 J2.2805
G0 Z5.0
G0 X6.1919 Y107.6118
G1 Z0.0
G2 X6.1673 Y107.5823 I-1.746 J1.431
G2 X6.1886 Y107.5689 I-1.2062 J-1.9439
G2 X6.1919 Y107.6118 I2.2601 J-0.1501
G0 Z5.0
G0 X3.2332 Y107.1388
G1 Z0.0
G2 X2.475 Y107.9423 I1.2129 J1.904
G2 X2.3149 Y107.7503 I-1.8056 J1.3426
G2 X3.1515 Y107.0393 I-1.0202 J-2.0483
G2 X3.2332 Y107.1388 I1.8086 J-1.4009
G0 Z5.0
G0 X3.1038 Y104.3011
G1 Z0.0
G2 X2.2111 Y103.6057 I-1.8089 J1.4013
G2 X2.4703 Y103.283 I-1.6471 J-1.5885
G2 X3.3751 Y103.9884 I1.8143 J-1.3944
G2 X3.1038 Y104.3011 I1.5855 J1.6498
G0 Z5.0
G0 X-0.9764 Y105.9779
G1 Z0.0
G2 X-0.3588 Y107.2835 I2.2711 J-0.2754
G2 X-0.5843 Y107.4165 I1.0281 J2.0009
G2 X-1.3554 Y106.1967 I-2.1937 J0.533
G2 X-0.9764 Y105.9779 I-0.949 J-2.0815
G0 Z5.0
G0 X-3.7317 Y105.9035
G1 Z0.0
G2 X-4.5377 Y106.5358 I0.954 J2.0461
G2 X-4.9002 Y106.0617 I-1.9654 J1.127
G2 X-4.1231 Y105.5038 I-0.9072 J-2.084
G2 X-3.7317 Y105.9035 I1.8182 J-1.3893
G0 Z5.0
G0 X-4.0088 Y102.5877
G1 Z0.0
G2 X-4.7548 Y101.963 I-1.798 J1.3895
G2 X-4.3541 Y101.3918 I-1.6511 J-1.5841
G2 X-3.2336 Y102.0237 I1.639 J-1.5968
G2 X-4.0088 Y102.5877 I0.9287 J2.0913
G0 Z5.0
G0 X-1.7867 Y101.8862
G1 Z0.0
G2 X-1.7178 Y101.8542 I-0.9288 J-2.0912
G2 X-1.7207 Y101.9026 I2.2816 J0.1626
G2 X-1.7867 Y101.8862 I-0.5842 J2.2124
G0 Z5.0
G0 X-0.4332 Y99.9581
G1 Z0.0
G2 X-0.4274 Y99.795 I-2.2824 J-0.1631
G2 X-0.4285 Y99.722 I-2.2876 J-0.0005
G2 X-0.3143 Y99.9047 I1.9891 J-1.1163
G2 X-0.4332 Y99.9581 I0.8781 J2.1121
G0 Z5.0
G0 X-0.7192 Y98.6763
G1 Z0.0
G2 X-1.3932 Y97.9273 I-1.9958 J1.1181
G2 X-0.5517 Y97.7456 I-0.0207 J-2.1345
G2 X-0.7203 Y98.606 I2.1119 J0.8606
G2 X-0.7192 Y98.6763 I2.2809 J-0.0002
G0 Z5.0
G0 X-2.6864 Y97.507
G1 Z0.0
G2 X-2.7152 Y97.5068 I-0.0286 J2.2875
G2 X-3.8632 Y97.8157 I0.0001 J2.2883
G2 X-3.3164 Y96.7616 I-1.6177 J-1.5081
G2 X-2.6864 Y97.507 I1.902 J-0.9687
G0 Z5.0
G0 X-4.3809 Y98.2263
G1 Z0.0
G2 X-4.7671 Y98.7824 I1.6658 J1.5688
G2 X-5.1165 Y98.489 I-1.6389 J1.5969
G2 X-4.3809 Y98.2263 I-0.3644 J-2.1814
G0 Z5.0
G0 X-6.7516 Y98.1173
G1 Z0.0
G2 X-7.0732 Y98.1905 I0.3455 J2.2614
G2 X-7.0198 Y97.8953 I-2.1973 J-0.5498
G2 X-6.7516 Y98.1173 I1.5395 J-1.5876
G0 Z5.0
G0 X-7.9108 Y102.1025
G1 Z0.0
G2 X-7.455 Y102.4124 I1.5048 J-1.7232
G2 X-8.0754 Y103.8345 I1.648 J1.5653
G2 X-8.7643 Y103.3633 I-1.5928 J1.5895
G2 X-7.9108 Y102.1025 I-1.3598 J-1.8397
G0 Z5.0
G0 X-11.0231 Y103.6275
G1 Z0.0
G2 X-11.1161 Y103.7016 I1.3547 J1.7957
G2 X-11.1263 Y103.5803 I-2.2692 J0.1308
G2 X-11.0231 Y103.6275 I1.0018 J-2.0572
G0 Z5.0
G0 X-11.9133 Y105.5639
G1 Z0.0
G2 X-10.768 Y107.386 I2.2452 J-0.1403
G2 X-11.4335 Y107.7633 I0.7531 J2.1038
G2 X-12.614 Y105.97 I-2.2711 J0.2098
G2 X-11.9133 Y105.5639 I-0.7712 J-2.138
G0 Z5.0
G0 X-14.4749 Y105.8266
G1 Z0.0
G2 X-14.8741 Y106.0154 I0.771 J2.1467
G2 X-14.8688 Y105.8589 I-2.2825 J-0.1563
G2 X-14.8919 Y105.5337 I-2.2877 J-0.0005
G2 X-14.4749 Y105.8266 I1.5066 J-1.7016
G0 Z5.0
G0 X-15.6358 Y104.1493
G1 Z0.0
G2 X-15.9848 Y103.8936 I-1.5206 J1.7091
G2 X-15.6501 Y103.6422 I-1.1685 J-1.9045
G2 X-15.658 Y103.832 I2.2648 J0.19
G2 X-15.6358 Y104.1493 I2.2727 J0.0001
G0 Z5.0
G0 X-14.9255 Y102.1609
G1 Z0.0
G2 X-14.9189 Y101.989 I-2.2278 J-0.1719
G2 X-15.1845 Y100.9323 I-2.2344 J0.0
G2 X-13.7177 Y101.4715 I1.467 J-1.726
G2 X-12.3558 Y101.0163 I-0.0001 J-2.2651
G2 X-12.4127 Y101.5234 I2.2313 J0.5072
G2 X-12.3976 Y101.7852 I2.2882 J-0.0003
G2 X-13.3852 Y101.5594 I-0.9876 J2.0472
G2 X-14.9255 Y102.1609 I-0.0001 J2.2727
G0 Z5.0
G0 X-15.7107 Y100.2828
G1 Z0.0
G2 X-16.6977 Y99.8016 I-1.4426 J1.7063
G2 X-15.8577 Y98.0447 I-1.4173 J-1.757
G2 X-16.1716 Y96.8962 I-2.2572 J-0.0003
G2 X-15.5902 Y96.9724 I0.5816 J-2.1813
G2 X-14.0164 Y96.3335 I0.0003 J-2.2573
G2 X-13.5421 Y96.9483 I1.9917 J-1.0461
G2 X-13.7177 Y96.9414 I-0.1756 J2.2582
G2 X-15.9828 Y99.2065 I-0.0004 J2.2647
G2 X-15.7107 Y100.2828 I2.2652 J-0.0002
G0 Z5.0
G0 X-19.3506 Y102.3942
G1 Z0.0
G2 X-18.325 Y103.8916 I2.1973 J-0.4052
G2 X-19.2307 Y104.8925 I1.1684 J1.9674
G2 X-21.0632 Y103.9589 I-1.8322 J1.3311
G2 X-23.3283 Y106.2239 I0.0001 J2.2652
G2 X-23.2635 Y106.7615 I2.2651 J-0.0001
G2 X-24.698 Y105.9457 I-1.7236 J1.3615
G2 X-23.0556 Y103.7737 I-0.6145 J-2.1716
G2 X-23.1901 Y103.0056 I-2.2571 J-0.0005
G2 X-21.4485 Y103.8314 I1.7417 J-1.4241
G2 X-19.3506 Y102.3942 I0.0 J-2.2497
G0 Z5.0
G0 X-20.0215 Y96.8358
G1 Z0.0
G2 X-22.0516 Y94.772 I-2.2142 J0.1476
G2 X-21.4115 Y94.2193 I-1.1496 J-1.9784
G2 X-19.2356 Y95.8365 I2.1763 J-0.6556
G2 X-17.7701 Y95.3009 I0.0 J-2.2728
G2 X-17.5335 Y95.8634 I2.1801 J-0.586
G2 X-18.1149 Y95.7872 I-0.5815 J2.1811
G2 X-20.0215 Y96.8358 I-0.0001 J2.2574
G0 Z5.0
G0 X-12.1938 Y97.5308
G1 Z0.0
G2 X-12.0246 Y97.5371 I0.1692 J-2.2433
G2 X-11.53 Y97.4821 I0.0 J-2.2497
G2 X-11.5355 Y97.6407 I2.2595 J0.1587
G2 X-10.7786 Y99.3307 I2.2651 J0.0
G2 X-11.5072 Y99.7002 I0.6541 J2.1928
G2 X-11.4527 Y99.2065 I-2.2106 J-0.4938
G2 X-12.1938 Y97.5308 I-2.2651 J0.0
G0 Z5.0
G0 X-7.4231 Y105.5758
G1 Z0.0
G2 X-7.4115 Y105.5874 I1.6162 J-1.5982
G2 X-7.4244 Y105.5931 I0.9089 J2.075
G2 X-7.4231 Y105.5758 I-2.2435 J-0.1698
G0 Z5.0
G0 X-8.7608 Y107.4822
G1 Z0.0
G2 X-8.7678 Y107.6356 I2.2581 J0.1802
G2 X-8.9163 Y107.5439 I-1.247 J1.8537
G2 X-8.7608 Y107.4822 I-0.7516 J-2.1207
G0 Z5.0
G0 X-7.7811 Y109.5324
G1 Z0.0
G2 X-7.4413 Y109.7239 I1.2783 J-1.87
G2 X-7.9755 Y111.1681 I1.6848 J1.4441
G2 X-7.9296 Y111.6172 I2.2191 J0.0
G2 X-8.6748 Y111.2774 I-1.2774 J1.8146
G2 X-7.7811 Y109.5324 I-1.3401 J-1.7877
G0 Z5.0
G0 X-4.8058 Y109.1629
G1 Z0.0
G2 X-4.7337 Y109.0772 I-1.6968 J-1.5005
G2 X-4.6109 Y109.2676 I1.9554 J-1.1271
G2 X-4.8058 Y109.1629 I-1.1456 J1.9006
G0 Z5.0
G0 X-3.9502 Y109.879
G1 Z0.0
G2 X-3.159 Y110.1748 I1.1719 J-1.9289
G2 X-3.6176 Y110.5769 I1.2659 J1.906
G2 X-3.9502 Y109.879 I-2.1389 J0.5913
G0 Z5.0
G0 X-1.5194 Y109.8235
G1 Z0.0
G2 X-1.5154 Y109.8208 I-1.2591 J-1.8743
G2 X-1.5145 Y109.8243 I2.1851 J-0.5365
G2 X-1.5194 Y109.8235 I-0.3789 J2.2566
G0 Z5.0
G0 X0.3217 Y111.5072
G1 Z0.0
G2 X0.4119 Y111.5195 I0.348 J-2.2229
G2 X0.3541 Y111.6512 I2.0649 J0.9847
G2 X0.3217 Y111.5072 I-2.2475 J0.4297
G0 Z5.0
G0 X0.2297 Y112.9341
G1 Z0.0
G2 X0.3068 Y113.2292 I2.2471 J-0.4292
G2 X0.1141 Y113.1789 I-0.6661 J2.1573
G2 X0.2297 Y112.9341 I-2.0075 J-1.0982
G0 Z5.0
G0 X1.7871 Y114.6861
G1 Z0.0
G2 X2.0334 Y114.7492 I0.6897 J-2.1813
G2 X1.8955 Y115.2707 I2.0532 J0.8218
G2 X1.7871 Y114.6861 I-2.2548 J0.1159
G0 Z5.0
G0 X1.8782 Y115.6886
G1 Z0.0
G2 X2.1659 Y116.6675 I2.208 J-0.1174
G2 X1.5772 Y116.547 I-0.6838 J1.8435
G2 X1.8782 Y115.6886 I-1.9363 J-1.1607
G0 Z5.0
G0 X-2.5203 Y116.0374
G1 Z0.0
G2 X-3.056 Y115.8922 I-0.8073 J1.918
G2 X-2.7652 Y114.7877 I-1.9508 J-1.1043
G2 X-2.8556 Y114.1568 I-2.2418 J-0.0004
G2 X-2.3501 Y114.323 I0.9621 J-2.0756
G2 X-2.6161 Y115.3863 I1.9913 J1.0631
G2 X-2.5203 Y116.0374 I2.2571 J0.0004
G0 Z5.0
G0 X-4.0829 Y112.7448
G1 Z0.0
G2 X-4.1615 Y112.711 I-0.9241 J2.0425
G2 X-4.1084 Y112.6541 I-1.5949 J-1.5429
G2 X-4.0829 Y112.7448 I2.2148 J-0.5728
G0 Z5.0
G0 X-6.6075 Y113.2175
G1 Z0.0
G2 X-7.018 Y113.7961 I1.6007 J1.5705
G2 X-6.9879 Y113.4318 I-2.189 J-0.3644
G2 X-7.0338 Y112.9826 I-2.2191 J0.0
G2 X-6.6075 Y113.2175 I1.2774 J-1.8146
G0 Z5.0
G0 X-7.2183 Y114.4163
G1 Z0.0
G2 X-7.2493 Y114.7877 I2.2115 J0.3716
G2 X-7.0844 Y115.6311 I2.2423 J-0.0004
G2 X-8.1049 Y115.3648 I-1.0206 J1.8225
G2 X-8.1173 Y115.3649 I-0.0002 J2.0885
G2 X-7.2183 Y114.4163 I-1.0897 J-1.9331
G0 Z5.0
G0 X-12.1089 Y110.2694
G1 Z0.0
G2 X-12.6079 Y109.9725 I-1.3782 J1.7487
G2 X-12.2376 Y109.7191 I-1.0965 J-1.9997
G2 X-12.1089 Y110.2694 I2.2227 J-0.2297
G0 Z5.0
G0 X-14.5801 Y110.0784
G1 Z0.0
G2 X-15.7141 Y112.0185 I1.0934 J1.9405
G2 X-15.6816 Y112.3972 I2.227 J-0.0004
G2 X-16.8747 Y112.0475 I-1.1936 J1.862
G2 X-16.8781 I0.0001 J2.2117
G2 X-15.6606 Y110.0579 I-1.0169 J-1.9896
G2 X-16.7879 Y108.1171 I-2.2344 J0.0
G2 X-15.9798 Y107.8211 I-0.3687 J-2.2579
G2 X-15.9849 Y107.973 I2.2759 J0.1522
G2 X-14.5801 Y110.0784 I2.2807 J-0.0004
G0 Z5.0
G0 X3.5487 Y99.7224
G1 Z0.0
G2 X3.8362 Y98.75 I-1.9889 J-1.1166
G2 X4.1325 Y99.6059 I2.2231 J-0.2904
G2 X3.5487 Y99.7224 I0.1522 J2.2833
G0 Z5.0
G0 X3.822 Y98.314
G1 Z0.0
G2 X3.5038 Y97.4129 I-2.2613 J0.2916
G2 X4.2396 Y97.1499 I-0.3439 J-2.1223
G2 X3.822 Y98.314 I1.8199 J1.3097
G0 Z5.0
G0 X6.2361 Y100.6946
G1 Z0.0
G2 X7.2509 Y100.3588 I-0.1767 J-2.235
G2 X7.2501 Y100.4193 I2.2416 J0.0607
G2 X7.3969 Y101.217 I2.2422 J-0.0003
G2 X6.5456 Y101.5398 I0.3695 J2.2582
G2 X6.2361 Y100.6946 I-2.261 J0.3486
G0 Z5.0
G0 X8.3006 Y98.52
G1 Z0.0
G2 X8.3014 Y98.4597 I-2.2411 J-0.0604
G2 X7.2427 Y96.5552 I-2.2422 J0.0
G2 X7.6478 Y96.5961 I0.4052 J-1.9868
G2 X8.7791 Y96.2512 I0.0002 J-2.0273
G2 X8.6989 Y96.8192 I1.9699 J0.5679
G2 X9.2267 Y98.1928 I2.0503 J0.0004
G2 X8.3006 Y98.52 I0.2658 J2.2266
G0 Z5.0
G0 X11.5474 Y101.3154
G1 Z0.0
G2 X12.0234 Y101.9906 I2.0647 J-0.9502
G2 X11.468 Y101.9222 I-0.5554 J2.2198
G2 X11.1335 Y101.9467 I-0.0004 J2.2878
G2 X11.5474 Y101.3154 I-1.641 J-1.5272
G0 Z5.0
G0 X13.0644 Y102.5711
G1 Z0.0
G2 X13.6121 Y102.638 I0.5476 J-2.2058
G2 X15.6403 Y101.3908 I0.0002 J-2.2723
G2 X15.5794 Y101.9 I2.0968 J0.509
G2 X15.6258 Y102.345 I2.1577 J0.0001
G2 X15.2992 Y102.3214 I-0.3266 J2.2493
G2 X13.5145 Y103.1869 I0.0 J2.2729
G2 X13.0644 Y102.5711 I-2.0465 J1.0235
G0 Z5.0
G0 X15.8173 Y100.915
G1 Z0.0
G2 X15.8847 Y100.3655 I-2.205 J-0.5493
G2 X15.6458 Y99.3512 I-2.2727 J-0.0001
G2 X16.7956 Y99.9584 I1.3919 J-1.2434
G2 X15.8173 Y100.915 I0.9415 J1.9414
G0 Z5.0
G0 X11.5202 Y106.4976
G1 Z0.0
G2 X11.1942 Y107.5255 I1.9568 J1.1862
G2 X10.775 Y107.4868 I-0.4192 J2.2494
G2 X10.7126 Y107.4876 I0.0 J2.2882
G2 X10.7137 Y107.4188 I-2.2641 J-0.0689
G2 X10.3685 Y106.2167 I-2.2647 J-0.0003
G2 X11.468 Y106.4982 I1.0995 J-2.0067
G2 X11.5202 Y106.4976 I0.0 J-2.2882
G0 Z5.0
G0 X9.5319 Y105.4294
G1 Z0.0
G2 X9.1795 Y105.2748 I-1.0829 J1.989
G2 X9.3652 Y105.1121 I-1.413 J-1.7991
G2 X9.5319 Y105.4294 I2.1029 J-0.902
G0 Z5.0
G0 X14.1498 Y96.5133
G1 Z0.0
G3 X13.4066 Y95.2912 I0.6329 J-1.222
G3 X14.7826 Y93.9152 I1.376 J0.0
G3 X16.1588 Y95.2912 I-0.0002 J1.3764
G3 X14.7826 Y96.6675 I-1.3764 J-0.0002
G3 X14.1498 Y96.5133 I0.0001 J-1.3762
G0 Z5.0
G0 X12.8386 Y93.6867
G1 Z0.0
G3 X12.1692 Y93.8345 I-0.6695 J-1.4433
G3 X10.5787 Y92.2436 I0.0005 J-1.5909
G3 X12.1692 Y90.6531 I1.5905 J0.0
G3 X13.7601 Y92.2436 I0.0004 J1.5904
G3 X12.8386 Y93.6867 I-1.591 J-0.0002
G0 Z5.0
G0 X9.611 Y91.055
G1 Z0.0
G3 X8.4258 Y91.6179 I-1.1855 J-0.9666
G3 X6.8966 Y90.0884 I-0.0001 J-1.5291
G3 X8.4258 Y88.5592 I1.5292 J0.0
G3 X9.9551 Y90.0884 I0.0 J1.5292
G3 X9.611 Y91.055 I-1.5296 J-0.0001
G0 Z5.0
G0 X6.4202 Y91.3993
G1 Z0.0
G3 X6.4304 Y91.5879 I-1.7493 J0.1888
G3 X4.6713 Y93.3473 I-1.7591 J0.0002
G3 X2.912 Y91.5879 I0.0 J-1.7593
G3 X4.6713 Y89.8286 I1.7592 J-0.0001
G3 X6.4202 Y91.3993 I-0.0005 J1.7595
G0 Z5.0
G0 X3.7515 Y88.1187
G1 Z0.0
G3 X3.1006 Y88.3499 I-0.6507 J-0.7999
G3 X2.0697 Y87.3189 I0.0 J-1.0309
G3 X3.1006 Y86.2879 I1.0311 J0.0
G3 X4.1319 Y87.3189 I0.0001 J1.0312
G3 X3.7515 Y88.1187 I-1.0312 J-0.0001
G0 Z5.0
G0 X1.3331 Y90.7996
G1 Z0.0
G3 X1.8709 Y92.0092 I-1.0911 J1.2095
G3 X0.2419 Y93.6382 I-1.6289 J0.0
G3 X-1.387 Y92.0092 I-0.0001 J-1.6289
G3 X0.2419 Y90.3802 I1.6289 J-0.0001
G3 X1.3331 Y90.7996 I0.0001 J1.6289
G0 Z5.0
G0 X-2.76 Y91.8633
G1 Z0.0
G3 X-2.7074 Y92.2752 I-1.5834 J0.4115
G3 X-4.3438 Y93.9117 I-1.6364 J0.0
G3 X-5.9806 Y92.2752 I-0.0001 J-1.6367
G3 X-4.3438 Y90.6388 I1.6362 J-0.0003
G3 X-2.76 Y91.8633 I0.0004 J1.636
G0 Z5.0
G0 X-2.3718 Y87.5519
G1 Z0.0
G3 X-3.0945 Y86.7617 I0.0712 J-0.7907
G3 X-2.3008 Y85.9683 I0.7935 J0.0001
G3 X-1.5074 Y86.7617 I0.0002 J0.7933
G3 X-2.3008 Y87.5551 I-0.7931 J0.0004
G3 X-2.3718 Y87.5519 I0.0002 J-0.7939
G0 Z5.0
G0 X-7.2292 Y88.1486
G1 Z0.0
G3 X-7.2225 Y88.2583 I-0.8943 J0.1099
G3 X-8.1234 Y89.159 I-0.9011 J-0.0005
G3 X-9.0244 Y88.2583 I-0.0003 J-0.9007
G3 X-8.1234 Y87.3574 I0.901 J0.0
G3 X-7.2292 Y88.1486 I-0.0001 J0.9011
G0 Z5.0
G0 X-11.6555 Y90.3685
G1 Z0.0
G3 X-11.4785 Y91.1157 I-1.4904 J0.7475
G3 X-13.146 Y92.7832 I-1.6674 J0.0
G3 X-14.8131 Y91.1157 I0.0 J-1.6672
G3 X-13.146 Y89.4487 I1.6671 J0.0001
G3 X-11.6555 Y90.3685 I0.0001 J1.6673
G0 Z5.0
G0 X-15.841 Y89.978
G1 Z0.0
G3 X-17.6232 Y91.6014 I-1.7819 J-0.1663
G3 X-19.4132 Y89.8114 I0.0 J-1.79
G3 X-17.6232 Y88.0214 I1.7902 J0.0002
G3 X-15.8333 Y89.8114 I0.0001 J1.7898
G3 X-15.841 Y89.978 I-1.7897 J0.0003
G0 Z5.0
G0 X-13.9747 Y85.6465
G1 Z0.0
G3 X-14.3663 Y85.0517 I0.2564 J-0.595
G3 X-13.7181 Y84.4034 I0.6479 J-0.0003
G3 X-13.0703 Y85.0517 I-0.0003 J0.648
G3 X-13.7181 Y85.6994 I-0.6476 J0.0001
G3 X-13.9747 Y85.6465 I-0.0003 J-0.6479
G0 Z5.0
G0 X-18.9698 Y84.3485
G1 Z0.0
G3 X-19.9456 Y85.103 I-0.9757 J-0.2535
G3 X-20.9535 Y84.0948 I0.0004 J-1.0083
G3 X-19.9456 Y83.0866 I1.0085 J0.0003
G3 X-18.9374 Y84.0948 I0.0 J1.0083
G3 X-18.9698 Y84.3485 I-1.0081 J0.0002
G0 Z5.0
G0 X-22.7783 Y85.3363
G1 Z0.0
G3 X-22.719 Y85.8013 I-1.7914 J0.4646
G3 X-24.5698 Y87.6526 I-1.8507 J0.0006
G3 X-26.4214 Y85.8013 I0.0 J-1.8516
G3 Y85.8004 I1.8515 J0.0004
G3 X-28.1083 Y86.6222 I-1.6871 J-1.321
G3 X-30.2397 Y84.6991 I-0.0002 J-2.1425
G3 X-31.7824 Y85.3172 I-1.5429 J-1.6164
G3 X-33.2828 Y84.7387 I-0.0001 J-2.2346
G3 X-33.2601 Y85.0583 I-2.2345 J0.3193
G3 X-35.5173 Y87.3159 I-2.2574 J0.0002
G3 X-37.3865 Y86.3243 I0.0001 J-2.2576
G3 X-37.2382 Y87.1335 I-2.1321 J0.8089
G3 X-39.5185 Y89.4138 I-2.2804 J0.0
G3 X-41.7989 Y87.1335 I0.0 J-2.2804
G3 X-39.5185 Y84.8528 I2.2809 J0.0002
G3 X-37.629 Y85.8567 I0.0 J2.2804
G3 X-37.7748 Y85.0583 I2.1117 J-0.7984
G3 X-35.5173 Y82.8008 I2.2574 J-0.0001
G3 X-33.9958 Y83.3907 I0.0 J2.2572
G3 X-34.0171 Y83.0828 I2.2132 J-0.3081
G3 X-33.774 Y82.0692 I2.2343 J-0.0001
G3 X-34.5877 Y82.2199 I-0.814 J-2.122
G3 X-36.8605 Y79.9471 I0.0001 J-2.2729
G3 X-36.6386 Y78.9675 I2.2726 J-0.0002
G3 X-37.1994 Y79.0378 I-0.5611 J-2.2025
G3 X-39.3149 Y77.5958 I0.0 J-2.2729
G3 X-39.3084 Y77.7693 I-2.2811 J0.173
G3 X-41.5962 Y80.0575 I-2.2882 J0.0
G3 X-42.5474 Y79.8504 I0.0 J-2.2882
G3 X-41.9872 Y81.3504 I-1.7277 J1.4999
G3 X-44.2754 Y83.6386 I-2.2882 J0.0
G3 X-46.5632 Y81.3504 I-0.0002 J-2.2877
G3 X-44.2754 Y79.0624 I2.2879 J-0.0002
G3 X-43.3241 Y79.2694 I0.0002 J2.2879
G3 X-43.8844 Y77.7693 I1.7279 J-1.5001
G3 X-41.5962 Y75.4811 I2.2883 J0.0001
G3 X-39.4659 Y76.9346 I0.0002 J2.2877
G3 X-39.4722 Y76.7649 I2.2666 J-0.1697
G3 X-37.1994 Y74.4921 I2.2728 J-0.0001
G3 X-34.9269 Y76.7649 I-0.0002 J2.2727
G3 X-35.1488 Y77.7445 I-2.2729 J0.0
G3 X-34.5877 Y77.6742 I0.5609 J2.2023
G3 X-32.3152 Y79.9471 I0.0002 J2.2723
G3 X-32.5693 Y80.9914 I-2.2728 J0.0001
G3 X-31.7824 Y80.8484 I0.7866 J2.0913
G3 X-29.5555 Y82.8998 I-0.0004 J2.2348
G3 X-28.1083 Y82.3372 I1.447 J1.5799
G3 X-25.9658 Y84.4797 I0.0001 J2.1424
G3 X-25.9686 Y84.5886 I-2.1427 J-0.0002
G3 X-24.5698 Y83.9502 I1.3987 J1.2132
G3 X-22.7783 Y85.3363 I0.0001 J1.8507
G0 Z5.0
G0 X-25.4594 Y88.0842
G1 Z0.0
G3 X-24.7693 Y89.7218 I-1.5976 J1.6374
G3 X-27.0571 Y92.0099 I-2.2878 J0.0002
G3 X-29.3453 Y89.7218 I-0.0003 J-2.2879
G3 X-27.0571 Y87.434 I2.2877 J-0.0001
G3 X-25.4594 Y88.0842 I0.0002 J2.2877
G0 Z5.0
G0 X-29.0144 Y87.8999
G1 Z0.0
G3 X-31.2995 Y90.0691 I-2.2846 J-0.1185
G3 X-33.0427 Y89.2631 I0.0001 J-2.2882
G3 X-32.9278 Y89.9792 I-2.173 J0.7158
G3 X-35.2155 Y92.2674 I-2.288 J0.0002
G3 X-36.5687 Y91.8244 I0.0 J-2.2882
G3 X-36.5336 Y92.2211 I-2.23 J0.3967
G3 X-38.7987 Y94.4862 I-2.2651 J-0.0001
G3 X-41.064 Y92.2211 I-0.0005 J-2.2648
G3 X-38.7987 Y89.9561 I2.2648 J-0.0003
G3 X-37.4667 Y90.3891 I0.0 J2.265
G3 X-37.5037 Y89.9792 I2.2512 J-0.4099
G3 X-35.2155 Y87.6911 I2.2882 J0.0
G3 X-33.4728 Y88.4968 I-0.0002 J2.2878
G3 X-33.5877 Y87.7812 I2.1733 J-0.716
G3 X-31.2995 Y85.493 I2.2883 J0.0001
G3 X-29.0113 Y87.7812 I0.0 J2.2882
G3 X-29.0144 Y87.8999 I-2.2877 J0.0002
G0 Z5.0
G0 X-30.1804 Y90.4595
G1 Z0.0
G3 X-28.8588 Y92.514 I-0.9358 J2.0543
G3 X-31.116 Y94.7712 I-2.257 J0.0002
G3 X-33.3735 Y92.514 I0.0001 J-2.2576
G3 X-31.116 Y90.2564 I2.2575 J-0.0001
G3 X-30.1804 Y90.4595 I-0.0002 J2.2574
G0 Z5.0
G0 X-33.4565 Y93.7287
G1 Z0.0
G3 X-32.788 Y95.3447 I-1.6195 J1.6161
G3 X-35.0758 Y97.6329 I-2.2879 J0.0002
G3 X-37.3639 Y95.3447 I0.0 J-2.2882
G3 X-35.0758 Y93.0569 I2.2877 J-0.0002
G3 X-33.4565 Y93.7287 I-0.0002 J2.2879
G0 Z5.0
G0 X-38.4315 Y95.7469
G1 Z0.0
G3 X-38.2868 Y96.4889 I-1.8291 J0.742
G3 X-40.2606 Y98.4629 I-1.9737 J0.0003
G3 X-42.2345 Y96.4889 I0.0 J-1.9739
G3 X-40.2606 Y94.5151 I1.9741 J0.0003
G3 X-38.4315 Y95.7469 I0.0 J1.9739
G0 Z5.0
G0 X-41.7382 Y92.1727
G1 Z0.0
G3 X-42.9485 Y92.6467 I-1.2103 J-1.3082
G3 X-44.731 Y90.8643 I0.0 J-1.7825
G3 X-42.9485 Y89.0821 I1.7827 J0.0005
G3 X-41.1663 Y90.8643 I-0.0002 J1.7824
G3 X-41.7382 Y92.1727 I-1.7822 J0.0003
G0 Z5.0
G0 X-43.1523 Y88.1788
G1 Z0.0
G3 X-43.8825 Y88.3043 I-0.7305 J-2.0634
G3 X-46.071 Y86.1159 I0.0002 J-2.1887
G3 X-43.8825 Y83.9274 I2.1888 J0.0003
G3 X-41.6939 Y86.1159 I-0.0001 J2.1887
G3 X-43.1523 Y88.1788 I-2.1889 J-0.0005
G0 Z5.0
G0 X-40.5048 Y83.992
G1 Z0.0
G3 X-41.5665 Y82.0648 I1.2189 J-1.9276
G3 X-39.2862 Y79.7845 I2.2806 J0.0002
G3 X-37.0055 Y82.0648 I0.0004 J2.2803
G3 X-39.2862 Y84.345 I-2.2801 J0.0001
G3 X-40.5048 Y83.992 I0.0003 J-2.2807
G0 Z5.0
G0 X-48.0503 Y84.2788
G1 Z0.0
G3 X-48.0499 Y84.2999 I-0.5634 J0.0214
G3 X-48.6135 Y84.8635 I-0.5635 J0.0002
G3 X-49.1773 Y84.2999 I-0.0003 J-0.5635
G3 X-48.6135 Y83.7364 I0.5637 J0.0002
G3 X-48.0503 Y84.2788 I-0.0002 J0.5638
G0 Z5.0
G0 X-48.6217 Y81.1258
G1 Z0.0
G3 X-48.9765 Y81.1576 I-0.3547 J-1.9573
G3 X-50.9657 Y79.1682 I0.0004 J-1.9896
G3 X-48.9765 Y77.1792 I1.9893 J0.0003
G3 X-46.9872 Y79.1682 I0.0004 J1.9889
G3 X-48.6217 Y81.1258 I-1.9891 J0.0003
G0 Z5.0
G0 X-46.7573 Y77.6128
G1 Z0.0
G3 X-47.9729 Y75.5916 I1.0727 J-2.0213
G3 X-45.6848 Y73.3037 I2.2877 J-0.0002
G3 X-43.3966 Y75.5916 I-0.0001 J2.2882
G3 X-45.6848 Y77.8798 I-2.2882 J0.0
G3 X-46.7573 Y77.6128 I0.0001 J-2.2883
G0 Z5.0
G0 X-49.0934 Y75.8847
G1 Z0.0
G3 X-50.7421 Y76.7158 I-1.6487 J-1.2196
G3 X-52.7927 Y74.6652 I0.0001 J-2.0507
G3 X-50.7421 Y72.6145 I2.051 J0.0003
G3 X-48.6914 Y74.6652 I-0.0003 J2.0511
G3 X-49.0934 Y75.8847 I-2.0508 J-0.0002
G0 Z5.0
G0 X-48.6442 Y72.8548
G1 Z0.0
G3 X-50.5964 Y70.5917 I0.3355 J-2.2629
G3 X-48.3085 Y68.3035 I2.2882 J0.0
G3 X-46.0204 Y70.5744 I0.0 J2.2882
G3 X-44.9804 Y69.3626 I2.1472 J0.7908
G3 X-45.0271 Y69.3631 I-0.0468 J-2.2877
G3 X-47.3153 Y67.0749 I0.0001 J-2.2882
G3 X-47.2964 Y66.7814 I2.2882 J0.0003
G3 X-48.985 Y67.5256 I-1.6888 J-1.5442
G3 X-51.2732 Y65.2376 I-0.0002 J-2.288
G3 X-48.985 Y62.9494 I2.2882 J0.0
G3 X-46.6968 Y65.2376 I0.0 J2.2882
G3 X-46.7158 Y65.5311 I-2.2884 J-0.0004
G3 X-45.0271 Y64.7871 I1.6886 J1.5441
G3 X-44.8294 Y64.7956 I0.0003 J2.2879
G3 X-45.2885 Y63.4208 I1.8291 J-1.3749
G3 X-45.0044 Y62.3164 I2.2882 J0.0
G3 X-46.4306 Y62.8153 I-1.4263 J-1.7893
G3 X-48.7188 Y60.5272 I0.0001 J-2.2883
G3 X-46.4306 Y58.239 I2.2881 J-0.0001
G3 X-44.1425 Y60.5272 I-0.0004 J2.2886
G3 X-44.4266 Y61.6315 I-2.2883 J-0.0001
G3 X-43.0004 Y61.1326 I1.4263 J1.7893
G3 X-40.7122 Y63.4208 I-0.0001 J2.2882
G3 X-43.0004 Y65.709 I-2.2882 J0.0
G3 X-43.1979 Y65.7004 I0.0 J-2.2882
G3 X-42.739 Y67.0749 I-1.8289 J1.3746
G3 X-43.9201 Y69.0775 I-2.2882 J0.0
G3 X-43.8736 Y69.077 I0.0468 J2.2877
G3 X-41.5855 Y71.3652 I-0.0001 J2.2882
G3 X-41.5866 Y71.4348 I-2.2879 J0.0003
G3 X-40.2358 Y70.9934 I1.3512 J1.847
G3 X-38.1476 Y72.3463 I-0.0003 J2.2885
G3 X-38.1991 Y71.868 I2.1986 J-0.4786
G3 X-36.5784 Y69.7079 I2.2504 J0.0004
G3 X-38.0176 Y68.3904 I0.6432 J-2.1475
G3 X-40.2847 Y70.3704 I-2.2673 J-0.3082
G3 X-42.5728 Y68.0822 I0.0001 J-2.2882
G3 X-40.2847 Y65.794 I2.2882 J0.0
G3 X-38.1549 Y67.246 I0.0002 J2.2877
G3 X-35.9351 Y65.318 I2.2196 J0.3137
G3 X-35.1375 Y65.4646 I0.0001 J2.2421
G3 X-35.8064 Y63.936 I1.4125 J-1.5288
G3 X-33.7251 Y61.8552 I2.0814 J0.0005
G3 X-31.6439 Y63.936 I-0.0002 J2.0814
G3 X-33.7251 Y66.0173 I-2.0811 J0.0001
G3 X-34.4372 Y65.8916 I0.0001 J-2.0815
G3 X-33.6928 Y67.5599 I-1.4977 J1.6685
G3 X-35.3059 Y69.7119 I-2.2426 J-0.0004
G3 X-33.6994 Y71.868 I-0.6434 J2.156
G3 X-35.9494 Y74.1177 I-2.2497 J0.0001
G3 X-38.0009 Y72.7912 I0.0003 J-2.25
G3 X-37.9477 Y73.2815 I-2.2353 J0.4907
G3 X-40.2358 Y75.5697 I-2.2882 J-0.0001
G3 X-42.5239 Y73.2815 I0.0004 J-2.2885
G3 X-42.5228 Y73.2121 I2.2885 J0.0003
G3 X-43.8736 Y73.6534 I-1.3506 J-1.8467
G3 X-46.1614 Y71.3826 I-0.0002 J-2.2877
G3 X-48.3085 Y72.8796 I-2.1467 J-0.7907
G3 X-48.6442 Y72.8548 I-0.0002 J-2.2877
G0 Z5.0
G0 X-50.9978 Y70.9527
G1 Z0.0
G3 X-52.7295 Y71.7797 I-1.7319 J-1.3997
G3 X-54.9564 Y69.5528 I0.0002 J-2.2271
G3 X-52.7295 Y67.3259 I2.2273 J0.0004
G3 X-50.5029 Y69.5528 I0.0002 J2.2264
G3 X-50.9978 Y70.9527 I-2.2268 J0.0001
G0 Z5.0
G0 X-52.853 Y67.0041
G1 Z0.0
G3 X-53.8031 Y67.2162 I-0.9502 J-2.0223
G3 X-56.0375 Y64.9814 I0.0 J-2.2344
G3 X-53.8031 Y62.747 I2.2345 J0.0001
G3 X-51.5687 Y64.9814 I0.0004 J2.234
G3 X-52.853 Y67.0041 I-2.2344 J0.0003
G0 Z5.0
G0 X-51.9084 Y63.0907
G1 Z0.0
G3 X-53.6598 Y60.8664 I0.5369 J-2.2244
G3 X-51.3716 Y58.5786 I2.2877 J-0.0002
G3 X-49.0838 Y60.8664 I0.0002 J2.2877
G3 X-51.3716 Y63.1546 I-2.2882 J0.0
G3 X-51.9084 Y63.0907 I0.0 J-2.2882
G0 Z5.0
G0 X-55.6643 Y61.1781
G1 Z0.0
G3 X-56.7538 Y61.8459 I-1.0895 J-0.5548
G3 X-57.9767 Y60.6234 I-0.0002 J-1.2227
G3 X-56.7538 Y59.4007 I1.2228 J0.0001
G3 X-55.5312 Y60.6234 I-0.0001 J1.2228
G3 X-55.6643 Y61.1781 I-1.2226 J0.0
G0 Z5.0
G0 X-54.6611 Y58.8485
G1 Z0.0
G3 X-56.0444 Y56.7469 I0.905 J-2.1017
G3 X-53.7562 Y54.4587 I2.2882 J0.0
G3 X-51.4971 Y56.3831 I0.0 J2.2882
G3 X-51.4977 Y56.3307 I2.2871 J-0.0519
G3 X-49.2098 Y54.043 I2.2879 J0.0002
G3 X-48.9815 Y54.0544 I0.0002 J2.288
G3 X-49.8793 Y52.2371 I1.3903 J-1.8172
G3 X-47.5911 Y49.9493 I2.288 J0.0002
G3 X-46.6888 Y50.1347 I-0.0001 J2.2882
G3 X-47.4663 Y48.4163 I1.5106 J-1.7186
G3 X-46.5525 Y46.5871 I2.2886 J0.0004
G3 X-47.2043 Y46.6819 I-0.6518 J-2.1934
G3 X-48.1991 Y46.4543 I0.0 J-2.2882
G3 X-47.6412 Y47.9513 I-1.7307 J1.4974
G3 X-49.9294 Y50.2395 I-2.2882 J0.0
G3 X-52.2176 Y47.9513 I0.0 J-2.2882
G3 X-52.2132 Y47.81 I2.2881 J-0.0001
G3 X-54.1974 Y49.0752 I-1.9841 J-0.9231
G3 X-56.3859 Y46.8868 I0.0 J-2.1884
G3 X-54.1974 Y44.6983 I2.1885 J0.0
G3 X-53.7886 Y44.7368 I0.0003 J2.1882
G3 X-54.5846 Y43.0019 I1.4917 J-1.7344
G3 X-52.9087 Y40.7976 I2.2878 J0.0002
G3 X-53.7962 Y38.9884 I1.4004 J-1.8092
G3 X-52.9734 Y37.2308 I2.288 J-0.0002
G3 X-54.9983 Y34.9715 I0.2479 J-2.2593
G3 X-54.2395 Y33.2766 I2.2729 J0.0003
G3 X-54.8882 Y33.3915 I-0.6488 J-1.7747
G3 X-56.7776 Y31.5021 I0.0 J-1.8894
G3 X-54.8882 Y29.6125 I1.8893 J-0.0003
G3 X-53.8172 Y29.9454 I0.0001 J1.8895
G3 X-53.9707 Y29.1344 I2.0656 J-0.8109
G3 X-51.7516 Y26.9154 I2.219 J-0.0001
G3 X-49.9184 Y27.8837 I0.0003 J2.2188
G3 X-50.004 Y27.2885 I2.0263 J-0.5953
G3 X-47.892 Y25.1766 I2.1122 J0.0004
G3 X-45.7802 Y27.2885 I-0.0002 J2.112
G3 X-47.892 Y29.4003 I-2.1121 J-0.0002
G3 X-49.6274 Y28.4922 I-0.0001 J-2.1119
G3 X-49.5325 Y29.1344 I-2.1239 J0.642
G3 X-49.6454 Y29.8332 I-2.2191 J0.0
G3 X-48.7263 Y29.6405 I0.9191 J2.0955
G3 X-46.4381 Y31.9287 I0.0 J2.2882
G3 X-47.4532 Y33.83 I-2.2882 J0.0
G3 X-46.1916 Y34.5103 I-0.4008 J2.2531
G3 X-46.496 Y33.3909 I1.9076 J-1.1198
G3 X-45.1379 Y31.3507 I2.211 J-0.0002
G3 X-46.3547 Y29.4231 I0.9178 J-1.9272
G3 X-44.22 Y27.2885 I2.1347 J0.0
G3 X-42.085 Y29.4231 I0.0001 J2.1349
G3 X-43.3652 Y31.3796 I-2.1348 J0.0002
G3 X-42.0732 Y33.3909 I-0.9189 J2.0109
G3 X-43.1482 Y35.2879 I-2.2119 J-0.0003
G3 X-43.031 Y35.2847 I0.1172 J2.1314
G3 X-40.896 Y37.4194 I-0.0002 J2.1352
G3 X-43.031 Y39.5544 I-2.1349 J0.0001
G3 X-45.1657 Y37.4194 I-0.0001 J-2.1346
G3 X-44.1442 Y35.598 I2.1346 J0.0
G3 X-44.2845 Y35.6025 I-0.1408 J-2.2074
G3 X-45.885 Y34.9169 I0.0004 J-2.212
G3 X-45.5656 Y36.0828 I-1.969 J1.1662
G3 X-46.6364 Y38.0201 I-2.2884 J-0.0002
G3 X-44.9148 Y40.2367 I-0.5666 J2.217
G3 X-46.2471 Y42.3157 I-2.2882 J-0.0001
G3 X-44.9161 Y44.3937 I-0.9572 J2.0784
G3 X-45.8297 Y46.223 I-2.2882 J-0.0001
G3 X-45.1781 Y46.1282 I0.652 J2.1937
G3 X-43.6145 Y46.7458 I-0.0001 J2.2882
G3 X-43.6993 Y46.1582 I1.9966 J-0.5881
G3 X-41.6181 Y44.077 I2.0814 J0.0002
G3 X-39.5367 Y46.1582 I-0.0002 J2.0816
G3 X-41.6181 Y48.2391 I-2.0815 J-0.0006
G3 X-43.0006 Y47.7134 I0.0002 J-2.0814
G3 X-42.8899 Y48.4163 I-2.1776 J0.703
G3 X-43.3978 Y49.8538 I-2.2877 J0.0001
G3 X-42.2831 Y49.5637 I1.1151 J1.9981
G3 X-39.9949 Y51.8519 I0.0001 J2.2881
G3 X-42.2831 Y54.1397 I-2.288 J-0.0001
G3 X-44.5709 Y51.8519 I-0.0001 J-2.2877
G3 X-44.0628 Y50.4142 I2.2882 J0.0
G3 X-45.1781 Y50.7042 I-1.1148 J-1.9977
G3 X-46.0804 Y50.5188 I-0.0001 J-2.2881
G3 X-45.3029 Y52.2371 I-1.5107 J1.7187
G3 X-47.5911 Y54.5253 I-2.2883 J-0.0001
G3 X-47.8193 Y54.5139 I-0.0001 J-2.2881
G3 X-46.9216 Y56.3307 I-1.3903 J1.8171
G3 X-49.2098 Y58.6189 I-2.2882 J0.0
G3 X-51.4686 Y56.695 I-0.0002 J-2.2877
G3 X-51.468 Y56.7469 I-2.2876 J0.0519
G3 X-53.7562 Y59.0351 I-2.2883 J-0.0001
G3 X-54.6611 Y58.8485 I0.0 J-2.2882
G0 Z5.0
G0 X-52.0121 Y47.0036
G1 Z0.0
G2 X-52.009 Y46.8868 I-2.1852 J-0.1166
G2 X-52.7507 Y45.2446 I-2.1882 J-0.0002
G2 X-52.2967 Y45.2901 I0.4538 J-2.2422
G2 X-50.0085 Y43.0019 I-0.0001 J-2.2882
G2 X-50.8961 Y41.1928 I-2.288 J0.0003
G2 X-49.4839 Y40.0545 I-0.612 J-2.2043
G2 X-49.4912 Y40.2367 I2.2808 J0.1825
G2 X-48.1604 Y42.315 I2.2881 J0.0001
G2 X-49.4924 Y44.3937 I0.9556 J2.0785
G2 X-48.9347 Y45.8908 I2.2882 J-0.0001
G2 X-49.9294 Y45.6632 I-0.9951 J2.0609
G2 X-52.0121 Y47.0036 I-0.0001 J2.2881
G0 Z5.0
G0 X-49.2276 Y39.1709
G1 Z0.0
G2 X-49.2204 Y38.9884 I-2.2804 J-0.1824
G2 X-51.2655 Y36.7131 I-2.2882 J0.0
G2 X-50.4531 Y34.9715 I-1.4602 J-1.7414
G2 X-52.7255 Y32.6989 I-2.2723 J-0.0002
G2 X-53.5806 Y32.8659 I0.0 J2.2729
G2 X-52.9987 Y31.5021 I-1.3077 J-1.3641
G2 X-53.0976 Y30.8987 I-1.8895 J-0.0001
G2 X-51.7516 Y31.3535 I1.346 J-1.7643
G2 X-50.8881 Y31.1786 I-0.0001 J-2.2191
G2 X-51.0145 Y31.9287 I2.1618 J0.7501
G2 X-49.1265 Y34.1815 I2.2882 J-0.0001
G2 X-50.1414 Y36.0828 I1.2732 J1.9012
G2 X-48.4204 Y38.2996 I2.288 J0.0002
G2 X-49.2276 Y39.1709 I1.2173 J1.9373
G0 Z5.0
G0 X-44.9195 Y41.0635
G1 Z0.0
G3 X-42.9091 Y39.7505 I2.011 J0.8835
G3 X-40.7128 Y41.9468 I-0.0002 J2.1964
G3 X-42.9091 Y44.1427 I-2.1961 J-0.0002
G3 X-45.105 Y41.9468 I-0.0003 J-2.1956
G3 X-44.9195 Y41.0635 I2.1965 J0.0002
G0 Z5.0
G0 X-54.2287 Y39.2678
G1 Z0.0
G3 X-56.3849 Y41.0482 I-2.1566 J-0.416
G3 X-58.5812 Y38.8518 I0.0005 J-2.1968
G3 X-56.3849 Y36.6558 I2.1959 J0.0
G3 X-54.189 Y38.8518 I0.0 J2.1959
G3 X-54.2287 Y39.2678 I-2.1963 J0.0001
G0 Z5.0
G0 X-56.3856 Y41.6888
G1 Z0.0
G3 X-55.6863 Y43.2483 I-1.3896 J1.5597
G3 X-57.775 Y45.3373 I-2.0887 J0.0003
G3 X-59.8638 Y43.2483 I-0.0003 J-2.0886
G3 X-57.775 Y41.1596 I2.089 J0.0003
G3 X-56.3856 Y41.6888 I-0.0002 J2.0889
G0 Z5.0
G0 X-57.6993 Y36.7167
G1 Z0.0
G3 X-58.2368 Y36.7865 I-0.5375 J-2.0343
G3 X-60.3411 Y34.6825 I-0.0001 J-2.1043
G3 X-58.2368 Y32.5784 I2.1038 J-0.0002
G3 X-56.1328 Y34.6825 I0.0 J2.104
G3 X-57.6993 Y36.7167 I-2.1041 J0.0
G0 Z5.0
G0 X-59.2817 Y32.111
G1 Z0.0
G3 X-59.9105 Y32.2161 I-0.6289 J-1.8305
G3 X-61.846 Y30.2809 I-0.0004 J-1.9351
G3 X-59.9105 Y28.3452 I1.9354 J-0.0003
G3 X-57.9751 Y30.2809 I-0.0004 J1.9357
G3 X-59.2817 Y32.111 I-1.9355 J-0.0003
G0 Z5.0
G0 X-58.0551 Y29.0797
G1 Z0.0
G3 X-59.4418 Y27.0226 I0.8324 J-2.057
G3 X-57.2227 Y24.8035 I2.2191 J0.0
G3 X-55.0036 Y27.0226 I0.0002 J2.2189
G3 X-57.2227 Y29.2417 I-2.219 J0.0001
G3 X-58.0551 Y29.0797 I0.0 J-2.219
G0 Z5.0
G0 X-60.6492 Y26.0205
G1 Z0.0
G3 X-61.6036 Y26.3706 I-0.9541 J-1.1252
G3 X-63.0793 Y24.8951 I-0.0004 J-1.4753
G3 X-61.6036 Y23.4192 I1.4755 J-0.0004
G3 X-60.1281 Y24.8951 I-0.0002 J1.4756
G3 X-60.6492 Y26.0205 I-1.4752 J0.0002
G0 Z5.0
G0 X-58.4045 Y24.0197
G1 Z0.0
G3 X-58.9477 Y22.5942 I1.5996 J-1.4258
G3 X-56.8052 Y20.4517 I2.1425 J0.0
G3 X-54.6627 Y22.5942 I0.0001 J2.1424
G3 X-56.8052 Y24.7367 I-2.1427 J-0.0002
G3 X-58.4045 Y24.0197 I0.0003 J-2.1428
G0 Z5.0
G0 X-59.4283 Y21.869
G1 Z0.0
G3 X-60.3396 Y22.0748 I-0.9108 J-1.9135
G3 X-62.4589 Y19.9554 I0.0 J-2.1193
G3 X-60.3396 Y17.8361 I2.1193 J0.0
G3 X-58.2199 Y19.9554 I0.0001 J2.1196
G3 X-59.4283 Y21.869 I-2.1192 J0.0001
G0 Z5.0
G0 X-57.2084 Y19.684
G1 Z0.0
G3 X-57.8262 Y18.1755 I1.5325 J-1.5085
G3 X-57.2196 Y16.6787 I2.15 J0.0
G3 X-57.906 Y16.7903 I-0.6863 J-2.0536
G3 X-60.0713 Y14.625 I0.0 J-2.1653
G3 X-59.5208 Y13.1825 I2.1653 J0.0
G3 X-60.2574 Y13.3132 I-0.7366 J-2.012
G3 X-62.3998 Y11.1708 I0.0 J-2.1425
G3 X-60.4453 Y9.0366 I2.1426 J0.0001
G3 X-61.3888 Y7.2208 I1.2756 J-1.8157
G3 X-59.1697 Y5.0017 I2.2191 J0.0
G3 X-58.8982 Y5.0184 I-0.0001 J2.2191
G3 X-59.9794 Y3.1353 I1.0996 J-1.8832
G3 X-58.1915 Y0.99 I2.1808 J-0.0002
G3 X-58.911 Y-0.6526 I1.5146 J-1.6423
G3 X-58.903 Y-0.8423 I2.2344 J0.0
G3 X-59.507 Y-0.7561 I-0.6036 J-2.071
G3 X-61.6648 Y-2.9136 I-0.0004 J-2.1574
G3 X-60.8673 Y-4.5887 I2.1577 J0.0
G3 X-62.5455 Y-6.6616 I0.4411 J-2.0729
G3 X-60.7778 Y-8.7519 I2.1196 J-0.0001
G3 X-61.0744 Y-8.7312 I-0.2963 J-2.1139
G3 X-63.2091 Y-10.8659 I0.0 J-2.1346
G3 X-61.0744 Y-13.0008 I2.1349 J-0.0001
G3 X-59.8659 Y-12.6259 I0.0 J2.1348
G3 X-59.8859 Y-12.9226 I2.1992 J-0.2968
G3 X-59.7919 Y-13.5617 I2.2191 J0.0
G3 X-61.2139 Y-13.0087 I-1.4218 J-1.5513
G3 X-63.3179 Y-15.1127 I0.0002 J-2.1042
G3 X-62.87 Y-16.4108 I2.1038 J-0.0004
G3 X-64.3671 Y-17.1372 I0.0549 J-2.0191
G3 X-64.1895 Y-16.28 I-1.9804 J0.8573
G3 X-64.8701 Y-14.7073 I-2.1582 J-0.0003
G3 X-62.978 Y-12.7278 I-0.0894 J1.9795
G3 X-64.9592 Y-10.7464 I-1.9815 J-0.0001
G3 X-66.9408 Y-12.7278 I0.0001 J-1.9817
G3 X-66.367 Y-14.1223 I1.9815 J0.0001
G3 X-68.5051 Y-16.28 I0.0196 J-2.1577
G3 X-66.3473 Y-18.4378 I2.1577 J-0.0001
G3 X-64.6763 Y-17.6451 I-0.0002 J2.158
G3 X-64.835 Y-18.43 I1.8612 J-0.7848
G3 X-63.0603 Y-20.4349 I2.02 J0.0001
G3 X-64.373 Y-22.3741 I0.7761 J-1.9393
G3 X-63.3465 Y-24.1729 I2.0884 J-0.0005
G3 X-64.7207 Y-26.1464 I0.7301 J-1.9736
G3 X-64.0885 Y-27.6502 I2.1041 J-0.0003
G3 X-65.9964 Y-29.6814 I0.1269 J-2.0308
G3 X-64.9833 Y-31.4413 I2.0352 J0.0001
G3 X-66.0669 Y-32.2445 I0.6884 J-2.0612
G3 X-68.1122 Y-30.8475 I-2.0457 J-0.7992
G3 X-69.5131 Y-31.3522 I-0.0001 J-2.1962
G3 X-69.4029 Y-30.6568 I-2.1395 J0.6953
G3 X-69.494 Y-30.0233 I-2.2498 J0.0
G3 X-68.1917 Y-30.4492 I1.3023 J1.7779
G3 X-65.9879 Y-28.2454 I0.0003 J2.2035
G3 X-66.5129 Y-26.8177 I-2.2036 J0.0001
G3 X-64.4922 Y-24.6288 I-0.1758 J2.1895
G3 X-65.6975 Y-22.6689 I-2.1965 J-0.0002
G3 X-64.3402 Y-20.665 I-0.8004 J2.0038
G3 X-66.498 Y-18.5075 I-2.1573 J0.0002
G3 X-68.6558 Y-20.665 I-0.0002 J-2.1576
G3 X-67.4869 Y-22.5828 I2.1578 J0.0
G3 X-68.8845 Y-24.6288 I0.7986 J-2.0458
G3 X-68.3641 Y-26.0484 I2.1956 J-0.0004
G3 X-70.3955 Y-28.2454 I0.1724 J-2.1971
G3 X-70.3106 Y-28.8512 I2.2038 J0.0
G3 X-71.6526 Y-28.4071 I-1.3421 J-1.8056
G3 X-73.9024 Y-30.6568 I0.0001 J-2.2499
G3 X-73.4921 Y-31.9521 I2.2498 J0.0
G3 X-74.6188 Y-31.6471 I-1.1268 J-1.9295
G3 X-76.6636 Y-32.9809 I0.0002 J-2.2346
G3 X-78.333 Y-32.203 I-1.6699 J-1.4031
G3 X-78.7511 Y-32.2435 I0.0003 J-2.1812
G3 X-78.5859 Y-31.432 I-1.9081 J0.811
G3 X-80.6593 Y-29.3586 I-2.0734 J0.0
G3 X-82.7328 Y-31.432 I-0.0001 J-2.0734
G3 X-80.6593 Y-33.5058 I2.0738 J0.0001
G3 X-80.3165 Y-33.4772 I0.0001 J2.0733
G3 X-80.514 Y-34.3839 I1.9837 J-0.9069
G3 X-79.8106 Y-35.9878 I2.1808 J0.0002
G3 X-81.1289 Y-37.9857 I0.8549 J-1.998
G3 X-78.9557 Y-40.1588 I2.1735 J0.0004
G3 X-76.9045 Y-38.7033 I-0.0003 J2.1734
G3 X-76.9051 Y-38.7556 I2.2871 J-0.0522
G3 X-75.215 Y-40.9643 I2.2883 J0.0001
G3 X-76.8589 Y-41.9937 I0.2556 J-2.2354
G3 X-78.8355 Y-40.2292 I-1.9762 J-0.2243
G3 X-80.8245 Y-42.2185 I0.0001 J-1.9891
G3 X-78.8355 Y-44.2076 I1.9892 J0.0001
G3 X-77.204 Y-43.3565 I0.0001 J1.9892
G3 X-76.7087 Y-44.6148 I2.2442 J0.1567
G3 X-77.2966 Y-44.5361 I-0.5878 J-2.1557
G3 X-79.531 Y-46.7705 I0.0 J-2.2343
G3 X-78.3134 Y-48.76 I2.2345 J0.0001
G3 X-79.8747 Y-50.8511 I0.6193 J-2.0908
G3 X-79.3342 Y-52.2881 I2.1808 J0.0001
G3 X-80.9021 Y-54.3694 I0.5975 J-2.0814
G3 X-78.7364 Y-56.5348 I2.1657 J0.0002
G3 X-77.9913 Y-56.4025 I-0.0002 J2.1655
G3 X-78.3562 Y-57.5916 I1.7547 J-1.1889
G3 X-76.29 Y-59.7102 I2.1191 J-0.0002
G3 X-76.831 Y-60.801 I1.6698 J-1.5078
G3 X-78.2952 Y-60.143 I-1.4643 J-1.3005
G3 X-80.254 Y-62.1014 I-0.0002 J-1.9586
G3 X-78.2952 Y-64.0599 I1.9584 J-0.0001
G3 X-76.3999 Y-62.5942 I-0.0003 J1.9586
G3 X-75.9062 Y-63.064 I1.7797 J1.3763
G3 X-77.691 Y-65.2961 I0.5033 J-2.2322
G3 X-76.0768 Y-67.4826 I2.2876 J-0.0002
G3 X-76.4689 Y-68.04 I1.642 J-1.5716
G3 X-78.4836 Y-66.7813 I-2.015 J-0.9834
G3 X-78.8145 Y-66.8059 I0.0003 J-2.2425
G3 X-78.4233 Y-65.6366 I-1.5523 J1.1693
G3 X-80.3664 Y-63.6935 I-1.9434 J-0.0003
G3 X-82.3099 Y-65.6366 I0.0 J-1.9435
G3 X-80.3664 Y-67.58 I1.9432 J-0.0002
G3 X-80.1927 Y-67.5722 I-0.0004 J1.9434
G3 X-80.7259 Y-69.0235 I1.7093 J-1.4516
G3 X-79.8918 Y-70.7682 I2.242 J0.0001
G3 X-80.8095 Y-70.5626 I-0.9174 J-1.9445
G3 X-82.9596 Y-72.7126 I0.0001 J-2.1502
G3 X-82.7678 Y-73.6004 I2.1503 J0.0
G3 X-83.0677 Y-73.5801 I-0.3 J-2.2063
G3 X-85.2779 Y-75.5341 I-0.0001 J-2.2268
G3 X-86.2722 Y-74.5392 I-2.0142 J-1.0187
G3 X-86.1653 Y-74.542 I0.107 J2.0323
G3 X-84.1301 Y-72.5066 I-0.0004 J2.0356
G3 X-86.1653 Y-70.4717 I-2.0349 J0.0
G3 X-88.2003 Y-72.5066 I0.0 J-2.035
G3 X-87.1242 Y-74.3019 I2.0351 J-0.0003
G3 X-87.2922 Y-74.2957 I-0.1679 J-2.2509
G3 X-89.5497 Y-76.5528 I0.0 J-2.2575
G3 X-89.5065 Y-76.992 I2.2578 J0.0002
G3 X-90.5618 Y-76.7281 I-1.0554 J-1.9784
G3 X-92.8037 Y-78.9703 I0.0 J-2.2419
G3 X-92.7619 Y-79.4017 I2.2419 J-0.0004
G3 X-93.6043 Y-79.2398 I-0.8424 J-2.1107
G3 X-95.8772 Y-81.5127 I0.0 J-2.2729
G3 X-94.3319 Y-83.6658 I2.2723 J-0.0002
G3 X-96.1757 Y-85.8851 I0.4137 J-2.2193
G3 X-95.4103 Y-87.5789 I2.2574 J0.0002
G3 X-95.8811 Y-87.5294 I-0.4709 J-2.2157
G3 X-98.1462 Y-89.7944 I-0.0002 J-2.2648
G3 X-95.8811 Y-92.0598 I2.2654 J0.0001
G3 X-93.6161 Y-89.7944 I0.0 J2.2651
G3 X-94.3856 Y-88.0934 I-2.2652 J-0.0002
G3 X-93.9181 Y-88.1423 I0.4673 J2.2085
G3 X-91.6609 Y-85.8851 I-0.0001 J2.2573
G3 X-93.192 Y-83.7475 I-2.2572 J0.0003
G3 X-91.3318 Y-81.5127 I-0.412 J2.2346
G3 X-91.3775 Y-81.059 I-2.2726 J0.0003
G3 X-90.5618 Y-81.2126 I0.8157 J2.0883
G3 X-88.6245 Y-80.0993 I-0.0001 J2.2423
G3 X-88.8445 Y-81.0745 I2.0529 J-0.9755
G3 X-88.6635 Y-81.9635 I2.2728 J-0.0001
G3 X-89.2365 Y-81.8891 I-0.5727 J-2.1675
G3 X-91.4784 Y-84.131 I-0.0002 J-2.2417
G3 X-90.3309 Y-86.0879 I2.2422 J0.0
G3 X-92.1589 Y-88.304 I0.429 J-2.2159
G3 X-91.6983 Y-89.6704 I2.2576 J0.0001
G3 X-93.9055 Y-91.957 I0.0808 J-2.2865
G3 X-93.7143 Y-92.8725 I2.2883 J0.0001
G3 X-95.3448 Y-92.19 I-1.63 J-1.6052
G3 X-96.9951 Y-92.8932 I0.0 J-2.2881
G3 X-99.2759 Y-90.7889 I-2.281 J-0.1841
G3 X-99.2843 I0.0 J-2.2882
G3 X-98.9475 Y-89.594 I-1.9514 J1.1949
G3 X-99.6191 Y-87.9744 I-2.2878 J0.0004
G3 X-98.8859 Y-88.0964 I0.7332 J2.1431
G3 X-96.6208 Y-85.8313 I-0.0001 J2.2651
G3 X-98.8859 Y-83.5663 I-2.2649 J0.0001
G3 X-101.1509 Y-85.8313 I0.0 J-2.2651
G3 X-100.4897 Y-87.4307 I2.2651 J0.0
G3 X-101.2353 Y-87.3058 I-0.7456 J-2.1629
G3 X-103.0159 Y-88.1569 I-0.0001 J-2.2881
G3 X-102.6521 Y-86.9212 I-1.917 J1.2356
G3 X-103.2536 Y-85.3779 I-2.2802 J0.0002
G3 X-103.0157 Y-85.3904 I0.2379 J2.2604
G3 X-100.7429 Y-83.1176 I0.0 J2.2727
G3 X-103.0157 Y-80.845 I-2.2726 J0.0
G3 X-105.2886 Y-83.1176 I0.0 J-2.2729
G3 X-104.6909 Y-84.6537 I2.2728 J0.0
G3 X-104.9325 Y-84.6409 I-0.2414 J-2.2674
G3 X-107.2128 Y-86.9212 I0.0 J-2.2803
G3 X-104.9325 Y-89.2019 I2.2805 J-0.0002
G3 X-103.1583 Y-88.3539 I-0.0003 J2.2807
G3 X-103.5234 Y-89.594 I1.923 J-1.24
G3 X-103.3306 Y-90.5133 I2.2882 J0.0
G3 X-105.3316 Y-89.3348 I-2.0011 J-1.1097
G3 X-107.2916 Y-90.4425 I0.0004 J-2.2885
G3 X-107.0665 Y-89.4652 I-2.0093 J0.9773
G3 X-109.3009 Y-87.2308 I-2.2344 J0.0
G3 X-111.5353 Y-89.4652 I0.0 J-2.2344
G3 X-109.3009 Y-91.6996 I2.2344 J0.0
G3 X-107.3882 Y-90.6202 I0.0 J2.2344
G3 X-107.6198 Y-91.623 I2.0569 J-1.0032
G3 X-106.9459 Y-93.2447 I2.2877 J-0.0002
G3 X-107.1724 Y-93.2335 I-0.2261 J-2.2765
G3 X-108.7209 Y-93.837 I0.0 J-2.2882
G3 X-110.9901 Y-91.7815 I-2.2693 J-0.2249
G3 X-111.5557 Y-91.8527 I-0.0001 J-2.2806
G3 X-111.4962 Y-91.3406 I-2.175 J0.5122
G3 X-113.7306 Y-89.1061 I-2.2344 J0.0
G3 X-115.965 Y-91.3406 I0.0001 J-2.2344
G3 X-115.8404 Y-92.0762 I2.2344 J0.0
G3 X-117.5865 Y-91.2171 I-1.746 J-1.3445
G3 X-119.7903 Y-93.4208 I0.0 J-2.2037
G3 X-117.5865 Y-95.6246 I2.204 J0.0002
G3 X-117.2705 Y-95.6018 I0.0 J2.2037
G3 X-117.8231 Y-97.0929 I1.7354 J-1.4911
G3 X-115.5352 Y-99.381 I2.2882 J0.0
G3 X-113.247 Y-97.0929 I-0.0001 J2.2883
G3 X-115.5352 Y-94.8049 I-2.2885 J-0.0004
G3 X-115.8949 Y-94.8333 I0.0001 J-2.288
G3 X-115.3827 Y-93.4208 I-1.6915 J1.4125
G3 X-115.504 Y-92.6999 I-2.2037 J0.0
G3 X-113.7306 Y-93.575 I1.7734 J1.3593
G3 X-113.2034 Y-93.5119 I-0.0001 J2.2345
G3 X-113.2708 Y-94.0622 I2.2132 J-0.5502
G3 X-111.7738 Y-96.2036 I2.2809 J0.0005
G3 X-113.4044 Y-98.3954 I0.6574 J-2.1916
G3 X-111.5276 Y-100.6462 I2.2883 J0.0002
G3 X-112.4077 Y-102.45 I1.4077 J-1.8034
G3 X-110.4921 Y-104.7077 I2.2882 J0.0
G3 X-111.0283 Y-106.1795 I1.7515 J-1.4716
G3 X-109.9239 Y-108.1376 I2.2882 J0.0
G3 X-110.329 Y-108.7224 I1.6556 J-1.5793
G3 X-111.953 Y-108.0459 I-1.6243 J-1.6119
G3 X-112.2038 Y-108.0597 I0.0 J-2.2882
G3 X-111.0361 Y-106.0644 I-1.1199 J1.9948
G3 X-113.324 Y-103.7763 I-2.2882 J0.0
G3 X-115.6121 Y-106.0644 I0.0001 J-2.2883
G3 X-113.324 Y-108.3526 I2.2882 J0.0001
G3 X-113.0731 Y-108.3388 I0.0002 J2.2877
G3 X-113.8814 Y-109.1024 I1.1201 J-1.9953
G3 X-115.9796 Y-107.7266 I-2.0985 J-0.9126
G3 X-117.9811 Y-108.9058 I0.0001 J-2.2883
G3 X-120.1002 Y-107.4812 I-2.1186 J-0.8631
G3 X-122.1215 Y-108.697 I-0.0001 J-2.288
G3 X-124.0808 Y-107.5911 I-1.9588 J-1.1818
G3 X-125.6808 Y-108.2435 I0.0 J-2.2882
G3 X-127.8418 Y-106.7074 I-2.1608 J-0.7517
G3 X-129.665 Y-107.6129 I-0.0002 J-2.2877
G3 X-131.7567 Y-105.835 I-2.0915 J-0.3413
G3 X-133.8761 Y-107.9543 I0.0002 J-2.1195
G3 X-131.7567 Y-110.0742 I2.1195 J-0.0004
G3 X-130.1106 Y-109.2898 I0.0001 J2.1194
G3 X-127.8418 Y-111.2835 I2.2691 J0.2945
G3 X-126.2418 Y-110.6309 I-0.0002 J2.2883
G3 X-124.0808 Y-112.167 I2.1612 J0.7523
G3 X-123.8183 Y-112.1519 I0.0003 J2.2879
G3 X-125.1914 Y-113.7723 I0.8596 J-2.1204
G3 X-127.4792 Y-111.5271 I-2.2873 J-0.0424
G3 X-129.634 Y-113.0452 I-0.0005 J-2.2877
G3 X-131.9125 Y-110.8582 I-2.2784 J-0.0933
G3 X-134.1932 Y-113.1389 I-0.0001 J-2.2806
G3 X-131.9125 Y-115.4192 I2.2808 J0.0004
G3 X-129.7655 Y-113.9071 I-0.0002 J2.2806
G3 X-127.4792 Y-116.1032 I2.2864 J0.0923
G3 X-125.2463 Y-114.3151 I0.0001 J2.2881
G3 X-122.9586 Y-116.5607 I2.2879 J0.0427
G3 X-122.3235 Y-116.4707 I-0.0001 J2.2883
G3 X-123.553 Y-117.6024 I0.8273 J-2.1326
G3 X-125.6729 Y-116.1757 I-2.1196 J-0.8612
G3 X-127.6944 Y-117.3914 I-0.0005 J-2.2877
G3 X-129.8052 Y-115.9868 I-2.1103 J-0.8831
G3 X-131.8771 Y-117.3042 I-0.0003 J-2.2875
G3 X-133.866 Y-116.0393 I-1.9892 J-0.9317
G3 X-136.062 Y-118.2356 I-0.0002 J-2.1958
G3 X-133.866 Y-120.4315 I2.1958 J-0.0001
G3 X-131.8955 Y-119.205 I-0.0002 J2.1964
G3 X-129.8052 Y-120.5629 I2.0902 J0.9299
G3 X-127.7838 Y-119.3468 I-0.0001 J2.2883
G3 X-125.6729 Y-120.7518 I2.1109 J0.8833
G3 X-123.6155 Y-119.465 I0.0001 J2.288
G3 X-121.4958 Y-120.8919 I2.1196 J0.8608
G3 X-119.4602 Y-119.6486 I-0.0001 J2.2883
G3 X-117.43 Y-120.8812 I2.0303 J1.0556
G3 X-115.5113 Y-119.8392 I-0.0002 J2.288
G3 X-113.5455 Y-120.9563 I1.9658 J1.1711
G3 X-111.7136 Y-120.0393 I0.0001 J2.2881
G3 X-109.8907 Y-120.9444 I1.8229 J1.3831
G3 X-108.2693 Y-120.2707 I0.0002 J2.2877
G3 X-106.1952 Y-121.5931 I2.0741 J0.9655
G3 X-104.0446 Y-120.0867 I0.0002 J2.2879
G3 X-102.6775 Y-120.54 I1.3671 J1.8349
G3 X-101.3365 Y-120.1059 I0.0 J2.2882
G3 X-99.4062 Y-121.1652 I1.9303 J1.2288
G3 X-97.6209 Y-120.3082 I0.0 J2.2882
G3 X-95.9208 Y-121.0649 I1.7001 J1.5315
G3 X-94.1417 Y-120.2152 I-0.0003 J2.288
G3 X-92.3625 Y-121.0642 I1.7787 J1.4387
G3 X-90.6385 Y-120.2805 I0.0003 J2.2876
G3 X-88.7676 Y-121.2513 I1.8709 J1.3175
G3 X-86.8752 Y-120.2488 I-0.0004 J2.2882
G3 X-84.9754 Y-121.2618 I1.9 J1.2754
G3 X-83.0737 Y-120.2461 I0.0002 J2.2877
G3 X-81.3394 Y-121.0542 I1.7342 J1.4568
G3 X-79.4497 Y-120.038 I0.0 J2.265
G3 X-77.4415 Y-121.2296 I2.0083 J1.0966
G3 X-75.3404 Y-119.8477 I0.0 J2.2882
G3 X-73.2297 Y-121.2647 I2.1104 J0.8631
G3 X-71.0037 Y-119.4801 I0.0 J2.2807
G3 X-68.7759 Y-121.2459 I2.2279 J0.5226
G3 X-66.4877 Y-118.9576 I0.0 J2.2881
G3 X-67.0238 Y-117.4859 I-2.2882 J0.0
G3 X-66.5872 Y-117.5288 I0.4364 J2.1988
G3 X-65.8612 Y-117.408 I-0.0002 J2.2424
G3 X-66.4295 Y-118.9111 I1.7047 J-1.5035
G3 X-64.1566 Y-121.1839 I2.2729 J0.0
G3 X-61.8841 Y-118.9111 I0.0001 J2.2724
G3 X-62.6617 Y-117.1993 I-2.2724 J0.0002
G3 X-61.9867 Y-117.3097 I0.675 J2.009
G3 X-59.8674 Y-115.1904 I0.0 J2.1193
G3 X-60.5418 Y-113.6398 I-2.1192 J0.0001
G3 X-59.665 Y-113.8143 I0.8763 J2.1132
G3 X-57.4349 Y-112.0384 I0.0 J2.2882
G3 X-56.9629 Y-113.2231 I2.2775 J0.221
G3 X-57.2712 Y-113.2017 I-0.3083 J-2.2131
G3 X-59.5056 Y-115.4361 I0.0 J-2.2344
G3 X-59.137 Y-116.6655 I2.2343 J0.0
G3 X-59.4767 Y-116.6398 I-0.3398 J-2.2319
G3 X-61.7343 Y-118.8974 I0.0004 J-2.258
G3 X-59.4767 Y-121.1549 I2.2579 J0.0004
G3 X-57.2192 Y-118.8974 I-0.0001 J2.2576
G3 X-57.5974 Y-117.6466 I-2.2576 J-0.0001
G3 X-57.2712 Y-117.6705 I0.3261 J2.2104
G3 X-55.0368 Y-115.4361 I-0.0001 J2.2345
G3 X-55.495 Y-114.0805 I-2.2345 J-0.0001
G3 X-55.1574 Y-114.1056 I0.3376 J2.2631
G3 X-54.3614 Y-113.9626 I-0.0001 J2.2883
G3 X-54.9495 Y-115.494 I1.7002 J-1.5315
G3 X-54.5415 Y-116.7981 I2.2883 J0.0001
G3 X-56.7242 Y-119.0544 I0.0752 J-2.2566
G3 X-54.4666 Y-121.3116 I2.2571 J-0.0002
G3 X-52.2091 Y-119.0544 I0.0 J2.2575
G3 X-52.6021 Y-117.7815 I-2.2574 J0.0001
G3 X-50.4646 Y-116.1346 I-0.0591 J2.2874
G3 X-49.8572 Y-116.6095 I1.6834 J1.5273
G3 X-51.6493 Y-118.8433 I0.4961 J-2.2337
G3 X-49.3611 Y-121.1314 I2.2882 J0.0
G3 X-47.0729 Y-118.8433 I-0.0001 J2.2883
G3 X-48.2831 Y-116.825 I-2.2883 J-0.0001
G3 X-47.6094 Y-116.5547 I-0.4985 J2.2175
G3 X-46.2816 Y-117.8618 I2.1123 J0.8177
G3 X-46.6899 Y-119.1641 I1.8717 J-1.3021
G3 X-44.4097 Y-121.4445 I2.28 J-0.0004
G3 X-42.1294 Y-119.1641 I0.0002 J2.2802
G3 X-42.6393 Y-117.7267 I-2.28 J0.0004
G3 X-41.8027 Y-118.0897 I1.3107 J1.8756
G3 X-42.0488 Y-119.1179 I2.0272 J-1.0286
G3 X-39.7759 Y-121.3907 I2.2729 J0.0
G3 X-37.6887 Y-120.0174 I-0.0001 J2.273
G3 X-35.6702 Y-121.2278 I2.0185 J1.0777
G3 X-33.6784 Y-120.0659 I-0.0001 J2.2883
G3 X-31.6436 Y-121.3169 I2.0349 J1.0294
G3 X-29.6999 Y-120.2291 I-0.0001 J2.2804
G3 X-27.746 Y-121.3338 I1.954 J1.1757
G3 X-25.8821 Y-120.3676 I0.0003 J2.2804
G3 X-24.0507 Y-121.2891 I1.8312 J1.3587
G3 X-22.3243 Y-120.4984 I-0.0002 J2.2806
G3 X-20.6148 Y-121.2693 I1.7091 J1.5091
G3 X-18.3346 Y-118.989 I0.0 J2.2802
G3 X-19.8118 Y-116.8546 I-2.28 J0.0004
G3 X-19.4277 Y-115.586 I-1.9041 J1.269
G3 X-21.7159 Y-113.2978 I-2.2883 J-0.0001
G3 X-21.7943 Y-113.2991 I0.0 J-2.2882
G3 X-21.6068 Y-112.3922 I-2.1007 J0.9073
G3 X-23.895 Y-110.1041 I-2.2884 J-0.0004
G3 X-24.1178 Y-110.115 I0.0002 J-2.2881
G3 X-23.8739 Y-109.087 I-2.0438 J1.028
G3 X-26.1619 Y-106.799 I-2.2881 J-0.0001
G3 X-26.3744 Y-106.8088 I-0.0003 J-2.2879
G3 X-26.1271 Y-105.7744 I-2.041 J1.0346
G3 X-28.4153 Y-103.4867 I-2.2879 J-0.0002
G3 X-28.6575 Y-103.4995 I-0.0002 J-2.2879
G3 X-28.6518 Y-103.3383 I-2.282 J0.161
G3 X-30.924 Y-101.0503 I-2.2884 J-0.0004
G3 X-30.6842 Y-100.0305 I-2.0484 J1.0198
G3 X-32.9724 Y-97.7426 I-2.2883 J-0.0004
G3 X-34.5656 Y-98.3886 I-0.0001 J-2.2877
G3 X-34.6471 Y-98.231 I-2.0718 J-0.9714
G3 X-32.9526 Y-96.0211 I-0.5936 J2.2099
G3 X-35.2407 Y-93.733 I-2.2882 J0.0
G3 X-37.3589 Y-95.1556 I0.0 J-2.2882
G3 X-37.9505 Y-94.3134 I-2.0685 J-0.8243
G3 X-37.6172 Y-94.3398 I0.3334 J2.0933
G3 X-35.4978 Y-92.22 I-0.0004 J2.1197
G3 X-37.6172 Y-90.1006 I-2.1194 J0.0
G3 X-39.5432 Y-91.3353 I0.0 J-2.1196
G3 X-40.0169 Y-90.5365 I-2.1573 J-0.7393
G3 X-38.6286 Y-88.4379 I-0.8921 J2.0987
G3 X-40.9089 Y-86.1575 I-2.2806 J-0.0002
G3 X-42.9272 Y-87.3763 I-0.0002 J-2.2802
G3 X-43.2667 Y-86.882 I-2.0392 J-1.0371
G3 X-41.9273 Y-84.8097 I-0.9335 J2.0723
G3 X-44.2002 Y-82.5368 I-2.2729 J-0.0001
G3 X-46.0718 Y-83.5205 I0.0004 J-2.2731
G3 X-46.3323 Y-83.2741 I-1.6978 J-1.534
G3 X-45.2022 Y-81.3006 I-1.1582 J1.9736
G3 X-47.4904 Y-79.0124 I-2.2883 J-0.0001
G3 X-47.6821 Y-79.0205 I0.0004 J-2.2882
G3 X-46.4619 Y-77.0016 I-1.0602 J2.019
G3 X-48.7423 Y-74.7212 I-2.2805 J-0.0001
G3 X-50.311 Y-75.3464 I-0.0003 J-2.28
G3 X-50.6904 Y-74.9095 I-1.9034 J-1.27
G3 X-49.5986 Y-73.791 I-0.9931 J2.0615
G3 X-47.9214 Y-74.7101 I1.6767 J1.07
G3 X-45.9324 Y-72.7208 I-0.0002 J1.9892
G3 X-47.9214 Y-70.7318 I-1.9892 J-0.0003
G3 X-47.9408 Y-70.7319 I-0.0005 J-1.989
G3 X-47.5654 Y-69.8534 I-1.8702 J1.3188
G3 X-46.1999 Y-70.345 I1.3656 J1.651
G3 X-44.0574 Y-68.2025 I0.0 J2.1425
G3 X-44.699 Y-66.6738 I-2.1427 J-0.0003
G3 X-43.6111 Y-65.1301 I-1.1598 J1.9725
G3 X-42.3448 Y-65.85 I1.6734 J1.4699
G3 X-42.7777 Y-67.1099 I1.6178 J-1.2602
G3 X-40.7272 Y-69.1604 I2.0507 J0.0001
G3 X-38.9855 Y-68.1918 I0.0 J2.0503
G3 X-36.9993 Y-69.7837 I1.9866 J0.4436
G3 X-34.964 Y-67.7485 I0.0001 J2.0352
G3 X-36.9993 Y-65.7136 I-2.0352 J-0.0003
G3 X-38.7248 Y-66.6697 I0.0001 J-2.0351
G3 X-40.252 Y-65.1153 I-2.0027 J-0.4403
G3 X-39.7115 Y-63.6606 I-1.6858 J1.4543
G3 X-39.9922 Y-62.5781 I-2.2262 J0.0004
G3 X-39.0351 Y-62.0939 I-0.5112 J2.1983
G3 X-39.2405 Y-63.018 I1.9751 J-0.9241
G3 X-37.0599 Y-65.1989 I2.1807 J-0.0003
G3 X-34.8793 Y-63.018 I-0.0002 J2.1808
G3 X-35.7819 Y-61.2512 I-2.1807 J-0.0001
G3 X-35.2123 Y-61.3245 I0.5699 J2.1767
G3 X-32.9623 Y-59.0745 I0.0002 J2.2499
G3 X-33.1037 Y-58.2895 I-2.2496 J0.0001
G3 X-32.2894 Y-58.4501 I0.8138 J1.9813
G3 X-30.1469 Y-56.3079 I0.0001 J2.1424
G3 X-31.5113 Y-54.3117 I-2.1423 J0.0001
G3 X-29.997 Y-52.1586 I-0.7742 J2.1535
G3 X-30.6708 Y-50.537 I-2.2882 J0.0
G3 X-28.5423 Y-48.2834 I-0.1283 J2.2532
G3 X-30.7995 Y-46.0258 I-2.2573 J0.0003
G3 X-31.6878 Y-46.2079 I0.0001 J-2.2576
G3 X-31.5845 Y-45.5283 I-2.185 J0.6797
G3 X-31.5943 Y-45.3168 I-2.2882 J0.0
G3 X-29.9736 Y-46.0705 I1.6207 J1.3656
G3 X-27.8542 Y-43.9509 I-0.0003 J2.1196
G3 X-29.9736 Y-41.8314 I-2.1196 J-0.0001
G3 X-30.6714 Y-41.9495 I0.0 J-2.1193
G3 X-30.6412 Y-41.5799 I-2.2581 J0.37
G3 X-30.6497 Y-41.3835 I-2.2883 J-0.0001
G3 X-29.9908 Y-41.4824 I0.6584 J2.1429
G3 X-27.7489 Y-39.2405 I0.0002 J2.2417
G3 X-29.4856 Y-37.056 I-2.2421 J0.0001
G3 X-27.9769 Y-34.9048 I-0.7794 J2.1512
G3 X-29.8451 Y-32.6557 I-2.2877 J0.0002
G3 X-27.9702 Y-30.4117 I-0.4056 J2.2441
G3 X-30.2504 Y-28.131 I-2.2803 J0.0004
G3 X-31.3164 Y-28.3955 I0.0001 J-2.2805
G3 X-31.4493 Y-27.9462 I-2.2486 J-0.421
G3 X-31.0025 Y-27.9903 I0.4466 J2.2437
G3 X-28.7143 Y-25.7024 I0.0001 J2.288
G3 X-31.0025 Y-23.4142 I-2.2884 J-0.0002
G3 X-31.7421 Y-23.5371 I0.0002 J-2.2881
G3 X-31.4972 Y-22.5075 I-2.043 J1.0299
G3 X-33.3409 Y-20.2629 I-2.2883 J-0.0001
G3 X-32.7931 Y-18.7774 I-1.7404 J1.4856
G3 X-34.8201 Y-16.5042 I-2.2882 J0.0
G3 X-34.2842 Y-15.0607 I-1.6754 J1.4431
G3 X-36.4955 Y-12.8494 I-2.2114 J-0.0002
G3 X-36.5341 Y-12.8497 I-0.0002 J-2.2111
G3 X-36.349 Y-11.9484 I-2.1032 J0.9015
G3 X-38.637 Y-9.6603 I-2.2879 J0.0003
G3 X-39.4698 Y-9.8172 I0.0 J-2.2882
G3 X-39.5977 Y-9.2086 I-2.2824 J-0.1617
G3 X-39.1242 Y-9.2613 I0.4731 J2.0972
G3 X-36.9742 Y-7.1113 I0.0 J2.15
G3 X-39.1242 Y-4.9613 I-2.15 J0.0
G3 X-40.568 Y-5.5182 I0.0002 J-2.1505
G3 X-40.7378 Y-4.9199 I-2.2657 J-0.3196
G3 X-38.6514 Y-2.6406 I-0.2018 J2.2793
G3 X-40.6799 Y-0.3672 I-2.2882 J0.0
G3 X-40.5134 Y0.4903 I-2.121 J0.857
G3 X-41.1881 Y2.1128 I-2.2882 J-0.0001
G3 X-40.1514 Y3.6407 I-0.6075 J1.5278
G3 X-41.7957 Y5.285 I-1.6442 J0.0
G3 X-43.44 Y3.6407 I0.0 J-1.6443
G3 X-43.1763 Y2.7475 I1.6442 J-0.0001
G3 X-43.9789 Y2.4521 I0.3751 J-2.2573
G3 X-43.7694 Y3.4087 I-2.0787 J0.9566
G3 X-46.0575 Y5.6968 I-2.2882 J-0.0001
G3 X-46.1891 Y5.693 I0.0 J-2.2882
G3 X-45.6814 Y7.13 I-1.7803 J1.4371
G3 X-47.9696 Y9.4182 I-2.2885 J-0.0004
G3 X-48.99 Y9.178 I0.0001 J-2.2883
G3 X-48.9042 Y9.7981 I-2.2025 J0.6205
G3 X-51.1924 Y12.0862 I-2.2884 J-0.0004
G3 X-53.4806 Y9.7981 I-0.0002 J-2.2879
G3 X-51.1924 Y7.5103 I2.2877 J-0.0001
G3 X-50.172 Y7.7504 I0.0 J2.2882
G3 X-50.2578 Y7.13 I2.2026 J-0.6206
G3 X-50.2357 Y6.8127 I2.2877 J-0.0002
G3 X-50.5104 Y6.8292 I-0.2747 J-2.2716
G3 X-52.1022 Y6.1847 I-0.0001 J-2.2877
G3 X-54.3581 Y8.3634 I-2.2556 J-0.0783
G3 X-54.3583 I-0.0003 J-2.2573
G3 X-53.6063 Y10.0177 I-1.4441 J1.6544
G3 X-53.9858 Y11.2515 I-2.1964 J-0.0002
G3 X-53.8266 Y11.2458 I0.1591 J2.2133
G3 X-51.6075 Y13.4649 I0.0 J2.219
G3 X-53.8266 Y15.684 I-2.2191 J-0.0001
G3 X-55.741 Y14.5873 I-0.0003 J-2.2188
G3 X-55.7407 Y14.625 I-2.165 J0.0377
G3 X-56.3542 Y16.1352 I-2.1653 J0.0
G3 X-55.6759 Y16.0255 I0.678 J2.0403
G3 X-53.5259 Y18.1755 I0.0 J2.15
G3 X-55.6759 Y20.3259 I-2.1499 J0.0006
G3 X-57.2084 Y19.684 I0.0001 J-2.1504
G0 Z5.0
G0 X-56.045 Y13.518
G1 Z0.0
G2 X-57.906 Y12.4597 I-1.8609 J1.107
G2 X-58.6558 Y12.5937 I0.0 J2.1653
G2 X-58.1149 Y11.1708 I-1.6017 J-1.4231
G2 X-59.0034 Y9.4336 I-2.1425 J0.0001
G2 X-57.6605 Y8.8477 I-0.1663 J-2.2129
G2 X-57.9982 Y10.0177 I1.8583 J1.1701
G2 X-55.8023 Y12.214 I2.1959 J0.0004
G2 X-55.6562 Y12.2091 I-0.0005 J-2.1964
G2 X-56.0457 Y13.4649 I1.8295 J1.2557
G2 X-56.045 Y13.518 I2.2188 J0.0003
G0 Z5.0
G0 X-57.2935 Y8.4058
G1 Z0.0
G2 X-56.9506 Y7.2208 I-1.8762 J-1.185
G2 X-58.0577 Y5.3005 I-2.2191 J0.0001
G2 X-57.7988 Y5.3159 I0.259 J-2.1653
G2 X-55.6178 Y3.1353 I-0.0002 J-2.1811
G2 X-56.3009 Y1.55 I-2.1807 J-0.0003
G2 X-55.4373 Y1.2065 I-0.3759 J-2.2027
G2 X-55.4993 Y1.7253 I2.1418 J0.5187
G2 X-53.2955 Y3.9291 I2.2037 J0.0001
G2 X-52.6897 Y3.8441 I0.0 J-2.2038
G2 X-52.7973 Y4.4751 I2.1791 J0.6964
G2 X-54.3581 Y3.8486 I-1.5606 J1.6305
G2 X-56.6157 Y6.1061 I-0.0001 J2.2575
G2 X-55.8251 Y7.8219 I2.2573 J-0.0001
G2 X-57.2935 Y8.4058 I0.0228 J2.1959
G0 Z5.0
G0 X-51.1833 Y2.354
G1 Z0.0
G2 X-51.0917 Y1.7253 I-2.1122 J-0.6288
G2 X-51.1465 Y1.2369 I-2.2038 J0.0001
G2 X-50.312 Y2.2615 I2.1155 J-0.8709
G2 X-50.5104 Y2.2528 I-0.1984 J2.2795
G2 X-51.1833 Y2.354 I-0.0001 J2.2877
G0 Z5.0
G0 X-51.2603 Y0.88
G1 Z0.0
G2 X-52.3106 Y-0.2462 I-2.0352 J0.8453
G2 X-50.724 Y-1.886 I-0.568 J-2.1371
G2 X-50.1273 Y-1.6426 I1.154 J-1.9759
G2 X-51.3188 Y0.3655 I1.0962 J2.0079
G2 X-51.2603 Y0.88 I2.2878 J0.0004
G0 Z5.0
G0 X-49.2293 Y2.6451
G1 Z0.0
G2 X-49.0309 Y2.6537 I0.1982 J-2.2792
G2 X-48.1471 Y2.4761 I0.0 J-2.2882
G2 X-48.3457 Y3.4087 I2.0895 J0.9326
G2 X-47.8379 Y4.8459 I2.2882 J-0.0001
G2 X-47.9696 Y4.8422 I-0.1315 J2.2842
G2 X-48.2444 Y4.8587 I-0.0005 J2.2877
G2 X-48.2222 Y4.541 I-2.266 J-0.3176
G2 X-49.2293 Y2.6451 I-2.2881 J-0.0001
G0 Z5.0
G0 X-46.9414 Y1.2981
G1 Z0.0
G2 X-46.7428 Y0.3655 I-2.0895 J-0.9326
G2 X-46.7844 Y-0.0687 I-2.2882 J0.0003
G2 X-45.5756 Y0.2808 I1.2088 J-1.9156
G2 X-45.0739 Y0.2245 I-0.0001 J-2.2651
G2 X-45.0894 Y0.4903 I2.2727 J0.2658
G2 X-44.8798 Y1.4469 I2.2882 J-0.0001
G2 X-46.0575 Y1.1205 I-1.1778 J1.9619
G2 X-46.9414 Y1.2981 I0.0 J2.2882
G0 Z5.0
G0 X-47.8013 Y-1.5639
G1 Z0.0
G2 X-48.4737 Y-1.8534 I-1.2296 J1.9297
G2 X-47.7999 Y-2.4118 I-1.0964 J-2.0084
G2 X-47.8407 Y-1.9843 I2.2243 J0.4275
G2 X-47.8013 Y-1.5639 I2.2651 J0.0
G0 Z5.0
G0 X-47.3241 Y-3.4242
G1 Z0.0
G2 X-47.2985 Y-3.5862 I-2.2459 J-0.4377
G2 X-47.2112 Y-3.5512 I0.8832 J-2.078
G2 X-47.3241 Y-3.4242 I1.6356 J1.5669
G0 Z5.0
G0 X-44.7819 Y-4.1057
G1 Z0.0
G2 X-44.5761 Y-4.3551 I-1.6336 J-1.558
G2 X-43.0352 Y-3.5586 I1.7428 J-1.4829
G2 X-43.2274 Y-2.6406 I2.096 J0.9181
G2 X-43.0608 Y-1.7831 I2.2877 J0.0005
G2 X-43.3241 Y-1.7373 I0.2596 J2.2734
G2 X-43.3106 Y-1.9843 I-2.2516 J-0.247
G2 X-44.7819 Y-4.1057 I-2.2651 J0.0
G0 Z5.0
G0 X-43.1726 Y-8.1008
G1 Z0.0
G2 X-43.1393 Y-8.1593 I-1.9245 J-1.1351
G2 X-43.0765 Y-8.1131 I1.3874 J-1.8197
G2 X-43.1726 Y-8.1008 I0.2431 J2.2753
G0 Z5.0
G0 X-41.5092 Y-7.7037
G1 Z0.0
G2 X-41.1726 Y-7.7654 I-0.2431 J-2.2752
G2 X-41.2423 Y-7.482 I2.048 J0.654
G2 X-41.5092 Y-7.7037 I-1.5914 J1.6441
G0 Z5.0
G0 X-43.7791 Y-11.0402
G1 Z0.0
G2 X-44.5837 Y-11.4105 I-1.3181 J1.8042
G2 X-44.4618 Y-12.137 I-2.1048 J-0.7267
G2 X-45.28 Y-13.8619 I-2.2266 J-0.0003
G2 X-44.6633 Y-14.4049 I-1.1378 J-1.9142
G2 X-44.7375 Y-13.8267 I2.2139 J0.5782
G2 X-43.2701 Y-11.6909 I2.2876 J0.0003
G2 X-43.7791 Y-11.0402 I1.5182 J1.7121
G0 Z5.0
G0 X-40.9314 Y-12.1148
G1 Z0.0
G2 X-40.9182 Y-12.1266 I-1.5178 J-1.7118
G2 X-40.9195 Y-12.1102 I2.2815 J0.1786
G2 X-40.9314 Y-12.1148 I-0.8329 J2.1313
G0 Z5.0
G0 X-40.1684 Y-13.6483
G1 Z0.0
G2 X-40.1615 Y-13.8267 I-2.2808 J-0.1782
G2 X-41.6306 Y-15.9632 I-2.2883 J0.0001
G2 X-41.4197 Y-16.1719 I-1.4845 J-1.7112
G2 X-39.4847 Y-15.1048 I1.9351 J-1.2212
G2 X-38.6992 Y-15.2439 I0.0 J-2.2882
G2 X-38.7068 Y-15.0607 I2.2039 J0.1831
G2 X-38.5468 Y-14.2347 I2.2111 J0.0002
G2 X-38.637 Y-14.2365 I-0.0905 J2.2864
G2 X-40.1684 Y-13.6483 I0.0003 J2.2884
G0 Z5.0
G0 X-43.9383 Y-15.5641
G1 Z0.0
G2 X-44.2601 Y-15.2256 I1.489 J1.7374
G2 X-44.193 Y-15.6822 I-2.1576 J-0.5505
G2 X-43.9383 Y-15.5641 I1.0785 J-1.9922
G0 Z5.0
G0 X-44.2716 Y-19.6217
G1 Z0.0
G2 X-44.3721 Y-20.2693 I-2.2345 J0.0151
G2 X-43.9694 Y-19.772 I1.9505 J-1.1674
G2 X-44.2716 Y-19.6217 I0.8547 J2.0976
G0 Z5.0
G0 X-44.5911 Y-20.7581
G1 Z0.0
G2 X-45.3678 Y-21.5295 I-1.915 J1.1515
G2 X-44.7297 Y-23.0962 I-1.6041 J-1.5667
G2 X-44.73 Y-23.1354 I-2.2423 J0.0004
G2 X-44.1264 Y-22.9397 I0.9933 J-2.0357
G2 X-44.6947 Y-21.4363 I1.704 J1.5033
G2 X-44.5911 Y-20.7581 I2.2732 J-0.0005
G0 Z5.0
G0 X-41.5689 Y-19.3298
G1 Z0.0
G2 X-40.3005 Y-20.6215 I-0.8533 J-2.1066
G2 X-39.5876 Y-19.6789 I2.1195 J-0.8622
G2 X-41.2085 Y-18.8977 I0.103 J2.286
G2 X-41.5689 Y-19.3298 I-1.9064 J1.2234
G0 Z5.0
G0 X-40.319 Y-22.2982
G1 Z0.0
G2 X-41.0644 Y-23.259 I-2.1025 J0.8616
G2 X-39.9935 Y-22.8797 I1.2649 J-1.8697
G2 X-40.319 Y-22.2982 I1.8127 J1.3967
G0 Z5.0
G0 X-41.1481 Y-23.3184
G1 Z0.0
G2 X-42.0352 Y-23.6757 I-1.2734 J1.8818
G2 X-41.7756 Y-24.0373 I-1.7013 J-1.4953
G2 X-41.1481 Y-23.3184 I1.976 J-1.0914
G0 Z5.0
G0 X-41.7517 Y-26.2624
G1 Z0.0
G2 X-42.2873 Y-26.9118 I-1.9853 J1.0916
G2 X-41.5358 Y-26.5716 I1.3009 J-1.8734
G2 X-41.7517 Y-26.2624 I1.7359 J1.4426
G0 Z5.0
G0 X-42.4454 Y-27.0321
G1 Z0.0
G2 X-43.0561 Y-27.3316 I-1.2917 J1.8613
G2 X-42.903 Y-27.5488 I-1.7781 J-1.4157
G2 X-42.4454 Y-27.0321 I1.9166 J-1.2363
G0 Z5.0
G0 X-45.512 Y-26.5778
G1 Z0.0
G2 X-46.0018 Y-25.171 I1.7757 J1.4071
G2 X-46.0012 Y-25.117 I2.2651 J-0.0001
G2 X-46.3114 Y-25.2386 I-0.9708 J2.0212
G2 X-45.7392 Y-26.6623 I-1.646 J-1.4884
G2 X-45.512 Y-26.5778 I0.9047 J-2.0844
G0 Z5.0
G0 X-47.1066 Y-28.7767
G1 Z0.0
G2 X-47.5493 Y-28.9085 I-0.8513 J2.0499
G2 X-47.0922 Y-29.0044 I-0.2373 J-2.268
G2 X-47.1066 Y-28.7767 I2.2578 J0.2566
G0 Z5.0
G0 X-48.1976 Y-28.9334
G1 Z0.0
G2 X-49.0904 Y-28.6355 I0.24 J2.2058
G2 X-50.3925 Y-30.2495 I-2.2181 J0.4573
G2 X-50.0321 Y-30.7777 I-1.685 J-1.5366
G2 X-48.1976 Y-28.9334 I2.2453 J-0.3989
G0 Z5.0
G0 X-50.124 Y-26.2475
G1 Z0.0
G2 X-50.0757 Y-26.0658 I2.1664 J-0.4791
G2 X-50.2588 Y-26.171 I-1.2187 J1.9093
G2 X-50.124 Y-26.2475 I-1.0497 J-2.0068
G0 Z5.0
