( Made using CamBam - http://www.cambam.co.uk )
( Untitled 1/2/2014 11:40:34 PM )
( T0 : 0.0 )
G21 G90 G64 G40
G0 Z3.0
( T0 : 0.0 )
T0 M6
( Profile1 )
G17
M3 S1000
G0 X30.3565 Y17.7712
G0 Z1.4
G1 F300.0 Z0.0
G2 F800.0 X33.0078 Y24.4688 I15.6787 J-2.333
G2 X39.8281 Y28.3359 I7.0133 J-4.421
G2 X44.9609 Y26.2266 I0.3978 J-6.3317
G2 X46.3623 Y23.355 I-5.6034 J-4.5124
G2 X46.7188 Y20.1797 I-12.6352 J-3.0259
G1 Y10.1953
G2 X42.8516 Y5.7656 I-11.3304 J5.9887
G2 X38.0703 Y4.1484 I-4.9193 J6.6674
G2 X32.375 Y7.0313 I-0.1291 J6.8122
G2 X30.6604 Y10.7591 I8.5835 J6.2063
G2 X30.1953 Y14.8359 I16.2012 J3.913
G2 X30.3565 Y17.7712 I15.8399 J0.6022
G0 Z3.0
G0 X78.7129 Y16.8665
G0 Z1.4
G1 F300.0 Z0.0
G2 F800.0 X79.2404 Y20.7058 I16.4787 J-0.3083
G2 X81.1719 Y24.6094 I10.3811 J-2.7069
G2 X87.7813 Y27.7734 I6.4063 J-4.8969
G2 X91.4568 Y26.6734 I0.0793 J-6.4256
G2 X94.0391 Y23.8359 I-5.1959 J-7.3223
G2 X95.9353 Y18.8664 I-13.1472 J-7.8631
G2 X96.4297 Y13.5703 I-25.7733 J-5.0771
G2 X95.9367 Y9.0184 I-19.4089 J-0.2006
G2 X94.0391 Y4.8516 I-10.967 J2.4791
G2 X87.6406 Y1.7578 I-6.1604 J4.5773
G2 X83.8295 Y2.8271 I-0.1007 J6.9677
G2 X81.1016 Y5.6953 I4.9425 J7.432
G2 X79.1945 Y10.8799 I13.683 J7.976
G2 X78.7109 Y16.3828 I28.34 J5.2633
G2 X78.7129 Y16.8665 I16.4807 J0.1753
G0 Z3.0
G0 X-58.1172 Y8.0859
G0 Z1.4
G1 F300.0 Z0.0
G2 F800.0 X-68.0313 Y3.6563 I-23.3145 J38.8709
G2 X-77.875 Y2.1797 I-10.0801 J33.6496
G2 X-86.875 Y4.4297 I-0.6359 J16.5814
G2 X-90.3906 Y10.1953 I3.31 J5.973
G2 X-89.6534 Y12.5364 I3.9256 J0.0504
G2 X-87.7891 Y14.1328 I4.5735 J-3.4543
G2 X-81.0391 Y15.6797 I6.2337 J-11.7007
G2 X-70.8438 Y13.7813 I-0.8724 J-33.0104
G2 X-58.1172 Y8.0859 I-27.2001 J-77.8473
G0 Z3.0
G0 X-57.4331 Y6.7866
G0 Z1.4
G1 F300.0 Z0.0
G3 F800.0 X-56.7109 Y7.1719 I-34.4436 J65.4188
G3 X-43.8438 Y1.6875 I42.6181 J82.1521
G3 X-33.5078 Y0.0 I10.886 J34.1794
G3 X-16.4922 Y5.4141 I0.4526 J28.0234
G3 X-8.8195 Y13.1898 I-23.8538 J31.2109
G3 X-4.2578 Y20.1186 I-53.8498 J40.4192
G1 Y8.0859
G3 X-2.3594 Y2.1797 I8.9019 J-0.3969
G3 X2.6328 Y0.0 I4.8288 J4.2529
G3 X10.0093 Y1.8422 I-0.3151 J16.9512
G3 X16.3438 Y6.0469 I-14.0846 J28.0926
G3 X23.4292 Y13.5932 I-30.5145 J35.7505
G3 X23.3047 Y11.5313 I17.8173 J-2.1108
G3 X26.1172 Y3.1641 I12.1913 J-0.5584
G3 X33.5 Y0.0 I7.0452 J6.2434
G3 X40.6016 Y1.9688 I0.0428 J13.6381
G3 X46.7188 Y7.875 I-10.3503 J16.8409
G3 X48.3359 Y2.0391 I10.9813 J-0.099
G3 X52.4844 Y0.0 I4.001 J2.9004
G3 X59.2997 Y2.0311 I-0.5758 J14.3819
G3 X65.0703 Y6.1875 I-17.0196 J29.7136
G3 X71.0658 Y12.4834 I-38.1958 J42.3754
G3 X71.0469 Y11.6719 I15.0294 J-0.7557
G3 X74.8438 Y3.1641 I10.506 J-0.4125
G3 X79.6618 Y0.6811 I8.1946 J9.985
G3 X85.0391 Y0.0 I5.1556 J19.136
G1 X86.6563
G1 X88.0625 Y0.1406
G2 X90.6641 Y0.0 I-15.9454 J-319.1251
G1 X93.9688
G3 X111.3359 Y5.3438 I0.6268 J28.8566
G3 X119.0795 Y13.1255 I-22.7494 J30.3817
G3 X124.9063 Y22.4297 I-52.7708 J39.524
G1 X123.6406 Y22.9219
G2 X118.185 Y14.0254 I-56.32 J28.4167
G2 X110.9141 Y6.5391 I-29.7086 J21.5796
G2 X94.6719 Y1.2656 I-15.8178 J21.0692
G1 X93.0547
G2 X91.5781 Y1.4766 I1.9109 J18.6496
G3 X100.3672 Y8.7891 I-8.6593 J19.3459
G3 X103.7422 Y18.8438 I-14.0421 J10.3072
G3 X100.1563 Y26.6484 I-9.7351 J0.2532
G3 X95.8981 Y28.9912 I-7.7452 J-9.0364
G3 X91.0859 Y29.6719 I-4.6362 J-15.4258
G3 X77.0234 Y24.1172 I-0.1713 J-20.1442
G3 X72.6798 Y18.5454 I13.0974 J-14.6895
G3 X71.3548 Y14.7569 I13.4154 J-6.8177
G2 X65.9141 Y8.3672 I-47.4882 J34.9242
G2 X61.4688 Y4.7695 I-20.5578 J20.8559
G2 X56.0703 Y2.8828 I-6.026 J8.5757
G2 X54.1719 Y4.1484 I-0.0776 J1.9402
G2 X53.7549 Y6.6631 I9.867 J2.9281
G2 X53.6797 Y9.2109 I38.154 J2.401
G1 Y22.6406
G2 X54.1719 Y27.9141 I21.1058 J0.6898
G2 X55.9297 Y30.5156 I4.8806 J-1.4031
G1 Y31.7109
G1 X48.1953 Y27.0703
G3 X43.9766 Y29.0391 I-10.031 J-15.9905
G3 X40.1094 Y29.6719 I-3.9448 J-11.9745
G3 X33.7135 Y28.1374 I-0.0277 J-13.9807
G3 X28.5078 Y24.1172 I8.7877 J-16.7597
G3 X24.0891 Y16.7297 I12.7387 J-12.6348
G2 X17.0469 Y8.2969 I-45.9664 J31.2293
G2 X12.362 Y4.6205 I-20.457 J21.2455
G2 X6.7109 Y2.7422 I-6.2312 J9.3071
G2 X3.6172 Y4.5703 I-0.206 J3.1832
G2 X2.9043 Y8.0865 I11.4247 J4.1467
G2 X2.7734 Y11.6719 I43.3197 J3.3759
G1 Y24.75
G2 X2.89 Y26.6576 I13.8257 J0.1126
G2 X3.4766 Y28.4766 I4.5497 J-0.4631
G2 X6.2891 Y30.6563 I6.2811 J-5.2003
G1 Y31.7109
G1 X-4.2578 Y28.6875
G1 Y22.9219
G2 X-9.2064 Y14.8271 I-66.2891 J34.9645
G2 X-15.5078 Y7.7344 I-32.3189 J22.3677
G2 X-27.7422 Y2.8828 I-12.6047 J13.934
G2 X-32.1589 Y3.8406 I1.5996 J18.0389
G2 X-36.4194 Y5.3478 I24.2608 J75.3548
G2 X-44.7578 Y8.7891 I73.9864 J191.0965
G3 X-51.3672 Y11.6719 I-103.2649 J-227.7357
G3 X-39.9597 Y22.2145 I-62.3205 J78.8761
G3 X-30.7656 Y34.7344 I-49.141 J45.7228
G3 X-24.0156 Y60.3281 I-44.7283 J25.4835
G3 X-25.8003 Y72.6184 I-39.7444 J0.5036
G3 X-32.1016 Y83.3203 I-26.49 J-8.3913
G3 X-42.0468 Y89.9347 I-18.9916 J-17.7713
G3 X-53.8281 Y91.8984 I-11.3195 J-31.5883
G3 X-70.8438 Y87.3984 I-0.0495 J-34.2331
G3 X-84.0625 Y74.8828 I18.9675 J-33.2716
G3 X-87.2969 Y67.9219 I23.9321 J-15.3519
G3 X-88.3516 Y60.4688 I25.7087 J-7.4392
G3 X-82.8672 Y46.9688 I18.1999 J-0.4703
G3 X-69.0859 Y41.625 I13.2637 J13.7639
G3 X-55.2344 Y47.25 I0.2384 J19.2802
G3 X-49.3281 Y60.4688 I-11.9467 J13.2667
G3 X-51.7188 Y67.5 I-10.1959 J0.4554
G3 X-57.8359 Y70.2422 I-5.9176 J-5.0067
G3 X-60.7188 Y69.6797 I-0.2211 J-6.5352
G1 X-64.3047 Y66.0938
G2 X-62.8281 Y66.3047 I9.8109 J-63.4026
G2 X-61.1406 Y66.5156 I2.0018 J-9.1588
G2 X-56.2891 Y63.7734 I-0.0288 J-5.7139
G2 X-54.3906 Y56.7422 I-10.112 J-6.5021
G2 X-57.9063 Y47.1094 I-13.6456 J-0.4778
G2 X-66.7656 Y43.3125 I-8.5692 J7.7605
G2 X-77.1016 Y48.375 I-0.2408 J12.5908
G2 X-80.1851 Y54.763 I14.4344 J10.9057
G2 X-81.0391 Y61.8047 I26.3467 J6.7679
G2 X-73.375 Y82.0547 I28.7564 J0.6918
G2 X-54.6719 Y90.4219 I18.3995 J-16.0413
G2 X-46.0525 Y88.6151 I0.3728 J-19.6853
G2 X-39.4141 Y82.8281 I-7.5082 J-15.3138
G2 X-35.1094 Y72.1843 I-23.6067 J-15.7396
G2 X-34.0703 Y60.75 I-56.2721 J-10.878
G2 X-38.9219 Y34.7344 I-71.0007 J-0.2195
G2 X-52.9141 Y12.375 I-65.6994 J25.556
G3 X-66.3438 Y16.5234 I-37.8014 J-98.562
G3 X-76.3984 Y17.8594 I-10.8406 J-43.0848
G3 X-82.9322 Y17.2794 I-0.2448 J-34.3376
G3 X-89.125 Y15.1172 I3.8303 J-20.9195
G3 X-92.5545 Y12.5176 I5.4259 J-10.7201
G3 X-94.1172 Y8.5078 I4.4284 J-4.0352
G3 X-93.005 Y4.93 I6.1747 J-0.0423
G3 X-90.25 Y2.3906 I7.6565 J5.5425
G3 X-85.4226 Y0.507 I7.888 J13.0878
G3 X-80.2656 Y0.0 I4.9581 J23.9507
G3 X-69.2266 Y1.8281 I-0.7398 J38.7107
G3 X-57.4331 Y6.7866 I-22.6501 J70.3772
G0 Z3.0
G0 X-3.5523 Y48.4815
G0 Z1.4
G1 F300.0 Z0.0
G3 F800.0 X-3.0625 Y47.9531 I3.2074 J2.482
G3 X-0.25 Y46.6875 I2.9613 J2.8228
G3 X2.7734 Y47.9531 I-0.018 J4.2872
G3 X4.1094 Y50.8359 I-2.5505 J2.9329
G3 X2.7734 Y53.7188 I-3.7354 J0.0199
G3 X-0.25 Y54.9844 I-2.9742 J-2.8608
G3 X-3.1328 Y53.7188 I0.0269 J-3.9774
G3 X-4.3984 Y50.8359 I2.7121 J-2.9099
G3 X-3.5523 Y48.4815 I4.0535 J0.1275
G0 Z3.0
M5
M30
