( Made using CamBam - http://www.cambam.co.uk )
( robot_A0 1/7/2014 3:11:06 PM )
( T0 : 0.0 )
G21 G90 G64 G40
G0 Z5.0
( T0 : 0.0 )
T0 M6
( 800 - 1264 )
G17
M3 S1000
G0 X-22.0171 Y-113.4186
G1 F2000.0 Z0.0
G1 X-21.2189 Y-108.7235
G1 X-19.6801 Y-104.3772
G1 X-17.4392 Y-100.6069
G1 X-14.5334 Y-97.6411
G1 X-17.1859 Y-100.8038
G1 X-19.3166 Y-104.4887
G1 X-20.9261 Y-108.6946
G1 X-22.0171 Y-113.4186
G0 Z5.0
G0 X-7.4538 Y-111.7996
G1 Z0.0
G1 X-7.594 Y-109.6561
G1 X-7.229 Y-107.6254
G1 X-5.8353 Y-104.1135
G1 X-6.7973 Y-107.5518
G1 X-7.3066 Y-109.5642
G1 X-7.4538 Y-111.7996
G0 Z5.0
G0 X-3.8413 Y-112.1825
G1 Z0.0
G1 X-3.4047 Y-108.062
G1 X-2.5985 Y-105.6822
G1 X-1.3857 Y-103.7092
G1 X-3.0326 Y-108.2819
G1 X-4.0152 Y-113.8233
G1 X-3.8413 Y-112.1825
G0 Z5.0
G0 X-0.4769 Y-112.011
G1 Z0.0
G1 X-0.5068 Y-111.4235
G1 X-0.0817 Y-108.5288
G1 X0.8037 Y-105.8539
G1 X2.0532 Y-103.9114
G1 X0.3068 Y-108.4362
G1 X-0.2012 Y-111.0627
G1 X-0.3742 Y-114.0255
G1 X-0.4769 Y-112.011
G0 Z5.0
G0 X-8.0606 Y-88.3369
G1 Z0.0
G1 X-7.7802 Y-85.0964
G1 X-7.1252 Y-81.8392
G1 X-5.4311 Y-75.5938
G1 X-6.7036 Y-81.7551
G1 X-8.0606 Y-88.3369
G0 Z5.0
G0 X-10.1942 Y-87.1862
G1 Z0.0
G1 X-10.4878 Y-87.7307
G1 X-6.4268 Y-72.9808
G1 X-1.5885 Y-59.0079
G1 X-5.4687 Y-71.2018
G1 X-9.274 Y-84.2918
G1 X-9.6155 Y-86.1132
G1 X-10.1942 Y-87.1862
G0 Z5.0
G0 X-28.2871 Y-46.872
G1 Z0.0
G1 X-29.558 Y-45.0076
G1 X-30.3096 Y-42.6241
G1 X-29.2245 Y-44.6744
G1 X-28.2871 Y-46.872
G0 Z5.0
G0 X-30.7147 Y-46.4676
G1 Z0.0
G1 X-32.3346 Y-42.9297
G1 X-33.7487 Y-39.1856
G1 X-31.9466 Y-42.7931
G1 X-30.7147 Y-46.4676
G0 Z5.0
G0 X-31.9281 Y-45.8611
G1 Z0.0
G1 X-35.51 Y-39.0259
G1 X-38.1985 Y-31.2978
G1 X-38.1974 Y-31.3003
G1 X-38.1985 Y-31.2972
G1 X-31.9281 Y-45.8605
G1 X-31.9295 Y-45.8578
G1 X-31.9281 Y-45.8611
G0 Z5.0
G0 X-30.31 Y-42.4226
G1 Z0.0
G1 X-31.4374 Y-40.566
G1 X-32.225 Y-38.37
G1 X-33.547 Y-33.7249
G1 X-33.5427 Y-33.7363
G1 X-33.546 Y-33.7249
G1 X-31.907 Y-38.0529
G1 X-30.3096 Y-42.4226
G1 X-30.3107 Y-42.4207
G1 X-30.31 Y-42.4226
G0 Z5.0
G0 X-34.5575 Y-36.9606
G1 Z0.0
G1 X-34.5588 Y-36.9575
G1 X-34.5579 Y-36.9603
G1 X-36.1328 Y-33.2768
G1 X-37.3892 Y-29.2745
G1 X-37.3882 Y-29.2768
G1 X-37.3887 Y-29.2752
G1 X-35.8739 Y-32.7659
G1 X-34.5575 Y-36.9606
G0 Z5.0
G0 X-38.1985 Y-30.8926
G1 Z0.0
G1 X-39.6742 Y-26.9584
G1 X-40.8279 Y-22.1949
G1 X-39.4079 Y-26.4384
G1 X-38.1985 Y-30.8926
G0 Z5.0
G0 X-31.3442 Y-16.2221
G1 Z0.0
G1 X-32.5029 Y-15.1821
G1 X-33.1419 Y-13.6991
G1 X-30.0091 Y-13.1494
G1 X-26.7948 Y-13.4765
G1 X-23.7702 Y-14.4208
G1 X-21.2079 Y-15.7221
G1 X-24.2705 Y-16.87
G1 X-28.0181 Y-17.1579
G1 X-29.8029 Y-16.8656
G1 X-31.3442 Y-16.2221
G0 Z5.0
G0 X-31.6876 Y-12.7473
G1 Z0.0
G1 X-33.1419 Y-12.891
G1 Y-11.4749
G1 X-30.2396 Y-10.6071
G1 X-27.0383 Y-10.6417
G1 X-20.8034 Y-12.0823
G1 X-20.6781 Y-12.9172
G1 X-20.1969 Y-13.3966
G1 X-19.7152 Y-13.8764
G1 X-19.5895 Y-14.7119
G1 X-21.1278 Y-13.6202
G1 X-21.916 Y-13.0932
G1 X-23.0281 Y-12.891
G1 X-21.5455 Y-13.8361
G1 X-20.8259 Y-14.3295
G1 X-20.3987 Y-15.1165
G1 X-26.3201 Y-12.9948
G1 X-29.5781 Y-12.5388
G1 X-31.6876 Y-12.7473
G0 Z5.0
G0 X-31.9209 Y-10.0419
G1 Z0.0
G1 X-32.1304 Y-10.06
G1 X-32.3087 Y-9.5792
G1 X-32.0663 Y-9.0863
G1 X-31.3211 Y-8.4419
G1 X-28.6256 Y-7.8689
G1 X-25.1724 Y-8.1394
G1 X-18.7802 Y-9.6556
G1 X-18.6701 Y-10.3528
G1 X-17.919 Y-10.7714
G1 X-17.0932 Y-11.2385
G1 X-16.7583 Y-12.0823
G1 X-17.558 Y-12.0252
G1 X-18.206 Y-11.4513
G1 X-18.9391 Y-10.8394
G1 X-19.9941 Y-10.6661
G1 X-18.3967 Y-11.7438
G1 X-17.7122 Y-12.3323
G1 X-17.5675 Y-13.0938
G1 X-20.5349 Y-11.5326
G1 X-24.0657 Y-10.2976
G1 X-27.9886 Y-9.7028
G1 X-31.9209 Y-10.0419
G0 Z5.0
G0 X-29.0964 Y-7.4298
G1 Z0.0
G1 X-26.2586 Y-6.5766
G1 X-23.0132 Y-6.6938
G1 X-19.8264 Y-7.432
G1 X-17.1628 Y-8.441
G1 X-16.8328 Y-9.2236
G1 X-16.7583 Y-10.2612
G1 X-19.4203 Y-8.9882
G1 X-22.3137 Y-8.0668
G1 X-25.5139 Y-7.5351
G1 X-29.0964 Y-7.4298
G0 Z5.0
G0 X-24.0402 Y-5.812
G1 Z0.0
G1 X-20.897 Y-5.7537
G1 X-19.5114 Y-6.232
G1 X-18.5785 Y-7.0251
G1 X-21.1809 Y-6.29
G1 X-24.0402 Y-5.812
G0 Z5.0
G0 X-20.3987 Y-12.4864
G1 Z0.0
G1 X-19.2304 Y-12.9358
G1 X-18.5785 Y-13.902
G1 X-19.7453 Y-13.451
G1 X-20.3987 Y-12.4864
G0 Z5.0
G0 X-7.7148 Y-23.2752
G1 Z0.0
G1 X-5.637 Y-20.8324
G1 X-2.3975 Y-17.543
G1 X-2.3736 Y-18.0011
G1 X-2.9084 Y-18.6551
G1 X-4.4196 Y-19.7672
G1 X-5.4401 Y-21.2757
G1 X-6.8468 Y-22.3974
G1 X-10.1824 Y-27.3549
G1 X-13.1168 Y-32.7134
G1 X-11.295 Y-28.3854
G1 X-8.7021 Y-24.4359
G1 X-7.7148 Y-23.2752
G0 Z5.0
G0 X-4.2069 Y-26.215
G1 Z0.0
G1 X-2.1947 Y-23.8139
G1 X-6.649 Y-30.5848
G1 X-10.4874 Y-37.9722
G1 X-8.9956 Y-34.174
G1 X-7.0703 Y-30.4174
G1 X-4.7799 Y-26.8987
G1 X-4.2069 Y-26.215
G0 Z5.0
G0 X-2.2581 Y-27.796
G1 Z0.0
G1 X2.6591 Y-22.3974
G1 X2.6505 Y-22.4082
G1 X2.6603 Y-22.3974
G1 X-1.9171 Y-28.1366
G1 X-6.2389 Y-34.1296
G1 X-6.2313 Y-34.1175
G1 X-6.24 Y-34.1296
G1 X-2.2581 Y-27.796
G0 Z5.0
G0 X0.1137 Y-29.4644
G1 Z0.0
G1 X0.8544 Y-28.4114
G1 X2.256 Y-27.0494
G1 X2.2548 Y-27.0511
G1 X2.256 Y-27.05
G1 X-0.2155 Y-30.7488
G1 X-2.5991 Y-34.5342
G1 X-2.5976 Y-34.5313
G1 X-2.5991 Y-34.5336
G1 X-0.4481 Y-30.263
G1 X0.1137 Y-29.4644
G0 Z5.0
G0 X3.4687 Y-25.8357
G1 Z0.0
G1 X3.2874 Y-25.5152
G1 X3.4491 Y-25.1571
G1 X4.2777 Y-24.8239
G1 X3.4687 Y-25.8357
G0 Z5.0
G0 X4.6824 Y-20.78
G1 Z0.0
G1 X5.2246 Y-20.0787
G1 X5.8964 Y-19.9707
G1 X5.4016 Y-20.4875
G1 X4.6824 Y-20.78
G0 Z5.0
G0 X2.5676 Y-18.8527
G1 Z0.0
G1 X2.0786 Y-19.3893
G1 X-0.7789 Y-21.9927
G1 X1.7721 Y-19.0824
G1 X4.6824 Y-16.5321
G1 X2.5676 Y-18.8527
G0 Z5.0
G0 X6.0986 Y-15.1165
G1 Z0.0
G1 X6.5392 Y-14.525
G1 X7.1101 Y-14.5084
G1 X6.7731 Y-14.9818
G1 X6.0986 Y-15.1165
G0 Z5.0
G0 X11.5837 Y1.3043
G1 Z0.0
G1 X10.9017 Y1.5321
G1 X7.9343 Y2.8857
G1 X2.4575 Y5.9012
G1 X-2.5991 Y8.3475
G1 X-0.6612 Y7.9738
G1 X1.2438 Y6.9313
G1 X12.9754 Y1.0654
G1 X16.7938 Y0.4741
G1 X20.6069 Y0.3264
G1 X24.3206 Y0.6113
G1 X27.8393 Y1.3183
G1 X31.0672 Y2.436
G1 X33.9099 Y3.9538
G1 X36.2713 Y5.8606
G1 X38.0568 Y8.1451
G1 X37.5909 Y7.0519
G1 X36.6409 Y6.122
G1 X33.7468 Y3.6333
G1 X30.2663 Y1.8051
G1 X26.0796 Y0.5682
G1 X21.0662 Y-0.1479
G1 X17.4391 Y-0.1319
G1 X14.0605 Y0.477
G1 X11.5837 Y1.3043
G0 Z5.0
G0 X19.0435 Y2.0769
G1 Z0.0
G1 X19.2158 Y2.4606
G1 X19.714 Y2.5186
G1 X20.8637 Y2.4816
G1 X20.4407 Y2.1271
G1 X20.0074 Y2.132
G1 X19.0435 Y2.0769
G0 Z5.0
G0 X23.6966 Y2.481
G1 Z0.0
G1 X28.5228 Y3.8296
G1 X30.6651 Y4.5817
G1 X32.5956 Y5.7179
G1 X35.1164 Y8.0774
G1 X37.263 Y10.7745
G1 X41.0907 Y16.6403
G1 X41.2941 Y16.033
G1 X38.1484 Y11.3915
G1 X34.6595 Y7.0929
G1 X32.5555 Y5.3033
G1 X30.0881 Y3.8766
G1 X27.1663 Y2.9051
G1 X23.6966 Y2.481
G0 Z5.0
G0 X29.9666 Y7.3358
G1 Z0.0
G1 X30.5728 Y8.076
G1 X31.3831 Y8.1451
G1 X30.7729 Y7.6423
G1 X29.9666 Y7.3358
G0 Z5.0
G0 X33.0002 Y9.3584
G1 Z0.0
G1 X33.0009 Y9.3599
G1 X33.0002 Y9.359
G1 X33.7291 Y11.0209
G1 X34.8074 Y12.5612
G1 X37.2475 Y15.6288
G1 X41.0907 Y22.5062
G1 X41.09 Y22.5045
G1 X41.0907 Y22.5057
G1 X39.6835 Y18.9263
G1 X37.6195 Y15.6113
G1 X33.0002 Y9.3584
G0 Z5.0
G0 X29.9666 Y13.2017
G1 Z0.0
G1 X29.8542 Y13.5522
G1 X30.1067 Y13.9218
G1 X30.7756 Y14.6173
G1 X30.9589 Y14.1952
G1 X30.6887 Y13.8432
G1 X29.9666 Y13.2017
G0 Z5.0
G0 X32.1909 Y16.033
G1 Z0.0
G1 X32.1924 Y16.0351
G1 X32.1909 Y16.0335
G1 X36.0496 Y21.2768
G1 X37.6285 Y24.2492
G1 X38.8658 Y27.5628
G1 X38.8654 Y27.5612
G1 X38.8658 Y27.5624
G1 X37.9736 Y24.2258
G1 X36.4502 Y21.1285
G1 X34.4658 Y18.3659
G1 X32.1909 Y16.033
G0 Z5.0
G0 X41.6966 Y16.6403
G1 Z0.0
G1 X42.0435 Y18.045
G1 X42.7606 Y19.4706
G1 X44.3271 Y22.3039
G1 X43.992 Y20.8877
G1 X43.2429 Y19.4942
G1 X41.6975 Y16.6403
G1 X41.6983 Y16.6435
G1 X41.6966 Y16.6403
G0 Z5.0
G0 X43.3193 Y15.8265
G1 Z0.0
G1 X44.0718 Y17.3269
G1 X46.7541 Y22.3039
G1 X48.6591 Y27.6684
G1 X50.193 Y33.4281
G1 X49.0011 Y27.6108
G1 X46.992 Y22.2182
G1 X44.4597 Y17.2228
G1 X41.6985 Y12.5947
G1 X43.3193 Y15.8265
G0 Z5.0
G0 X45.6223 Y14.4317
G1 Z0.0
G1 X46.2069 Y15.3969
G1 X49.5538 Y22.5027
G1 X52.3101 Y30.2678
G1 X54.4403 Y38.6875
G1 X52.5815 Y30.0785
G1 X49.9266 Y22.2663
G1 X46.4942 Y15.2313
G1 X42.3047 Y8.9539
G1 X45.6223 Y14.4317
G0 Z5.0
G0 X47.414 Y13.5074
G1 Z0.0
G1 X51.8946 Y22.1932
G1 X53.8104 Y27.027
G1 X55.2496 Y32.2152
G1 X53.898 Y26.405
G1 X51.8163 Y20.9333
G1 X49.2765 Y15.793
G1 X46.5513 Y10.9773
G1 X46.7954 Y12.2512
G1 X47.3606 Y13.4041
G1 X47.414 Y13.5074
G0 Z5.0
G0 X41.6975 Y22.9102
G1 Z0.0
G1 X41.698 Y22.9123
G1 X41.6972 Y22.9102
G1 X42.2895 Y25.4345
G1 X43.2528 Y27.9795
G1 X44.2479 Y30.6189
G1 X44.9339 Y33.4281
G1 X44.9334 Y33.4235
G1 X44.9345 Y33.4281
G1 X44.642 Y30.9208
G1 X43.7792 Y28.2097
G1 X41.6975 Y22.9102
G0 Z5.0
G0 X46.1467 Y26.349
G1 Z0.0
G1 X47.6712 Y32.6629
G1 X49.5858 Y39.092
G1 X48.0566 Y32.5303
G1 X46.1467 Y26.349
G0 Z5.0
G0 X40.0786 Y29.5853
G1 Z0.0
G1 X39.8754 Y30.2473
G1 X40.0786 Y31.0013
G1 X40.4637 Y30.8271
G1 X40.3506 Y30.5008
G1 X40.0786 Y29.5853
G0 Z5.0
G0 X37.2475 Y36.2603
G1 Z0.0
G1 X36.8034 Y37.6364
G1 X36.6409 Y39.2943
G1 X37.1615 Y37.9945
G1 X37.2475 Y36.2603
G0 Z5.0
G0 X36.4378 Y43.7436
G1 Z0.0
G1 X35.5975 Y46.4937
G1 X35.1353 Y49.6214
G1 X34.7176 Y52.7938
G1 X34.0117 Y55.6775
G1 X33.4527 Y60.7166
G1 X32.5974 Y65.8152
G1 X31.9937 Y70.9524
G1 Y70.9529
G1 Y70.9531
G1 X32.1909 Y76.1071
G1 X32.7347 Y67.4988
G1 X33.8574 Y59.4687
G1 X36.4378 Y43.7441
G1 X36.4377 Y43.7446
G1 X36.4378 Y43.7436
G0 Z5.0
G0 X45.7426 Y36.665
G1 Z0.0
G1 X45.9796 Y35.8693
G1 X45.7426 Y35.0465
G1 X45.5305 Y35.8177
G1 X45.7426 Y36.665
G0 Z5.0
G0 X49.9905 Y41.5193
G1 Z0.0
G1 X49.9054 Y42.4656
G1 X50.193 Y43.5423
G1 X50.3346 Y42.5392
G1 X49.9905 Y41.5193
G0 Z5.0
G0 X51.4061 Y71.6575
G1 Z0.0
G1 X51.3992 Y72.5745
G1 X51.6092 Y73.2755
G1 X51.8719 Y72.3526
G1 X51.7697 Y71.8097
G1 X51.4061 Y71.6575
G0 Z5.0
G0 X53.4437 Y73.1739
G1 Z0.0
G1 X53.4117 Y73.8153
G1 X53.4288 Y75.298
G1 X53.617 Y75.1973
G1 X53.649 Y74.5554
G1 X53.6316 Y73.0731
G1 X53.4437 Y73.1739
G0 Z5.0
G0 X35.5126 Y72.4815
G1 Z0.0
G1 X35.6303 Y69.4322
G1 X35.6292 Y69.4379
G1 X35.6294 Y69.4322
G1 X35.1319 Y71.9155
G1 X35.0605 Y73.5369
G1 X35.4266 Y74.6912
G1 X35.4267 Y74.6894
G1 X35.4273 Y74.6912
G1 X35.5126 Y72.4815
G0 Z5.0
G0 X27.9043 Y93.5313
G1 Z0.0
G1 X26.3697 Y92.9767
G1 X22.0948 Y90.7032
G1 X18.3301 Y87.9189
G1 X15.052 Y84.65
G1 X12.2344 Y80.919
G1 X11.0543 Y78.8545
G1 X9.8526 Y76.7517
G1 X7.8828 Y72.1728
G1 X6.2995 Y67.2068
G1 X6.3019 Y67.2154
G1 X6.2995 Y67.2078
G1 X7.6936 Y72.1358
G1 X9.5303 Y76.7522
G1 X11.8337 Y80.9992
G1 X14.6276 Y84.8208
G1 X17.9354 Y88.1598
G1 X21.7811 Y90.96
G1 X26.1883 Y93.164
G1 X31.1797 Y94.7156
G1 X31.1709 Y94.7124
G1 X31.1797 Y94.7152
G1 X27.9043 Y93.5313
G0 Z5.0
G0 X25.3134 Y95.1203
G1 Z0.0
G1 X24.4501 Y94.3652
G1 X23.291 Y93.9065
G1 X24.096 Y94.7197
G1 X25.3134 Y95.1203
G0 Z5.0
G0 X21.673 Y93.3001
G1 Z0.0
G1 X21.6706 Y93.2982
G1 X21.673 Y93.2997
G1 X14.9297 Y87.907
G1 X12.0021 Y84.7668
G1 X9.5368 Y81.1638
G1 X9.539 Y81.1676
G1 X9.5368 Y81.1644
G1 X11.6384 Y84.8084
G1 X14.4832 Y88.1013
G1 X17.8882 Y90.9596
G1 X21.673 Y93.3001
G0 Z5.0
G0 X18.286 Y93.871
G1 Z0.0
G1 X17.9217 Y93.4593
G1 X16.8186 Y92.8955
G1 X17.4748 Y93.6546
G1 X18.2348 Y94.3111
G1 X18.286 Y93.871
G0 Z5.0
G0 X16.8186 Y95.7267
G1 Z0.0
G1 X14.399 Y98.2124
G1 X12.8878 Y99.0968
G1 X11.3576 Y99.57
G1 X14.0406 Y97.6011
G1 X15.3204 Y96.555
G1 X16.8186 Y95.7267
G0 Z5.0
G0 X17.2232 Y96.5359
G1 Z0.0
G1 X15.5974 Y98.3993
G1 X13.6549 Y99.946
G1 X9.1321 Y102.4018
G1 Y101.5926
G1 X13.4782 Y99.3647
G1 X17.2232 Y96.5359
G0 Z5.0
G0 X17.7115 Y96.9622
G1 Z0.0
G1 X18.4366 Y96.1318
G1 X18.4364 Y96.1317
G1 X18.4366 Y96.1314
G1 X17.3779 Y95.5714
G1 X16.4143 Y94.9175
G1 X11.9458 Y98.5404
G1 X6.9073 Y101.5926
G1 X6.9075 Y101.593
G1 X6.9073 Y101.5931
G1 X7.6489 Y102.5706
G1 X8.5256 Y103.4133
G1 X14.0422 Y100.3332
G1 X16.4332 Y98.4263
G1 X17.7115 Y96.9622
G0 Z5.0
G0 X19.4507 Y99.2246
G1 Z0.0
G1 X20.054 Y98.7608
G1 X18.9699 Y100.154
G1 X17.6273 Y100.7838
G1 X18.7962 Y99.7277
G1 X19.4507 Y99.2246
G0 Z5.0
G0 X20.0465 Y99.8934
G1 Z0.0
G1 X20.8637 Y99.1654
G1 X19.4047 Y100.9496
G1 X17.5593 Y102.4839
G1 X15.4953 Y103.6737
G1 X13.38 Y104.4244
G1 X17.2494 Y101.9231
G1 X19.1789 Y100.6662
G1 X20.0465 Y99.8934
G0 Z5.0
G0 X20.61 Y100.5914
G1 Z0.0
G1 X21.8752 Y99.57
G1 X21.0317 Y98.6192
G1 X20.1628 Y98.3367
G1 X18.3329 Y99.2155
G1 X16.3525 Y101.0808
G1 X14.1893 Y102.8063
G1 X12.4546 Y103.4173
G1 X11.1552 Y104.222
G1 X12.4462 Y104.9211
G1 X13.8577 Y104.9591
G1 X16.8298 Y103.6431
G1 X20.61 Y100.5914
G0 Z5.0
G0 X21.8848 Y101.7168
G1 Z0.0
G1 X21.3221 Y102.3542
G1 X19.3093 Y103.6787
G1 X17.1636 Y104.8705
G1 X15.2003 Y106.245
G1 X18.296 Y106.1935
G1 X20.9624 Y105.0942
G1 X23.2258 Y103.3566
G1 X25.1116 Y101.3903
G1 X24.1721 Y100.8123
G1 X22.887 Y100.5816
G1 X21.8848 Y101.7168
G0 Z5.0
G0 X13.38 Y107.256
G1 Z0.0
G1 X11.1371 Y107.2892
G1 X8.7284 Y107.6607
G1 X9.9082 Y107.898
G1 X11.1207 Y107.7773
G1 X13.38 Y107.256
G0 Z5.0
G0 X10.6374 Y112.1079
G1 Z0.0
G1 X9.2058 Y111.2987
G1 X6.9073 Y110.492
G1 X3.8991 Y108.8089
G1 X1.1151 Y106.8472
G1 X0.4254 Y106.2496
G1 X-3.9893 Y102.4243
G1 X-4.0289 Y102.3815
G1 X-6.624 Y98.5379
G1 X-9.4764 Y94.9175
G1 X-9.4745 Y94.9203
G1 X-9.4764 Y94.918
G1 X-5.7732 Y100.5004
G1 X-4.03 Y102.3803
G1 X-4.0152 Y102.4022
G1 X-3.9872 Y102.4266
G1 X-1.1171 Y105.5219
G1 X1.592 Y107.7152
G1 X4.5672 Y109.6406
G1 X7.8197 Y111.2551
G1 X11.3576 Y112.5155
G1 X11.3555 Y112.5143
G1 X11.3576 Y112.515
G1 X10.6374 Y112.1079
G0 Z5.0
G0 X1.8513 Y111.9086
G1 Z0.0
G1 X1.5777 Y111.2705
G1 X0.8392 Y111.0993
G1 X1.1913 Y111.6577
G1 X1.8513 Y111.9086
G0 Z5.0
G0 X-3.0031 Y106.4474
G1 Z0.0
G1 X-2.705 Y106.0909
G1 X-2.9997 Y105.7017
G1 X-3.8122 Y104.8289
G1 X-3.9829 Y105.2887
G1 X-3.7009 Y105.6797
G1 X-3.0031 Y106.4474
G0 Z5.0
G0 X-3.9872 Y102.4266
G0 Z1.0
G1 Z0.0
G1 X-3.9893 Y102.4243
G1 X-4.0289 Y102.3815
G1 X-4.03 Y102.3803
G1 X-3.9872 Y102.4266
G0 Z5.0
G0 X0.0305 Y96.3341
G1 Z0.0
G1 X3.4777 Y94.6742
G1 X6.5392 Y92.628
G1 X9.2284 Y90.2099
G1 X11.5598 Y87.4344
G1 X9.9415 Y84.8048
G1 X7.5303 Y87.602
G1 X4.697 Y89.9771
G1 X-1.7904 Y93.907
G1 X-0.9556 Y95.1964
G1 X0.0305 Y96.3341
G0 Z5.0
G0 X4.8849 Y99.3682
G1 Z0.0
G1 X5.8215 Y98.3522
G1 X7.0129 Y97.6237
G1 X9.5368 Y96.3341
G1 X13.7847 Y92.6931
G1 X13.649 Y93.3792
G1 X12.9754 Y94.1093
G1 X9.1744 Y97.0827
G1 X4.8849 Y99.3682
G0 Z5.0
G0 X5.0519 Y99.7899
G1 Z0.0
G1 X7.3349 Y98.8854
G1 X10.1157 Y97.1147
G1 X14.9981 Y92.8955
G1 X14.1757 Y91.6946
G1 X12.9754 Y90.8724
G1 X10.8412 Y93.1378
G1 X8.3719 Y95.0677
G1 X5.5753 Y96.6702
G1 X2.4575 Y97.9516
G1 X2.6699 Y98.6998
G1 X3.1516 Y99.1789
G1 X4.0749 Y100.177
G1 X5.0519 Y99.7899
G0 Z5.0
G0 X14.0164 Y90.6401
G1 Z0.0
G1 X16.0096 Y92.0863
G1 X14.3922 Y90.2645
G1 X12.3676 Y88.8494
G1 X14.0164 Y90.6401
G0 Z5.0
G0 X7.9194 Y78.5344
G1 Z0.0
G1 X7.9564 Y77.635
G1 X7.3119 Y76.9159
G1 X7.5337 Y77.8073
G1 X7.9194 Y78.5344
G0 Z5.0
G0 X-5.4817 Y73.4272
G1 Z0.0
G1 X-5.4053 Y73.0992
G1 X-5.4311 Y72.2639
G1 X-5.7817 Y72.7226
G1 X-5.8364 Y73.4778
G1 X-5.4817 Y73.4272
G0 Z5.0
G0 X-5.633 Y69.4322
G1 Z0.0
G1 X-5.4246 Y68.3311
G1 X-5.5569 Y67.1812
G1 X-6.0377 Y64.982
G1 X-5.9845 Y67.1038
G1 X-5.633 Y69.4322
G0 Z5.0
G0 X-7.656 Y66.1958
G1 Z0.0
G1 X-7.6564 Y66.1946
G1 X-7.656 Y66.1954
G1 X-7.9127 Y65.4322
G1 X-8.4192 Y63.9255
G1 X-9.6976 Y62.1698
G1 X-9.6977
G1 X-9.6981 Y62.1692
G1 X-11.4172 Y60.8543
G1 X-13.5033 Y59.9069
G1 X-18.4813 Y58.8167
G1 X-24.0402 Y58.3069
G1 X-25.4558
G1 X-25.6667 Y58.4197
G1 X-25.4864 Y58.4968
G1 X-24.8485 Y58.5098
G1 X-16.7383 Y59.4827
G1 X-13.0056 Y60.3951
G1 X-10.0832 Y61.9484
G1 X-9.2981 Y62.9079
G1 X-8.8354 Y63.9925
G1 X-7.656 Y66.1958
G0 Z5.0
G0 X-6.6445 Y63.3641
G1 Z0.0
G1 X-7.4212 Y61.5028
G1 X-8.913 Y60.2229
G1 X-10.7877 Y59.4516
G1 X-12.7126 Y59.1167
G1 X-9.0882 Y60.6495
G1 X-7.6481 Y61.7886
G1 X-6.6445 Y63.3641
G0 Z5.0
G0 X-12.1058 Y62.9594
G1 Z0.0
G1 X-12.6396 Y62.2794
G1 X-13.5214 Y61.9479
G1 X-12.9851 Y62.6249
G1 X-12.1058 Y62.9594
G0 Z5.0
G0 X-15.949 Y61.5433
G1 Z0.0
G1 X-20.55 Y60.8098
G1 X-25.558 Y60.6569
G1 X-30.5144 Y61.0491
G1 X-34.9626 Y61.9479
G1 X-25.8204 Y61.0866
G1 X-20.8318 Y61.0951
G1 X-15.949 Y61.5433
G0 Z5.0
G0 X-15.3421 Y58.1047
G1 Z0.0
G1 X-19.547 Y56.8963
G1 X-23.9426 Y56.373
G1 X-28.4038 Y56.4552
G1 X-32.8048 Y57.0635
G1 X-37.0207 Y58.1182
G1 X-40.9256 Y59.5394
G1 X-44.3943 Y61.2469
G1 X-47.3007 Y63.1618
G1 X-46.6943 Y63.3641
G1 X-43.8054 Y61.4091
G1 X-40.4268 Y59.7307
G1 X-36.6567 Y58.3761
G1 X-32.5921 Y57.3917
G1 X-28.3307 Y56.8259
G1 X-23.9705 Y56.7241
G1 X-19.6085 Y57.1347
G1 X-15.3421 Y58.1047
G0 Z5.0
G0 X-14.9381 Y46.5754
G1 Z0.0
G1 X-21.3481 Y46.3405
G1 X-27.6456 Y46.597
G1 X-33.7073 Y47.4998
G1 X-39.4124 Y49.2047
G1 X-39.8735 Y48.3515
G1 X-40.4232 Y47.5864
G1 X-40.0342 Y48.965
G1 X-40.1439 Y49.5619
G1 X-40.8279 Y49.8117
G1 X-41.92 Y47.6299
G1 X-42.1124 Y46.4993
G1 X-41.4349 Y45.7667
G1 X-41.0593 Y45.8463
G1 X-40.9291 Y46.1713
G1 X-40.7988 Y46.4961
G1 X-40.4232 Y46.5758
G1 X-40.7232 Y46.1677
G1 X-40.8279 Y45.5648
G1 X-40.2656 Y45.3179
G1 X-39.6141 Y45.1603
G1 X-39.2991 Y46.2609
G1 X-38.603 Y46.9805
G1 X-39.0241 Y46.0866
G1 X-39.2105 Y44.9579
G1 X-37.5922 Y44.3509
G1 X-37.3493 Y45.6249
G1 X-36.7828 Y46.5758
G1 X-37.0191 Y45.3961
G1 X-37.3898 Y44.3509
G1 X-36.2912 Y44.034
G1 X-35.1649 Y43.7436
G1 X-35.1134 Y44.5017
G1 X-34.5579 Y44.7556
G1 X-34.8874 Y44.2759
G1 X-34.9626 Y43.5418
G1 X-30.0552 Y42.3324
G1 X-24.7132 Y41.9264
G1 X-19.2364 Y42.0751
G1 X-13.9266 Y42.5298
G1 X-14.4432 Y44.5418
G1 X-14.9381 Y46.5754
G0 Z5.0
G0 X-11.3788 Y41.1109
G1 Z0.0
G1 X-10.2405 Y41.8523
G1 X-7.7653 Y43.9039
G1 X-3.6109 Y48.396
G1 X-3.3059 Y48.1853
G1 X-3.4087 Y47.9916
G1 X-7.4883 Y43.6169
G1 X-12.6556 Y39.7911
G1 X-15.6797 Y38.309
G1 X-19.0147 Y37.2337
G1 X-22.6736 Y36.6559
G1 X-26.6696 Y36.665
G1 X-29.9535 Y37.1296
G1 X-32.9907 Y37.9709
G1 X-35.7499 Y39.1703
G1 X-38.1985 Y40.7101
G1 X-33.1129 Y38.4742
G1 X-30.4388 Y37.5894
G1 X-27.4779 Y37.069
G1 X-23.309 Y37.0019
G1 X-19.5229 Y37.5347
G1 X-16.0972 Y38.5799
G1 X-13.0106 Y40.0481
G1 X-11.3788 Y41.1109
G0 Z5.0
G0 X-1.3857 Y51.0256
G1 Z0.0
G1 X0.4808 Y54.0135
G1 X2.0501 Y57.299
G1 X4.8842 Y64.1737
G1 X4.8827 Y64.1677
G1 X4.8849 Y64.1728
G1 X4.3063 Y61.8372
G1 X3.3476 Y59.4908
G1 X1.4466 Y54.6665
G1 X0.6693 Y53.8252
G1 X0.1562 Y52.72
G1 X-0.4195 Y51.6774
G1 X-1.3848 Y51.0251
G1 X-1.3836 Y51.027
G1 X-1.3857 Y51.0256
G0 Z5.0
G0 X-28.6917 Y58.5092
G1 Z0.0
G1 X-32.5986 Y59.0532
G1 X-36.1598 Y59.9414
G1 X-42.6487 Y62.352
G1 X-42.2441 Y62.5548
G1 X-35.8429 Y60.2875
G1 X-28.6917 Y58.5092
G0 Z5.0
G0 X-37.187 Y62.5554
G1 Z0.0
G1 X-37.853 Y62.6986
G1 X-38.1985 Y63.1623
G1 X-37.4879 Y63.0632
G1 X-37.187 Y62.5554
G0 Z5.0
G0 X-44.0643 Y63.1618
G1 Z0.0
G1 X-44.7364 Y63.4001
G1 X-45.0758 Y63.9709
G1 X-44.4033 Y63.7326
G1 X-44.0643 Y63.1618
G0 Z5.0
G0 X-45.4221 Y61.0005
G1 Z0.0
G1 X-41.256 Y58.3831
G1 X-36.1884 Y56.2709
G1 X-30.31 Y54.8688
G1 X-24.0677 Y54.4866
G1 X-18.0311 Y55.1322
G1 X-12.3697 Y56.4552
G1 X-7.2519 Y58.1052
G1 X-5.4311 Y59.7237
G1 X-4.3056 Y62.4897
G1 X-3.3286 Y66.8053
G1 X-3.1503 Y71.2209
G1 X-3.5634 Y73.0137
G1 X-4.4196 Y74.287
G1 X-7.656 Y75.298
G1 X-16.4112 Y77.8233
G1 X-25.923 Y79.7392
G1 X-35.9601 Y80.6481
G1 X-41.1023 Y80.6005
G1 X-46.2892 Y80.1523
G1 X-48.3097 Y77.4958
G1 X-49.5735 Y73.993
G1 X-50.1059 Y69.8784
G1 X-49.9296 Y65.3867
G1 X-48.878 Y64.8217
G1 X-48.58 Y64.5539
G1 X-49.1204 Y64.3756
G1 X-49.3232
G1 X-45.6047 Y61.1152
G1 X-45.4221 Y61.0005
G0 Z5.0
G0 X-45.61 Y60.7058
G1 Z0.0
G1 X-46.2892 Y61.1387
G1 X-48.6696 Y62.8584
G1 X-50.3343 Y64.7803
G1 X-50.8735 Y68.346
G1 X-50.4063 Y72.7787
G1 X-49.1454 Y76.954
G1 X-48.2827 Y78.5935
G1 X-47.3002 Y79.7478
G1 X-45.3398 Y80.6686
G1 X-42.6487 Y80.96
G1 X-32.5349 Y81.1628
G1 X-26.8224 Y80.5954
G1 X-21.1219 Y79.5949
G1 X-10.0832 Y76.7126
G1 X-6.4077 Y75.6115
G1 X-3.6106 Y74.286
G1 X-2.9426 Y72.9038
G1 X-2.5944 Y70.9871
G1 X-2.5991 Y67.2064
G1 X-3.8084 Y62.2649
G1 X-4.7833 Y59.8817
G1 X-5.8353 Y58.3069
G1 X-8.3861 Y56.9195
G1 X-12.3025 Y55.6895
G1 X-19.9941 Y54.262
G1 X-28.2996 Y54.2244
G1 X-35.2676 Y55.5008
G1 X-41.1725 Y57.8768
G1 X-45.61 Y60.7058
G0 Z5.0
G0 X-42.595 Y49.8984
G1 Z0.0
G1 X-43.238 Y48.9389
G1 X-43.4574 Y46.5758
G1 X-42.6487 Y46.3735
G1 X-41.922 Y48.1757
G1 X-41.4349 Y50.2168
G1 X-42.595 Y49.8984
G0 Z5.0
G0 X-42.2213 Y50.8865
G1 Z0.0
G1 X-37.4434 Y49.0796
G1 X-30.3663 Y47.6085
G1 X-22.7553 Y47.1383
G1 X-14.9381 Y47.7901
G1 X-14.9379 Y47.7896
G1 X-14.937 Y47.7897
G1 X-14.0743 Y45.0115
G1 X-13.1168 Y42.3279
G1 X-21.0251 Y41.4157
G1 X-29.2985 Y41.5187
G1 X-33.2241 Y42.2653
G1 X-37.0547 Y43.5663
G1 X-44.0638 Y46.3731
G1 Y46.3733
G1 X-44.0643 Y46.3735
G1 X-44.0453 Y48.8528
G1 X-43.6603 Y51.4307
G1 X-42.2213 Y50.8865
G0 Z5.0
G0 X-45.3191 Y45.8797
G1 Z0.0
G1 X-45.0168 Y45.6926
G1 X-42.9146 Y44.034
G1 X-40.7298 Y42.3315
G1 X-38.4009 Y40.9124
G1 X-40.7923 Y41.8899
G1 X-42.9936 Y43.4497
G1 X-47.0983 Y46.9805
G1 X-45.3191 Y45.8797
G0 Z5.0
G0 X-62.8364 Y32.1974
G1 Z0.0
G1 X-61.2201 Y30.1281
G1 X-60.0553 Y28.7139
G1 X-58.6272 Y27.5628
G1 X-59.1879 Y27.4942
G1 X-59.188 Y27.4943
G1 X-59.1886 Y27.4942
G1 X-59.792 Y27.8626
G1 X-60.853 Y28.9783
G1 X-62.3703 Y30.9444
G1 X-63.4824 Y33.0239
G1 X-63.481 Y33.0221
G1 X-63.482 Y33.0239
G1 X-62.8364 Y32.1974
G0 Z5.0
G0 X-65.5039 Y30.3856
G1 Z0.0
G1 X-63.8716 Y27.9824
G1 X-60.551 Y24.3248
G1 X-56.6051 Y21.2924
G1 X-56.6064 Y21.2927
G1 X-56.6051 Y21.2917
G1 X-57.8771 Y21.5818
G1 X-59.0322 Y22.3039
G1 X-63.3847 Y26.7205
G1 X-66.7183 Y31.8107
G1 X-68.166 Y34.0034
G1 X-69.146 Y36.6645
G1 X-69.1454 Y36.6634
G1 X-69.146 Y36.665
G1 X-66.6943 Y32.1382
G1 X-65.5039 Y30.3856
G0 Z5.0
G0 X-69.3477 Y37.8788
G1 Z0.0
G1 X-69.8445 Y38.3931
G1 X-69.9552 Y39.2943
G1 X-69.47 Y38.7676
G1 X-69.3477 Y37.8788
G0 Z5.0
G0 X-73.1911 Y46.1713
G1 Z0.0
G1 X-72.7864 Y51.0256
G1 X-72.6066 Y48.7186
G1 X-73.1911 Y46.1713
G0 Z5.0
G0 X-72.3818 Y51.4301
G1 Z0.0
G1 X-72.5641 Y52.4737
G1 X-72.3818 Y53.655
G1 X-72.2001 Y52.6119
G1 X-72.3818 Y51.4301
G0 Z5.0
G0 X-70.5611 Y60.9369
G1 Z0.0
G1 X-70.7855 Y61.9214
G1 X-70.5611 Y62.96
G1 X-70.3612 Y61.9995
G1 X-70.5611 Y60.9369
G0 Z5.0
G0 X-66.516 Y69.4322
G1 Z0.0
G1 X-66.1185 Y71.7973
G1 X-65.2902 Y74.1228
G1 X-62.8751 Y78.1299
G1 X-64.8721 Y73.9569
G1 X-66.516 Y69.4322
G0 Z5.0
G0 X-61.4594 Y80.5564
G1 Z0.0
G1 X-60.9192 Y81.7357
G1 X-59.8411 Y82.3771
G1 X-60.5445 Y81.3611
G1 X-61.4594 Y80.5564
G0 Z5.0
G0 X-83.9112 Y89.659
G1 Z0.0
G1 X-83.3038 Y91.884
G1 X-86.0214 Y92.4648
G1 X-87.1836 Y92.3222
G1 X-87.5517 Y91.0752
G1 X-85.7565 Y90.3422
G1 X-83.9112 Y89.659
G0 Z5.0
G0 X-84.5182 Y89.2539
G1 Z0.0
G1 X-87.0039 Y90.3586
G1 X-88.0494 Y90.4709
G1 X-88.5637 Y89.2539
G1 X-87.1455 Y88.2449
G1 X-86.482 Y87.6946
G1 X-85.5297 Y87.4337
G1 X-84.8245 Y88.1449
G1 X-84.5182 Y89.2539
G0 Z5.0
G0 X-86.3379 Y87.0292
G1 Z0.0
G1 X-88.0704 Y88.3626
G1 X-88.9857 Y88.8954
G1 X-90.1811 Y88.8494
G1 X-89.2968 Y87.2059
G1 X-88.1586 Y85.8154
G1 X-86.9893 Y86.1634
G1 X-86.3379 Y87.0292
G0 Z5.0
G0 X-89.191 Y86.0947
G1 Z0.0
G1 X-89.2668 Y86.3261
G1 X-89.8071 Y86.9991
G1 X-90.7879 Y88.4459
G1 X-92.0013 Y88.243
G1 X-91.4249 Y86.7974
G1 X-90.7879 Y85.4116
G1 X-88.9673
G1 X-89.191 Y86.0947
G0 Z5.0
G0 X-91.799 Y85.6135
G1 Z0.0
G1 X-92.101 Y87.1319
G1 X-92.6083 Y88.4452
G1 X-93.6192
G1 X-93.4175 Y86.2199
G1 X-91.799 Y85.6135
G0 Z5.0
G0 X-94.0243 Y87.0297
G1 Z0.0
G1 X-94.2141 Y88.5595
G1 X-95.0354 Y89.4567
G1 X-95.3174 Y88.7241
G1 X-95.1486 Y88.0371
G1 X-94.0243 Y87.0297
G0 Z5.0
G0 X-95.6428 Y89.4567
G1 Z0.0
G1 X-95.6723 Y90.5394
G1 X-95.8401 Y90.928
G1 X-96.2492 Y91.0752
G1 X-96.1651 Y90.0467
G1 X-95.6428 Y89.4567
G0 Z5.0
G0 X-90.1811 Y92.0863
G1 Z0.0
G1 X-89.9157 Y93.527
G1 X-89.9928 Y94.3227
G1 X-90.3834 Y94.7156
G1 X-90.4084 Y93.2751
G1 X-90.1811 Y92.0863
G0 Z5.0
G0 X-89.7109 Y91.8882
G1 Z0.0
G1 X-89.8331 Y91.5981
G1 X-90.7299 Y90.8254
G1 X-92.0094 Y90.4812
G1 X-93.6198 Y90.6706
G1 X-94.3788 Y92.0717
G1 X-94.6313 Y93.5018
G1 X-94.3023 Y94.7208
G1 X-93.5872 Y95.602
G1 X-92.6318 Y96.1264
G1 X-91.5827 Y96.273
G1 X-90.5858 Y96.0226
G1 X-89.7875 Y95.3557
G1 X-89.3344 Y94.2525
G1 X-89.372 Y92.6927
G1 X-89.7109 Y91.8882
G0 Z5.0
G0 X-88.5932 Y90.8131
G1 Z0.0
G1 X-88.2592 Y91.1604
G1 X-87.5517 Y93.7046
G1 X-87.9322 Y95.5104
G1 X-88.9407 Y96.919
G1 X-90.469 Y97.7317
G1 X-92.406 Y97.7497
G1 X-94.5386 Y96.5735
G1 X-95.7595 Y94.4924
G1 X-95.9107 Y92.0676
G1 X-94.8337 Y89.8614
G1 X-93.6864 Y88.9692
G1 X-92.465 Y88.6231
G1 X-91.2417 Y88.7461
G1 X-90.0855 Y89.2615
G1 X-88.5932 Y90.8131
G0 Z5.0
G0 X-87.1471 Y93.0973
G1 Z0.0
G1 X-83.3038 Y92.6927
G1 X-83.2627 Y93.5133
G1 X-83.3038 Y94.7152
G1 X-85.4115 Y94.6987
G1 X-87.1471 Y94.3111
G1 Y93.0973
G0 Z5.0
G0 X-87.1685 Y95.1222
G1 Z0.0
G1 X-85.6908 Y95.1379
G1 X-83.7083 Y95.3226
G1 X-84.0284 Y96.7888
G1 X-85.0003 Y97.1479
G1 X-87.5517 Y96.3341
G1 X-87.3499 Y95.1203
G1 X-87.1685 Y95.1222
G0 Z5.0
G0 X-87.6689 Y96.9303
G1 Z0.0
G1 X-86.5391 Y97.243
G1 X-84.9222 Y97.952
G1 X-85.3268 Y98.559
G1 X-85.7314 Y99.1659
G1 X-87.6659 Y98.5715
G1 X-88.9673 Y97.3452
G1 X-88.3609 Y96.7388
G1 X-87.6689 Y96.9303
G0 Z5.0
G0 X-88.6143 Y98.4569
G1 Z0.0
G1 X-87.1475 Y99.7723
G1 X-88.125 Y100.3111
G1 X-89.0409 Y100.0036
G1 X-90.3839 Y98.3563
G1 X-89.4926 Y98.1248
G1 X-88.6143 Y98.4569
G0 Z5.0
G0 X-90.3179 Y99.4624
G1 Z0.0
G1 X-89.7771 Y100.3786
G1 X-90.7956 Y100.3187
G1 X-91.5271 Y99.8605
G1 X-91.8892 Y99.1559
G1 X-91.7995 Y98.3563
G1 X-91.0344 Y98.6021
G1 X-90.5277 Y99.1069
G1 X-90.3179 Y99.4624
G0 Z5.0
G0 X-92.2041 Y99.7723
G1 Z0.0
G1 X-92.8992 Y99.4563
G1 X-93.6198 Y99.1654
G1 X-93.6458 Y98.3306
G1 X-93.5697 Y98.0022
G1 X-93.2152 Y97.9516
G1 X-92.5573 Y98.7097
G1 X-92.2041 Y99.7723
G0 Z5.0
G0 X-94.5982 Y97.3186
G1 Z0.0
G1 X-94.8331 Y97.5475
G1 X-95.2949 Y96.977
G1 X-95.3739 Y96.7407
G1 X-95.0354 Y96.5359
G1 X-94.6824 Y97.0387
G1 X-94.5982 Y97.3186
G0 Z5.0
G0 X-95.2609 Y97.91
G1 Z0.0
G1 X-93.7465 Y99.607
G1 X-91.1931 Y100.7838
G1 X-89.2617 Y100.9156
G1 X-89.2615
G1 X-89.2612
G1 X-87.5873 Y100.6371
G1 X-86.1691 Y100.0047
G1 X-85.0048 Y99.0733
G1 X-83.4304 Y96.5359
G1 X-82.8501 Y93.4703
G1 X-83.2492 Y90.3196
G1 X-84.6138 Y87.5289
G1 X-86.9292 Y85.5424
G1 X-88.439 Y84.9896
G1 X-90.1811 Y84.8043
G1 X-90.1813 Y84.8044
G1 X-90.1816 Y84.8043
G1 X-93.081 Y85.4438
G1 X-95.1616 Y87.0938
G1 X-96.4365 Y89.4432
G1 X-96.9193 Y92.1803
G1 X-96.6233 Y94.9941
G1 X-95.5612 Y97.5735
G1 X-95.2609 Y97.91
G0 Z5.0
G0 X-85.5297 Y83.9956
G1 Z0.0
G1 X-87.5526 Y75.1062
G1 X-88.13 Y70.1187
G1 X-87.9562 Y64.7803
G1 X-88.4035 Y69.2304
G1 X-88.0008 Y74.4537
G1 X-86.9693 Y79.644
G1 X-85.5297 Y83.9956
G0 Z5.0
G0 X-88.1586 Y81.5685
G1 Z0.0
G1 X-89.2707 Y77.1209
G1 X-89.81 Y74.6196
G1 X-89.7764 Y72.0616
G1 X-89.7772 Y72.0679
G1 X-89.7771 Y72.0616
G1 X-90.0515 Y74.4813
G1 X-89.679 Y77.0232
G1 X-88.159 Y81.5685
G1 X-88.1605 Y81.5627
G1 X-88.1586 Y81.5685
G0 Z5.0
G0 X-98.0656 Y79.1254
G1 Z0.0
G1 X-97.2693 Y75.8959
G1 X-96.163 Y72.957
G1 X-94.6444 Y70.4302
G1 X-92.6088 Y68.4207
G1 X-93.2426 Y68.4658
G1 X-94.0054 Y68.9816
G1 X-95.4401 Y70.6456
G1 X-97.1856 Y74.3817
G1 X-98.0694 Y79.1408
G1 X-98.0656 Y79.1254
G0 Z5.0
G0 X-80.0679 Y41.5193
G1 Z0.0
G1 X-79.9113 Y40.1983
G1 X-80.2703 Y38.8898
G1 X-80.0679 Y41.5193
G0 Z5.0
G0 X-91.5978 Y21.0901
G1 Z0.0
G1 X-92.6858 Y21.0644
G1 X-93.3138 Y21.2863
G1 X-93.6198 Y21.6964
G1 X-92.4915 Y21.5107
G1 X-91.5978 Y21.0901
G0 Z5.0
G0 X-90.1816 Y8.9543
G1 Z0.0
G1 X-90.1823 Y8.9525
G1 X-90.1811 Y8.9539
G1 X-91.5492 Y5.4676
G1 X-93.4175 Y2.481
G1 X-93.4176 Y2.4821
G1 X-93.418 Y2.4816
G1 X-93.4746 Y3.1136
G1 X-93.0214 Y3.7991
G1 X-91.7995 Y5.3132
G1 X-91.146 Y7.3409
G1 X-90.7915 Y8.2658
G1 X-90.1816 Y8.9543
G0 Z5.0
G0 X-93.6198 Y6.7294
G1 Z0.0
G1 X-97.8961 Y8.3183
G1 X-102.5197 Y9.5607
G1 X-100.5331 Y8.6148
G1 X-98.2553 Y7.9593
G1 X-93.6198 Y6.7294
G0 Z5.0
G0 X-93.3702 Y6.0461
G1 Z0.0
G1 X-94.3669 Y5.6819
G1 X-96.3168 Y5.8165
G1 X-99.8907 Y6.9313
G1 X-102.5652 Y7.6439
G1 X-103.6964 Y8.2117
G1 X-104.3403 Y9.1562
G1 X-104.425 Y10.4295
G1 X-103.9604 Y11.2402
G1 X-103.0756 Y11.6663
G1 X-101.8993 Y11.786
G1 X-99.1876 Y11.422
G1 X-96.8567 Y10.7745
G1 X-94.4596 Y9.6889
G1 X-92.6088 Y8.5497
G1 X-92.4706 Y7.412
G1 X-92.6088 Y6.3243
G1 X-93.3702 Y6.0461
G0 Z5.0
G0 X-92.2041 Y1.6724
G1 Z0.0
G1 X-91.8816 Y1.5907
G1 X-91.7995 Y1.2677
G1 X-93.6347 Y-0.5955
G1 X-95.7419 Y-2.3238
G1 X-98.3053 Y-3.4689
G1 X-101.5081 Y-3.5865
G1 X-98.4079 Y-3.0458
G1 X-95.8801 Y-1.9331
G1 X-93.8406 Y-0.3322
G1 X-92.2041 Y1.6724
G0 Z5.0
G0 X-94.9847 Y1.0435
G1 Z0.0
G1 X-94.9363 Y0.8296
G1 X-95.2517 Y0.4205
G1 X-96.2492 Y-0.1479
G1 X-95.7324 Y0.6499
G1 X-95.0354 Y1.2677
G1 X-94.9847 Y1.0435
G0 Z5.0
G0 X-96.1641 Y1.129
G1 Z0.0
G1 X-97.0584 Y-0.1479
G1 X-102.1697 Y0.7079
G1 X-104.054 Y1.8066
G1 X-104.6498 Y2.7023
G1 X-104.9469 Y3.8972
G1 X-103.8292 Y4.8095
G1 X-102.2493 Y5.132
G1 X-100.457 Y4.9567
G1 X-98.703 Y4.3764
G1 X-97.2362 Y3.4835
G1 X-96.3068 Y2.3704
G1 X-96.1641 Y1.129
G0 Z5.0
G0 X-102.9243 Y-3.1819
G1 Z0.0
G1 X-103.7225 Y-2.8679
G1 X-104.1382 Y-2.1704
G1 X-103.3734 Y-2.5194
G1 X-102.9243 Y-3.1819
G0 Z5.0
G0 X-115.1027 Y-0.0848
G1 Z0.0
G1 X-115.4877 Y-1.5986
G1 X-116.8807 Y-4.8002
G1 X-119.0149 Y-11.6041
G1 X-120.5212 Y-19.161
G1 X-119.8322 Y-13.4979
G1 X-118.412 Y-8.1739
G1 X-114.6558 Y1.6724
G1 X-115.1027 Y-0.0848
G0 Z5.0
G0 X-117.4467 Y0.9016
G1 Z0.0
G1 X-118.2789 Y-1.0758
G1 X-120.1166 Y-6.4177
G1 X-118.7055 Y-1.1234
G1 X-116.6113 Y3.8812
G1 X-111.8237 Y13.4041
G1 X-111.2173
G1 X-116.1522 Y3.9778
G1 X-117.4467 Y0.9016
G0 Z5.0
G0 X-119.4539 Y1.5512
G1 Z0.0
G1 X-120.7239 Y-2.3729
G1 X-119.6228 Y2.0695
G1 X-117.8256 Y6.2072
G1 X-113.6443 Y14.0109
G1 X-115.3234 Y10.1461
G1 X-117.3379 Y6.2257
G1 X-119.2758 Y2.1014
G1 X-119.4539 Y1.5512
G0 Z5.0
G0 X-121.3305 Y-2.1704
G1 Z0.0
G1 X-121.9578 Y-5.5195
G1 X-122.9654 Y-8.8801
G1 X-123.9644 Y-12.3752
G1 X-124.5674 Y-16.1275
G1 X-124.2899 Y-12.4289
G1 X-123.4055 Y-8.9456
G1 X-121.3305 Y-2.1704
G0 Z5.0
G0 X-122.1401 Y-12.0823
G1 Z0.0
G1 X-123.0685 Y-17.9806
G1 X-124.1627 Y-24.2186
G1 X-124.0215 Y-21.1415
G1 X-123.4892 Y-18.0648
G1 X-122.1401 Y-12.0823
G0 Z5.0
G0 X-124.9714 Y-16.3284
G1 Z0.0
G1 X-126.1667 Y-28.5497
G1 X-126.3014 Y-35.1385
G1 X-125.7801 Y-41.6126
G1 X-125.7816 Y-41.5998
G1 X-125.7806 Y-41.6132
G1 X-126.5438 Y-35.3727
G1 Y-35.3724
G1 X-126.5287 Y-28.7398
G1 X-126.4626 Y-28.012
G1 X-125.9374 Y-22.2232
G1 X-124.9718 Y-16.3293
G1 X-124.9723 Y-16.3338
G1 X-124.9714 Y-16.3284
G0 Z5.0
G0 X-112.8356 Y4.7064
G1 Z0.0
G1 X-112.1998 Y5.8912
G1 X-111.6218 Y7.1335
G1 X-111.372 Y6.5962
G1 X-111.6758 Y5.8656
G1 X-112.8356 Y4.7064
G0 Z5.0
G0 X-113.0375 Y14.0109
G1 Z0.0
G1 X-112.9979 Y15.051
G1 X-112.4946 Y16.0745
G1 X-111.015 Y18.056
G1 X-106.9699 Y23.9217
G1 X-108.1812 Y21.46
G1 X-109.8968 Y19.1116
G1 X-111.6654 Y16.6905
G1 X-113.0375 Y14.0109
G0 Z5.0
G0 X-110.0034 Y15.6283
G1 Z0.0
G1 X-110.1466 Y16.0109
G1 X-109.7431 Y16.5892
G1 X-109.2168 Y17.2943
G1 X-108.9924 Y18.056
G1 X-108.7034 Y17.5277
G1 X-109.032 Y16.8741
G1 X-110.0034 Y15.6283
G0 Z5.0
G0 X-58.6272 Y17.045
G1 Z0.0
G1 X-56.0954 Y14.723
G1 X-53.7728 Y12.1902
G1 X-56.4274 Y14.3904
G1 X-58.6272 Y17.045
G0 Z5.0
G0 X-55.1885 Y20.2809
G1 Z0.0
G1 X-53.9537 Y19.8982
G1 X-53.1664 Y19.067
G1 X-54.3152 Y19.5361
G1 X-55.1885 Y20.2809
G0 Z5.0
G0 X-56.2005 Y25.3379
G1 Z0.0
G1 X-57.1028 Y25.7496
G1 X-57.6162 Y26.5518
G1 X-56.7674 Y26.0856
G1 X-56.2005 Y25.3379
G0 Z5.0
G0 X-51.7504 Y10.774
G1 Z0.0
G1 X-50.6057 Y10.3008
G1 X-49.9296 Y9.3584
G1 X-50.9661 Y9.9404
G1 X-51.4765 Y10.2393
G1 X-51.7504 Y10.774
G0 Z5.0
G0 X-45.4798 Y14.0109
G1 Z0.0
G1 X-44.7328 Y14.78
G1 X-43.6596 Y15.2243
G1 X-44.3481 Y14.3964
G1 X-45.4798 Y14.0109
G0 Z5.0
G0 X-41.6371 Y15.6283
G1 Z0.0
G1 X-40.4083 Y16.423
G1 X-38.603 Y16.6403
G1 X-39.9902 Y16.0044
G1 X-41.6371 Y15.6283
G0 Z5.0
G0 X-38.1985 Y16.8427
G1 Z0.0
G1 X-37.1454 Y17.081
G1 X-36.6066 Y17.0404
G1 X-36.3783 Y16.6403
G1 X-37.576 Y16.5466
G1 X-38.0228 Y16.4951
G1 X-38.1985 Y16.8427
G0 Z5.0
G0 X-40.0408 Y11.3723
G1 Z0.0
G1 X-40.0041 Y10.8382
G1 X-40.0187 Y9.5607
G1 X-40.1995 Y9.5692
G1 X-40.236 Y10.104
G1 X-40.2215 Y11.3813
G1 X-40.0408 Y11.3723
G0 Z5.0
G0 X-49.3232 Y-0.1479
G1 Z0.0
G1 X-55.796 Y-10.2612
G1 X-52.8981 Y-4.8661
G1 X-49.3232 Y-0.1479
G0 Z5.0
G0 X-49.93 Y-5.4068
G1 Z0.0
G1 X-50.2827 Y-6.1674
G1 X-50.7394 Y-6.823
G1 X-50.7032 Y-5.9978
G1 X-49.93 Y-5.4068
G0 Z5.0
G0 X-52.1549 Y-8.0357
G1 Z0.0
G1 X-52.1565 Y-8.0395
G1 X-52.1549 Y-8.0363
G1 X-55.796 Y-16.5315
G1 X-55.7949 Y-16.5283
G1 X-55.796 Y-16.5309
G1 X-54.2331 Y-12.0261
G1 X-52.1549 Y-8.0357
G0 Z5.0
G0 X-55.9977 Y-10.464
G1 Z0.0
G1 X-56.964 Y-13.7969
G1 X-57.1229 Y-14.3451
G1 X-57.4291 Y-15.3348
G1 X-58.4249 Y-18.5545
G1 X-58.4247 Y-18.5529
G1 X-58.4254 Y-18.5551
G1 X-58.189 Y-16.4833
G1 X-57.5636 Y-14.4097
G1 X-55.9983 Y-10.4643
G1 X-55.9996 Y-10.4689
G1 X-55.9977 Y-10.464
G0 Z5.0
G0 Y-16.9361
G1 Z0.0
G1 X-55.9978 Y-16.9373
G1 X-55.9977 Y-16.9368
G1 X-56.2576 Y-19.3567
G1 X-57.2115 Y-21.589
G1 X-57.2113 Y-21.5882
G1 X-57.2115 Y-21.5887
G1 X-55.9977 Y-16.9361
G0 Z5.0
G0 X-53.9756 Y-19.3629
G1 Z0.0
G1 X-53.7464 Y-20.126
G1 X-53.9742 Y-21.1899
G1 X-54.7849 Y-23.2064
G1 X-54.83 Y-22.3192
G1 X-54.514 Y-21.4033
G1 X-53.9756 Y-19.3629
G0 Z5.0
G0 X-61.8641 Y-52.3338
G1 Z0.0
G1 X-63.0444 Y-55.1631
G1 X-64.6953 Y-57.9973
G1 X-67.7294 Y-63.8623
G1 X-70.402 Y-71.7084
G1 X-72.5841 Y-80.0448
G1 X-70.9723 Y-72.3705
G1 X-68.472 Y-65.1937
G1 X-65.3472 Y-58.5147
G1 X-61.8641 Y-52.3338
G0 Z5.0
G0 Y-56.783
G1 Z0.0
G1 X-64.6548 Y-62.8921
G1 X-67.5275 Y-68.9192
G1 X-64.9893 Y-62.5573
G1 X-63.5646 Y-59.5318
G1 X-61.8641 Y-56.783
G0 Z5.0
G0 X-71.9773 Y-67.5037
G1 Z0.0
G1 X-77.2362 Y-69.7285
G1 X-74.8961 Y-68.3263
G1 X-71.9773 Y-67.5037
G0 Z5.0
G0 X-64.8977 Y-72.5597
G1 Z0.0
G1 X-65.8336 Y-75.3659
G1 X-66.516 Y-78.4249
G1 X-66.202 Y-75.2503
G1 X-64.8977 Y-72.5597
G0 Z5.0
G0 X-15.3421 Y-38.1746
G1 Z0.0
G1 X-15.1578 Y-36.6893
G1 X-14.5334 Y-35.1405
G1 X-14.7306 Y-36.6122
G1 X-15.3421 Y-38.1746
G0 Z5.0
G0 X-11.4989 Y-39.7924
G1 Z0.0
G1 X-11.4323 Y-40.821
G1 X-12.1058 Y-41.6126
G1 X-11.4989 Y-39.7924
G0 Z5.0
G0 X-7.8583 Y-37.3653
G1 Z0.0
G1 X-7.2519 Y-35.7473
G1 X-6.965 Y-36.0538
G1 X-7.0762 Y-36.5681
G1 X-7.8583 Y-37.3653
G0 Z5.0
G0 X27.5389 Y-40.1977
G1 Z0.0
G1 X27.8349 Y-40.9027
G1 X27.7147 Y-41.5471
G1 X27.5063 Y-41.5166
G1 X27.5389 Y-40.1977
G0 Z5.0
G0 X30.0805 Y-39.7062
G1 Z0.0
G1 X29.9449 Y-39.0048
G1 X29.9666 Y-36.3538
G1 X30.3396 Y-38.3578
G1 X30.371 Y-41.2086
G1 X30.0805 Y-39.7062
G0 Z5.0
G0 X29.9666 Y-35.9498
G1 Z0.0
G1 X29.6225 Y-34.8771
G1 X29.3591 Y-33.7249
G1 X29.7191 Y-33.7535
G1 X29.9048 Y-34.3432
G1 X29.9666 Y-35.9498
G0 Z5.0
G0 X35.8319 Y-37.1634
G1 Z0.0
G1 X36.0127 Y-37.1721
G1 X36.049 Y-37.7063
G1 X36.0347 Y-38.9837
G1 X35.854 Y-38.9747
G1 X35.8167 Y-38.4405
G1 X35.8319 Y-37.1634
G0 Z5.0
G0 X39.4723 Y-20.78
G1 Z0.0
G1 X39.4726 Y-20.7799
G1 Y-20.78
G1 X39.7717 Y-20.7219
G1 X39.6761 Y-20.5765
G1 X37.4487 Y-18.3539
G1 X35.8347 Y-15.5175
G1 X34.8269 Y-12.0752
G1 X34.4167 Y-8.0357
G1 X34.4163 Y-8.0469
G1 X34.4151 Y-8.0357
G1 X34.271 Y-11.8705
G1 X35.249 Y-15.4259
G1 X37.0742 Y-18.4719
G1 X39.4723 Y-20.78
G0 Z5.0
G0 X40.0112 Y-20.0411
G1 Z0.0
G1 X41.5053 Y-20.6844
G1 X42.9109 Y-20.5772
G1 X43.5569 Y-20.0517
G1 X43.987 Y-19.1946
G1 X44.3277 Y-17.1389
G1 X43.7056 Y-13.5755
G1 X41.9388 Y-9.8509
G1 X40.7568 Y-8.2963
G1 X39.4453 Y-7.1413
G1 X38.0562 Y-6.5341
G1 X36.6419 Y-6.6211
G1 X35.6655 Y-7.3062
G1 X35.0226 Y-8.441
G1 X34.8605 Y-10.5817
G1 X35.2344 Y-12.8299
G1 X37.1748 Y-17.0777
G1 X38.5332 Y-18.7918
G1 X40.0112 Y-20.0411
G0 Z5.0
G0 X39.3974 Y-21.1752
G1 Z0.0
G1 X38.1478 Y-20.4989
G1 X36.2105 Y-18.3582
G1 X34.6549 Y-15.6101
G1 X33.6549 Y-12.6255
G1 X33.3831 Y-9.7755
G1 X33.3832 Y-9.7753
G1 X33.3831 Y-9.7749
G1 X34.0117 Y-7.4298
G1 X34.7633 Y-6.6348
G1 X35.8943 Y-6.1043
G1 X38.8086 Y-6.0154
G1 X38.7775 Y-5.9063
G1 X38.8658 Y-6.0136
G1 X38.8654
G1 X38.8658 Y-6.0142
G1 X38.8087 Y-6.016
G1 X38.8658 Y-6.2164
G1 X41.569 Y-8.4578
G1 X43.5193 Y-11.5075
G1 X44.5591 Y-15.2492
G1 Y-15.2494
G1 Y-15.2495
G1 X44.5293 Y-19.566
G1 X43.5323 Y-20.7582
G1 X42.4802 Y-21.4738
G1 X41.3941 Y-21.7595
G1 X40.2957 Y-21.6613
G1 X39.3974 Y-21.1752
G0 Z5.0
G0 X44.1249 Y-11.0708
G1 Z0.0
G1 X40.4699 Y-5.5226
G1 X36.2363 Y-0.5525
G1 X36.2392 Y-0.5555
G1 X36.2363 Y-0.5521
G1 X40.7873 Y-5.2046
G1 X42.6336 Y-7.9596
G1 X44.1249 Y-11.0702
G1 X44.1238 Y-11.0686
G1 X44.1249 Y-11.0708
G0 Z5.0
G0 X38.7778 Y-5.9073
G1 Z0.0
G1 X36.8338 Y-3.5455
G1 X35.0226 Y-1.3621
G1 X35.024 Y-1.3634
G1 X35.0226 Y-1.3617
G1 X37.4559 Y-3.5294
G1 X38.4543 Y-4.7714
G1 X38.7778 Y-5.9073
G0 Z5.0
G0 X36.4391 Y-5.2049
G1 Z0.0
G1 X35.6891 Y-5.1064
G1 X34.8229 Y-4.3847
G1 X33.4045 Y-2.3738
G1 X34.9105 Y-3.8008
G1 X36.4391 Y-5.2049
G0 Z5.0
G0 X34.2652 Y-6.0183
G1 Z0.0
G1 X34.4151 Y-6.4189
G1 X33.8272 Y-6.1975
G1 X33.607 Y-5.6096
G1 X34.1949 Y-5.8304
G1 X34.2652 Y-6.0183
G0 Z5.0
G0 X32.7977 Y-5.0021
G1 Z0.0
G1 X31.8673 Y-4.6183
G1 X31.3815 Y-3.7887
G1 X32.2555 Y-4.2294
G1 X32.7977 Y-5.0021
G0 Z5.0
G0 X57.2726 Y-11.4755
G1 Z0.0
G1 X58.5409 Y-10.8323
G1 X60.4124 Y-10.3932
G1 X64.8429 Y-10.231
G1 X66.8414 Y-10.56
G1 X68.3206 Y-11.1969
G1 X69.0001 Y-12.1668
G1 X68.6001 Y-13.4976
G1 X66.915 Y-14.3268
G1 X63.6901 Y-15.0498
G1 X60.19 Y-15.1991
G1 X58.7313 Y-14.9122
G1 X57.6773 Y-14.3066
G1 X57.0971 Y-13.1951
G1 X57.2726 Y-11.4755
G0 Z5.0
G0 X59.9466 Y-18.279
G1 Z0.0
G1 X59.0593 Y-18.9936
G1 X58.6891 Y-19.9707
G1 X60.1994 Y-20.8266
G1 X62.164 Y-21.0377
G1 X64.2115 Y-20.7663
G1 X65.9703 Y-20.1734
G1 X62.3839 Y-20.22
G1 X60.6531 Y-20.1806
G1 X59.295 Y-19.7688
G1 X62.7593 Y-19.7443
G1 X65.9703 Y-19.9716
G1 X66.3743 Y-20.1719
G1 X66.5774 Y-19.7672
G1 X66.17 Y-18.8085
G1 X65.256 Y-18.1405
G1 X62.5904 Y-17.6567
G1 X59.9466 Y-18.279
G0 Z5.0
G0 X59.8451 Y-17.9062
G1 Z0.0
G1 X61.9246 Y-17.3402
G1 X65.0323 Y-17.4368
G1 X66.5765 Y-18.1128
G1 X67.0408 Y-18.7253
G1 X67.1833 Y-19.5651
G1 X67.1832 Y-19.5653
G1 X67.1833 Y-19.5657
G1 X66.7799 Y-20.4545
G1 X65.7929 Y-21.0837
G1 X62.8165 Y-21.6185
G1 X59.7481 Y-21.2788
G1 X58.6465 Y-20.8144
G1 X58.0816 Y-20.1725
G1 Y-20.1719
G1 X58.1189 Y-18.9737
G1 X58.9546 Y-18.1485
G1 X59.8451 Y-17.9062
G0 Z5.0
G0 X62.7332 Y-26.24
G1 Z0.0
G1 X64.9737 Y-25.5226
G1 X66.9066 Y-24.4974
G1 X68.5389 Y-23.1716
G1 X69.8781 Y-21.5527
G1 X71.7042 Y-17.4625
G1 X72.4427 Y-12.2842
G1 X72.0172 Y-17.4535
G1 X71.3256 Y-19.7222
G1 X70.3032 Y-21.7253
G1 X68.9417 Y-23.4204
G1 X67.2315 Y-24.7657
G1 X65.165 Y-25.7198
G1 X62.7332 Y-26.24
G0 Z5.0
G0 X96.7133 Y-46.063
G1 Z0.0
G1 X97.212 Y-46.5257
G1 X97.3412 Y-47.3574
G1 X97.3207 Y-49.2997
G1 X96.7769 Y-47.9217
G1 X96.7133 Y-46.063
G0 Z5.0
G0 X102.9842
G1 Z0.0
G1 X102.9848 Y-46.0649
G1 X102.9847 Y-46.0624
G1 X103.3522 Y-47.1937
G1 X103.3829 Y-48.3173
G1 X103.1869 Y-50.513
G1 X103.0084 Y-48.3397
G1 X102.9842 Y-46.063
G0 Z5.0
G0 X103.3898 Y-44.8496
G1 Z0.0
G1 X102.9932 Y-43.5701
G1 X102.9431 Y-42.1341
G1 X103.0665 Y-41.7017
G1 X103.1869 Y-43.4334
G1 X103.3898 Y-44.8496
G0 Z5.0
G0 X108.5057 Y-44.7794
G1 Z0.0
G1 X108.4104 Y-37.8321
G1 X107.6361 Y-29.2752
G1 X107.6363 Y-29.2771
G1 X107.6361 Y-29.2745
G1 X108.6643 Y-37.7284
G1 X108.8625 Y-46.885
G1 Y-46.8852
G1 Y-46.8856
G1 X108.246 Y-55.8842
G1 X106.828 Y-63.8623
G1 X106.8284 Y-63.8594
G1 X106.828 Y-63.8617
G1 X108.0038 Y-55.5057
G1 X108.5321 Y-46.7024
G1 X108.5057 Y-44.7794
G0 Z5.0
G0 X112.2809 Y-44.5597
G1 Z0.0
G1 X112.2721 Y-44.4095
G1 X112.2887 Y-43.0293
G1 X111.6744 Y-32.3103
G1 X110.0504 Y-22.462
G1 X107.6243 Y-13.542
G1 X104.6028 Y-5.6096
G1 X104.6045 Y-5.6134
G1 X104.6028 Y-5.609
G1 X107.8147 Y-12.9149
G1 X110.1501 Y-21.0974
G1 X111.6843 Y-30.0814
G1 X112.4914 Y-39.7924
G1 Y-39.793
G1 Y-42.4219
G1 Y-42.4226
G1 Y-45.0515
G1 Y-45.0518
G1 X112.3064 Y-44.9977
G1 X112.2809 Y-44.5597
G0 Z5.0
G0 X114.7282 Y-44.5287
G1 Z0.0
G1 X114.7169 Y-43.6362
G1 Y-43.6359
G1 X115.1079 Y-43.9894
G1 X115.1179 Y-44.6214
G1 X115.1216 Y-45.6576
G1 Y-45.6583
G1 X114.862 Y-45.6288
G1 X114.7352 Y-45.0825
G1 X114.7282 Y-44.5287
G0 Z5.0
G0 X114.9197 Y-46.467
G1 Z0.0
G1 X114.7915 Y-50.1819
G1 X114.5151 Y-53.7485
G1 X114.1669 Y-55.019
G1 X114.1104 Y-56.5795
G1 X113.4445 Y-58.7476
G1 X112.8951 Y-61.0315
G1 X112.8958 Y-61.0274
G1 X112.8945 Y-61.0324
G1 X113.8632 Y-54.5172
G1 X114.7154 Y-47.0748
G1 X114.6738 Y-46.6198
G1 X114.9176 Y-46.4679
G1 X114.9175 Y-46.4684
G1 X114.9197 Y-46.467
G0 Z5.0
G0 X115.1216 Y-42.0179
G1 Z0.0
G1 X115.0313 Y-41.6028
G1 X114.5682 Y-39.4765
G1 X114.5142 Y-36.5931
G1 X114.5135 Y-36.5566
G1 X113.6722 Y-29.459
G1 X112.3147 Y-22.6713
G1 X110.498 Y-16.1929
G1 X108.2783 Y-10.0233
G1 X105.7128 Y-4.1614
G1 X102.859 Y1.3935
G1 X96.5127 Y11.5832
G1 X96.5134 Y11.5824
G1 X96.5127 Y11.5837
G1 X98.3614 Y9.6915
G1 X99.749 Y7.3358
G1 X105.4659 Y-2.9195
G1 X107.9761 Y-8.5252
G1 X110.1895 Y-14.4715
G1 X112.0595 Y-20.7769
G1 X113.5361 Y-27.4583
G1 X114.5732 Y-34.5327
G1 X115.1216 Y-42.0172
G1 X115.1215 Y-42.0169
G1 X115.1216 Y-42.0179
G0 Z5.0
G0 X112.0871 Y-51.5242
G1 Z0.0
G1 X112.087 Y-51.5248
G1 X112.0871 Y-51.5245
G1 X110.8731 Y-60.6268
G1 X110.6539 Y-59.8737
G1 X110.7603 Y-58.6883
G1 X111.2777 Y-56.3783
G1 X111.4569 Y-53.7258
G1 X112.0871 Y-51.5242
G0 Z5.0
G0 X103.1934 Y-52.6186
G1 Z0.0
G1 X103.2736 Y-53.2702
G1 X103.1869 Y-55.9737
G1 X103.1149 Y-57.1721
G1 X102.9842 Y-56.3783
G1 Y-50.9177
G1 X103.1934 Y-52.6186
G0 Z5.0
G0 X97.3454 Y-53.4984
G1 Z0.0
G1 X97.7248 Y-56.0199
G1 X97.7943 Y-59.0659
G1 X97.7269 Y-64.8738
G1 X97.7188 Y-66.0524
G1 X97.6496 Y-66.4235
G1 X97.5242 Y-66.0875
G1 X97.3223 Y-53.3448
G1 X97.3454 Y-53.4984
G0 Z5.0
G0 X102.5808 Y-62.0415
G1 Z0.0
G1 X102.9516 Y-62.6999
G1 X102.8587 Y-63.6411
G1 X102.5808 Y-65.6828
G1 X102.4826 Y-64.0169
G1 X102.5808 Y-62.0415
G0 Z5.0
G0 X102.7814 Y-36.556
G1 Z0.0
G1 X102.1745 Y-32.5109
G1 X102.178 Y-32.5234
G1 X102.1761 Y-32.5109
G1 X102.7288 Y-34.5224
G1 X102.7835 Y-36.556
G1 X102.7809 Y-36.5386
G1 X102.7814 Y-36.556
G0 Z5.0
G0 X107.0302 Y-24.2186
G1 Z0.0
G1 X106.3662 Y-23.0617
G1 X106.2215 Y-21.3874
G1 X106.7715 Y-22.6567
G1 X107.0302 Y-24.2186
G0 Z5.0
G0 X103.9969 Y-4.1931
G1 Z0.0
G1 X102.2916 Y-1.7513
G1 X100.9621 Y1.0654
G1 X102.6388 Y-1.4043
G1 X103.9969 Y-4.1931
G0 Z5.0
G0 X91.8604 Y4.3017
G1 Z0.0
G1 X91.633 Y7.6658
G1 X91.6576 Y11.786
G1 X91.8849 Y8.422
G1 X91.8604 Y4.3017
G0 Z5.0
G0 X90.2557 Y4.3125
G1 Z0.0
G1 X90.242 Y2.2792
G1 X89.942 Y3.4896
G1 X89.9508 Y5.0134
G1 X90.0392 Y8.5497
G1 X90.2657 Y5.792
G1 X90.2557 Y4.3125
G0 Z5.0
G0 X77.2965 Y20.2809
G1 Z0.0
G1 X76.903 Y20.9994
G1 X76.8922 Y22.1011
G1 X77.2757 Y21.9287
G1 X77.3338 Y21.4306
G1 X77.2965 Y20.2809
G0 Z5.0
G0 X82.1509 Y25.5397
G1 Z0.0
G1 X81.7658 Y26.7726
G1 X81.7462 Y28.3716
G1 X82.1323 Y27.139
G1 X82.1509 Y25.5397
G0 Z5.0
G0 X81.7462 Y28.5739
G1 Z0.0
G1 X81.3611 Y29.8066
G1 X81.3428 Y31.4056
G1 X81.7276 Y30.1733
G1 X81.7462 Y28.5739
G0 Z5.0
G0 X87.6115 Y56.2849
G1 Z0.0
G1 X87.3852 Y57.1708
G1 X87.4094 Y58.3075
G1 X87.7674 Y57.3485
G1 X87.6115 Y56.2849
G0 Z5.0
G0 X89.4254 Y56.4001
G1 Z0.0
G1 X89.1806 Y60.2554
G1 X89.2302 Y64.7803
G1 X89.4575 Y60.6589
G1 X89.4327 Y56.2849
G1 X89.4254 Y56.4001
G0 Z5.0
G0 X91.0517 Y60.7346
G1 Z0.0
G1 X90.8234 Y62.5298
G1 X90.8486 Y64.5775
G1 X91.2558 Y63.7051
G1 X91.2697 Y62.6911
G1 X91.0517 Y60.7346
G0 Z5.0
G0 X67.3858 Y93.9065
G1 Z0.0
G1 X68.4389 Y95.7863
G1 X69.6107 Y97.5475
G1 X69.5914 Y96.7342
G1 X68.9837 Y95.7438
G1 X67.3858 Y93.9065
G0 Z5.0
G0 X71.8355 Y99.57
G1 Z0.0
G1 X73.6757 Y101.5229
G1 X75.9129 Y103.0782
G1 X78.4885 Y104.2956
G1 X81.3428 Y105.2335
G1 X81.1403 Y104.6265
G1 X78.2981 Y103.8785
G1 X75.9645 Y102.6221
G1 X71.8355 Y99.57
G0 Z5.0
G0 X37.6521 Y98.5584
G1 Z0.0
G1 X37.1136 Y98.4593
G1 X36.6236 Y98.7948
G1 X36.0347 Y99.9741
G1 X37.6521 Y98.5584
G0 Z5.0
G0 X34.8214 Y95.1203
G1 Z0.0
G1 X33.0002 Y94.9175
G1 X33.9164 Y95.2446
G1 X34.8214 Y95.1203
G0 Z5.0
G0 X-11.9359 Y100.7404
G1 Z0.0
G1 X-12.1058 Y99.3271
G1 X-13.5214 Y95.7267
G1 X-12.5554 Y99.3115
G1 X-12.1058 Y103.4129
G1 X-11.8543 Y101.4187
G1 X-11.9359 Y100.7404
G0 Z5.0
G0 X-14.5334 Y99.1654
G1 Z0.0
G1 X-14.5679 Y97.2419
G1 X-15.1913 Y95.0528
G1 X-16.2445 Y93.0487
G1 X-17.5675 Y91.6816
G1 X-15.6435 Y95.0166
G1 X-14.5334 Y99.1654
G0 Z5.0
G0 X-17.1623 Y97.548
G1 Z0.0
G1 X-17.2609 Y95.7587
G1 X-18.0651 Y93.898
G1 X-19.328 Y92.244
G1 X-20.8034 Y91.0752
G1 X-18.5589 Y93.887
G1 X-17.6742 Y95.5314
G1 X-17.1623 Y97.548
G0 Z5.0
G0 X-14.9381 Y93.2997
G1 Z0.0
G1 X-14.5334 Y93.0968
G1 X-16.1067 Y90.4232
G1 X-18.0327 Y88.1017
G1 X-20.4338 Y86.255
G1 X-23.4328 Y85.0067
G1 X-23.0522 Y85.548
G1 X-22.4233 Y85.8194
G1 X-21.0062 Y86.2199
G1 X-19.1433 Y87.5024
G1 X-17.4848 Y89.2154
G1 X-14.9381 Y93.2997
G0 Z5.0
G0 X-19.1849 Y89.6586
G1 Z0.0
G1 X-20.8559 Y87.9446
G1 X-21.922 Y87.3801
G1 X-23.0281 Y87.232
G1 X-19.1849 Y89.6586
G0 Z5.0
G0 X-21.8143 Y90.4678
G1 Z0.0
G1 X-22.3281 Y89.8434
G1 X-23.0281 Y89.8614
G1 X-22.5464 Y90.2895
G1 X-21.8143 Y90.4678
G0 Z5.0
G0 X-25.2535 Y85.0071
G1 Z0.0
G1 X-26.6696 Y84.6025
G1 X-26.0002 Y85.0713
G1 X-25.2535 Y85.0071
G0 Z5.0
G0 X-12.7126 Y13.6068
G1 Z0.0
G1 X-9.0001 Y12.2622
G1 X-7.2886 Y11.445
G1 X-5.8353 Y10.3698
G1 X-9.4032 Y11.8591
G1 X-12.7126 Y13.6068
G0 Z5.0
G0 X49.7883 Y-94.2028
G1 Z0.0
G1 X49.0862 Y-98.6585
G1 X48.7383 Y-103.6846
G1 X48.9079 Y-106.111
G1 X49.4206 Y-108.3188
G1 X50.3598 Y-110.1885
G1 X51.8107 Y-111.5978
G1 X53.6316 Y-111.3949
G1 X53.3918 Y-111.8633
G1 X52.8278 Y-112.0074
G1 X51.4061 Y-112.0022
G1 X50.1138 Y-110.5257
G1 X49.2163 Y-108.599
G1 X48.4392 Y-103.8657
G1 X48.7411 Y-98.7516
G1 X49.7883 Y-94.2028
G0 Z5.0
G0 X59.0922 Y-114.6314
G1 Z0.0
G1 X53.848 Y-118.0851
G1 X47.7647 Y-120.6995
G1 X59.0922 Y-114.6314
G0 Z5.0
G0 X78.5108 Y-103.1032
G1 Z0.0
G1 X78.835 Y-102.5349
G1 X79.6841 Y-102.102
G1 X81.5444 Y-101.2818
G1 X81.2531 Y-101.8827
G1 X80.3714 Y-102.2834
G1 X78.5108 Y-103.1032
G0 Z5.0
G0 X78.0958 Y-102.0601
G1 Z0.0
G1 X75.4754 Y-103.1026
G1 X78.7322 Y-105.611
G1 X82.3528 Y-107.7542
G1 X85.1118 Y-106.5688
G1 X87.6115 Y-105.1247
G1 X81.1388 Y-100.6749
G1 X78.3698 Y-101.9511
G1 X78.0958 Y-102.0601
G0 Z5.0
G0 X77.9625 Y-101.6069
G1 Z0.0
G1 X78.2462 Y-101.5234
G1 X79.9111 Y-100.8116
G1 X80.9382 Y-99.4616
G1 X79.8686 Y-99.6529
G1 X78.6748 Y-100.2348
G1 X77.4502 Y-100.7845
G1 X76.2862 Y-100.8774
G1 X78.4254 Y-99.8818
G1 X80.7363 Y-99.0569
G1 X80.4679 Y-97.6062
G1 X80.3316 Y-96.023
G1 X78.913 Y-96.5261
G1 X77.5005 Y-97.0351
G1 X78.6701 Y-96.1823
G1 X80.1294 Y-95.6183
G1 X79.927 Y-94.001
G1 X77.4944 Y-94.8547
G1 X76.3757 Y-95.3221
G1 X75.275 Y-95.4165
G1 X79.927 Y-93.5963
G1 X79.7242 Y-92.1798
G1 X76.3757 Y-93.4336
G1 X74.7884 Y-94.09
G1 X73.2514 Y-94.405
G1 X76.5701 Y-92.9699
G1 X78.2692 Y-92.2926
G1 X79.7242 Y-91.3714
G1 X77.9251 Y-91.7316
G1 X76.1456 Y-92.4962
G1 X72.6446 Y-94.2028
G1 X73.458 Y-98.623
G1 X74.8701 Y-102.9004
G1 X76.4101 Y-102.0635
G1 X77.9625 Y-101.6069
G0 Z5.0
G0 X76.1159 Y-104.5446
G1 Z0.0
G1 X74.466 Y-103.5076
G1 X72.9157 Y-98.9013
G1 X72.3828 Y-96.4836
G1 X72.2415 Y-93.7988
G1 X72.24 Y-93.7986
G1 X72.2399 Y-93.7975
G1 X69.9526 Y-93.5559
G1 X68.1939 Y-92.7857
G1 X68.2191 Y-94.5298
G1 X67.9914 Y-96.0183
G1 X67.7647 Y-94.3286
G1 X67.7905 Y-92.3816
G1 X67.7889 Y-92.3808
G1 Y-92.3804
G1 X66.7749 Y-91.8636
G1 X65.9695 Y-91.5725
G1 X65.8643 Y-90.9696
G1 X65.565 Y-90.5615
G1 X65.5638 Y-90.5608
G1 X65.5634 Y-90.5602
G1 X63.5749 Y-89.3624
G1 X61.9106 Y-87.8412
G1 X61.5123 Y-87.4526
G1 X58.6875 Y-84.6959
G1 Y-84.6961
G1 X58.6863 Y-84.6949
G1 X56.8673 Y-93.1913
G1 X66.3743 Y-109.1704
G1 X66.3758 Y-109.1708
G1 X66.3762 Y-109.1714
G1 X74.8794 Y-111.5397
G1 X83.164 Y-113.6214
G1 X81.7478 Y-107.958
G1 X81.7462 Y-107.9571
G1 Y-107.957
G1 X81.6063 Y-107.8739
G1 X78.0679 Y-105.7716
G1 X76.1159 Y-104.5446
G0 Z5.0
G0 X81.3428 Y-100.0688
G1 Z0.0
G1 X85.751 Y-102.9414
G1 X87.77 Y-104.5632
G1 X89.2305 Y-106.743
G1 X91.0517 Y-104.721
G1 X90.8607 Y-99.997
G1 X90.0398 Y-95.4165
G1 X85.3267 Y-92.9493
G1 X80.3301 Y-90.7651
G1 X80.3282 Y-93.027
G1 X80.6817 Y-95.319
G1 X81.3428 Y-100.0688
G0 Z5.0
G0 X84.8124 Y-107.2748
G1 Z0.0
G1 X82.5556 Y-108.3614
G1 X83.5671 Y-113.6205
G1 X84.9998 Y-113.2329
G1 X86.3982 Y-112.8111
G1 X86.1954 Y-110.1819
G1 X86.9612 Y-109.1232
G1 X87.9662 Y-108.1322
G1 X88.5411 Y-107.0536
G1 X88.0162 Y-105.7322
G1 X84.8124 Y-107.2748
G0 Z5.0
G0 X87.6436 Y-109.0321
G1 Z0.0
G1 X86.8044 Y-110.3841
G1 X86.7308 Y-111.5444
G1 X86.9612 Y-112.595
G1 X87.209 Y-115.036
G1 X91.6277 Y-113.8422
G1 X95.5766 Y-112.1788
G1 X102.5811 Y-107.9564
G1 X103.7959 Y-99.7697
G1 X104.4012 Y-90.7642
G1 X99.7294 Y-82.3889
G1 X94.6918 Y-74.3804
G1 X94.0843
G1 X90.4849 Y-77.5578
G1 X87.2076 Y-81.0554
G1 X85.4454 Y-85.0651
G1 X84.5851 Y-87.0784
G1 X83.3646 Y-88.7415
G1 X82.2975 Y-89.4481
G1 X81.3428 Y-90.3596
G1 X83.6218 Y-91.609
G1 X86.4298 Y-92.7603
G1 X89.0212 Y-94.0261
G1 X90.6473 Y-95.6183
G1 X91.2352 Y-97.5299
G1 X91.4178 Y-99.6721
G1 X91.6589 Y-104.7207
G1 X90.6818 Y-106.1697
G1 X89.152 Y-107.5968
G1 X87.6622 Y-109.0021
G1 X87.6436 Y-109.0321
G0 Z5.0
G0 X103.1882 Y-107.3499
G1 Z0.0
G1 X106.0755 Y-106.3952
G1 X108.6488 Y-105.1253
G1 X110.6709 Y-93.1916
G1 X109.724 Y-93.2217
G1 X108.6488 Y-93.5963
G1 X109.0367 Y-93.0581
G1 X109.6827 Y-92.8093
G1 X110.6709 Y-92.3826
G1 X111.0753 Y-88.3369
G1 X110.4684
G1 X109.0554 Y-89.1993
G1 X107.3674 Y-89.7866
G1 X105.8649 Y-90.5592
G1 X105.0078 Y-91.9779
G1 X107.5516 Y-91.0826
G1 X110.065 Y-90.1577
G1 X107.6532 Y-91.4888
G1 X105.0078 Y-92.5845
G1 X104.2807 Y-100.0569
G1 X103.1882 Y-107.3499
G0 Z5.0
G0 X109.6607 Y-103.9114
G1 Z0.0
G1 X109.8933 Y-103.1868
G1 X109.6607 Y-102.4958
G1 X109.4553 Y-103.2492
G1 X109.6607 Y-103.9114
G0 Z5.0
G0 X110.6852 Y-103.9516
G1 Z0.0
G1 X110.6709 Y-104.3166
G1 X112.9558 Y-103.3407
G1 X113.3644 Y-103.1663
G1 X114.1431 Y-102.7788
G1 X115.9297 Y-101.8899
G1 Y-101.8895
G1 X115.9303 Y-101.8892
G1 X117.6332 Y-93.4286
G1 X118.367 Y-89.1375
G1 X118.7623 Y-84.8986
G1 X118.7604 Y-84.8993
G1 X118.7605 Y-84.8992
G1 X115.4657 Y-86.1413
G1 X115.2362 Y-86.2278
G1 X115.2352 Y-86.2282
G1 X113.6467 Y-87.067
G1 X112.4899 Y-88.3378
G1 X113.8281 Y-88.1015
G1 X113.8296 Y-88.1012
G1 X114.4194 Y-87.8196
G1 X114.9877 Y-87.5487
G1 X115.942 Y-87.0929
G1 X116.0615 Y-87.0359
G1 X117.1421 Y-86.9214
G1 X115.6533 Y-87.6654
G1 X113.8955 Y-88.2729
G1 X112.5983 Y-89.2152
G1 X112.4994 Y-89.513
G1 X112.3504 Y-89.9605
G1 X112.4914 Y-90.9658
G1 X112.492 Y-90.9657
G1 Y-90.9658
G1 X113.6157 Y-90.6245
G1 X114.0925 Y-90.4285
G1 X114.5135 Y-90.5618
G1 X112.2887 Y-91.5733
G1 X111.9557 Y-94.9475
G1 X111.3324 Y-98.301
G1 X110.7824 Y-101.4768
G1 X110.6852 Y-103.9516
G0 Z5.0
G0 X110.065 Y-101.8889
G1 Z0.0
G1 X110.4814 Y-101.0436
G1 X110.2678 Y-100.0688
G1 X109.9402 Y-101.0038
G1 X110.065 Y-101.8889
G0 Z5.0
G0 X110.6709 Y-99.6644
G1 Z0.0
G1 X111.0945 Y-96.3737
G1 X111.6824 Y-93.1916
G1 X112.0479 Y-90.1273
G1 X112.0871 Y-87.3263
G1 X111.1672 Y-85.3359
G1 X109.8616 Y-83.2809
G1 X108.0407 Y-78.8305
G1 X103.186 Y-70.9422
G1 X105.4118 Y-75.5938
G1 X107.6361 Y-79.6399
G1 X110.0725 Y-83.8042
G1 X111.1216 Y-85.9089
G1 X111.6824 Y-87.9329
G1 X111.6231 Y-90.7552
G1 X111.1224 Y-93.6354
G1 X110.6489 Y-96.597
G1 X110.6709 Y-99.6644
G0 Z5.0
G0 X106.1336 Y-89.8307
G1 Z0.0
G1 X107.6646 Y-89.1217
G1 X110.8731 Y-87.73
G1 X110.8729 Y-87.7296
G1 X110.8741 Y-87.7291
G1 X106.9358 Y-79.1265
G1 X102.1761 Y-71.3453
G1 X100.9621 Y-71.5487
G1 X100.9624 Y-71.5495
G1 X100.9617 Y-71.5496
G1 X102.0829 Y-74.1702
G1 X103.4304 Y-76.5643
G1 X106.0174 Y-81.4607
G1 X106.8171 Y-81.4044
G1 X107.2308 Y-81.4607
G1 X106.8273 Y-81.8641
G1 X106.5766 Y-82.1152
G1 X106.4218 Y-82.2697
G1 X106.7627 Y-82.738
G1 X106.846 Y-83.4635
G1 X106.8265 Y-85.0999
G1 X103.3893 Y-85.9088
G1 X103.7959 Y-85.5076
G1 X103.796 Y-85.5073
G1 X103.7966 Y-85.5067
G1 X103.9969 Y-84.8974
G1 X100.3844 Y-79.3072
G1 X97.3207 Y-73.368
G1 X96.13 Y-73.5929
G1 X95.2987 Y-74.1771
G1 X95.2991 Y-74.1778
G1 X95.2983 Y-74.1783
G1 X104.6028 Y-89.5503
G1 X107.0578 Y-88.4154
G1 X109.4545 Y-87.7307
G1 X106.9792 Y-88.8909
G1 X104.6038 Y-90.1555
G1 X104.6061 Y-90.155
G1 X104.6028 Y-90.1568
G1 X106.1336 Y-89.8307
G0 Z5.0
G0 X105.8159 Y-85.1017
G1 Z0.0
G1 X105.8982 Y-84.7788
G1 X106.2206 Y-84.697
G1 X106.22 Y-84.696
G1 X106.2206 Y-84.6959
G1 X102.9621 Y-78.397
G1 X99.7524 Y-72.5681
G1 X103.1466 Y-77.8597
G1 X106.2215 Y-83.4828
G1 X106.217 Y-83.4733
G1 X106.2215 Y-83.4815
G1 X103.3624 Y-77.4417
G1 X99.9506 Y-71.9528
G1 X98.8009 Y-72.6233
G1 X98.1509 Y-72.8839
G1 X97.7254 Y-73.3683
G1 X97.7258 Y-73.3691
G1 X97.7254 Y-73.3696
G1 X100.7599 Y-78.4262
G1 X101.8889 Y-80.7116
G1 X102.6988 Y-82.352
G1 X103.7927 Y-83.8742
G1 X103.9258 Y-84.0595
G1 X105.8159 Y-85.1017
G0 Z5.0
G0 X110.4401 Y-82.6397
G1 Z0.0
G1 X112.2887 Y-86.1117
G1 X114.9346 Y-84.7626
G1 X117.548 Y-83.8859
G1 X116.3285 Y-84.6949
G1 X114.7334 Y-85.2679
G1 X113.3325 Y-85.9077
G1 X112.6933 Y-86.9198
G1 X118.5586 Y-84.2902
G1 X115.1381 Y-75.5758
G1 X110.6709 Y-67.9068
G1 X109.255 Y-68.5145
G1 X111.8446 Y-73.1056
G1 X114.3117 Y-77.819
G1 X115.121 Y-78.0215
G1 X114.8284 Y-78.8507
G1 X115.0064 Y-80.0265
G1 X115.0393 Y-81.1601
G1 X114.3117 Y-81.8647
G1 X112.4591 Y-81.9834
G1 X111.2772 Y-82.2694
G1 X111.6228 Y-81.8058
G1 X112.2887 Y-81.6619
G1 X112.1159 Y-81.1778
G1 X111.7334 Y-80.9029
G1 X111.3759 Y-80.6029
G1 X111.2772 Y-80.0445
G1 X110.4448 Y-80.0675
G1 X109.861 Y-79.8411
G1 X110.6703 Y-79.6389
G1 X110.1371 Y-78.1491
G1 X109.0528 Y-77.2119
G1 X108.6206 Y-75.3333
G1 X107.6702 Y-73.5867
G1 X105.6137 Y-70.132
G1 X103.9963 Y-70.5366
G1 X110.4401 Y-82.6397
G0 Z5.0
G0 X111.8846 Y-80.6514
G1 Z0.0
G1 X113.2005 Y-81.3045
G1 X113.8738 Y-81.4315
G1 X114.5135 Y-81.0554
G1 X108.0407 Y-69.3245
G1 X111.3728 Y-74.5889
G1 X114.5135 Y-80.0445
G1 X111.8402 Y-74.1215
G1 X108.4454 Y-68.9198
G1 X107.1165 Y-69.4111
G1 X106.0187 Y-70.1332
G1 X109.175 Y-75.1687
G1 X111.8846 Y-80.6514
G0 Z5.0
G0 X106.7202 Y-68.1338
G1 Z0.0
G1 X110.5547 Y-66.5518
G1 X114.9176 Y-64.2657
G1 X116.1316 Y-57.6184
G1 X116.8325 Y-50.9472
G1 X117.0319 Y-44.1089
G1 X116.739 Y-36.9598
G1 X115.525 Y-30.0829
G1 X114.2132 Y-23.822
G1 X112.5542 Y-17.7768
G1 X110.6103 Y-12.1709
G1 X108.4454 Y-7.2263
G1 X101.799 Y5.4235
G1 X98.1033 Y11.1826
G1 X93.8825 Y16.438
G1 X97.0524 Y9.3113
G1 X98.5776 Y5.4424
G1 X99.1394 Y1.8756
G1 X98.7269 Y-0.2385
G1 X97.7981 Y-1.512
G1 X96.4595 Y-2.1092
G1 X94.8203 Y-2.1965
G1 X91.0697 Y-1.503
G1 X87.4088 Y-0.7537
G1 X81.5754 Y-0.7819
G1 X75.8794 Y-1.5629
G1 X75.0884 Y-10.3286
G1 X74.4648 Y-14.4845
G1 X73.5194 Y-18.3172
G1 X72.1228 Y-21.6992
G1 X70.1473 Y-24.5024
G1 X67.4644 Y-26.5977
G1 X63.946 Y-27.8574
G1 X64.4677 Y-40.5781
G1 X65.6072 Y-53.4469
G1 X67.5846 Y-65.8092
G1 X68.9566 Y-71.5953
G1 X70.6213 Y-77.0084
G1 X74.0427 Y-77.6833
G1 X76.7108 Y-79.1116
G1 X78.8624 Y-81.056
G1 X80.7347 Y-83.2794
G1 X83.6227 Y-79.5178
G1 X87.2762 Y-76.5218
G1 X91.5104 Y-74.1059
G1 X96.1406 Y-72.0866
G1 X105.8469 Y-68.4941
G1 X106.7202 Y-68.1338
G0 Z5.0
G0 X96.7133 Y-72.3575
G1 Z0.0
G1 X89.0367 Y-76.1637
G1 X85.2376 Y-78.6749
G1 X82.3531 Y-81.4597
G1 X81.145 Y-83.9008
G1 X81.1559 Y-85.0784
G1 X81.7462 Y-86.1126
G1 X82.8699 Y-83.3424
G1 X84.3972 Y-80.9759
G1 X86.3187 Y-79.0029
G1 X88.6237 Y-77.4147
G1 X90.7144 Y-75.6839
G1 X93.2756 Y-74.1783
G1 X95.2586 Y-73.4186
G1 X96.1406 Y-72.9829
G1 X96.7133 Y-72.3581
G1 X96.7123 Y-72.3586
G1 X96.7133 Y-72.3575
G0 Z5.0
G0 X89.7442 Y-77.3159
G1 Z0.0
G1 X89.4327 Y-77.2122
G1 X84.9858 Y-81.1598
G1 X83.2581 Y-83.6288
G1 X82.1509 Y-86.7185
G1 X83.3155 Y-86.3664
G1 X84.3761 Y-85.9098
G1 X86.6162 Y-81.374
G1 X89.6352 Y-77.6168
G1 X89.7442 Y-77.3159
G0 Z5.0
G0 X83.9717 Y-86.9207
G1 Z0.0
G1 X82.5484 Y-87.2393
G1 X81.9767 Y-87.4396
G1 X81.3428 Y-87.3253
G1 X80.6152 Y-84.8672
G1 X79.5366 Y-82.7601
G1 X78.0968 Y-81.0138
G1 X76.2862 Y-79.6399
G1 X77.8649 Y-82.1567
G1 X78.7074 Y-85.2483
G1 X78.5915 Y-88.418
G1 X77.2972 Y-91.1683
G1 X78.5108 Y-90.9658
G1 X78.5179 Y-90.6555
G1 X78.3086 Y-90.5615
G1 X78.0993 Y-90.467
G1 X78.1065 Y-90.1568
G1 X80.9189 Y-89.2785
G1 X82.154 Y-88.7251
G1 X82.7577 Y-87.9313
G1 X80.768 Y-88.722
G1 X79.7202 Y-89.0074
G1 X78.7127 Y-88.9434
G1 X81.5941 Y-88.1847
G1 X82.9712 Y-87.7409
G1 X83.9717 Y-86.9207
G0 Z5.0
G0 X78.308
G1 Z0.0
G1 X77.8338 Y-83.3064
G1 X76.0878 Y-80.297
G1 X74.803 Y-79.1542
G1 X73.2775 Y-78.3243
G1 X71.5383 Y-77.8613
G1 X69.6107 Y-77.819
G1 X67.1945 Y-78.4796
G1 X65.4134 Y-79.7995
G1 X64.2647 Y-81.5458
G1 X63.7454 Y-83.4828
G1 X64.0336 Y-87.0139
G1 X65.4764 Y-89.7875
G1 X67.7147 Y-91.7394
G1 X70.3911 Y-92.8053
G1 X73.1474 Y-92.9208
G1 Y-92.9207
G1 X73.148 Y-92.9208
G1 X75.625 Y-92.0214
G1 X77.4645 Y-90.0431
G1 X78.308 Y-86.9207
G0 Z5.0
G0 X58.2835 Y-83.8862
G1 Z0.0
G1 X56.3751 Y-81.9008
G1 X54.6912 Y-79.6914
G1 X51.4061 Y-75.1886
G1 X51.002
G1 X51.2008 Y-80.5532
G1 X51.8107 Y-85.5052
G1 X53.7241 Y-85.5132
G1 X55.2195 Y-85.9393
G1 X57.4745 Y-87.5278
G1 X58.2835 Y-83.8862
G0 Z5.0
G0 X55.8869 Y-86.7816
G1 Z0.0
G1 X54.1424 Y-86.1918
G1 X52.4182 Y-86.5163
G1 X50.7508 Y-87.9723
G1 X49.1424 Y-90.3366
G1 X47.7557 Y-93.3183
G1 X46.7541 Y-96.6305
G1 X46.1004 Y-101.701
G1 X46.2755 Y-106.9775
G1 X47.3976 Y-111.3785
G1 X48.3511 Y-112.913
G1 X49.5858 Y-113.8226
G1 X51.0368 Y-114.0736
G1 X51.8439 Y-113.9233
G1 X52.4166 Y-113.418
G1 X50.62 Y-112.9
G1 X49.2219 Y-111.8102
G1 X48.1892 Y-110.272
G1 X47.4892 Y-108.4045
G1 X46.9566 Y-104.1688
G1 X47.3606 Y-100.0691
G1 X47.3461 Y-104.5198
G1 X47.9812 Y-108.8704
G1 X48.7476 Y-110.6599
G1 X49.9241 Y-112.0062
G1 X51.5915 Y-112.7701
G1 X53.8328 Y-112.8121
G1 X54.703 Y-111.5577
G1 X55.4508 Y-110.1822
G1 X54.2229 Y-110.572
G1 X52.6194 Y-110.5869
G1 X51.1554 Y-108.3511
G1 X50.2554 Y-105.4461
G1 X49.9234 Y-102.1613
G1 X50.1613 Y-98.7858
G1 X50.9716 Y-95.6084
G1 X52.3576 Y-92.9183
G1 X54.3216 Y-91.0049
G1 X56.8664 Y-90.1577
G1 X57.1369 Y-89.0819
G1 X57.0095 Y-88.1493
G1 X55.8869 Y-86.7816
G0 Z5.0
G0 X52.0135 Y-86.1117
G1 Z0.0
G1 X50.0806 Y-86.3627
G1 X48.5743 Y-87.3253
G1 X46.5004 Y-90.5599
G1 X45.2541 Y-94.7351
G1 X44.6566 Y-99.4026
G1 X44.5293 Y-104.1132
G1 X43.9134 Y-104.1051
G1 X43.7202 Y-104.5178
G1 X45.0783 Y-109.8347
G1 X46.3122 Y-111.9385
G1 X48.1709 Y-113.4171
G1 X46.6712 Y-110.1869
G1 X45.8454 Y-106.5048
G1 X45.6402 Y-102.5712
G1 X46.0007 Y-98.5864
G1 X46.8725 Y-94.7482
G1 X48.2014 Y-91.2565
G1 X49.9334 Y-88.3108
G1 X52.0135 Y-86.1117
G0 Z5.0
G0 X51.2045 Y-85.3033
G1 Z0.0
G1 X50.5871 Y-80.0035
G1 X50.388 Y-77.0855
G1 X50.8005 Y-74.3804
G1 X50.7989 Y-74.3823
G1 X50.7992 Y-74.3804
G1 X50.0688 Y-75.2653
G1 X49.7458 Y-76.5323
G1 X49.9536 Y-79.724
G1 X51.2029 Y-85.3033
G1 X51.2013 Y-85.2888
G1 X51.2045 Y-85.3033
G0 Z5.0
G0 X50.3945 Y-85.099
G1 Z0.0
G1 X50.1738 Y-82.948
G1 X49.5856 Y-80.4476
G1 X49.2098 Y-76.2588
G1 X49.4955 Y-74.5997
G1 X50.3945 Y-73.3674
G1 X48.9781 Y-70.131
G1 X47.0433 Y-68.9913
G1 X45.7352 Y-67.3027
G1 X44.9091 Y-65.1881
G1 X44.4187 Y-62.77
G1 X43.865 Y-57.519
G1 X42.91 Y-52.5342
G1 X42.0401 Y-53.7373
G1 X41.5093 Y-55.2799
G1 X41.2925 Y-59.2101
G1 X35.4909 Y-61.0474
G1 X28.6461 Y-62.034
G1 X21.5003 Y-62.1651
G1 X14.7953 Y-61.4356
G1 X16.718 Y-63.206
G1 X18.3972 Y-65.1822
G1 X19.5898 Y-67.5096
G1 X20.054 Y-70.3345
G1 X19.8134 Y-72.8146
G1 X19.0938 Y-75.0994
G1 X17.9493 Y-77.1523
G1 X16.4332 Y-78.9374
G1 X14.5984 Y-80.4182
G1 X12.4987 Y-81.5582
G1 X10.1868 Y-82.3219
G1 X7.716 Y-82.6728
G1 X8.4067 Y-86.6043
G1 X8.1207 Y-90.9658
G1 X18.6745 Y-92.2027
G1 X28.5998 Y-94.1708
G1 X33.1201 Y-95.632
G1 X37.236 Y-97.5193
G1 X40.864 Y-99.915
G1 X43.9221 Y-102.8992
G1 X44.2821 Y-97.8954
G1 X45.0501 Y-93.4376
G1 X46.4172 Y-89.6649
G1 X48.5734 Y-86.717
G1 X49.6775 Y-85.98
G1 X50.3945 Y-85.099
G0 Z5.0
G0 X54.8449 Y-90.9658
G1 Z0.0
G1 X53.1825 Y-92.29
G1 X51.8654 Y-94.66
G1 X50.9439 Y-97.7075
G1 X50.4694 Y-101.0632
G1 X50.4908 Y-104.357
G1 X51.0588 Y-107.2213
G1 X52.2235 Y-109.286
G1 X53.0458 Y-109.9027
G1 X54.0356 Y-110.1819
G1 X56.2096 Y-108.349
G1 X58.0397 Y-105.262
G1 X59.1829 Y-101.7017
G1 X59.295 Y-98.4501
G1 X58.7186 Y-96.9746
G1 X57.7953 Y-95.6454
G1 X56.863 Y-94.3541
G1 X56.2611 Y-92.9894
G1 X56.5353 Y-91.9494
G1 X56.8686 Y-90.9673
G1 X55.9577 Y-90.7801
G1 X54.8449 Y-90.9658
G0 Z5.0
G0 X59.6991 Y-99.6656
G1 Z0.0
G1 X58.9245 Y-103.9971
G1 X57.5524 Y-107.7322
G1 X55.6862 Y-110.9729
G1 X53.4288 Y-113.8226
G1 X51.0095 Y-114.6183
G1 X48.607 Y-114.214
G1 X46.542 Y-113.0071
G1 X45.1358 Y-111.3962
G1 X46.1467 Y-122.3184
G1 X52.598 Y-119.7048
G1 X58.8903 Y-116.4531
G1 X62.1258 Y-113.7087
G1 X64.3516 Y-110.5879
G1 X64.7954 Y-108.1838
G1 X64.2224 Y-106.2629
G1 X61.7224 Y-102.6995
G1 X60.7804 Y-100.8253
G1 X60.3161 Y-100.0827
G1 X59.6991 Y-99.6656
G0 Z5.0
G0 X43.1147 Y-103.9122
G1 Z0.0
G1 X40.1422 Y-100.9398
G1 X36.6425 Y-98.2482
G1 X33.4328 Y-96.5103
G1 X29.8399 Y-95.1292
G1 X21.8767 Y-93.3941
G1 X6.6815 Y-91.1879
G1 X-0.8568 Y-90.2052
G1 X-8.4633 Y-89.5509
G1 X-10.4212 Y-92.5994
G1 X-12.5089 Y-95.0115
G1 X-11.6491 Y-93.5767
G1 X-10.5048 Y-92.1667
G1 X-9.6045 Y-90.763
G1 X-9.4764 Y-89.3481
G1 X-12.596 Y-93.1056
G1 X-15.3416 Y-97.2373
G1 X-18.4683 Y-100.6411
G1 X-21.0316 Y-104.7452
G1 X-22.8739 Y-109.4446
G1 X-23.837 Y-114.632
G1 X-22.3166 Y-115.5394
G1 X-20.3983 Y-116.0484
G1 X-19.9661 Y-112.6179
G1 X-19.1944 Y-109.4586
G1 X-16.8083 Y-103.9122
G1 X-13.588 Y-99.3265
G1 X-9.8804 Y-95.6189
G1 X-11.0517 Y-97.4466
G1 X-12.647 Y-99.0687
G1 X-15.948 Y-102.4961
G1 X-17.2105 Y-104.7561
G1 X-18.2015 Y-107.3806
G1 X-19.5891 Y-112.8111
G1 X-20.0426 Y-114.7099
G1 X-19.9816 Y-115.691
G1 X-19.3868 Y-116.4528
G1 X-18.0131 Y-110.2403
G1 X-17.1563 Y-107.3055
G1 X-15.948 Y-104.721
G1 X-13.916 Y-102.7582
G1 X-11.5995 Y-101.0803
G1 X-6.4412 Y-98.2482
G1 X-0.0711 Y-99.2613
G1 X6.302 Y-100.2715
G1 X6.2495 Y-103.6514
G1 X5.4507 Y-106.9399
G1 X4.4196 Y-110.2813
G1 X3.6715 Y-113.8233
G1 X3.2684 Y-118.8799
G1 X12.2167 Y-119.255
G1 X16.8211 Y-119.3491
G1 X21.4721 Y-119.0821
G1 X28.9685 Y-117.5718
G1 X32.3906 Y-117.1202
G1 X33.7002 Y-117.2314
G1 X34.6195 Y-117.6659
G1 X34.6906 Y-119.3647
G1 X34.8698 Y-120.0116
G1 X35.2269 Y-120.0933
G1 X34.999 Y-117.8935
G1 X35.0241 Y-115.4413
G1 X38.058 Y-113.2158
G1 X39.1869 Y-113.4021
G1 X40.0808 Y-113.8233
G1 X40.2674 Y-111.6335
G1 X41.027 Y-110.0161
G1 X42.3246 Y-108.9375
G1 X44.1261 Y-108.3627
G1 X43.4594 Y-106.2983
G1 X43.1147 Y-103.9122
G0 Z5.0
G0 X43.7193 Y-108.9685
G1 Z0.0
G1 X42.7414 Y-109.3046
G1 X42.0581 Y-109.9353
G1 X40.8879 Y-111.3956
G1 X41.9385 Y-111.1313
G1 X42.6525 Y-110.5307
G1 X43.7193 Y-108.9685
G0 Z5.0
G0 X43.923 Y-109.5748
G1 Z0.0
G1 X41.9 Y-112.0022
G1 X42.5966 Y-117.9935
G1 X42.9109 Y-124.1384
G1 X44.3656 Y-123.8734
G1 X45.5408 Y-123.329
G1 X45.1923 Y-116.1507
G1 X44.7588 Y-112.7282
G1 X43.923 Y-109.5748
G0 Z5.0
G0 X41.4062 Y-112.4267
G1 Z0.0
G1 X40.8879 Y-112.0022
G1 X40.6435 Y-113.7286
G1 X40.7758 Y-115.7016
G1 X41.2925 Y-119.8907
G1 X41.1857 Y-122.4547
G1 X41.3155 Y-123.624
G1 X41.9 Y-124.543
G1 X42.2739 Y-119.4317
G1 X41.9 Y-114.6314
G1 X41.6932 Y-113.1127
G1 X41.4062 Y-112.4267
G0 Z5.0
G0 X39.0683 Y-114.4292
G1 Z0.0
G1 X37.936 Y-115.3245
G1 X37.281 Y-115.7345
G1 X36.8437 Y-116.4522
G1 X37.2475 Y-118.8789
G1 X37.3139 Y-123.0827
G1 X37.4326 Y-125.0362
G1 X37.8549 Y-126.5648
G1 X38.8214 Y-125.9129
G1 X40.0801 Y-125.5533
G1 X39.8739 Y-119.5469
G1 X39.0683 Y-114.4292
G0 Z5.0
G0 X38.6639 Y-114.0251
G1 Z0.0
G1 X37.9481 Y-114.068
G1 X37.2353 Y-114.4736
G1 X36.0347 Y-115.6429
G1 X36.9509 Y-115.4978
G1 X37.5785 Y-115.063
G1 X38.6639 Y-114.0251
G0 Z5.0
G0 X36.2363 Y-116.0472
G1 Z0.0
G1 X35.6285
G1 X35.7487 Y-121.3722
G1 X36.4391 Y-126.5654
G1 X36.9158 Y-126.1017
G1 X37.0152 Y-125.3272
G1 X36.8437 Y-123.5315
G1 X36.7496 Y-119.4137
G1 X36.2363 Y-116.0472
G0 Z5.0
G0 X34.0117 Y-118.0712
G1 Z0.0
G1 X26.4402 Y-119.5454
G1 X17.8552 Y-120.1432
G1 X9.3079 Y-120.0597
G1 X1.8497 Y-119.4876
G1 X2.3159 Y-114.2388
G1 X3.3103 Y-109.5189
G1 X5.8964 Y-100.6756
G1 X2.6084 Y-100.3709
G1 X-0.5969 Y-99.6529
G1 X-3.7413 Y-99.0414
G1 X-6.8468 Y-99.0569
G1 X-7.4532 Y-99.26
G1 X-11.1158 Y-101.4265
G1 X-14.533 Y-103.7095
G1 X-16.2996 Y-106.5955
G1 X-17.4167 Y-110.1301
G1 X-19.1849 Y-117.6665
G1 X-22.654 Y-116.7873
G1 X-25.86 Y-115.6444
G1 X-26.259 Y-121.0094
G1 X-26.2645 Y-126.7688
G1 X-23.0437 Y-128.2107
G1 X-19.3195 Y-129.03
G1 X-11.0947 Y-130.0055
G1 X0.6298 Y-131.372
G1 X12.5819 Y-131.9189
G1 X18.4438 Y-131.6685
G1 X24.1231 Y-130.953
G1 X29.5415 Y-129.6862
G1 X34.6179 Y-127.7806
G1 X34.4912 Y-122.5178
G1 X34.0117 Y-118.0712
G0 Z5.0
G0 X7.3119 Y-90.3596
G1 Z0.0
G1 X5.9793 Y-90.1257
G1 X4.6824 Y-90.3596
G1 X5.9964 Y-90.5242
G1 X7.3119 Y-90.3596
G0 Z5.0
G0 X7.3681 Y-89.7218
G1 Z0.0
G1 X7.7166 Y-89.7524
G1 X7.8678 Y-86.3285
G1 X7.3119 Y-83.2803
G1 X6.0806 Y-83.0101
G1 X5.069 Y-83.1847
G1 X3.5939 Y-84.5384
G1 X2.6631 Y-86.6785
G1 X2.0532 Y-88.9437
G1 X4.742 Y-89.4906
G1 X7.3681 Y-89.7218
G0 Z5.0
G0 X3.8734 Y-89.9543
G1 Z0.0
G1 X2.8162 Y-89.726
G1 X2.3231 Y-89.8469
G1 X2.4575 Y-90.1571
G1 X3.078 Y-90.1431
G1 X3.5762 Y-90.2009
G1 X3.8734 Y-89.9543
G0 Z5.0
G0 X1.4771 Y-89.5651
G1 Z0.0
G1 X1.814 Y-87.4906
G1 X2.5122 Y-85.5592
G1 X4.6836 Y-82.4712
G1 X1.4802 Y-80.7672
G1 X-0.8559 Y-78.2367
G1 X-2.1407 Y-74.9414
G1 X-2.1938 Y-70.9429
G1 X-1.7137 Y-69.0198
G1 X-0.8962 Y-67.2894
G1 X1.5081 Y-64.3679
G1 X4.5399 Y-62.1039
G1 X7.7175 Y-60.4244
G1 X1.7886 Y-59.3253
G1 X-3.0025 Y-57.5933
G1 X-7.8898 Y-72.7301
G1 X-12.307 Y-88.3378
G1 X-5.4308 Y-88.945
G1 X-5.0562 Y-86.1844
G1 X-4.7827 Y-84.8896
G1 X-4.2168 Y-83.8884
G1 X-4.6817 Y-86.357
G1 X-5.0261 Y-88.945
G1 X-0.5754 Y-89.5518
G1 X-0.368 Y-86.5238
G1 X-0.2049 Y-85.0678
G1 X0.2339 Y-83.8884
G1 X-0.3742 Y-89.7524
G1 X1.4466
G1 X1.4771 Y-89.5651
G0 Z5.0
G0 X4.3698 Y-81.4071
G1 Z0.0
G1 X5.1927 Y-81.6989
G1 X7.5358 Y-81.979
G1 X9.9014 Y-81.7209
G1 X12.1623 Y-80.8874
G1 X14.1893 Y-79.4371
G1 X6.2995 Y-77.8196
G1 X2.9162 Y-77.5531
G1 X1.6028 Y-76.9523
G1 X1.337 Y-76.3889
G1 X1.4451 Y-75.5941
G1 X1.9833 Y-74.9774
G1 X2.8889 Y-74.7215
G1 X5.0871 Y-74.7855
G1 X8.7592 Y-75.5168
G1 X12.5707 Y-75.9985
G1 X14.4928 Y-76.7059
G1 X16.8186 Y-77.011
G1 X17.1413 Y-76.3215
G1 X17.4258 Y-75.5941
G1 X11.6909 Y-74.3839
G1 X5.6939 Y-73.369
G1 X3.4755 Y-73.2478
G1 X2.4696 Y-72.746
G1 X2.256 Y-71.5487
G1 X2.8656 Y-70.7344
G1 X3.9457 Y-70.5637
G1 X6.3013 Y-70.9413
G1 X18.6394 Y-72.9634
G1 X19.0227 Y-69.6804
G1 X18.6394 Y-66.8962
G1 X17.2888 Y-64.3145
G1 X15.3139 Y-62.5507
G1 X12.895 Y-61.5511
G1 X10.2114 Y-61.2604
G1 X7.4436 Y-61.6235
G1 X4.7715 Y-62.5853
G1 X2.3749 Y-64.0921
G1 X0.4345 Y-66.0881
G1 X-0.8102 Y-68.3285
G1 X-1.5559 Y-70.8972
G1 X-1.7618 Y-73.5392
G1 X-1.3857 Y-75.9985
G1 X-0.4161 Y-78.0321
G1 X1.0886 Y-79.6864
G1 X3.0013 Y-80.9219
G1 X4.3698 Y-81.4071
G0 Z5.0
G0 X4.3069 Y-77.0251
G1 Z0.0
G1 X5.2889 Y-77.011
G1 X10.0881 Y-77.8402
G1 X14.5934 Y-78.8311
G1 X14.9661 Y-78.0917
G1 X15.4027 Y-77.415
G1 X8.9915 Y-76.0892
G1 X2.4575 Y-75.3913
G1 X1.8497 Y-76.4032
G1 X2.5768 Y-76.9031
G1 X3.4557 Y-77.0373
G1 X4.3069 Y-77.0251
G0 Z5.0
G0 X5.0245 Y-72.7187
G1 Z0.0
G1 X17.4242 Y-74.7851
G1 X17.8289 Y-73.5718
G1 X10.6614 Y-71.9923
G1 X6.8927 Y-71.445
G1 X3.065 Y-71.3463
G1 X2.9317 Y-71.8202
G1 X2.8622 Y-72.3584
G1 X5.0245 Y-72.7187
G0 Z5.0
G0 X15.3618 Y-78.3668
G1 Z0.0
G1 X14.9981 Y-79.0324
G1 X15.5599 Y-79.1172
G1 X16.058 Y-78.7501
G1 X16.3295 Y-78.1703
G1 X16.2114 Y-77.6168
G1 X15.4627 Y-78.1821
G1 X15.3618 Y-78.3668
G0 Z5.0
G0 X18.032 Y-75.1892
G1 Z0.0
G1 X18.6956 Y-74.4566
G1 X18.7279 Y-73.9348
G1 X18.4366 Y-73.773
G1 X18.068 Y-74.3149
G1 X18.032 Y-75.1892
G0 Z5.0
G0 X18.8592 Y-61.3239
G1 Z0.0
G1 X24.2914 Y-61.648
G1 X30.1682 Y-61.4356
G1 X35.1804 Y-60.5924
G1 X37.4478 Y-59.8305
G1 X39.0677 Y-58.8057
G1 X39.0668 Y-58.8056
G1 X39.0677 Y-58.805
G1 X32.1605 Y-58.1815
G1 X25.2414 Y-57.8467
G1 X18.3587 Y-57.3333
G1 X11.5598 Y-56.1755
G1 X10.2194 Y-56.5612
G1 X8.4445 Y-56.6507
G1 X5.0952 Y-56.379
G1 X8.2467 Y-56.4038
G1 X11.1552 Y-56.1761
G1 X11.1534 Y-56.1757
G1 X11.1552 Y-56.1755
G1 X8.7396 Y-55.5581
G1 X6.0987 Y-55.1649
G1 X6.1476 Y-54.8057
G1 X6.1475 Y-54.8054
G1 X6.1476 Y-54.8044
G1 X5.8964 Y-54.3563
G1 X3.06 Y-54.0388
G1 X0.6668 Y-54.0395
G1 X-1.1848 Y-54.8044
G1 X-2.3975 Y-56.783
G1 X-2.3972 Y-56.7832
G1 X-2.3975 Y-56.7836
G1 X-0.395 Y-58.107
G1 X1.8702 Y-58.8029
G1 X7.1085 Y-59.6147
G1 X18.3316 Y-61.2924
G1 X18.8592 Y-61.3239
G0 Z5.0
G0 X19.1909 Y-56.8037
G1 Z0.0
G1 X21.6721 Y-56.9858
G1 X21.672 Y-56.9847
G1 X21.6746 Y-56.9849
G1 X21.4988 Y-55.5939
G1 X21.6733 Y-54.3641
G1 X21.8749 Y-55.6709
G1 X22.0768 Y-56.9858
G1 X23.0883 Y-57.188
G1 X24.0991 Y-57.3898
G1 Y-57.3885
G1 X24.1013 Y-57.3889
G1 X24.0342 Y-54.3718
G1 X23.8991 Y-51.9446
G1 X24.3324 Y-54.2659
G1 X24.5038 Y-57.1886
G1 X26.1156 Y-57.488
G1 X26.9265 Y-57.502
G1 X26.9282 Y-57.5007
G1 X26.9284
G1 X27.3365 Y-57.1877
G1 X26.5774 Y-56.0128
G1 X26.2188 Y-53.9491
G1 X26.1237 Y-49.7296
G1 X26.5253 Y-52.9407
G1 X26.7097 Y-53.1792
G1 X26.7102 Y-53.1762
G1 X26.7116 Y-53.178
G1 X26.7638 Y-52.8783
G1 X26.7305 Y-52.1311
G1 X26.5989 Y-48.8711
G1 X26.5274 Y-45.6583
G1 X15.1235 Y-45.7816
G1 X15.0394 Y-45.7825
G1 X4.0771 Y-45.6573
G1 X4.0773 Y-45.6583
G1 X4.0749
G1 X5.1035 Y-50.5966
G1 X5.8101 Y-52.8736
G1 X6.9063 Y-54.7606
G1 X14.0611 Y-56.1017
G1 X17.7152 Y-56.6954
G1 X19.1909 Y-56.8037
G0 Z5.0
G0 X26.7646 Y-55.12
G1 Z0.0
G1 X27.1343 Y-56.783
G1 X27.1231 Y-55.6814
G1 X26.7296 Y-54.9627
G1 X26.7646 Y-55.12
G0 Z5.0
G0 X27.4586 Y-55.0422
G1 Z0.0
G1 X27.6076 Y-56.3724
G1 X28.0635 Y-57.3333
G1 X28.9545 Y-57.5933
G1 X28.6886 Y-55.9889
G1 X28.5389 Y-55.2619
G1 X28.7517 Y-54.5591
G1 X29.1151 Y-56.0159
G1 X29.3591 Y-57.5933
G1 X30.5728 Y-57.3904
G1 X30.0781 Y-53.4851
G1 X29.9651 Y-49.7049
G1 X30.9769 Y-57.3904
G1 X31.5924 Y-56.5877
G1 X31.566 Y-55.3839
G1 X30.9769 Y-52.5357
G1 X30.9228 Y-48.6279
G1 X30.5728 Y-45.0515
G1 X27.1343 Y-45.6583
G1 X27.3365 Y-53.9519
G1 X27.4586 Y-55.0422
G0 Z5.0
G0 X31.8137 Y-54.0744
G1 Z0.0
G1 X32.1909 Y-55.7715
G1 X33.6397 Y-53.8702
G1 X35.2689 Y-52.0279
G1 X37.4326 Y-50.8441
G1 X38.8248 Y-50.6857
G1 X40.4832 Y-50.9171
G1 X41.6556 Y-46.3254
G1 X41.942 Y-43.8462
G1 X41.6966 Y-41.6126
G1 X36.9571 Y-43.3974
G1 X31.3815 Y-44.849
G1 X31.4142 Y-50.4376
G1 X31.6449 Y-53.3149
G1 X31.8137 Y-54.0744
G0 Z5.0
G0 X33.4759 Y-54.9498
G1 Z0.0
G1 X32.1909 Y-57.3895
G1 X36.4546 Y-57.9787
G1 X40.8879 Y-58.4013
G1 X40.846 Y-56.5417
G1 X41.1804 Y-54.7771
G1 X42.7087 Y-51.9292
G1 X40.7398 Y-51.3242
G1 X38.9686 Y-51.2087
G1 X37.3891 Y-51.5221
G1 X35.9971 Y-52.2031
G1 X33.7521 Y-54.4255
G1 X33.4759 Y-54.9498
G0 Z5.0
G0 X41.2925 Y-51.1196
G1 Z0.0
G1 X42.9103
G1 X42.6755 Y-48.3205
G1 X42.1013 Y-45.8605
G1 X41.6811 Y-48.4742
G1 X41.2925 Y-51.1196
G0 Z5.0
G0 X46.8699 Y-50.1428
G1 Z0.0
G1 X47.3526 Y-52.8991
G1 X49.0442 Y-58.5818
G1 X51.2045 Y-63.6607
G1 X49.3066 Y-58.3781
G1 X47.7377 Y-52.7665
G1 X46.5874 Y-46.736
G1 X45.9454 Y-40.1977
G1 X46.2724 Y-46.7313
G1 X46.8699 Y-50.1428
G0 Z5.0
G0 X44.5293 Y-59.4126
G1 Z0.0
G1 X44.5951 Y-62.2576
G1 X45.2699 Y-64.9551
G1 X46.4336 Y-67.1571
G1 X47.9681 Y-68.5145
G1 X46.1032 Y-64.1089
G1 X44.5293 Y-59.4126
G0 Z5.0
G0 X37.6521 Y-40.1977
G1 Z0.0
G1 X37.541 Y-35.5541
G1 X37.2475 Y-31.095
G1 X37.8295 Y-35.5566
G1 X38.0062 Y-37.7464
G1 X38.4612 Y-39.793
G1 X39.0512 Y-39.3103
G1 X39.1478 Y-38.5672
G1 X38.8658 Y-36.9612
G1 X38.0568 Y-29.882
G1 X34.899 Y-30.9708
G1 X31.584 Y-31.9041
G1 X32.393 Y-41.4104
G1 X34.5974 Y-40.9853
G1 X35.4068 Y-40.4797
G1 X35.8319 Y-39.5895
G1 X35.8568 Y-40.2728
G1 X36.2363 Y-40.6017
G1 X36.7776 Y-40.2331
G1 X37.6521 Y-40.1977
G0 Z5.0
G0 X31.7321 Y-40.4804
G1 Z0.0
G1 X31.5638 Y-36.9579
G1 X30.9769 Y-32.3087
G1 X22.4823 Y-34.5345
G1 X22.705 Y-39.0064
G1 X22.887 Y-42.6247
G1 X27.37 Y-42.3499
G1 X31.7862 Y-41.6132
G1 X31.7321 Y-40.4804
G0 Z5.0
G0 X22.2503 Y-40.6235
G1 Z0.0
G1 X22.2168 Y-38.4054
G1 X22.0777 Y-34.7358
G1 X17.1723 Y-35.7976
G1 X12.3695 Y-36.9606
G1 Y-42.6241
G1 X20.0556
G1 X20.2395 Y-41.0688
G1 X20.1357 Y-39.3548
G1 X20.0932 Y-37.6579
G1 X20.4593 Y-36.1516
G1 Y-42.6241
G1 X22.2805
G1 X22.2503 Y-40.6235
G0 Z5.0
G0 X20.0357 Y-31.6773
G1 Z0.0
G1 X23.0212 Y-30.9382
G1 X34.1052 Y-27.8521
G1 X43.7202 Y-24.2179
G1 X44.4252 Y-20.6788
G1 X45.5538 Y-16.9591
G1 X46.2209 Y-13.3293
G1 X46.1048 Y-11.6326
G1 X45.5408 Y-10.0593
G1 X43.6206 Y-7.0959
G1 X41.273 Y-4.2931
G1 X36.0347 Y0.2567
G1 X32.5959 Y-1.7673
G1 X30.3576 Y-2.3583
G1 X27.8271 Y-2.7117
G1 X25.3551 Y-3.0984
G1 X23.2914 Y-3.7887
G1 X14.7968 Y-8.8453
G1 X6.7181 Y-14.1423
G1 X-0.5935 Y-20.4194
G1 X-3.8668 Y-23.944
G1 X-6.8344 Y-27.7363
G1 X-9.4582 Y-31.8028
G1 X-11.7006 Y-36.1516
G1 X-13.6435 Y-40.9117
G1 X-14.937 Y-46.063
G1 X-7.9746 Y-45.0968
G1 X-0.3742 Y-44.6468
G1 X-1.341 Y-43.6517
G1 X-1.8969 Y-42.5086
G1 X-1.9304 Y-40.0629
G1 X-0.7816 Y-37.8867
G1 X1.2438 Y-36.556
G1 X11.6676 Y-33.7488
G1 X20.0357 Y-31.6773
G0 Z5.0
G0 X3.6706 Y-45.6583
G1 Z0.0
G1 X0.4736 Y-45.3263
G1 X-3.4081 Y-45.367
G1 X-11.297 Y-46.063
G1 X-10.6902 Y-48.6925
G1 X-9.3226 Y-48.9428
G1 X-8.0606 Y-49.3003
G1 X-6.2184 Y-54.3354
G1 X-3.8122 Y-58.8066
G1 X-2.8168 Y-55.9588
G1 X-1.9932 Y-54.8612
G1 X-0.7789 Y-54.1547
G1 X0.1382 Y-52.2398
G1 X1.3476 Y-50.6174
G1 X3.8734 Y-47.4791
G1 X3.6706 Y-45.6583
G0 Z5.0
G0 X3.8734 Y-48.2882
G1 Z0.0
G1 X2.2684 Y-50.6273
G1 X1.0404 Y-53.3445
G1 X3.1395 Y-53.6733
G1 X5.4917 Y-53.7491
G1 X3.8734 Y-48.2882
G0 Z5.0
G0 X-7.917 Y-51.5252
G1 Z0.0
G1 X-8.8799 Y-49.6608
G1 X-9.599 Y-49.4416
G1 X-10.4874 Y-49.9053
G1 X-11.8924 Y-52.1221
G1 X-12.7132 Y-55.3653
G1 X-12.6235 Y-58.7104
G1 X-12.1353 Y-60.1321
G1 X-11.2966 Y-61.2321
G1 X-9.8923 Y-60.7079
G1 X-8.8504 Y-59.6473
G1 X-7.656 Y-56.5808
G1 X-7.5314 Y-54.2481
G1 X-7.917 Y-51.5252
G0 Z5.0
G0 X-6.8464 Y-54.5581
G1 Z0.0
G1 X-7.0822 Y-58.2411
G1 X-7.4842 Y-61.9542
G1 X-8.6801 Y-65.0539
G1 X-9.7717 Y-66.1726
G1 X-11.297 Y-66.8962
G1 Y-72.7621
G1 X-11.3286 Y-75.5072
G1 X-11.0532 Y-76.6038
G1 X-10.2855 Y-77.2122
G1 X-9.5669 Y-76.3184
G1 X-9.1723 Y-75.2367
G1 X-8.667 Y-72.9643
G1 X-4.2168 Y-59.8172
G1 X-5.4733 Y-57.1296
G1 X-6.8464 Y-54.5581
G0 Z5.0
G0 X-7.8583 Y-58.4013
G1 Z0.0
G1 X-8.3926 Y-59.6874
G1 X-8.6631 Y-61.2371
G1 X-9.2745 Y-64.2664
G1 X-9.2169 Y-64.5651
G1 X-9.2166 Y-64.5649
G1 X-9.2164 Y-64.5657
G1 X-9.0717 Y-64.47
G1 X-7.8369 Y-61.8117
G1 X-7.6245 Y-60.134
G1 X-7.8579 Y-58.4019
G1 X-7.8581 Y-58.4026
G1 X-7.8583 Y-58.4013
G0 Z5.0
G0 X-9.0717 Y-61.2321
G1 Z0.0
G1 X-10.8698 Y-62.0153
G1 X-12.4408 Y-61.797
G1 X-13.7461 Y-60.7746
G1 X-14.7468 Y-59.1451
G1 X-15.4047 Y-57.1069
G1 X-15.6811 Y-54.8572
G1 X-15.5384 Y-52.5932
G1 X-14.937 Y-50.5127
G1 X-13.4848 Y-48.7018
G1 X-13.0938 Y-47.7671
G1 X-13.5214 Y-46.467
G1 X-15.4072 Y-46.8064
G1 X-16.3606 Y-48.0779
G1 X-17.3647 Y-51.5245
G1 X-20.3051 Y-52.5907
G1 X-23.5334 Y-53.3562
G1 X-30.6046 Y-54.1221
G1 X-38.0849 Y-54.0945
G1 X-45.4798 Y-53.5466
G1 X-43.8149 Y-54.8342
G1 X-42.4459 Y-56.1761
G1 X-40.852 Y-59.1936
G1 X-40.3633 Y-62.3614
G1 X-40.8419 Y-65.5061
G1 X-42.1518 Y-68.4536
G1 X-44.1559 Y-71.0289
G1 X-46.7173 Y-73.059
G1 X-49.6988 Y-74.369
G1 X-52.9637 Y-74.7851
G1 X-52.3697 Y-76.2718
G1 X-52.1009 Y-78.3349
G1 X-52.3568 Y-82.8753
G1 X-50.3343
G1 X-41.9571 Y-84.1796
G1 X-33.8059 Y-85.7322
G1 X-29.9882 Y-86.8362
G1 X-26.4349 Y-88.2838
G1 X-23.2156 Y-90.1686
G1 X-20.3987 Y-92.5845
G1 X-19.9265 Y-93.7305
G1 X-18.9832 Y-94.405
G1 X-18.5605 Y-88.9114
G1 X-17.4698 Y-84.0862
G1 X-15.4668 Y-80.1728
G1 X-14.0472 Y-78.6339
G1 X-12.3081 Y-77.4147
G1 X-12.7056 Y-72.3503
G1 X-12.7126 Y-66.8956
G1 X-10.241 Y-64.7154
G1 X-9.3791 Y-63.2511
G1 X-9.0717 Y-61.2321
G0 Z5.0
G0 X-12.5104 Y-60.6268
G1 Z0.0
G1 X-13.2539 Y-57.6693
G1 X-13.0902 Y-54.4855
G1 X-12.2315 Y-51.5407
G1 X-10.8919 Y-49.2997
G1 X-12.7353 Y-49.3093
G1 X-14.0111 Y-50.3254
G1 X-14.7688 Y-52.0453
G1 X-15.0576 Y-54.1677
G1 X-14.9271 Y-56.3889
G1 X-14.4258 Y-58.4075
G1 X-13.604 Y-59.9206
G1 X-12.5104 Y-60.6268
G0 Z5.0
G0 X-12.1062 Y-66.8962
G1 Z0.0
G1 X-12.3691 Y-68.749
G1 X-12.3076 Y-69.7406
G1 X-11.9039 Y-70.3348
G1 X-11.88 Y-68.327
G1 X-11.8053 Y-67.5387
G1 X-12.1062 Y-66.8962
G0 Z5.0
G0 Y-74.1776
G1 Z0.0
G1 X-11.9039 Y-75.5938
G1 X-11.7337 Y-76.3584
G1 X-11.6295 Y-75.9404
G1 X-11.7132 Y-74.9948
G1 X-12.1062 Y-74.1776
G0 Z5.0
G0 X-11.9867 Y-77.8018
G1 Z0.0
G1 X-12.5104 Y-77.819
G1 X-15.3025 Y-80.8927
G1 X-17.1844 Y-84.8762
G1 X-18.1959 Y-89.73
G1 X-18.3757 Y-95.4156
G1 X-18.4874 Y-95.7084
G1 X-18.8158 Y-95.7845
G1 X-19.1263 Y-95.8783
G1 X-19.1849 Y-96.2249
G1 X-18.578 Y-99.6634
G1 X-17.8054 Y-99.1212
G1 X-17.1623 Y-98.4497
G1 X-17.2184 Y-92.1388
G1 X-16.2404 Y-86.4763
G1 X-14.2064 Y-81.7439
G1 X-12.7868 Y-79.8147
G1 X-11.0947 Y-78.2234
G1 X-11.1829 Y-77.8566
G1 X-11.5694 Y-77.788
G1 X-11.9867 Y-77.8018
G0 Z5.0
G0 X-11.131 Y-78.6619
G1 Z0.0
G1 X-12.2966 Y-79.8215
G1 X-13.6556 Y-81.7461
G1 X-15.6415 Y-86.3807
G1 X-16.6681 Y-91.74
G1 X-16.7583 Y-97.4395
G1 X-14.23 Y-94.6068
G1 X-12.1058 Y-91.3714
G1 X-12.6401 Y-89.8223
G1 X-12.6887 Y-88.1831
G1 X-11.8935 Y-84.7604
G1 X-10.8509 Y-81.3564
G1 X-10.5894 Y-79.7402
G1 X-10.6902 Y-78.2234
G1 X-11.131 Y-78.6619
G0 Z5.0
G0 X-11.4188 Y-88.9387
G1 Z0.0
G1 X-12.3081 Y-89.1462
G1 X-12.1433 Y-90.0937
G1 X-11.4994 Y-90.5624
G1 X-10.4878 Y-89.1462
G1 X-11.4188 Y-88.9387
G0 Z5.0
G0 X-19.9936 Y-95.4146
G1 Z0.0
G1 X-22.5444 Y-92.3109
G1 X-25.8319 Y-89.8586
G1 X-29.7302 Y-87.9589
G1 X-34.1134 Y-86.5123
G1 X-43.83 Y-84.5828
G1 X-53.9752 Y-83.2787
G1 X-62.3267 Y-82.0594
G1 X-70.3588 Y-81.2564
G1 X-72.0068 Y-81.424
G1 X-73.3934 Y-81.4591
G1 X-73.394 Y-81.46
G1 X-73.3949
G1 X-74.4144 Y-83.0191
G1 X-75.0129 Y-84.4943
G1 X-75.0097 Y-84.489
G1 X-75.0113 Y-84.493
G1 X-74.6686 Y-83.9267
G1 X-74.0018 Y-83.6849
G1 X-77.7323 Y-88.1968
G1 X-80.8836 Y-93.2878
G1 X-83.3748 Y-99.0389
G1 X-85.123 Y-105.5178
G1 X-84.466 Y-101.6315
G1 X-83.3423 Y-98.0582
G1 X-80.8757 Y-91.7745
G1 X-80.8798 Y-91.7826
G1 X-80.8771 Y-91.7758
G1 X-84.1015 Y-98.1588
G1 X-85.2947 Y-101.7697
G1 X-86.136 Y-105.7325
G1 X-84.5661 Y-106.7918
G1 X-82.4956 Y-107.3499
G1 X-82.4953 Y-107.3485
G1 X-82.4936 Y-107.349
G1 X-81.4515 Y-102.5924
G1 X-79.812 Y-98.4557
G1 X-77.5416 Y-95.0236
G1 X-74.6056 Y-92.382
G1 X-72.6813 Y-91.1673
G1 X-70.8696 Y-90.38
G1 X-68.8025 Y-90.0375
G1 X-66.112 Y-90.1577
G1 X-61.2136 Y-90.7677
G1 X-56.6051 Y-91.7758
G1 X-57.3126 Y-96.5653
G1 X-58.7504 Y-101.0091
G1 X-60.1269 Y-105.6406
G1 X-60.6507 Y-110.9916
G1 X-50.9161 Y-111.3906
G1 X-45.548 Y-111.3885
G1 X-40.0192 Y-110.9916
G1 X-36.6482 Y-110.2394
G1 X-33.228 Y-109.2139
G1 X-30.1689 Y-108.622
G1 X-28.904 Y-108.7096
G1 X-27.8835 Y-109.1707
G1 X-27.495 Y-111.3356
G1 X-27.3883 Y-113.5863
G1 X-27.2766 Y-115.8544
G1 X-26.8724 Y-118.0703
G1 X-26.8714 Y-118.0664
G1 X-26.8709 Y-118.069
G1 X-26.3572 Y-116.1773
G1 X-26.3021 Y-115.1782
G1 X-26.6687 Y-114.4283
G1 X-25.9835 Y-113.9538
G1 X-24.0407 Y-112.6083
G1 X-24.0406 Y-112.6081
G1 X-24.0387 Y-112.6068
G1 X-23.284 Y-108.9123
G1 X-22.0632 Y-105.6834
G1 X-18.7798 Y-100.0665
G1 X-19.5299 Y-97.8839
G1 X-19.9936 Y-95.4146
G0 Z5.0
G0 X-28.2871 Y-109.5732
G1 Z0.0
G1 X-33.2104 Y-111.023
G1 X-38.4839 Y-111.8844
G1 X-49.9296 Y-112.4053
G1 X-56.4114 Y-112.3381
G1 X-62.0653 Y-111.5965
G1 X-61.4811 Y-106.0627
G1 X-60.7982 Y-103.3847
G1 X-60.2378 Y-101.1872
G1 X-57.2115 Y-91.9773
G1 X-57.2117
G1 X-57.2111 Y-91.9754
G1 X-67.3247 Y-90.5618
G1 X-70.3588
G1 X-72.115 Y-91.3171
G1 X-74.2056 Y-92.6574
G1 X-77.4384 Y-95.4162
G1 X-79.2262 Y-98.2454
G1 X-80.4926 Y-101.4672
G1 X-82.2928 Y-108.3614
G1 X-83.9703 Y-108.2189
G1 X-85.3063 Y-107.7341
G1 X-86.6013 Y-107.2089
G1 X-88.1586 Y-106.9449
G1 Y-106.9468
G1 X-88.159
G1 X-88.5637 Y-118.2746
G1 X-86.4475 Y-119.3264
G1 X-84.0563 Y-120.0982
G1 X-79.0569 Y-121.1057
G1 X-69.3477 Y-122.3191
G1 X-58.0929 Y-123.3675
G1 X-47.2246 Y-123.5433
G1 X-42.0163 Y-123.1489
G1 X-37.0011 Y-122.3491
G1 X-32.212 Y-121.0818
G1 X-27.6807 Y-119.2848
G1 Y-119.2832
G1 X-27.6802 Y-119.283
G1 X-27.7973 Y-114.2419
G1 X-28.2871 Y-109.5732
G0 Z5.0
G0 X-29.2992 Y-108.9685
G1 Z0.0
G1 X-29.3021 Y-108.9692
G1 X-29.2992 Y-108.9679
G1 X-31.8489 Y-109.5049
G1 X-34.3551 Y-110.586
G1 X-34.3536 Y-110.5856
G1 X-34.3551 Y-110.5863
G1 X-31.6616 Y-109.9428
G1 X-29.2992 Y-108.9685
G0 Z5.0
G0 X-25.2559 Y-114.1227
G1 Z0.0
G1 X-25.6576 Y-114.8338
G1 X-24.3031 Y-115.6525
G1 X-23.5845 Y-115.9634
G1 X-22.8264 Y-115.8454
G1 X-24.0632 Y-115.2624
G1 X-24.4263 Y-114.7155
G1 X-24.4443 Y-113.8233
G1 X-25.2559 Y-114.1227
G0 Z5.0
G0 X-52.9641 Y-81.8641
G1 Z0.0
G1 X-52.5144 Y-77.8718
G1 X-52.8891 Y-76.0535
G1 X-53.7728 Y-74.9873
G1 X-54.6938 Y-74.8022
G1 X-55.53 Y-75.065
G1 X-56.9226 Y-76.5783
G1 X-57.9036 Y-78.8125
G1 X-58.4254 Y-81.0551
G1 X-52.9641 Y-81.8641
G0 Z5.0
G0 X-58.7441 Y-80.1803
G1 Z0.0
G1 X-57.9797 Y-77.5566
G1 X-56.9961 Y-75.759
G1 X-55.5937 Y-74.3798
G1 X-59.0167 Y-72.6447
G1 X-61.4469 Y-70.1981
G1 X-62.872 Y-67.0114
G1 X-63.2801 Y-63.053
G1 X-62.2686 Y-62.0409
G1 X-60.9822 Y-58.5744
G1 X-58.833 Y-55.9702
G1 X-56.0247 Y-54.0255
G1 X-52.7619 Y-52.5345
G1 X-57.8771 Y-51.5817
G1 X-60.1449 Y-50.8162
G1 X-62.0658 Y-49.7034
G1 X-65.8741 Y-56.7165
G1 X-69.2912 Y-64.121
G1 X-72.2307 Y-72.0025
G1 X-74.6066 Y-80.4479
G1 X-73.892 Y-80.2529
G1 X-73.3934 Y-79.8408
G1 X-72.2326 Y-80.5122
G1 X-70.774 Y-80.6936
G1 X-67.5275 Y-80.8523
G1 X-67.1715 Y-79.6914
G1 X-66.7183 Y-78.6274
G1 X-66.9677 Y-79.7945
G1 X-67.123 Y-81.0551
G1 X-64.6303 Y-81.2026
G1 X-62.6733 Y-81.4597
G1 X-62.3913 Y-78.3035
G1 X-61.6618 Y-75.5941
G1 X-62.0399 Y-78.5538
G1 X-62.4709 Y-81.4597
G1 X-59.2346 Y-81.8641
G1 X-58.7441 Y-80.1803
G0 Z5.0
G0 X-56.9304 Y-73.2258
G1 Z0.0
G1 X-54.2141 Y-73.9342
G1 X-50.7394 Y-73.7737
G1 X-47.9501 Y-72.7646
G1 X-45.3137 Y-70.9313
G1 X-43.1649 Y-68.5978
G1 X-41.84 Y-66.0881
G1 X-41.2922 Y-62.2238
G1 X-42.0303 Y-58.4339
G1 X-42.8765 Y-56.7438
G1 X-44.0388 Y-55.2852
G1 X-45.514 Y-54.1286
G1 X-47.3007 Y-53.3445
G1 X-49.7484 Y-52.9094
G1 X-52.1329 Y-53.023
G1 X-54.3924 Y-53.6354
G1 X-56.4659 Y-54.6972
G1 X-58.2912 Y-56.1591
G1 X-59.8069 Y-57.9709
G1 X-60.9512 Y-60.083
G1 X-61.6618 Y-62.4464
G1 X-52.7188 Y-62.9443
G1 X-49.1594 Y-63.9011
G1 X-48.2321 Y-64.8055
G1 X-48.1098 Y-66.0881
G1 X-51.6011 Y-66.0825
G1 X-55.1545 Y-65.5819
G1 X-58.7254 Y-65.1822
G1 X-62.2686 Y-65.4807
G1 X-61.6291 Y-66.5242
G1 X-60.4324 Y-66.8232
G1 X-57.6167 Y-66.6943
G1 X-50.7394 Y-67.503
G1 X-49.2676 Y-68.0997
G1 X-48.5145 Y-69.3238
G1 X-49.6237 Y-70.2176
G1 X-51.0287 Y-70.3232
G1 X-53.9756 Y-69.7279
G1 X-61.0549 Y-69.3238
G1 X-59.4495 Y-71.5953
G1 X-57.1435 Y-73.1702
G1 X-56.9304 Y-73.2258
G0 Z5.0
G0 X-56.4469 Y-68.9744
G1 Z0.0
G1 X-53.3683 Y-69.3245
G1 X-51.1745 Y-69.754
G1 X-50.1725 Y-69.6453
G1 X-49.5249 Y-68.9198
G1 X-50.7104 Y-68.1645
G1 X-52.1545 Y-67.9083
G1 X-62.2681 Y-67.099
G1 Y-68.3123
G1 X-56.4469 Y-68.9744
G0 Z5.0
G0 X-56.1064 Y-64.8023
G1 Z0.0
G1 X-52.7619 Y-65.0753
G1 X-50.3262 Y-65.7008
G1 X-49.2026 Y-65.6092
G1 X-48.5141 Y-64.671
G1 X-51.9526 Y-63.8306
G1 X-55.7524 Y-63.3002
G1 X-62.4705 Y-63.0536
G1 X-62.6953 Y-63.5362
G1 X-62.6733 Y-64.2664
G1 X-56.1064 Y-64.8023
G0 Z5.0
G0 X-68.1956 Y-60.2268
G1 Z0.0
G1 X-67.1224 Y-57.3911
G1 X-64.827 Y-53.7003
G1 X-63.872 Y-51.7239
G1 X-63.482 Y-49.5022
G1 X-63.8866 Y-49.2997
G1 X-67.4996 Y-53.777
G1 X-71.3703 Y-57.9973
G1 X-70.7754 Y-61.2452
G1 X-70.3588 Y-64.6719
G1 X-69.2987 Y-63.0303
G1 X-68.5771 Y-61.2346
G1 X-68.1956 Y-60.2268
G0 Z5.0
G0 X-71.4812 Y-60.6549
G1 Z0.0
G1 X-71.7749 Y-58.4001
G1 X-75.6859 Y-60.2551
G1 X-77.6524 Y-61.1713
G1 X-79.8656 Y-61.8396
G1 X-79.7904 Y-63.1806
G1 X-79.4615 Y-64.2664
G1 X-78.6603 Y-64.0082
G1 X-78.0454 Y-64.0639
G1 X-78.6603 Y-64.4604
G1 X-79.4615 Y-64.671
G1 X-79.0699 Y-66.1005
G1 X-78.4501 Y-67.3002
G1 X-77.1395 Y-66.5381
G1 X-75.8205 Y-66.2893
G1 X-78.4501 Y-67.5027
G1 X-77.7019 Y-71.4059
G1 X-76.4275 Y-74.7842
G1 X-73.1911 Y-73.3674
G1 X-72.8236 Y-72.0164
G1 X-72.5686 Y-71.4115
G1 X-72.5841 Y-70.5366
G1 X-71.7378 Y-69.3776
G1 X-71.2145 Y-68.0415
G1 X-70.9167 Y-64.9874
G1 X-71.4812 Y-60.6549
G0 Z5.0
G0 X-75.0654 Y-56.4585
G1 Z0.0
G1 X-71.4475 Y-53.3684
G1 X-66.9267 Y-48.2813
G1 X-63.0097 Y-42.5905
G1 X-59.6387 Y-36.3545
G1 X-60.4925 Y-37.1308
G1 X-60.8526 Y-38.174
G1 X-63.45 Y-42.7039
G1 X-66.3288 Y-46.9599
G1 X-69.5041 Y-50.8686
G1 X-72.9888 Y-54.356
G1 X-74.9807 Y-55.878
G1 X-76.6292 Y-57.7942
G1 X-75.0654 Y-56.4585
G0 Z5.0
G0 X-75.4154 Y-53.7491
G1 Z0.0
G1 X-74.3273 Y-53.0683
G1 X-73.9998 Y-52.1311
G1 X-74.803 Y-52.8448
G1 X-75.4154 Y-53.7491
G0 Z5.0
G0 X-71.9768 Y-50.3102
G1 Z0.0
G1 X-69.1645 Y-46.7344
G1 X-66.7179 Y-42.8266
G1 X-63.482 Y-38.3762
G1 X-62.84 Y-36.9958
G1 X-62.6728 Y-35.5451
G1 X-64.7523 Y-39.5395
G1 X-67.2135 Y-43.2921
G1 X-71.9768 Y-50.3102
G0 Z5.0
G0 X-62.2681 Y-48.2878
G1 Z0.0
G1 X-59.3027 Y-45.7915
G1 X-57.8656 Y-44.4986
G1 X-56.807 Y-42.8269
G1 X-58.2131 Y-42.5822
G1 X-59.3437 Y-42.7275
G1 X-60.9152 Y-43.9362
G1 X-61.7979 Y-45.9558
G1 X-62.2681 Y-48.2878
G0 Z5.0
G0 X-61.2209 Y-48.7222
G1 Z0.0
G1 X-61.4599 Y-49.2984
G1 X-57.6853 Y-50.8826
G1 X-53.2511 Y-52.0205
G1 X-43.4579 Y-53.3438
G1 X-37.1198 Y-53.7494
G1 X-30.7423 Y-53.7034
G1 X-24.7047 Y-52.9724
G1 X-19.3881 Y-51.3217
G1 X-33.2039 Y-50.3608
G1 X-40.6116 Y-49.5801
G1 X-47.7053 Y-48.2878
G1 X-48.9226 Y-47.3493
G1 X-50.5085 Y-46.89
G1 X-54.5826 Y-46.467
G1 X-57.1384 Y-46.226
G1 X-59.1789 Y-46.4049
G1 X-60.6402 Y-47.3223
G1 X-61.2209 Y-48.7222
G0 Z5.0
G0 X-57.6162 Y-45.2536
G1 Z0.0
G1 X-49.3232 Y-46.4676
G1 X-50.537 Y-39.1856
G1 X-52.9737 Y-40.0359
G1 X-54.8264 Y-41.4701
G1 X-57.6162 Y-45.2536
G0 Z5.0
G0 X-48.1919 Y-43.3252
G1 Z0.0
G1 X-47.3007 Y-47.6807
G1 X-37.6266 Y-49.3823
G1 X-32.6476 Y-49.9136
G1 X-27.6923 Y-49.9056
G1 X-27.6802
G1 X-30.4689 Y-49.1261
G1 X-32.7899 Y-47.6549
G1 X-34.5786 Y-45.5903
G1 X-35.7708 Y-43.0287
G1 X-41.4525 Y-40.9231
G1 X-47.2997 Y-38.9834
G1 X-47.2998 Y-38.9835
G1 X-47.3002 Y-38.9834
G1 X-47.4674 Y-39.4225
G1 X-47.7043 Y-39.7918
G1 X-47.7979 Y-38.8747
G1 X-48.5134 Y-38.579
G1 Y-38.5793
G1 X-48.5141 Y-38.579
G1 X-48.5505 Y-40.8756
G1 X-48.2195 Y-43.1906
G1 X-48.1919 Y-43.3252
G0 Z5.0
G0 X-46.827 Y-38.7189
G1 Z0.0
G1 X-41.5274 Y-40.2893
G1 X-36.176 Y-42.4213
G1 X-38.2946 Y-35.9637
G1 X-40.4232 Y-29.4764
G1 X-42.3206 Y-20.5788
G1 X-43.862 Y-11.4749
G1 X-44.9927 Y-5.4208
G1 X-45.4148 Y-2.6806
G1 X-45.4798 Y0.0539
G1 X-45.1584 Y1.6539
G1 X-44.6376 Y2.9653
G1 X-44.2345 Y4.1361
G1 X-44.2662 Y5.3132
G1 X-46.853 Y3.5943
G1 X-49.3228 Y1.4716
G1 X-51.9101 Y-1.6576
G1 X-54.177 Y-5.0006
G1 X-55.7954 Y-7.6307
G1 X-58.4299 Y-13.9305
G1 X-59.3097 Y-17.6135
G1 X-59.3558 Y-19.1691
G1 X-59.0317 Y-20.3744
G1 X-56.5642 Y-23.4055
G1 X-53.2546 Y-25.9521
G1 X-49.7493 Y-28.3388
G1 X-46.6938 Y-30.8923
G1 X-46.1359 Y-32.1544
G1 X-45.6817 Y-33.5215
G1 X-45.7382 Y-35.1289
G1 X-46.1775 Y-36.502
G1 X-47.3002 Y-38.5787
G1 X-46.827 Y-38.7189
G0 Z5.0
G0 X-37.5511 Y-35.4412
G1 Z0.0
G1 X-35.7653 Y-40.4952
G1 X-32.5349 Y-47.4785
G1 X-29.9825 Y-48.5807
G1 X-27.0146 Y-49.408
G1 X-23.7724 Y-49.7254
G1 X-20.3987 Y-49.2997
G1 X-21.3251 Y-44.9779
G1 X-21.4352 Y-40.7449
G1 X-20.8565 Y-36.6473
G1 X-19.7167 Y-32.7292
G1 X-18.1439 Y-29.037
G1 X-16.2661 Y-25.6158
G1 X-12.1058 Y-19.7672
G1 X-19.5108 Y-21.4806
G1 X-23.663 Y-21.8759
G1 X-27.8655 Y-21.9011
G1 X-31.9315 Y-21.508
G1 X-35.6732 Y-20.6486
G1 X-38.903 Y-19.2756
G1 X-41.4349 Y-17.3411
G1 X-41.2245 Y-19.0011
G1 X-41.2319 Y-20.3753
G1 X-41.6882 Y-18.3026
G1 X-42.2441 Y-16.3293
G1 X-40.5776 Y-24.8776
G1 X-38.4324 Y-32.9473
G1 X-37.5511 Y-35.4412
G0 Z5.0
G0 X-18.6404 Y-38.0909
G1 Z0.0
G1 X-18.8975 Y-39.9256
G1 X-18.6891 Y-43.794
G1 X-17.5664 Y-47.48
G1 X-16.2861 Y-46.839
G1 X-15.3412 Y-45.8627
G1 X-14.1704 Y-40.6828
G1 X-12.5098 Y-36.1526
G1 X-8.3271 Y-28.5602
G1 X-3.2249 Y-21.7492
G1 X2.646 Y-15.9212
G1 X9.1328 Y-11.2737
G1 X5.4924 Y-14.1044
G1 X7.9688 Y-12.587
G1 X9.739 Y-10.868
G1 X9.452 Y-11.0643
G1 X9.1321 Y-10.868
G1 X10.2368 Y-10.0289
G1 X11.5204 Y-9.6056
G1 X12.8238 Y-9.2072
G1 X13.9866 Y-8.441
G1 X7.5343 Y-10.7367
G1 X1.6063 Y-13.5569
G1 X-9.6776 Y-19.7694
G1 X-13.7056 Y-25.0875
G1 X-15.5956 Y-28.4559
G1 X-17.1949 Y-32.1336
G1 X-18.3471 Y-35.9979
G1 X-18.6404 Y-38.0909
G0 Z5.0
G0 X-12.9149 Y-46.4676
G1 Z0.0
G1 X-12.5104 Y-48.49
G1 X-11.4989
G1 X-11.5034 Y-47.5179
G1 X-11.7011 Y-46.2652
G1 X-12.9149 Y-46.4676
G0 Z5.0
G0 X-17.0732 Y-48.7229
G1 Z0.0
G1 X-17.3647 Y-48.2882
G1 X-18.1824 Y-49.0891
G1 X-19.3798 Y-49.5096
G1 X-21.8143 Y-50.3102
G1 X-17.7692 Y-50.9177
G1 X-17.2494 Y-49.4239
G1 X-17.0732 Y-48.7229
G0 Z5.0
G0 X-23.0413 Y-16.9703
G1 Z0.0
G1 X-22.6912 Y-16.9045
G1 X-19.1854 Y-15.1153
G1 X-17.3496 Y-13.6491
G1 X-16.1513 Y-11.8786
G1 X-16.0853 Y-9.5516
G1 X-16.7752 Y-7.7438
G1 X-18.0802 Y-6.4233
G1 X-19.8594 Y-5.5587
G1 X-21.9716 Y-5.117
G1 X-24.2755 Y-5.0667
G1 X-28.8945 Y-6.0136
G1 X-30.2175 Y-7.3168
G1 X-31.7001 Y-8.3373
G1 X-32.9936 Y-9.5109
G1 X-33.7487 Y-11.2727
G1 X-33.6006 Y-12.7535
G1 X-33.5946 Y-13.528
G1 X-33.9506 Y-14.3066
G1 X-32.6952 Y-15.9417
G1 X-31.0316 Y-17.0113
G1 X-29.0798 Y-17.5781
G1 X-26.9591 Y-17.7067
G1 X-23.0413 Y-16.9703
G0 Z5.0
G0 X-14.7353 Y-10.4634
G1 Z0.0
G1 X-10.8599 Y-9.1305
G1 X-8.9425 Y-8.5003
G1 X-7.656 Y-7.631
G1 X-9.6787 Y-8.4403
G1 X-12.7497 Y-9.2376
G1 X-14.0346 Y-9.7308
G1 X-14.7353 Y-10.4634
G0 Z5.0
G0 X-13.6519 Y2.258
G1 Z0.0
G1 X-5.0342 Y1.5241
G1 X5.088 Y1.0654
G1 X4.1215 Y2.0048
G1 X2.9299 Y2.6893
G1 X0.2339 Y3.8972
G1 X-7.1423 Y7.5521
G1 X-12.6772 Y9.7916
G1 X-17.9015 Y10.822
G1 X-22.9822 Y11.4279
G1 X-28.0842 Y12.3924
G1 X-29.59 Y10.9654
G1 X-31.3202 Y9.7631
G1 X-37.591 Y11.3813
G1 X-37.566 Y9.0299
G1 X-37.7934 Y6.9313
G1 X-38.0207 Y9.1311
G1 X-37.9962 Y11.5832
G1 X-40.2211 Y12.3924
G1 X-42.2977 Y10.4675
G1 X-42.7363 Y9.3143
G1 X-42.4984 Y8.7931
G1 X-41.8389 Y8.3479
G1 X-41.863 Y9.6869
G1 X-41.6362 Y10.7745
G1 Y7.9433
G1 X-38.4689 Y6.6604
G1 X-36.8524 Y6.0519
G1 X-34.9617 Y5.7184
G1 X-34.9862 Y7.462
G1 X-34.7589 Y8.9543
G1 X-34.5315 Y7.361
G1 X-34.5566 Y5.5156
G1 X-25.221 Y3.7134
G1 X-15.259 Y2.3949
G1 X-13.6519 Y2.258
G0 Z5.0
G0 X-10.6643 Y9.8622
G1 Z0.0
G1 X-8.4473 Y8.9912
G1 X-2.8003 Y6.3247
G1 X-1.3848 Y5.5156
G1 X6.3656 Y1.1646
G1 X10.3899 Y-0.857
G1 X14.5943 Y-2.3729
G1 X17.5534 Y-2.8955
G1 X20.65 Y-3.0052
G1 X26.5274 Y-2.3729
G1 X30.8703 Y-1.284
G1 X34.721 Y0.2398
G1 X38.2674 Y2.2277
G1 X41.6985 Y4.7064
G1 X45.5743 Y8.2152
G1 X49.0085 Y12.1441
G1 X52.0238 Y16.3994
G1 X54.6424 Y20.8882
G1 X56.2689 Y23.8777
G1 X57.2726 Y26.5518
G1 X57.1322 Y29.9774
G1 X56.3813 Y33.5888
G1 X55.6204 Y37.2718
G1 X55.4518 Y40.9124
G1 X54.0837 Y41.8697
G1 X52.4182 Y42.5308
G1 X51.985 Y39.7271
G1 X51.2045 Y37.2713
G1 X52.216 Y42.7335
G1 X50.8278 Y44.0761
G1 X49.1818 Y45.1607
G1 X46.9389 Y41.3355
G1 X44.5578 Y37.6484
G1 X43.0382 Y36.1342
G1 X41.1512 Y34.987
G1 X38.7863 Y34.3179
G1 X35.8322 Y34.2378
G1 X32.5309 Y52.9154
G1 X29.5613 Y72.6691
G1 X29.2638 Y76.6621
G1 X29.5613 Y80.5574
G1 X30.3706 Y82.7822
G1 X29.9834 Y84.4673
G1 X29.5613 Y86.221
G1 X30.1787 Y88.9976
G1 X30.9781 Y91.4803
G1 X26.593 Y89.6201
G1 X22.687 Y87.2806
G1 X19.25 Y84.4723
G1 X16.2714 Y81.2058
G1 X13.7406 Y77.4918
G1 X11.6465 Y73.3412
G1 X9.9794 Y68.7633
G1 X8.7281 Y63.7697
G1 X5.2169 Y55.2454
G1 X3.1498 Y51.295
G1 X0.4345 Y47.9925
G1 X-3.241 Y43.0806
G1 X-8.1502 Y38.9319
G1 X-11.0317 Y37.2623
G1 X-14.1784 Y35.9253
G1 X-17.5749 Y34.969
G1 X-21.2079 Y34.4405
G1 X-26.585 Y34.5202
G1 X-31.6521 Y35.4982
G1 X-36.4018 Y37.1613
G1 X-40.8279 Y39.2948
G1 X-46.7839 Y44.8182
G1 X-49.3563 Y47.9459
G1 X-51.5596 Y51.3901
G1 X-53.3188 Y55.2058
G1 X-54.5596 Y59.4482
G1 X-55.2076 Y64.1724
G1 X-55.1885 Y69.4327
G1 X-53.9752 Y76.1071
G1 X-51.8684 Y82.3075
G1 X-49.0392 Y88.0297
G1 X-45.7958 Y93.2009
G1 X-42.4459 Y97.7503
G1 X-47.187 Y95.7357
G1 X-49.1884 Y94.505
G1 X-50.3343 Y93.0978
G1 X-52.2686 Y92.7111
G1 X-54.0908 Y91.5679
G1 X-57.6162 Y88.8499
G1 X-56.5937 Y89.1668
G1 X-55.3618 Y90.1873
G1 X-54.0438 Y91.247
G1 X-52.7619 Y91.6816
G1 X-56.0819 Y89.2625
G1 X-59.0929 Y86.5339
G1 X-61.7889 Y83.4903
G1 X-64.1651 Y80.1273
G1 X-66.2151 Y76.4382
G1 X-67.9347 Y72.4181
G1 X-69.3178 Y68.0622
G1 X-70.3588 Y63.3641
G1 X-69.9498 Y66.0397
G1 X-69.6824 Y67.2564
G1 X-69.7519 Y68.4207
G1 X-71.0047 Y63.5554
G1 X-71.4846 Y61.0326
G1 X-71.5722 Y58.5092
G1 X-70.17 Y61.1527
G1 X-69.2822 Y62.2874
G1 X-68.1334 Y63.1618
G1 X-67.6903 Y66.1573
G1 X-66.9202 Y68.8253
G1 X-67.4094 Y66.1292
G1 X-67.6864 Y64.8708
G1 X-67.527 Y63.5664
G1 X-65.6197 Y64.1998
G1 X-63.6348 Y64.2734
G1 X-61.7243 Y63.7402
G1 X-60.0433 Y62.5554
G1 X-58.5851 Y60.5108
G1 X-57.4985 Y58.0366
G1 X-55.3909 Y52.8463
G1 X-52.5635 Y48.4111
G1 X-49.5249 Y43.9469
G1 X-45.9176 Y38.4055
G1 X-42.8504 Y33.2267
G1 X-41.7863 Y30.5222
G1 X-41.1414 Y27.6549
G1 X-40.9451 Y24.7721
G1 X-41.2256 Y22.019
G1 X-42.0132 Y19.5417
G1 X-43.3357 Y17.4861
G1 X-45.2235 Y15.9988
G1 X-47.7047 Y15.2247
G1 X-50.2271 Y15.08
G1 X-52.4559 Y15.3029
G1 X-56.2606 Y16.5306
G1 X-62.8745 Y19.8767
G1 X-59.7353 Y15.9873
G1 X-56.3844 Y12.3098
G1 X-52.5871 Y9.0785
G1 X-48.1089 Y6.5271
G1 X-47.3522 Y8.2949
G1 X-46.2341 Y9.768
G1 X-43.1604 Y11.9443
G1 X-39.3748 Y13.2828
G1 X-35.3662 Y14.0113
G1 X-35.4634 Y17.0445
G1 X-35.1694 Y20.014
G1 X-34.4713 Y22.7676
G1 X-33.3551 Y25.1531
G1 X-31.8079 Y27.018
G1 X-29.8159 Y28.2108
G1 X-27.3657 Y28.5778
G1 X-24.4433 Y27.9679
G1 X-21.1388 Y24.6479
G1 X-18.3512 Y20.8116
G1 X-16.1313 Y16.407
G1 X-14.5325 Y11.382
G1 X-10.6643 Y9.8622
G0 Z5.0
G0 X-31.3211 Y19.2698
G1 Z0.0
G1 X-30.7273 Y22.73
G1 X-30.7147 Y26.7535
G1 X-31.3211 Y19.2698
G0 Z5.0
G0 X-43.3955 Y22.3641
G1 Z0.0
G1 X-43.2556 Y22.9102
G1 X-43.3407 Y27.4892
G1 X-44.5595 Y31.5827
G1 X-46.4409 Y35.2344
G1 X-48.5145 Y38.4852
G1 X-54.1185 Y46.727
G1 X-56.6436 Y50.699
G1 X-58.6277 Y54.4648
G1 X-59.8571 Y57.4041
G1 X-61.2732 Y60.001
G1 X-62.2116 Y60.9974
G1 X-63.3888 Y61.7006
G1 X-64.87 Y62.0411
G1 X-66.7183 Y61.9484
G1 X-68.489 Y60.7978
G1 X-70.0022 Y59.1732
G1 X-72.1796 Y55.2735
G1 X-73.5952 Y51.2284
G1 X-73.9918 Y47.4998
G1 X-73.836 Y43.7631
G1 X-73.2236 Y40.0845
G1 X-72.2526 Y36.5327
G1 X-69.6216 Y30.0765
G1 X-66.7179 Y24.9333
G1 X-63.9056 Y21.8998
G1 X-60.6503 Y19.2698
G1 X-58.4429 Y18.0724
G1 X-57.2892 Y17.7641
G1 X-56.2005 Y17.8541
G1 X-59.2992 Y19.6804
G1 X-62.1385 Y21.8337
G1 X-64.6942 Y24.3053
G1 X-66.9432 Y27.0856
G1 X-68.86 Y30.1657
G1 X-70.422 Y33.5368
G1 X-71.6037 Y37.1892
G1 X-72.3818 Y41.1147
G1 X-71.3403 Y37.024
G1 X-69.9577 Y33.274
G1 X-68.2432 Y29.8557
G1 X-66.2051 Y26.7615
G1 X-63.852 Y23.9819
G1 X-61.192 Y21.5096
G1 X-58.2341 Y19.3349
G1 X-54.9873 Y17.4497
G1 X-55.5937 Y17.2468
G1 X-51.2461 Y16.5512
G1 X-47.4614 Y17.2538
G1 X-45.9106 Y18.1337
G1 X-44.6582 Y19.3684
G1 X-43.7553 Y20.9604
G1 X-43.3955 Y22.3641
G0 Z5.0
G0 X-35.94 Y37.4829
G1 Z0.0
G1 X-34.6742 Y36.8588
G1 X-30.7849 Y35.5718
G1 X-26.6275 Y34.8693
G1 X-22.2194 Y34.8436
G1 X-17.0016 Y35.6609
G1 X-12.3837 Y37.1953
G1 X-8.3852 Y39.3234
G1 X-5.0277 Y41.9228
G1 X-0.1658 Y47.2263
G1 X3.6706 Y52.8453
G1 X6.3855 Y58.9845
G1 X8.4638 Y65.4812
G1 X10.5222 Y71.9304
G1 X13.1766 Y77.9264
G1 X18.032 Y83.9946
G1 X20.7472 Y86.5314
G1 X23.6957 Y88.6466
G1 X27.6166 Y90.4993
G1 X31.7862 Y92.2875
G1 X34.357 Y94.2255
G1 X37.045 Y96.1308
G1 X38.3049 Y96.4654
G1 X38.8518 Y96.7352
G1 X39.2705 Y97.3448
G1 X36.4993 Y100.6991
G1 X33.0452 Y103.5094
G1 X29.1132 Y105.7148
G1 X24.9088 Y107.256
G1 X30.6461 Y104.3456
G1 X33.1589 Y102.592
G1 X35.0226 Y100.5816
G1 X31.9303 Y103.0091
G1 X28.1178 Y105.2841
G1 X23.9143 Y107.2806
G1 X19.6509 Y108.8744
G1 X15.1316 Y110.1674
G1 X13.0906 Y110.242
G1 X11.5607 Y109.4814
G1 X15.6555 Y108.8228
G1 X19.4236 Y107.8379
G1 X22.8504 Y106.5115
G1 X25.9215 Y104.8289
G1 X18.5354 Y107.6577
G1 X14.5151 Y108.7452
G1 X10.1436 Y109.4814
G1 X6.675 Y107.4634
G1 X3.5544 Y105.0974
G1 X-1.9165 Y99.5951
G1 X-11.7011 Y87.4337
G1 X-15.0662 Y85.196
G1 X-18.9506 Y83.198
G1 X-23.1548 Y82.0537
G1 X-25.3142 Y81.9936
G1 X-27.4779 Y82.3776
G1 X-30.2481 Y83.7672
G1 X-32.0733 Y85.8935
G1 X-33.0737 Y88.5679
G1 X-33.3697 Y91.604
G1 X-33.0807 Y94.8138
G1 X-32.3271 Y98.0106
G1 X-29.9051 Y103.6156
G1 X-36.302 Y101.3651
G1 X-39.3818 Y99.7995
G1 X-41.6366 Y97.5475
G1 X-37.3903 Y99.6216
G1 X-35.0713 Y100.4058
G1 X-32.7373 Y100.7838
G1 X-33.1649 Y99.576
G1 X-33.8955 Y98.6491
G1 X-35.9737 Y97.5475
G1 X-40.145 Y96.2971
G1 X-43.6603 Y94.5133
G1 X-46.171 Y91.7228
G1 X-48.3122 Y88.243
G1 X-51.3422 Y81.9299
G1 X-53.5711 Y75.2975
G1 X-54.4905 Y69.3091
G1 X-54.4363 Y63.0591
G1 X-53.4939 Y57.1637
G1 X-51.7509 Y52.2388
G1 X-50.525 Y50.6324
G1 X-49.5255 Y48.8002
G1 X-44.57 Y43.294
G1 X-41.5835 Y40.8122
G1 X-38.2791 Y38.6365
G1 X-35.94 Y37.4829
G0 Z5.0
G0 X-55.1885 Y9.7631
G1 Z0.0
G1 X-53.3683 Y-0.3506
G1 X-53.9371 Y5.0479
G1 X-55.1885 Y9.7631
G0 Z5.0
G0 X-55.7093 Y4.3479
G1 Z0.0
G1 X-55.5932 Y3.8972
G1 X-55.4879 Y0.1205
G1 X-54.9867 Y-3.5865
G1 X-55.1165 Y0.3288
G1 X-55.3909 Y4.1001
G1 X-55.7093 Y4.3479
