( Made using CamBam - http://www.cambam.co.uk )
( robot_A0 1/7/2014 3:12:25 PM )
( T0 : 0.0 )
G21 G90 G64 G40
G0 Z5.0
( T0 : 0.0 )
T0 M6
( 1 - 298 )
G17
M3 S1000
G0 X-102.5197 Y9.5602
G1 F2000.0 Z0.0
G1 X-100.5331 Y8.6142
G1 X-98.2553 Y7.9593
G1 X-93.6198 Y6.729
G1 X-97.8961 Y8.3178
G1 X-102.5197 Y9.5602
G0 Z5.0
G0 X-103.3059 Y9.2273
G1 Z0.0
G1 X-103.3808 Y9.404
G1 X-103.6444 Y10.0259
G1 X-102.9243 Y11.1792
G1 X-96.9082 Y10.1155
G1 X-94.4906 Y8.9935
G1 X-92.8105 Y7.1335
G1 X-93.0129 Y6.9313
G1 X-94.0509 Y6.4796
G1 X-95.7635 Y6.4114
G1 X-99.9779 Y7.2208
G1 X-101.8627 Y7.9948
G1 X-102.4424 Y8.4117
G1 X-103.1872 Y8.9469
G1 X-103.3059 Y9.2273
G0 Z5.0
G0 X-95.2382 Y24.7305
G1 Z0.0
G1 X-94.9332 Y28.5222
G1 X-94.2271 Y32.4166
G1 X-94.5036 Y28.5973
G1 X-95.2382 Y24.7305
G0 Z5.0
G0 X-98.8788 Y30.7986
G1 Z0.0
G1 X-99.8482 Y30.7727
G1 X-100.8592 Y31.0945
G1 X-102.9243 Y31.8102
G1 X-102.9223 Y31.81
G1 X-102.9243 Y31.8107
G1 X-100.8932 Y31.5652
G1 X-98.8788 Y30.7992
G1 X-98.8802 Y30.7991
G1 X-98.8788 Y30.7986
G0 Z5.0
G0 X-79.0859 Y29.0585
G1 Z0.0
G1 X-78.4501 Y32.0124
G1 X-78.4503 Y32.0084
G1 X-78.4494 Y32.0124
G1 X-78.6187 Y29.0965
G1 X-79.2588 Y26.1471
G1 X-79.2586 Y26.1499
G1 X-79.2592 Y26.1471
G1 X-79.0859 Y29.0585
G0 Z5.0
G0 X-73.9998 Y30.7986
G1 Z0.0
G1 X-73.3924 Y35.4506
G1 X-73.3834 Y33.0646
G1 X-73.9998 Y30.7986
G0 Z5.0
G0 X-75.9135 Y23.6822
G1 Z0.0
G1 X-75.3519 Y23.5312
G1 X-73.3934 Y22.7086
G1 X-73.3942 Y22.7087
G1 X-73.3924 Y22.7079
G1 X-75.3679 Y23.0088
G1 X-77.4384 Y23.7194
G1 X-77.4373 Y23.7195
G1 X-77.439 Y23.7201
G1 X-76.4023 Y23.8137
G1 X-75.9135 Y23.6822
G0 Z5.0
G0 X-68.9432
G1 Z0.0
G1 Y24.7305
G1 X-68.44 Y21.3934
G1 X-68.9432 Y18.056
G1 Y23.6822
G0 Z5.0
G0 X-55.1885 Y9.7631
G1 Z0.0
G1 X-53.9371 Y5.0479
G1 X-53.3683 Y-0.3506
G1 X-55.1885 Y9.7631
G0 Z5.0
G0 X-55.7093 Y4.3479
G1 Z0.0
G1 X-55.3913 Y4.1001
G1 X-55.1165 Y0.3288
G1 X-54.9873 Y-3.5865
G1 X-55.4885 Y0.1205
G1 X-55.5937 Y3.8972
G1 X-55.7093 Y4.3479
G0 Z5.0
G0 X-58.2682 Y3.7494
G1 Z0.0
G1 X-58.1485 Y3.1896
G1 X-58.2682 Y2.6299
G1 X-58.6272 Y2.4816
G1 Y3.8972
G1 X-58.2682 Y3.7494
G0 Z5.0
G0 X-58.2226 Y0.6613
G1 Z0.0
G1 X-57.8721 Y-4.1313
G1 X-57.9637 Y-6.5229
G1 X-58.4254 Y-8.6438
G1 X-58.1605 Y-3.6545
G1 X-58.2226 Y0.6613
G0 Z5.0
G0 X-62.4705 Y-6.0142
G1 Z0.0
G1 X-62.0658 Y-8.0357
G1 X-62.4403 Y-7.1969
G1 X-62.4705 Y-6.0142
G0 Z5.0
G0 X-62.2681 Y-10.8686
G1 Z0.0
G1 X-62.491 Y-15.9867
G1 X-63.4239 Y-20.7865
G1 X-64.841 Y-25.2291
G1 X-66.516 Y-29.2745
G1 X-63.8531 Y-20.8641
G1 X-62.7824 Y-16.0749
G1 X-62.2681 Y-10.8686
G0 Z5.0
G0 X-67.0483 Y-11.7898
G1 Z0.0
G1 X-67.1455 Y-12.5519
G1 X-67.5275 Y-12.891
G1 Y-10.6655
G1 X-67.0483 Y-11.7898
G0 Z5.0
G0 X-67.5275 Y-14.7119
G1 Z0.0
G1 X-67.3443 Y-16.0588
G1 X-67.5275 Y-17.543
G1 X-67.7634 Y-16.1432
G1 X-67.5275 Y-14.7119
G0 Z5.0
G0 X-67.9317 Y-17.9483
G1 Z0.0
G1 X-68.0209 Y-19.8629
G1 X-68.4775 Y-21.8021
G1 X-69.9547 Y-25.2291
G1 X-68.9212 Y-21.8629
G1 X-67.9317 Y-17.9483
G0 Z5.0
G0 X-68.1339 Y-31.7022
G1 Z0.0
G1 X-68.0398 Y-32.3363
G1 X-68.3734 Y-32.9302
G1 X-69.146 Y-34.1296
G1 X-68.8696 Y-32.9383
G1 X-68.1339 Y-31.7022
G0 Z5.0
G0 X-65.0998 Y-33.5215
G1 Z0.0
G1 X-65.6483 Y-35.3824
G1 X-66.5986 Y-37.2321
G1 X-68.9432 Y-40.6017
G1 X-65.0998 Y-33.5215
G0 Z5.0
G0 X-62.6733 Y-35.5451
G1 Z0.0
G1 X-62.8405 Y-36.9951
G1 X-63.4824 Y-38.3762
G1 X-66.7183 Y-42.8266
G1 X-69.165 Y-46.735
G1 X-71.9773 Y-50.3102
G1 X-67.2135 Y-43.2921
G1 X-64.753 Y-39.5395
G1 X-62.6733 Y-35.5451
G0 Z5.0
G0 X-60.4925 Y-37.1315
G1 Z0.0
G1 X-59.6387 Y-36.3548
G1 X-63.0097 Y-42.5905
G1 X-66.9272 Y-48.2813
G1 X-71.4475 Y-53.3684
G1 X-76.6292 Y-57.7945
G1 X-74.9807 Y-55.8786
G1 X-72.9888 Y-54.3563
G1 X-69.5041 Y-50.8686
G1 X-66.3288 Y-46.9599
G1 X-63.45 Y-42.7039
G1 X-60.8526 Y-38.1746
G1 X-60.4925 Y-37.1315
G0 Z5.0
G0 X-70.3588 Y-42.2197
G1 Z0.0
G1 X-70.1981 Y-42.7169
G1 X-70.5751 Y-43.4254
G1 X-71.7749 Y-44.6468
G1 X-71.5611 Y-43.8996
G1 X-71.12 Y-43.3803
G1 X-70.3588 Y-42.2197
G0 Z5.0
G0 X-74.0003 Y-52.1311
G1 Z0.0
G1 X-74.3278 Y-53.0683
G1 X-75.416 Y-53.7491
G1 X-74.8035 Y-52.8448
G1 X-74.0003 Y-52.1311
G0 Z5.0
G0 X-103.5998 Y-50.5227
G1 Z0.0
G1 X-103.7335 Y-52.1311
G1 X-105.0916 Y-52.5373
G1 X-106.3404 Y-52.1832
G1 X-107.1461 Y-51.1457
G1 X-107.1722 Y-49.5015
G1 X-105.7871 Y-48.9282
G1 X-104.4405 Y-49.3617
G1 X-103.5998 Y-50.5227
G0 Z5.0
G0 X-103.9739 Y-42.8505
G1 Z0.0
G1 X-104.7945 Y-42.862
G1 X-106.0986 Y-42.0055
G1 X-106.5231 Y-40.5986
G1 X-106.2453 Y-39.9228
G1 X-105.5542 Y-39.3883
G1 X-104.1987 Y-39.265
G1 X-103.2267 Y-39.9859
G1 X-102.8116 Y-41.166
G1 X-103.1267 Y-42.4226
G1 X-103.9739 Y-42.8505
G0 Z5.0
G0 X-103.1235 Y-33.2035
G1 Z0.0
G1 X-104.3029 Y-32.8221
G1 X-104.9949 Y-31.6783
G1 X-104.9469 Y-29.882
G1 X-103.4801 Y-29.1947
G1 X-102.113 Y-29.7087
G1 X-101.3544 Y-31.0174
G1 X-101.7105 Y-32.7134
G1 X-103.1235 Y-33.2035
G0 Z5.0
G0 X-101.9468 Y-23.0549
G1 Z0.0
G1 X-102.6488 Y-22.713
G1 X-103.1267 Y-21.9927
G1 X-103.1771 Y-20.7595
G1 X-102.5316 Y-19.8098
G1 X-101.3745 Y-19.3458
G1 X-99.8907 Y-19.566
G1 X-99.3634 Y-20.5936
G1 X-99.3479 Y-21.4999
G1 X-100.3605 Y-22.7763
G1 X-101.9468 Y-23.0549
G0 Z5.0
G0 X-99.2833 Y-12.891
G1 Z0.0
G1 X-100.2713 Y-12.0569
G1 X-100.6153 Y-10.791
G1 X-100.1921 Y-9.5637
G1 X-98.8788 Y-8.845
G1 X-97.8446 Y-8.8916
G1 X-97.2062 Y-9.3597
G1 X-96.9433 Y-10.9802
G1 X-97.7496 Y-12.5444
G1 X-98.4471 Y-12.9426
G1 X-99.2833 Y-12.891
G0 Z5.0
G0 X-32.7373 Y17.045
G1 Z0.0
G1 X-32.6186 Y21.1231
G1 X-32.1304 Y25.3379
G1 X-32.2205 Y21.0625
G1 X-32.7373 Y17.045
G0 Z5.0
G0 X-31.3211 Y19.2698
G1 Z0.0
G1 X-30.7147 Y26.7535
G1 X-30.7273 Y22.7295
G1 X-31.3211 Y19.2698
G0 Z5.0
G0 X-33.3927 Y20.9262
G1 Z0.0
G1 X-33.3933 Y20.9272
G1 Y20.9262
G1 X-33.4964 Y21.1141
G1 X-33.547 Y22.9102
G1 X-33.546 Y22.9101
G1 Y22.9102
G1 X-33.1854 Y22.8537
G1 X-33.1134 Y22.5292
G1 X-33.3436 Y21.8992
G1 X-33.3927 Y20.9262
G0 Z5.0
G0 X-29.5009 Y23.9217
G1 Z0.0
G1 X-29.0964 Y27.7646
G1 X-28.8333 Y27.067
G1 X-28.8785 Y25.9233
G1 X-29.5009 Y23.9217
G0 Z5.0
G0 X-28.4038 Y56.4552
G1 Z0.0
G1 X-23.9426 Y56.373
G1 X-19.5464 Y56.8963
G1 X-15.3416 Y58.1047
G1 X-19.608 Y57.1347
G1 X-23.97 Y56.7241
G1 X-28.3302 Y56.8259
G1 X-32.5916 Y57.3917
G1 X-36.6561 Y58.3761
G1 X-40.4263 Y59.7307
G1 X-43.805 Y61.4091
G1 X-46.6938 Y63.3641
G1 X-47.3002 Y63.1618
G1 X-44.3938 Y61.2469
G1 X-40.9251 Y59.5394
G1 X-37.0207 Y58.1182
G1 X-32.8048 Y57.0635
G1 X-28.4038 Y56.4552
G0 Z5.0
G0 X-28.6917 Y58.5098
G1 Z0.0
G1 X-35.8429 Y60.2875
G1 X-42.2441 Y62.5554
G1 X-42.6487 Y62.3526
G1 X-36.1598 Y59.9414
G1 X-32.5986 Y59.0532
G1 X-28.6917 Y58.5098
G0 Z5.0
G0 X-28.5034 Y60.89
G1 Z0.0
G1 X-25.5575 Y60.6569
G1 X-20.55 Y60.8098
G1 X-15.9485 Y61.5433
G1 X-20.8313 Y61.0951
G1 X-25.8199 Y61.0861
G1 X-34.9621 Y61.9479
G1 X-30.5144 Y61.0491
G1 X-28.5034 Y60.89
G0 Z5.0
G0 X-37.187 Y62.5548
G1 Z0.0
G1 X-37.4884 Y63.0632
G1 X-38.1985 Y63.1618
G1 X-37.853 Y62.6981
G1 X-37.187 Y62.5548
G0 Z5.0
G0 X-44.0643 Y63.1618
G1 Z0.0
G1 X-44.4037 Y63.733
G1 X-45.0758 Y63.9709
G1 X-44.7364 Y63.4001
G1 X-44.0643 Y63.1618
G0 Z5.0
G0 X-13.5214 Y61.9484
G1 Z0.0
G1 X-12.6396 Y62.2804
G1 X-12.1058 Y62.96
G1 X-12.9851 Y62.6249
G1 X-13.5214 Y61.9484
G0 Z5.0
G0 X-6.0377 Y64.982
G1 Z0.0
G1 X-5.5569 Y67.1812
G1 X-5.4246 Y68.3311
G1 X-5.633 Y69.4322
G1 X-5.9845 Y67.1038
G1 X-6.0377 Y64.982
G0 Z5.0
G0 X-5.4308 Y72.2635
G1 Z0.0
G1 X-5.4053 Y73.0987
G1 X-5.4814 Y73.4272
G1 X-5.8353 Y73.4773
G1 X-5.7813 Y72.7226
G1 X-5.4308 Y72.2635
G0 Z5.0
G0 X-3.7975 Y73.3618
G1 Z0.0
G1 X-3.5634 Y73.0137
G1 X-3.1503 Y71.2209
G1 X-3.3286 Y66.8053
G1 X-4.3056 Y62.4897
G1 X-5.4311 Y59.7237
G1 X-7.2519 Y58.1052
G1 X-12.3697 Y56.4552
G1 X-18.0311 Y55.1322
G1 X-24.0677 Y54.4866
G1 X-30.31 Y54.8688
G1 X-36.1884 Y56.2709
G1 X-41.256 Y58.3831
G1 X-45.6047 Y61.1152
G1 X-49.3232 Y64.3756
G1 X-49.1204
G1 X-48.58 Y64.5539
G1 X-48.878 Y64.8217
G1 X-49.9296 Y65.3867
G1 X-50.1059 Y69.8784
G1 X-49.574 Y73.993
G1 X-48.3097 Y77.4958
G1 X-46.2892 Y80.1523
G1 X-41.1023 Y80.6005
G1 X-35.9601 Y80.6481
G1 X-25.923 Y79.7392
G1 X-16.4112 Y77.8233
G1 X-7.656 Y75.298
G1 X-4.4196 Y74.287
G1 X-3.7975 Y73.3618
G0 Z5.0
G0 X8.9017 Y86.6286
G1 Z0.0
G1 X7.7166 Y88.243
G1 X6.275 Y89.4628
G1 X5.0871 Y90.6701
G1 X2.4227 Y92.1518
G1 X-0.3742 Y93.5013
G1 X-0.5764 Y94.1088
G1 X2.1016 Y93.214
G1 X4.5942 Y91.7447
G1 X9.1321 Y88.243
G1 X9.684 Y87.1764
G1 X10.3458 Y86.2199
G1 X9.5648 Y86.0842
G1 X8.9017 Y86.6286
G0 Z5.0
G0 X9.8337 Y87.8645
G1 Z0.0
G1 X8.9728 Y88.7412
G1 X7.3119 Y90.6706
G1 X4.0594 Y92.6771
G1 X2.4097 Y93.6562
G1 X0.4345 Y94.3111
G1 Y95.5248
G1 X3.5032 Y93.9916
G1 X6.2685 Y92.1549
G1 X8.6955 Y89.9807
G1 X10.7505 Y87.4337
G1 X9.8337 Y87.8645
G0 Z5.0
G0 X12.3129 Y92.4708
G1 Z0.0
G1 X11.0551 Y93.4539
G1 X8.7284 Y95.7267
G1 X6.1501 Y96.891
G1 X3.8734 Y98.3563
G1 X6.8035 Y97.241
G1 X9.3986 Y95.7904
G1 X11.6586 Y94.0042
G1 X13.5828 Y91.8835
G1 X12.3129 Y92.4708
G0 Z5.0
G0 X13.0461 Y93.3262
G1 Z0.0
G1 X9.5368 Y96.3341
G1 X7.0129 Y97.6237
G1 X5.8215 Y98.3522
G1 X4.8849 Y99.3682
G1 X9.1744 Y97.0827
G1 X12.9754 Y94.1093
G1 X13.649 Y93.3792
G1 X13.7847 Y92.6931
G1 X13.0461 Y93.3262
G0 Z5.0
G0 X20.0783 Y104.1449
G1 Z0.0
G1 X17.8292 Y105.8404
G1 X17.8318 Y105.8391
G1 X17.8301 Y105.8404
G1 X21.3745 Y104.1253
G1 X22.8833 Y103.0046
G1 X24.1013 Y101.5926
G1 X24.0988 Y101.5941
G1 X24.1001 Y101.5926
G1 X23.2758 Y102.0833
G1 X22.6845 Y102.8063
G1 X20.0783 Y104.1449
G0 Z5.0
G0 X1.8513 Y115.3472
G1 Z0.0
G1 X-0.5745 Y115.0969
G1 X-3.0034 Y115.3472
G1 X-0.4376 Y115.5745
G1 X-0.4374
G1 X-0.4373
G1 X1.8513 Y115.3472
G0 Z5.0
G0 X-38.603 Y105.6382
G1 Z0.0
G1 X-38.6037 Y105.6372
G1 X-38.603 Y105.6375
G1 X-39.0817 Y104.9206
G1 X-40.1229 Y104.3762
G1 X-42.6487 Y103.6156
G1 X-42.6467 Y103.6167
G1 X-42.6487 Y103.6161
G1 X-40.6552 Y104.6562
G1 X-38.603 Y105.6382
G0 Z5.0
G0 X-45.2781 Y102.4022
G1 Z0.0
G1 X-45.2857 Y102.3986
G1 X-45.2781 Y102.4018
G1 X-53.5085 Y98.4459
G1 X-62.0658 Y95.322
G1 X-62.0553 Y95.3265
G1 X-62.0658 Y95.3226
G1 X-45.2781 Y102.4022
G0 Z5.0
G0 X-48.1094 Y109.4814
G1 Z0.0
G1 X-49.9181 Y111.2125
G1 X-51.7509 Y112.9201
G1 X-50.9611 Y112.7838
G1 X-49.9426 Y111.8425
G1 X-48.1094 Y109.4814
G0 Z5.0
G0 X-48.5912 Y117.0115
G1 Z0.0
G1 X-49.3232 Y116.9646
G1 X-53.8295 Y115.8038
G1 X-57.7274 Y113.8065
G1 X-65.5041 Y108.6722
G1 X-59.849 Y112.9632
G1 X-56.5912 Y115.0802
G1 X-53.5706 Y116.5606
G1 X-51.0327 Y117.1484
G1 X-47.7047 Y117.1674
G1 X-47.2687 Y117.0969
G1 X-47.5231 Y117.0798
G1 X-48.5912 Y117.0115
G0 Z5.0
G0 X-62.6728 Y118.7855
G1 Z0.0
G1 X-67.1224 Y119.5941
G1 X-67.818 Y119.868
G1 X-67.8171 Y119.8682
G1 X-67.818 Y119.8686
G1 X-67.3663 Y119.9556
G1 X-65.3022 Y119.7974
G1 X-63.7233 Y119.3948
G1 X-62.6728 Y118.7859
G1 X-62.6739 Y118.7861
G1 X-62.6728 Y118.7855
G0 Z5.0
G0 X-66.3137 Y116.1565
G1 Z0.0
G1 X-71.3257 Y116.528
G1 X-76.2247 Y115.9537
G1 X-74.0284 Y116.6763
G1 X-71.3412 Y116.9407
G1 X-68.6178 Y116.7618
G1 X-66.3137 Y116.1565
G0 Z5.0
G0 X-70.763 Y121.4152
G1 Z0.0
G1 X-70.7628 Y121.4163
G1 X-70.7635 Y121.4152
G1 X-70.6477 Y122.242
G1 X-70.0033 Y122.9307
G1 X-67.9322 Y123.6402
G1 X-67.9328 Y123.6398
G1 X-67.9317 Y123.6402
G1 X-69.517 Y122.6968
G1 X-70.2901 Y122.206
G1 X-70.763 Y121.4152
G0 Z5.0
G0 X-72.7076 Y124.7548
G1 Z0.0
G1 X-73.5787 Y124.2476
G1 X-74.4043 Y123.4374
G1 X-75.2137 Y121.2125
G1 X-75.3804 Y120.3301
G1 X-75.416 Y122.2246
G1 X-73.8391 Y124.3892
G1 X-71.5726 Y125.8645
G1 X-71.8686 Y125.2737
G1 X-72.6352 Y124.797
G1 X-72.7076 Y124.7548
G0 Z5.0
G0 X-77.8431 Y115.549
G1 Z0.0
G1 X-79.0319 Y114.9175
G1 X-80.4726 Y114.538
G1 X-79.4435 Y115.3291
G1 X-77.8431 Y115.549
G0 Z5.0
G0 X-69.0173 Y105.4093
G1 Z0.0
G1 X-67.9322 Y106.0427
G1 X-67.9326 Y106.0422
G1 X-67.9317 Y106.0427
G1 X-68.6973 Y105.0893
G1 X-69.7519 Y104.4244
G1 X-69.7516 Y104.4249
G1 X-69.7524 Y104.4244
G1 X-69.0173 Y105.4093
G0 Z5.0
G0 X-89.9934 Y94.3227
G1 Z0.0
G1 X-89.9162 Y93.527
G1 X-90.1816 Y92.0863
G1 X-90.4084 Y93.2751
G1 X-90.3839 Y94.7156
G1 X-89.9934 Y94.3227
G0 Z5.0
G0 X-89.4542 Y94.5441
G1 Z0.0
G1 X-89.7875 Y95.3557
G1 X-90.5858 Y96.0226
G1 X-91.5822 Y96.2725
G1 X-92.6318 Y96.1258
G1 X-93.5868 Y95.602
G1 X-94.3023 Y94.7208
G1 X-94.6313 Y93.5018
G1 X-94.3788 Y92.0712
G1 X-93.6198 Y90.6706
G1 X-92.0094 Y90.4812
G1 X-90.7299 Y90.8254
G1 X-89.8331 Y91.5981
G1 X-89.372 Y92.6927
G1 X-89.3344 Y94.2525
G1 X-89.4542 Y94.5441
G0 Z5.0
G0 X-88.9456 Y94.588
G1 Z0.0
G1 X-88.8491 Y93.4708
G1 X-88.8492 Y93.4707
G1 X-88.8491 Y93.4703
G1 X-89.7078 Y91.0633
G1 X-90.6148 Y90.231
G1 X-91.7995 Y89.8614
G1 X-93.111 Y90.0747
G1 X-94.1065 Y90.7948
G1 X-94.7565 Y91.8614
G1 X-95.0313 Y93.1124
G1 X-94.9028 Y94.3872
G1 X-94.3408 Y95.5239
G1 X-93.3162 Y96.3612
G1 X-91.7995 Y96.7388
G1 X-90.4024 Y96.5183
G1 X-89.4649 Y95.7929
G1 X-88.9573 Y94.7233
G1 X-88.9456 Y94.588
G0 Z5.0
G0 X45.5699 Y73.2515
G1 Z0.0
G1 X45.7426 Y72.2635
G1 X46.5243 Y72.4678
G1 X46.8333 Y73.0501
G1 Y73.0505
G1 Y73.0506
G1 X46.7541 Y74.287
G1 X45.7426
G1 X45.5699 Y73.2515
G0 Z5.0
G0 X46.0295 Y71.6822
G1 Z0.0
G1 X45.9439 Y71.6571
G1 X46.1805 Y70.4773
G1 X46.5513 Y69.4322
G1 X46.5527 Y69.4332
G1 X46.5529 Y69.4327
G1 X47.4026 Y70.048
G1 X47.4889 Y71.1523
G1 X46.9551 Y71.953
G1 X46.9546 Y71.9529
G1 X46.9545 Y71.953
G1 X46.0295 Y71.6822
G0 Z5.0
G0 X47.667 Y72.3327
G1 Z0.0
G1 X48.3147 Y70.7021
G1 X50.1644 Y69.4157
G1 X53.2269 Y69.2299
G1 X54.3362 Y69.7732
G1 X55.2033 Y70.6841
G1 X56.1623 Y73.1859
G1 X56.0077 Y75.8839
G1 X55.4828 Y77.0407
G1 X54.6424 Y77.9275
G1 X52.2319 Y78.8895
G1 X50.1719 Y78.4232
G1 X48.6066 Y76.9496
G1 X47.679 Y74.8904
G1 X47.534 Y72.6675
G1 X47.667 Y72.3327
G0 Z5.0
G0 X47.9691 Y70.2419
G1 Z0.0
G1 X47.9684 Y70.2407
G1 X47.9681 Y70.2409
G1 X47.1579 Y68.623
G1 X47.9284 Y67.8763
G1 X48.3091 Y67.4983
G1 X48.9787 Y67.4092
G1 X48.9788 Y67.4097
G1 X48.979
G1 X49.1818 Y69.2299
G1 X47.9691 Y70.2419
G0 Z5.0
G0 X49.5858 Y69.0275
G1 Z0.0
G1 X49.3837 Y66.6005
G1 X50.2734 Y66.2775
G1 X51.4061 Y66.1958
G1 X51.2234 Y67.6309
G1 X50.7992 Y68.8253
G1 X49.5858 Y69.0275
G0 Z5.0
G0 X51.4061 Y68.6235
G1 Z0.0
G1 X52.2154 Y65.7912
G1 X54.2375 Y65.994
G1 X53.7198 Y67.3977
G1 X53.0241 Y68.6235
G1 X51.4061
G0 Z5.0
G0 X53.6316 Y69.0275
G1 Z0.0
G1 X54.1722 Y67.4453
G1 X55.0471 Y66.1958
G1 X57.0698 Y67.005
G1 X55.6772 Y68.8027
G1 X54.7132 Y69.2614
G1 X53.6316 Y69.0275
G0 Z5.0
G0 X55.0471 Y69.8369
G1 Z0.0
G1 X56.1956 Y68.7768
G1 X57.8788 Y67.8137
G1 X58.636 Y68.4722
G1 X59.0922 Y69.4322
G1 X56.6465 Y70.629
G1 X55.5123 Y70.6486
G1 X55.0471 Y69.8369
G0 Z5.0
G0 X56.4633 Y71.4548
G1 Z0.0
G1 X58.1288 Y70.5558
G1 X59.9009 Y70.2409
G1 Y70.2411
G1 X59.9018 Y70.2409
G1 X60.0757 Y71.2806
G1 X60.3062 Y72.2635
G1 X56.8673 Y72.8709
G1 Y72.8708
G1 X56.8664 Y72.8709
G1 X56.4633 Y71.4548
G0 Z5.0
G0 X56.8825 Y73.4745
G1 Z0.0
G1 X58.6254 Y73.1127
G1 X60.5084 Y72.8714
G1 Y72.8715
G1 X60.509 Y72.8714
G1 X60.4904 Y74.2684
G1 X60.1043 Y75.298
G1 X60.1037 Y75.2979
G1 Y75.298
G1 X56.8664 Y74.8935
G1 Y73.4778
G1 X56.8825 Y73.4745
G0 Z5.0
G0 X57.2178 Y75.7324
G1 Z0.0
G1 X57.7323 Y75.656
G1 X59.9018 Y75.9049
G1 X59.9017 Y75.9055
G1 X59.9018
G1 X59.8516 Y76.1113
G1 X59.6447 Y76.9616
G1 X59.4047 Y77.6242
G1 X59.295 Y77.9275
G1 X57.4189 Y77.578
G1 X56.2611 Y76.5118
G1 X56.2613 Y76.5115
G1 X56.2611 Y76.5113
G1 X56.7338 Y75.8043
G1 X57.2178 Y75.7324
G0 Z5.0
G0 X56.725 Y77.823
G1 Z0.0
G1 X57.0071 Y77.8895
G1 X58.4863 Y78.332
G1 X57.899 Y79.4637
G1 X56.8686 Y80.1523
G1 X56.868 Y80.1518
G1 X56.8673 Y80.1523
G1 X55.8089 Y79.1884
G1 X55.2794 Y78.7066
G1 X55.0471 Y77.9275
G1 X55.3698 Y77.8458
G1 X55.4518 Y77.5229
G1 X56.725 Y77.823
G0 Z5.0
G0 X55.1068 Y79.198
G1 Z0.0
G1 X56.2611 Y80.5564
G1 X56.2607 Y80.5565
G1 X56.2611 Y80.5569
G1 X55.2285 Y80.8399
G1 X54.2381 Y81.1644
G1 X53.6756 Y80.1083
G1 X53.2269 Y78.939
G1 X53.2271
G1 X53.2269 Y78.9386
G1 X54.248 Y78.8008
G1 X55.0828 Y79.1698
G1 X55.1068 Y79.198
G0 Z5.0
G0 X53.1547 Y80.3683
G1 Z0.0
G1 X53.6316 Y81.1638
G1 X51.6092
G1 X51.2045 Y79.3435
G1 X52.0337 Y79.2048
G1 X52.4583 Y79.4555
G1 X52.689 Y79.5915
G1 X53.1547 Y80.3683
G0 Z5.0
G0 X50.7992 Y80.5564
G1 Z0.0
G1 X49.2796 Y80.0446
G1 X49.0216 Y79.3951
G1 X49.1815 Y78.5344
G1 X49.9756 Y78.6501
G1 X50.4567 Y79.0786
G1 X50.7992 Y80.5564
G0 Z5.0
G0 X48.5743 Y79.1408
G1 Z0.0
G1 X48.574 Y79.1406
G1 Y79.1408
G1 X47.543 Y78.5548
G1 X46.956 Y77.5224
G1 X47.4051 Y77.2634
G1 X47.7647 Y76.9159
G1 X47.7656 Y76.9171
G1 X47.7669 Y76.9159
G1 X48.4073 Y77.7923
G1 X48.5743 Y79.1408
G0 Z5.0
G0 X46.9529 Y76.8112
G1 Z0.0
G1 X46.3495 Y76.9165
G1 X46.0206 Y75.8978
G1 X45.9169 Y75.4117
G1 X46.1467 Y74.8935
G1 X46.147
G1 X46.1473 Y74.8928
G1 X46.7541
G1 X47.3622 Y76.5113
G1 X47.3621 Y76.5114
G1 X47.3622 Y76.5118
G1 X46.9529 Y76.8112
G0 Z5.0
G0 X46.0211 Y77.2815
G1 Z0.0
G1 X46.5513 Y78.332
G1 X48.6536 Y80.3352
G1 X50.2461 Y81.1057
G1 X52.2154 Y81.5685
G1 X55.689 Y81.3091
G1 X57.336 Y80.6886
G1 X58.6875 Y79.7478
G1 X60.2751 Y76.7718
G1 X60.8854 Y74.3866
G1 X60.913 Y71.8593
G1 X59.8935 Y69.1813
G1 X57.7372 Y66.8323
G1 X56.2785 Y65.9735
G1 X54.59 Y65.4287
G1 X52.6903 Y65.275
G1 X52.69 Y65.2751
G1 X52.6896 Y65.275
G1 X50.5974 Y65.5894
G1 X48.7011 Y66.4022
G1 X47.2234 Y67.6579
G1 X46.1544 Y69.2465
G1 X45.4824 Y71.0581
G1 X45.287 Y74.9094
G1 X45.7423 Y76.7292
G1 X46.0211 Y77.2815
G0 Z5.0
G0 X45.7438 Y66.5998
G1 Z0.0
G1 X47.2355 Y63.0751
G1 X48.1709 Y58.3069
G1 X48.4399 Y52.1147
G1 X47.9681 Y46.1713
G1 X48.1622 Y51.4863
G1 X47.8914 Y56.9509
G1 X47.1032 Y62.1328
G1 X45.7438 Y66.5998
G0 Z5.0
G0 X48.9787 Y62.5554
G1 Z0.0
G1 X49.711 Y60.1892
G1 X50.0045 Y57.4081
G1 X49.9905 Y51.6329
G1 X49.7719 Y55.1121
G1 X49.5858 Y59.3186
G1 X48.9787 Y62.5554
G0 Z5.0
G0 X51.6092 Y45.1603
G1 Z0.0
G1 X52.4759 Y45.0651
G1 X53.2269 Y44.3509
G1 X52.2626 Y44.5998
G1 X51.6092 Y45.1603
G0 Z5.0
G0 X55.2496 Y43.3394
G1 Z0.0
G1 X58.5189 Y42.6029
G1 X62.7332 Y42.5308
G1 X72.6778 Y43.6799
G1 X77.4204 Y44.8452
G1 X80.9382 Y46.5758
G1 X83.5532 Y49.5264
G1 X84.7659 Y51.0826
G1 X86.1954 Y52.4412
G1 X82.7929 Y48.021
G1 X80.5671 Y45.8607
G1 X77.7012 Y44.3509
G1 X72.4418 Y43.3394
G1 X63.2392 Y42.1777
G1 X58.827 Y42.309
G1 X55.2496 Y43.3394
G0 Z5.0
G0 X58.8903 Y44.3509
G1 Z0.0
G1 X59.6751 Y44.5774
G1 X59.6757
G1 X59.6758
G1 X60.7106 Y44.5533
G1 X59.9571 Y44.2639
G1 X58.8903 Y44.3509
G0 Z5.0
G0 X63.1379 Y44.5533
G1 Z0.0
G1 X75.8819 Y46.3735
G1 X69.811 Y45.1623
G1 X63.1379 Y44.5533
G0 Z5.0
G0 X65.9696 Y47.7897
G1 Z0.0
G1 X69.588 Y48.4186
G1 X73.453 Y48.8007
G1 X71.8303 Y48.2994
G1 X69.942 Y48.0708
G1 X69.9365 Y48.0696
G1 X65.9696 Y47.7897
G0 Z5.0
G0 X75.4763 Y49.2052
G1 Z0.0
G1 X75.8083 Y49.7836
G1 X76.6893 Y49.8117
G1 X76.6897
G1 X76.2455 Y49.346
G1 X75.4776 Y49.2052
G1 X75.4777 Y49.2054
G1 X75.4763 Y49.2052
G0 Z5.0
G0 X77.9316 Y47.308
G1 Z0.0
G1 X78.9151 Y47.5873
G1 X78.4288 Y47.0627
G1 X77.9036 Y46.5758
G1 X77.7344 Y46.9344
G1 X77.9316 Y47.308
G0 Z5.0
G0 X82.9602 Y18.8652
G1 Z0.0
G1 X83.3789 Y18.3234
G1 X83.4009 Y18.2068
G1 X83.532 Y17.5147
G1 X83.5671 Y15.6283
G1 X83.1771 Y17.1602
G1 X82.9602 Y18.8652
G0 Z5.0
G0 X77.5249 Y16.9894
G1 Z0.0
G1 X77.9062 Y15.8847
G1 X78.1909 Y13.793
G1 X78.7127 Y9.5607
G1 X78.1409 Y11.3659
G1 X77.8701 Y13.4716
G1 X77.2965 Y17.6513
G1 X77.5249 Y16.9894
G0 Z5.0
G0 X80.303 Y6.076
G1 Z0.0
G1 X81.0258 Y6.1721
G1 X82.3528 Y5.9198
G1 X81.2655 Y5.6929
G1 X79.9258 Y5.7179
G1 X80.303 Y6.076
G0 Z5.0
G0 X81.1388 Y4.1001
G1 Z0.0
G1 X83.0363 Y4.3274
G1 X85.1845 Y4.3017
G1 X84.4525 Y3.9058
G1 X83.2885 Y3.8275
G1 X81.1388 Y4.1001
G0 Z5.0
G0 X81.3428 Y2.6834
G1 Z0.0
G1 X83.5419 Y2.9112
G1 X85.9939 Y2.8862
G1 X83.7938 Y2.6589
G1 X81.3428 Y2.6834
G0 Z5.0
G0 X59.9009 Y4.3017
G1 Z0.0
G1 X57.904 Y4.0744
G1 X55.6539 Y4.1001
G1 X57.6512 Y4.3269
G1 X59.9009 Y4.3017
G0 Z5.0
G0 X59.4984 Y2.8862
G1 Z0.0
G1 X58.7978 Y2.4734
G1 X57.7248 Y2.4345
G1 X55.4518 Y2.4816
G1 Y2.8862
G1 X59.4984
G0 Z5.0
G0 X58.4863 Y5.9198
G1 Z0.0
G1 X54.8449
G1 X56.2611 Y6.122
G1 X58.1975 Y6.1226
G1 X58.8826 Y6.0645
G1 X58.4863 Y5.9198
G0 Z5.0
G0 X86.8029 Y81.9726
G1 Z0.0
G1 X86.8042 Y81.9741
G1 X86.8029 Y81.9731
G1 X88.2541 Y83.6261
G1 X90.3597 Y85.1404
G1 X92.7604 Y86.1328
G1 X95.0965 Y86.2204
G1 X95.0933 Y86.2197
G1 X95.0965 Y86.2199
G1 X92.4424 Y85.6817
G1 X90.2327 Y84.5599
G1 X86.8029 Y81.9726
G0 Z5.0
G0 X78.4129 Y89.4891
G1 Z0.0
G1 X77.2965 Y88.243
G1 X77.2984 Y88.2457
G1 X77.2965 Y88.2435
G1 X79.836 Y91.7723
G1 X81.4475 Y93.1944
G1 X83.3646 Y94.3111
G1 X83.3627 Y94.3094
G1 X83.3646 Y94.3105
G1 X80.164 Y91.4437
G1 X78.4129 Y89.4891
G0 Z5.0
G0 X73.7872 Y93.1089
G1 Z0.0
G1 X72.0371 Y90.8724
G1 X73.4377 Y93.4163
G1 X75.6291 Y95.7132
G1 X80.7344 Y99.7723
G1 X80.4739 Y98.9381
G1 X79.582 Y98.3457
G1 X78.5586 Y97.7583
G1 X77.903 Y96.9405
G1 X74.6567 Y94.22
G1 X73.7872 Y93.1089
G0 Z5.0
G0 X66.7905 Y100.9097
G1 Z0.0
G1 X66.0516 Y100.247
G1 X63.7454 Y97.5475
G1 X65.6606 Y100.3727
G1 X68.3572 Y102.9476
G1 X71.4284 Y105.148
G1 X74.4654 Y106.852
G1 X68.6908 Y102.6141
G1 X66.7905 Y100.9097
G0 Z5.0
G0 X64.0569 Y104.1775
G1 Z0.0
G1 X62.5345 Y102.904
G1 X61.1152 Y101.1879
G1 X61.1156 Y101.1893
G1 X61.1149 Y101.1885
G1 X61.4028 Y102.2571
G1 X62.1609 Y103.1408
G1 X64.1485 Y104.6271
G1 X65.8839 Y106.0258
G1 X67.7905 Y107.0537
G1 X67.7863 Y107.0505
G1 X67.7914 Y107.0533
G1 X64.2417 Y104.3321
G1 X64.0569 Y104.1775
G0 Z5.0
G0 X83.7438 Y101.1459
G1 Z0.0
G1 X84.2892 Y101.5285
G1 X85.791 Y101.9971
G1 X85.7903 Y101.9965
G1 X85.7923 Y101.9971
G1 X84.8867 Y101.1844
G1 X83.7699 Y100.5816
G1 Y100.582
G1 X83.7692 Y100.5816
G1 X83.7438 Y101.1459
G0 Z5.0
G0 X86.1926 Y96.2609
G1 Z0.0
G1 X87.2876 Y96.8098
G1 X90.0398 Y97.5475
G1 X87.8308 Y96.5199
G1 X85.5892 Y95.5248
G1 X86.164 Y96.2466
G1 X86.1926 Y96.2609
G0 Z5.0
G0 X86.9158 Y94.9007
G1 Z0.0
G1 X89.2305 Y96.1314
G1 X91.2526
G1 X90.3899 Y98.3072
G1 X88.8405 Y99.8218
G1 X86.8786 Y100.5029
G1 X84.7799 Y100.177
G1 X81.4565 Y98.174
G1 X78.1965 Y95.3346
G1 X73.0492 Y89.4567
G1 X73.7489 Y88.3862
G1 X74.7744 Y87.6421
G1 X76.1508 Y87.2489
G1 X77.9036 Y87.232
G1 X83.0482 Y92.2004
G1 X85.9293 Y94.3762
G1 X86.9158 Y94.9007
G0 Z5.0
G0 X87.043 Y94.5234
G1 Z0.0
G1 X86.9377 Y94.4879
G1 X83.9717 Y92.4909
G1 X80.8699 Y89.5785
G1 X78.5108 Y86.4227
G1 X79.1996 Y85.0371
G1 X80.2767 Y84.0256
G1 X81.7348 Y83.5048
G1 X83.5671 Y83.591
G1 X87.5541 Y87.3907
G1 X89.8129 Y89.0256
G1 X92.4663 Y90.266
G1 X93.6762 Y90.1293
G1 X94.489 Y90.0637
G1 Y91.2776
G1 X90.4393 Y91.0978
G1 X87.2004 Y89.7166
G1 X84.6227 Y87.5484
G1 X82.5556 Y85.0071
G1 X84.3323 Y87.8319
G1 X86.8035 Y89.9627
G1 X90.0327 Y91.3346
G1 X94.0853 Y91.8835
G1 X93.3812 Y93.6852
G1 X92.4129 Y94.8318
G1 X91.2315 Y95.4042
G1 X89.8905 Y95.4838
G1 X87.043 Y94.5234
G0 Z5.0
G0 X85.5388 Y100.5705
G1 Z0.0
G1 X87.2076 Y100.9856
G1 X86.3737 Y102.3266
G1 X85.0196 Y103.3913
G1 X83.2425 Y103.9616
G1 X81.1409 Y103.8178
G1 X78.5996 Y102.5761
G1 X75.9412 Y100.4608
G1 X71.4309 Y95.9295
G1 X69.661 Y94.2705
G1 X68.6001 Y92.6931
G1 X68.9557 Y91.58
G1 X69.9107 Y90.7849
G1 X72.4427 Y90.266
G1 X78.8624 Y96.6662
G1 X82.5922 Y99.4022
G1 X84.7637 Y100.3777
G1 X85.5388 Y100.5705
G0 Z5.0
G0 X81.1401 Y104.6265
G1 Z0.0
G1 X81.3428 Y105.2335
G1 X78.4885 Y104.2956
G1 X75.9127 Y103.0782
G1 X73.6753 Y101.5229
G1 X71.8349 Y99.57
G1 X75.9642 Y102.6215
G1 X78.2977 Y103.8785
G1 X81.1401 Y104.6265
G0 Z5.0
G0 X76.2862 Y106.6497
G1 Z0.0
G1 X75.0238 Y107.274
G1 X73.3548 Y107.4735
G1 X70.015 Y107.0537
G1 X64.7463 Y103.3221
G1 X62.5038 Y101.0637
G1 X60.913 Y98.1544
G1 X62.3255 Y97.1389
G1 X64.5544 Y96.9405
G1 X69.8007 Y102.4138
G1 X72.8269 Y104.7483
G1 X76.2862 Y106.6497
G0 Z5.0
G0 X69.206 Y107.4584
G1 Z0.0
G1 X65.5594 Y106.8579
G1 X62.8218 Y105.3483
G1 X60.6472 Y103.2756
G1 X58.6891 Y100.9856
G1 X60.0192 Y100.4479
G1 X61.5199 Y100.5816
G1 X63.1528 Y102.5895
G1 X65.1202 Y104.2625
G1 X69.206 Y107.4584
G0 Z5.0
G0 X62.7332 Y106.0427
G1 Z0.0
G1 X61.1419 Y105.7634
G1 X59.8845 Y105.1498
G1 X57.8788 Y103.4133
G1 X59.3537 Y103.222
G1 X60.5991 Y103.9486
G1 X62.7332 Y106.0427
G0 Z5.0
G0 X58.0816 Y105.8404
G1 Z0.0
G1 X54.4502 Y105.7278
G1 X51.4477 Y104.8565
G1 X49.0141 Y103.3181
G1 X47.0911 Y101.2051
G1 X45.619 Y98.6095
G1 X44.5383 Y95.6236
G1 X43.3156 Y88.8494
G1 X44.7842 Y91.4263
G1 X45.66 Y94.5966
G1 X46.4762 Y97.8258
G1 X47.7669 Y100.5816
G1 X49.6986 Y102.5425
G1 X52.1598 Y103.9742
G1 X58.0816 Y105.8404
G0 Z5.0
G0 X53.0241 Y106.0422
G1 Z0.0
G1 X49.1883 Y105.3091
G1 X45.364 Y103.3721
G1 X42.0326 Y100.4949
G1 X39.6752 Y96.9405
G1 X38.7807 Y93.3767
G1 X38.8745 Y89.5814
G1 X39.3767 Y88.1238
G1 X40.2279 Y87.241
G1 X41.4621 Y87.1429
G1 X43.1134 Y88.0412
G1 X43.7594 Y94.0537
G1 X45.5675 Y99.2911
G1 X46.9345 Y101.5099
G1 X48.6259 Y103.4038
G1 X50.652 Y104.929
G1 X53.0241 Y106.0422
G0 Z5.0
G0 X37.6521 Y98.559
G1 Z0.0
G1 X36.0347 Y99.9746
G1 X36.6236 Y98.7948
G1 X37.1136 Y98.4593
G1 X37.6521 Y98.559
G0 Z5.0
G0 X38.5732 Y96.025
G1 Z0.0
G1 X37.309 Y95.5655
G1 X36.1499 Y94.4928
G1 X35.3465 Y93.0211
G1 X34.8583 Y91.2555
G1 X34.6602 Y87.2701
G1 X35.2238 Y83.3886
G1 X35.6922 Y85.2365
G1 X35.6136 Y87.1648
G1 X35.3912 Y89.1268
G1 X35.4273 Y91.0752
G1 X35.9875 Y92.6566
G1 X36.913 Y93.8239
G1 X38.8658 Y96.1314
G1 X38.5732 Y96.025
G0 Z5.0
G0 X35.4273 Y94.5133
G1 Z0.0
G1 X32.616 Y92.2279
G1 X31.2505 Y90.4743
G1 X30.371 Y88.243
G1 X30.3269 Y85.2059
G1 X31.1977 Y82.4568
G1 X31.8933 Y81.5304
G1 X32.717 Y81.0842
G1 X33.6365 Y81.2535
G1 X34.6179 Y82.1748
G1 X34.3785 Y88.95
G1 X34.7012 Y91.9785
G1 X35.4273 Y94.5133
G0 Z5.0
G0 X34.8198 Y95.1203
G1 Z0.0
G1 X33.9164 Y95.2446
G1 X32.9996 Y94.9175
G1 X34.8198 Y95.1203
G0 Z5.0
G0 X25.3134
G1 Z0.0
G1 X24.096 Y94.7197
G1 X23.291 Y93.9065
G1 X24.4501 Y94.3652
G1 X25.3134 Y95.1203
G0 Z5.0
G0 X24.1727 Y100.8123
G1 Z0.0
G1 X25.1116 Y101.3903
G1 X23.2258 Y103.3566
G1 X20.9624 Y105.0942
G1 X18.296 Y106.1935
G1 X15.2003 Y106.245
G1 X17.1633 Y104.8705
G1 X19.309 Y103.6787
G1 X21.3221 Y102.3542
G1 X22.887 Y100.5816
G1 X24.1727 Y100.8123
G0 Z5.0
G0 X17.2232 Y96.5365
G1 Z0.0
G1 X15.5974 Y98.3997
G1 X13.6549 Y99.9466
G1 X9.1321 Y102.4022
G1 Y101.5931
G1 X13.4775 Y99.3658
G1 X17.2232 Y96.5365
G0 Z5.0
G0 X16.6107 Y95.9403
G1 Z0.0
G1 X14.3996 Y98.2124
G1 X12.8884 Y99.0968
G1 X11.3576 Y99.57
G1 X14.0406 Y97.6011
G1 X15.3204 Y96.555
G1 X16.8186 Y95.7267
G1 X16.6107 Y95.9403
G0 Z5.0
G0 X18.1107 Y94.2039
G1 Z0.0
G1 X17.4748 Y93.6546
G1 X16.8186 Y92.8955
G1 X17.9217 Y93.4599
G1 X18.2863 Y93.871
G1 X18.2348 Y94.3111
G1 X18.1107 Y94.2039
G0 Z5.0
G0 X16.0096 Y92.0863
G1 Z0.0
G1 X14.0164 Y90.6401
G1 X12.3676 Y88.8494
G1 X14.3925 Y90.2645
G1 X16.0096 Y92.0863
G0 Z5.0
G0 X14.9438 Y92.8162
G1 Z0.0
G1 X14.9981 Y92.8955
G1 X10.1157 Y97.1147
G1 X7.3349 Y98.8854
G1 X4.0749 Y100.177
G1 X3.1523 Y99.1789
G1 X2.6706 Y98.6998
G1 X2.4575 Y97.9516
G1 X5.5753 Y96.6702
G1 X8.3725 Y95.0683
G1 X10.8418 Y93.1378
G1 X12.9754 Y90.8724
G1 X14.1757 Y91.6946
G1 X14.9438 Y92.8162
G0 Z5.0
G0 X10.3086 Y88.9236
G1 Z0.0
G1 X9.2284 Y90.2099
G1 X6.5392 Y92.628
G1 X3.4777 Y94.6736
G1 X0.0305 Y96.3337
G1 X-0.9556 Y95.196
G1 X-1.7904 Y93.9065
G1 X4.697 Y89.9766
G1 X7.5303 Y87.6014
G1 X9.9415 Y84.8043
G1 X11.5598 Y87.4337
G1 X10.3086 Y88.9236
G0 Z5.0
G0 X7.9188 Y78.5344
G1 Z0.0
G1 X7.5334 Y77.8073
G1 X7.3113 Y76.9159
G1 X7.9561 Y77.635
G1 X7.9188 Y78.5344
G0 Z5.0
G0 X-3.0913 Y73.2131
G1 Z0.0
G1 X-3.6106 Y74.2876
G1 X-6.4077 Y75.613
G1 X-10.0832 Y76.7141
G1 X-21.1219 Y79.5965
G1 X-26.8224 Y80.597
G1 X-32.5349 Y81.1644
G1 X-42.6487 Y80.9616
G1 X-45.3398 Y80.669
G1 X-47.3002 Y79.7498
G1 X-48.2827 Y78.5954
G1 X-49.1454 Y76.9555
G1 X-50.4063 Y72.7802
G1 X-50.8735 Y68.3476
G1 X-50.3343 Y64.7817
G1 X-48.6696 Y62.8598
G1 X-46.2892 Y61.1408
G1 X-41.1725 Y57.8783
G1 X-35.2676 Y55.5017
G1 X-28.3001 Y54.2258
G1 X-19.9941 Y54.2633
G1 X-12.3031 Y55.691
G1 X-8.3861 Y56.9204
G1 X-5.8353 Y58.3085
G1 X-4.7833 Y59.8833
G1 X-3.8084 Y62.2664
G1 X-2.5991 Y67.2084
G1 X-2.5944 Y70.9886
G1 X-2.9426 Y72.9054
G1 X-3.0913 Y73.2131
G0 Z5.0
G0 X-18.0327 Y88.1017
G1 Z0.0
G1 X-16.1067 Y90.4232
G1 X-14.5334 Y93.0973
G1 X-14.9381 Y93.3001
G1 X-17.4848 Y89.2159
G1 X-19.1433 Y87.5024
G1 X-21.0062 Y86.2204
G1 X-22.4233 Y85.8199
G1 X-23.0522 Y85.5484
G1 X-23.4328 Y85.0071
G1 X-20.4338 Y86.2554
G1 X-18.0327 Y88.1017
G0 Z5.0
G0 X-19.4016 Y89.4363
G1 Z0.0
G1 X-19.1849 Y89.6586
G1 X-23.0281 Y87.232
G1 X-21.922 Y87.3801
G1 X-20.8559 Y87.9446
G1 X-19.4016 Y89.4363
G0 Z5.0
G0 X-20.7398 Y91.1255
G1 Z0.0
G1 X-19.3287 Y92.2434
G1 X-18.0658 Y93.898
G1 X-17.2616 Y95.7587
G1 X-17.1628 Y97.5475
G1 X-17.6746 Y95.5309
G1 X-18.5589 Y93.887
G1 X-20.8039 Y91.0748
G1 X-20.7398 Y91.1255
G0 Z5.0
G0 X-21.8143 Y90.4678
G1 Z0.0
G1 X-22.5464 Y90.2895
G1 X-23.0281 Y89.8614
G1 X-22.3281 Y89.8429
G1 X-21.8143 Y90.4678
G0 Z5.0
G0 X-17.5675 Y91.6816
G1 Z0.0
G1 X-16.2445 Y93.0487
G1 X-15.1913 Y95.0528
G1 X-14.5679 Y97.2419
G1 X-14.5334 Y99.1654
G1 X-15.6435 Y95.0166
G1 X-17.5675 Y91.6816
G0 Z5.0
G0 X-13.5214 Y95.7271
G1 Z0.0
G1 X-12.1058 Y99.3282
G1 X-11.8543 Y101.4193
G1 X-12.1058 Y103.4133
G1 X-12.5554 Y99.3115
G1 X-13.5214 Y95.7271
G0 Z5.0
G0 X-3.8122 Y104.8289
G1 Z0.0
G1 X-2.9997 Y105.7021
G1 X-2.705 Y106.0909
G1 X-3.0031 Y106.4474
G1 X-3.7009 Y105.6797
G1 X-3.9829 Y105.2887
G1 X-3.8122 Y104.8289
G0 Z5.0
G0 X0.8389 Y111.0993
G1 Z0.0
G1 X1.5777 Y111.2705
G1 X1.8507 Y111.9086
G1 X1.1913 Y111.6577
G1 X0.8389 Y111.0993
G0 Z5.0
G0 X0.8095 Y113.6698
G1 Z0.0
G1 X1.5497 Y113.6782
G1 X3.5488 Y114.0483
G1 X5.2892 Y114.7403
G1 X4.2131 Y116.2075
G1 X2.2544 Y117.0643
G1 X-0.0071 Y117.3663
G1 X-1.9925 Y117.168
G1 X0.628 Y116.8549
G1 X2.6603 Y115.9542
G1 X-1.2102 Y116.8104
G1 X-5.569 Y117.0317
G1 X-9.4032 Y116.3102
G1 X-10.8073 Y115.4989
G1 X-11.7011 Y114.3356
G1 X-2.9248 Y113.6271
G1 X0.8095 Y113.6698
G0 Z5.0
G0 X5.6936 Y114.3352
G1 Z0.0
G1 X6.3234 Y114.5144
G1 X6.7041 Y114.9426
G1 X5.8964 Y115.1448
G1 X5.6936 Y114.3352
G0 Z5.0
G0 X8.7284 Y107.6607
G1 Z0.0
G1 X11.1371 Y107.2892
G1 X13.38 Y107.256
G1 X11.1207 Y107.7773
G1 X9.9082 Y107.898
G1 X8.7284 Y107.6607
G0 Z5.0
G0 X-27.4779 Y107.0537
G1 Z0.0
G1 X-29.0517 Y106.7057
G1 X-30.3096 Y106.0427
G1 X-28.7322 Y106.3868
G1 X-27.9836 Y106.5986
G1 X-27.4779 Y107.0537
G0 Z5.0
G0 X-28.0853 Y105.8404
G1 Z0.0
G1 X-31.547 Y105.3056
G1 X-34.5579 Y103.8178
G1 X-31.0292 Y104.5364
G1 X-29.3096 Y104.9411
G1 X-28.0853 Y105.8404
G0 Z5.0
G0 X-30.5119 Y104.222
G1 Z0.0
G1 X-33.7958 Y103.4608
G1 X-35.2381 Y102.8799
G1 X-36.3777 Y101.9971
G1 X-34.9691 Y102.6111
G1 X-33.3216 Y102.9862
G1 X-31.7358 Y103.4227
G1 X-30.5119 Y104.222
G0 Z5.0
G0 X-33.9506 Y99.7727
G1 Z0.0
G1 X-36.4043 Y99.3556
G1 X-38.9071 Y98.4578
G1 X-41.0552 Y97.2059
G1 X-42.4464 Y95.7271
G1 X-39.0077 Y97.548
G1 X-36.1179 Y98.2987
G1 X-34.8023 Y98.8033
G1 X-33.9506 Y99.7727
G0 Z5.0
G0 X-38.8815 Y101.3588
G1 Z0.0
G1 X-38.8069 Y102.6041
G1 X-40.3021 Y102.1779
G1 X-41.0318 Y100.9856
G1 X-41.1559 Y101.4684
G1 X-41.6382 Y101.5926
G1 X-49.6568 Y97.7348
G1 X-54.1029 Y95.6186
G1 X-58.4263 Y93.9065
G1 X-60.4889 Y93.4277
G1 X-62.7039 Y93.3036
G1 X-64.7523 Y93.6325
G1 X-66.3148 Y94.5133
G1 X-67.0994 Y95.5875
G1 X-67.3808 Y96.6988
G1 X-66.8059 Y98.891
G1 X-65.3283 Y100.8164
G1 X-63.6852 Y102.1995
G1 X-59.0353 Y104.6546
G1 X-53.6172 Y106.7553
G1 X-48.2771 Y108.8535
G1 X-43.863 Y111.3012
G1 X-46.1375 Y113.8119
G1 X-47.533 Y114.7233
G1 X-49.526 Y114.7399
G1 X-48.7389 Y113.599
G1 X-47.6822 Y112.5891
G1 X-46.7382 Y111.5926
G1 X-46.2901 Y110.492
G1 X-49.9305 Y114.5375
G1 X-53.0458 Y113.4047
G1 X-55.7964 Y111.908
G1 X-55.166 Y111.5276
G1 X-54.7854 Y110.8965
G1 X-55.6688 Y111.4374
G1 X-56.6056 Y111.5035
G1 X-60.449 Y109.0763
G1 X-65.532 Y104.5511
G1 X-68.3213 Y102.6325
G1 X-71.3714 Y101.7943
G1 X-72.9271 Y101.9575
G1 X-74.0449 Y102.4885
G1 X-74.768 Y103.3061
G1 X-75.14 Y104.3301
G1 X-75.0082 Y106.6737
G1 X-74.0008 Y108.8739
G1 X-70.9768 Y111.9586
G1 X-67.528 Y114.7393
G1 X-63.441 Y117.536
G1 X-59.4369 Y120.2005
G1 X-62.3683 Y120.8089
G1 X-63.7595 Y121.1875
G1 X-64.8981 Y121.819
G1 X-62.7133 Y121.4238
G1 X-60.6763 Y120.6822
G1 X-58.7774 Y120.2557
G1 X-57.0098 Y120.8075
G1 X-60.4063 Y122.1641
G1 X-64.2918 Y123.0322
G1 X-66.1054 Y121.8125
G1 X-68.173 Y120.8465
G1 X-70.6262 Y120.2656
G1 X-73.5956 Y120.201
G1 X-75.9022 Y118.7539
G1 X-77.3197 Y118.5019
G1 X-78.8545 Y118.7855
G1 X-81.6727 Y117.0524
G1 X-83.4549 Y116.559
G1 X-85.732 Y116.5601
G1 X-87.8867 Y114.872
G1 X-89.3073 Y114.3712
G1 X-91.1931 Y114.3352
G1 X-92.9739 Y112.9816
G1 X-94.1094 Y112.549
G1 X-95.6428 Y112.515
G1 X-97.2468 Y110.9421
G1 X-98.2884 Y110.4675
G1 X-99.4861 Y110.492
G1 X-102.2563 Y104.899
G1 X-104.5422 Y98.3563
G1 X-103.2347 Y103.6222
G1 X-101.1055 Y108.0652
G1 X-103.06 Y105.7724
G1 X-104.3635 Y102.8279
G1 X-105.2001 Y99.4178
G1 X-105.757 Y95.7267
G1 X-103.6574 Y96.5851
G1 X-101.6819 Y97.7724
G1 X-97.8711 Y100.5931
G1 X-93.8566 Y103.1043
G1 X-91.6273 Y103.9051
G1 X-89.1712 Y104.222
G1 X-86.0489 Y103.5585
G1 X-83.3543 Y101.6732
G1 X-81.3428 Y98.8374
G1 X-80.2712 Y95.322
G1 X-80.3078 Y90.8463
G1 X-81.4119 Y87.1323
G1 X-83.0083 Y83.6707
G1 X-84.5191 Y79.9501
G1 X-85.6388 Y75.2093
G1 X-86.1957 Y70.0626
G1 X-86.2182 Y64.8028
G1 X-85.7329 Y59.7231
G1 X-85.0284 Y57.4317
G1 X-83.7941 Y55.4202
G1 X-80.6759 Y52.4412
G1 X-77.7084 Y50.7555
G1 X-74.2031 Y49.8117
G1 X-72.7409 Y56.1873
G1 X-71.7765 Y62.9594
G1 X-70.1495 Y69.4622
G1 X-67.9331 Y75.5003
G1 X-65.9277 Y79.7151
G1 X-63.466 Y83.4688
G1 X-60.5902 Y86.8048
G1 X-57.3407 Y89.7678
G1 X-53.7599 Y92.4007
G1 X-49.8875 Y94.7478
G1 X-41.4363 Y98.7608
G1 X-40.6837 Y99.6962
G1 X-39.6697 Y100.4759
G1 X-38.8815 Y101.3588
G0 Z5.0
G0 X-39.7068 Y103.1048
G1 Z0.0
G1 X-38.1985 Y103.8178
G1 X-37.7763 Y106.2701
G1 X-38.1985 Y108.8751
G1 X-40.4344 Y110.4123
G1 X-41.9011 Y110.8454
G1 X-43.4574 Y110.6952
G1 X-49.3232 Y108.0657
G1 X-58.7238 Y104.0678
G1 X-63.1535 Y101.8049
G1 X-66.1115 Y99.3682
G1 X-66.7949 Y98.1228
G1 X-66.9502 Y96.9867
G1 X-66.6497 Y95.9856
G1 X-65.9662 Y95.1453
G1 X-63.7399 Y94.0503
G1 X-60.8526 Y93.907
G1 X-58.0348 Y94.5885
G1 X-55.1469 Y95.7431
G1 X-49.3232 Y98.559
G1 X-39.7068 Y103.1048
G0 Z5.0
G0 X-46.0868 Y115.1448
G1 Z0.0
G1 X-47.1019 Y118.0573
G1 X-49.1038 Y120.0162
G1 X-52.0748 Y120.9045
G1 X-55.9977 Y120.6072
G1 X-59.7553 Y119.2476
G1 X-63.5851 Y117.0218
G1 X-70.1564 Y111.9095
G1 X-73.5952 Y108.6727
G1 X-74.468 Y106.6492
G1 X-74.809 Y104.8293
G1 X-74.116 Y103.3422
G1 X-72.7259 Y102.6235
G1 X-70.9617 Y102.5024
G1 X-69.146 Y102.8069
G1 X-63.9742 Y106.7046
G1 X-58.7598 Y110.8429
G1 X-55.9716 Y112.6357
G1 X-52.9742 Y114.0483
G1 X-49.7013 Y114.9336
G1 X-46.0868 Y115.1448
G0 Z5.0
G0 X-65.3022 Y123.0327
G1 Z0.0
G1 X-67.9723 Y124.1464
G1 X-71.3703 Y124.2466
G1 X-72.6278 Y122.8746
G1 X-73.0858 Y122.0178
G1 X-73.1905 Y120.808
G1 X-70.8496 Y120.6768
G1 X-68.7765 Y121.199
G1 X-65.3022 Y123.0327
G0 Z5.0
G0 X-68.1339 Y125.0559
G1 Z0.0
G1 X-69.9131 Y125.9868
G1 X-71.8605 Y126.4098
G1 X-73.8225 Y126.3413
G1 X-75.6442 Y125.7979
G1 X-77.1721 Y124.7948
G1 X-78.2517 Y123.3482
G1 X-78.7289 Y121.4749
G1 X-78.4494 Y119.19
G1 X-75.8801 Y119.4519
G1 X-73.9998 Y120.4033
G1 X-73.4414 Y122.4749
G1 X-72.2777 Y123.9406
G1 X-70.5085 Y124.8009
G1 X-68.1339 Y125.0559
G0 Z5.0
G0 X-74.2022 Y127.2806
G1 Z0.0
G1 X-76.793 Y127.8291
G1 X-79.18 Y127.7268
G1 X-81.2903 Y127.0408
G1 X-83.0504 Y125.8365
G1 X-84.3869 Y124.181
G1 X-85.2272 Y122.14
G1 X-85.4975 Y119.7799
G1 X-85.125 Y117.1674
G1 X-82.5571 Y117.3301
G1 X-80.6748 Y118.1789
G1 X-80.8751 Y121.3562
G1 X-80.0929 Y124.0714
G1 X-78.6412 Y126.1153
G1 X-76.8316 Y127.2806
G1 X-78.433 Y125.7739
G1 X-79.7524 Y123.892
G1 X-80.5217 Y121.5811
G1 X-80.4726 Y118.7859
G1 X-79.5381 Y119.216
G1 X-79.1967 Y120.2401
G1 X-79.0569 Y122.831
G1 X-78.2261 Y124.3266
G1 X-77.11 Y125.5364
G1 X-74.2022 Y127.2806
G0 Z5.0
G0 X-81.6863 Y127.6852
G1 Z0.0
G1 X-82.2237 Y127.7548
G1 X-82.6973 Y127.8885
G1 X-84.7534 Y125.8846
G1 X-86.3373 Y123.2897
G1 X-87.2137 Y120.1118
G1 X-87.1471 Y116.3593
G1 X-86.1295 Y117.3742
G1 X-85.8295 Y118.8705
G1 X-85.7314 Y122.2246
G1 X-85.1175 Y124.0934
G1 X-84.17 Y125.5216
G1 X-81.6863 Y127.6852
G0 Z5.0
G0 X-83.9112 Y127.4834
G1 Z0.0
G1 X-85.9398 Y127.0348
G1 X-87.6348 Y126.189
G1 X-88.9988 Y124.9823
G1 X-90.0368 Y123.4479
G1 X-91.146 Y119.5385
G1 X-90.9903 Y114.7403
G1 X-89.9097 Y114.7217
G1 X-89.112 Y114.9862
G1 X-87.5517 Y115.5495
G1 X-87.5671 Y119.4589
G1 X-86.8876 Y122.6728
G1 X-85.6303 Y125.3087
G1 X-83.9112 Y127.4834
G0 Z5.0
G0 X-95.8446 Y122.0218
G1 Z0.0
G1 X-97.414 Y119.8386
G1 X-98.5376 Y117.2596
G1 X-99.0735 Y114.2812
G1 X-98.8788 Y110.8971
G1 X-97.8052 Y111.2395
G1 X-97.0584 Y111.9086
G1 X-97.3303 Y114.7833
G1 X-97.0008 Y117.5255
G1 X-95.8446 Y122.0218
G0 Z5.0
G0 X-95.6428 Y121.0107
G1 Z0.0
G1 X-96.9168 Y116.7769
G1 X-97.0239 Y114.4304
G1 X-96.2492 Y112.5155
G1 X-95.6428 Y121.0107
G0 Z5.0
G0 X-99.2833 Y117.9767
G1 Z0.0
G1 X-100.0755 Y114.4198
G1 X-100.6995 Y110.6952
G1 X-100.5943 Y113.9276
G1 X-99.8903 Y116.5606
G1 X-100.9387 Y115.1158
G1 X-101.5277 Y113.2415
G1 X-101.7105 Y108.8744
G1 X-100.7681 Y109.3678
G1 X-100.121 Y110.2244
G1 X-99.4871 Y112.6687
G1 X-99.2833 Y117.9767
G0 Z5.0
G0 X-102.5197 Y110.8971
G1 Z0.0
G1 X-103.036 Y109.1384
G1 X-103.1436 Y108.1658
G1 X-102.9243 Y107.256
G1 X-102.2318 Y108.8865
G1 X-102.5197 Y110.8971
G0 Z5.0
G0 X-93.6198 Y99.1659
G1 Z0.0
G1 X-93.6458 Y98.3311
G1 X-93.5697 Y98.0027
G1 X-93.2152 Y97.952
G1 X-92.5577 Y98.7103
G1 X-92.2041 Y99.7727
G1 X-92.8992 Y99.4563
G1 X-93.6198 Y99.1659
G0 Z5.0
G0 X-91.8892 Y99.1559
G1 Z0.0
G1 X-91.799 Y98.3567
G1 X-91.0339 Y98.6025
G1 X-90.5271 Y99.1073
G1 X-89.7764 Y100.3793
G1 X-90.7956 Y100.3192
G1 X-91.5271 Y99.8605
G1 X-91.8892 Y99.1559
G0 Z5.0
G0 X-91.9023 Y97.745
G1 Z0.0
G1 X-92.406 Y97.7497
G1 X-94.5386 Y96.5735
G1 X-95.7595 Y94.4924
G1 X-95.9107 Y92.0676
G1 X-94.8337 Y89.8614
G1 X-93.6858 Y88.9692
G1 X-92.465 Y88.6231
G1 X-91.2412 Y88.7461
G1 X-90.0855 Y89.2615
G1 X-88.2592 Y91.1608
G1 X-87.5517 Y93.7046
G1 X-87.9317 Y95.5104
G1 X-88.9407 Y96.919
G1 X-90.4686 Y97.7317
G1 X-91.9023 Y97.745
G0 Z5.0
G0 X-90.3834 Y98.3567
G1 Z0.0
G1 X-89.4921 Y98.1254
G1 X-88.6137 Y98.4573
G1 X-87.1471 Y99.7727
G1 X-88.1246 Y100.3111
G1 X-89.0409 Y100.0041
G1 X-90.3834 Y98.3567
G0 Z5.0
G0 X-88.9673 Y97.3448
G1 Z0.0
G1 X-88.3609 Y96.7382
G1 X-86.5391 Y97.2426
G1 X-84.9222 Y97.9516
G1 X-85.3268 Y98.5584
G1 X-85.7314 Y99.1654
G1 X-87.6659 Y98.5715
G1 X-88.9673 Y97.3448
G0 Z5.0
G0 X-87.5517 Y96.3337
G1 Z0.0
G1 X-87.3499 Y95.1198
G1 X-85.6908 Y95.1373
G1 X-83.7083 Y95.322
G1 X-84.0284 Y96.7888
G1 X-85.0003 Y97.1479
G1 X-87.5517 Y96.3337
G0 Z5.0
G0 X-87.1024 Y94.3216
G1 Z0.0
G1 X-87.1471 Y94.3116
G1 Y93.0978
G1 X-83.3038 Y92.6931
G1 X-83.2627 Y93.5139
G1 X-83.3038 Y94.7156
G1 X-85.4115 Y94.6992
G1 X-87.1024 Y94.3216
G0 Z5.0
G0 X-86.8609 Y92.3614
G1 Z0.0
G1 X-87.1836 Y92.3217
G1 X-87.5517 Y91.0748
G1 X-85.7565 Y90.3417
G1 X-83.9112 Y89.6586
G1 X-83.3038 Y91.8835
G1 X-86.0214 Y92.4648
G1 X-86.8609 Y92.3614
G0 Z5.0
G0 X-87.0752 Y90.3663
G1 Z0.0
G1 X-88.0494 Y90.4709
G1 X-88.5637 Y89.2539
G1 X-87.1455 Y88.2449
G1 X-86.482 Y87.6946
G1 X-85.5297 Y87.4337
G1 X-84.8245 Y88.1449
G1 X-84.5182 Y89.2539
G1 X-87.0039 Y90.3586
G1 X-87.0752 Y90.3663
G0 Z5.0
G0 X-88.1982 Y88.437
G1 Z0.0
G1 X-88.9857 Y88.8954
G1 X-90.1811 Y88.8499
G1 X-89.2963 Y87.2064
G1 X-88.1586 Y85.8159
G1 X-86.9893 Y86.1643
G1 X-86.3379 Y87.0297
G1 X-88.0704 Y88.3626
G1 X-88.1982 Y88.437
G0 Z5.0
G0 X-89.9685 Y87.2365
G1 Z0.0
G1 X-90.7886 Y88.4459
G1 X-92.0018 Y88.243
G1 X-91.4249 Y86.7974
G1 X-90.7886 Y85.4116
G1 X-88.9677
G1 X-89.2673 Y86.3261
G1 X-89.8075 Y86.9991
G1 X-89.9685 Y87.2365
G0 Z5.0
G0 X-92.0402 Y86.8243
G1 Z0.0
G1 X-92.1015 Y87.1323
G1 X-92.6088 Y88.4459
G1 X-93.6198
G1 X-93.418 Y86.221
G1 X-91.7995 Y85.6144
G1 X-92.0402 Y86.8243
G0 Z5.0
G0 X-94.0243 Y87.0297
G1 Z0.0
G1 X-94.2141 Y88.5595
G1 X-95.0354 Y89.4567
G1 X-95.3174 Y88.7241
G1 X-95.1486 Y88.0371
G1 X-94.0243 Y87.0297
G0 Z5.0
G0 X-95.6428 Y89.4567
G1 Z0.0
G1 X-95.6723 Y90.5394
G1 X-95.8401 Y90.928
G1 X-96.2492 Y91.0752
G1 X-96.1651 Y90.0467
G1 X-95.6428 Y89.4567
G0 Z5.0
G0 X-95.0358 Y96.5359
G1 Z0.0
G1 X-94.6829 Y97.0387
G1 X-94.5987 Y97.3186
G1 X-94.8337 Y97.5475
G1 X-95.2949 Y96.977
G1 X-95.3743 Y96.7407
G1 X-95.0358 Y96.5359
G0 Z5.0
G0 X-90.5858 Y63.3641
G1 Z0.0
G1 X-92.2041 Y53.0486
G1 X-88.5642 Y50.8021
G1 X-84.138 Y49.2189
G1 X-79.2948 Y48.3875
G1 X-74.4049 Y48.396
G1 Y49.003
G1 X-77.4775 Y50.0771
G1 X-80.2032 Y51.4978
G1 X-82.5582 Y53.2894
G1 X-84.5182 Y55.4758
G1 X-86.6193 Y59.2404
G1 X-87.76 Y61.0326
G1 X-89.1701 Y62.5554
G1 X-89.7465 Y58.9855
G1 X-90.5858 Y55.6779
G1 X-89.372 Y62.7571
G1 X-89.9128 Y63.1272
G1 X-90.5858 Y63.3641
G0 Z5.0
G0 X-92.406 Y52.4416
G1 Z0.0
G1 X-93.6198 Y44.1486
G1 X-93.9498 Y42.3851
G1 X-93.777 Y41.6504
G1 X-93.0129 Y41.1147
G1 X-91.1926 Y51.6329
G1 X-91.8602 Y51.977
G1 X-92.406 Y52.4416
G0 Z5.0
G0 X-94.2271 Y41.1136
G1 Z0.0
G1 X-95.4545 Y32.6329
G1 X-96.2051 Y28.5286
G1 X-97.2612 Y24.73
G1 X-90.6934 Y22.3464
G1 X-87.2758 Y21.359
G1 X-83.3043 Y20.685
G1 X-82.2156 Y28.5968
G1 X-80.6748 Y36.0575
G1 X-83.1024 Y20.2802
G1 X-80.3248 Y19.7205
G1 X-77.6407 Y19.0666
G1 X-78.2808 Y20.6122
G1 X-78.4861 Y22.1776
G1 X-77.8786 Y25.2103
G1 X-76.394 Y27.8507
G1 X-74.6066 Y29.7866
G1 X-72.5677 Y31.1321
G1 X-71.7394 Y31.9248
G1 X-71.3703 Y33.0235
G1 X-71.8526 Y33.05
G1 X-71.9622 Y32.705
G1 X-72.1796 Y32.012
G1 X-71.9548 Y33.4716
G1 X-72.1506 Y34.5888
G1 X-73.1911 Y36.2598
G1 X-75.2137 Y35.8552
G1 X-75.5927 Y32.5933
G1 X-76.2247 Y29.5847
G1 X-75.9132 Y32.9138
G1 X-75.4154 Y36.0575
G1 X-76.9342 Y36.1486
G1 X-77.5797 Y35.8047
G1 X-78.0449 Y35.046
G1 X-77.9648 Y35.7801
G1 X-78.0449 Y36.2598
G1 X-86.073 Y37.5362
G1 X-89.6063 Y38.6554
G1 X-92.8105 Y40.1031
G1 X-93.0264 Y37.8919
G1 X-93.1922 Y36.8442
G1 X-93.6198 Y36.0582
G1 X-93.3239 Y38.3911
G1 X-93.0133 Y40.709
G1 X-93.6644 Y40.8672
G1 X-94.2271 Y41.1136
G0 Z5.0
G0 X-95.4401 Y39.6986
G1 Z0.0
G1 X-97.1867 Y40.2363
G1 X-98.7145 Y39.9338
G1 X-100.0285 Y38.9614
G1 X-101.1325 Y37.4882
G1 X-102.7274 Y33.7205
G1 X-103.5307 Y29.9898
G1 X-100.5727 Y29.3065
G1 X-98.0694 Y28.1692
G1 X-103.5307 Y29.7871
G1 X-103.4096 Y28.8361
G1 X-102.7265 Y28.36
G1 X-100.9012 Y27.9669
G1 X-99.1471 Y27.4086
G1 X-97.8671 Y26.5513
G1 X-103.5307 Y28.3716
G1 Y26.9558
G1 X-100.7269 Y25.9163
G1 X-97.6654 Y25.1351
G1 X-96.8592 Y28.6333
G1 X-96.3523 Y32.4306
G1 X-95.4401 Y39.6986
G0 Z5.0
G0 X-80.2703 Y38.8898
G1 Z0.0
G1 X-79.9106 Y40.1983
G1 X-80.0679 Y41.5193
G1 X-80.2703 Y38.8898
G0 Z5.0
G0 X-73.1911 Y46.1713
G1 Z0.0
G1 X-72.6066 Y48.7186
G1 X-72.7864 Y51.0256
G1 X-73.1911 Y46.1713
G0 Z5.0
G0 X-72.3818 Y51.4301
G1 Z0.0
G1 X-72.2001 Y52.6119
G1 X-72.3818 Y53.655
G1 X-72.5641 Y52.4737
G1 X-72.3818 Y51.4301
G0 Z5.0
G0 X-69.9557 Y60.3296
G1 Z0.0
G1 X-68.3763 Y61.6279
G1 X-66.1951 Y62.3976
G1 X-63.8205 Y62.4367
G1 X-61.6622 Y61.5428
G1 X-59.8285 Y58.6886
G1 X-58.4465 Y55.6701
G1 X-57.1044 Y52.5032
G1 X-55.3918 Y49.2047
G1 X-51.9532 Y44.5524
G1 X-48.7168 Y39.4958
G1 X-45.8845 Y34.8913
G1 X-43.513 Y29.6139
G1 X-42.8369 Y26.8181
G1 X-42.6812 Y23.9679
G1 X-43.18 Y21.102
G1 X-44.469 Y18.2579
G1 X-45.3853 Y17.7585
G1 X-46.0868 Y17.0445
G1 X-48.8389 Y16.4084
G1 X-50.2035 Y16.1365
G1 X-50.9416 Y15.6283
G1 X-48.2525 Y15.5297
G1 X-46.0587 Y16.2273
G1 X-44.3481 Y17.5898
G1 X-43.1099 Y19.4861
G1 X-42.3321 Y21.7855
G1 X-42.0037 Y24.3559
G1 X-42.1133 Y27.067
G1 X-42.6497 Y29.7866
G1 X-43.6596 Y32.4686
G1 X-45.1568 Y35.2999
G1 X-49.0728 Y41.2548
G1 X-53.3167 Y47.3415
G1 X-56.808 Y53.2498
G1 X-58.5996 Y57.5749
G1 X-60.6512 Y61.3405
G1 X-61.7228 Y62.2894
G1 X-63.0158 Y62.9288
G1 X-65.877 Y63.2835
G1 X-68.451 Y62.4136
G1 X-69.3858 Y61.5228
G1 X-69.9557 Y60.3296
G0 Z5.0
G0 X-70.5611 Y60.9369
G1 Z0.0
G1 X-70.3612 Y61.9995
G1 X-70.5611 Y62.96
G1 X-70.7855 Y61.9214
G1 X-70.5611 Y60.9369
G0 Z5.0
G0 X-61.4594 Y80.5569
G1 Z0.0
G1 X-60.5445 Y81.3616
G1 X-59.8411 Y82.3776
G1 X-60.9192 Y81.7357
G1 X-61.4594 Y80.5569
G0 Z5.0
G0 X-26.6691 Y84.6025
G1 Z0.0
G1 X-25.253 Y85.0071
G1 X-26.0002 Y85.0713
G1 X-26.6691 Y84.6025
G0 Z5.0
G0 X-41.4349 Y50.2168
G1 Z0.0
G1 X-42.595 Y49.8984
G1 X-43.238 Y48.9389
G1 X-43.4574 Y46.5758
G1 X-42.6487 Y46.3735
G1 X-41.922 Y48.1757
G1 X-41.4349 Y50.2168
G0 Z5.0
G0 X-40.8279 Y49.8127
G1 Z0.0
G1 X-41.92 Y47.631
G1 X-42.1124 Y46.5002
G1 X-41.4349 Y45.7676
G1 X-41.0593 Y45.8472
G1 X-40.9291 Y46.1722
G1 X-40.7988 Y46.4973
G1 X-40.4232 Y46.5769
G1 X-40.7232 Y46.1686
G1 X-40.8279 Y45.5659
G1 X-40.2656 Y45.319
G1 X-39.6141 Y45.1612
G1 X-39.2991 Y46.2618
G1 X-38.603 Y46.9814
G1 X-39.0241 Y46.0876
G1 X-39.2105 Y44.9589
G1 X-37.5922 Y44.352
G1 X-37.3493 Y45.6259
G1 X-36.7828 Y46.5769
G1 X-37.0191 Y45.397
G1 X-37.3898 Y44.352
G1 X-36.2912 Y44.035
G1 X-35.1649 Y43.7446
G1 X-35.1134 Y44.5027
G1 X-34.5579 Y44.7566
G1 X-34.8874 Y44.2769
G1 X-34.9626 Y43.5427
G1 X-30.0552 Y42.3335
G1 X-24.7132 Y41.9273
G1 X-19.2364 Y42.0756
G1 X-13.9266 Y42.5312
G1 X-14.4432 Y44.5427
G1 X-14.9381 Y46.5763
G1 X-21.3481 Y46.3411
G1 X-27.6456 Y46.5974
G1 X-33.7073 Y47.5002
G1 X-39.4124 Y49.2059
G1 X-39.8735 Y48.3521
G1 X-40.4232 Y47.5873
G1 X-40.0342 Y48.9654
G1 X-40.1439 Y49.5624
G1 X-40.8279 Y49.8127
G0 Z5.0
G0 X-38.198 Y40.7101
G1 Z0.0
G1 X-35.7493 Y39.1703
G1 X-32.9902 Y37.9709
G1 X-29.9531 Y37.1296
G1 X-26.6691 Y36.665
G1 X-22.6731 Y36.6559
G1 X-19.0141 Y37.2337
G1 X-15.6797 Y38.309
G1 X-12.6551 Y39.7911
G1 X-7.4878 Y43.6169
G1 X-3.4078 Y47.9916
G1 X-3.3059 Y48.1853
G1 X-3.6106 Y48.396
G1 X-7.7653 Y43.9039
G1 X-10.2405 Y41.8523
G1 X-13.0101 Y40.0481
G1 X-16.0972 Y38.5799
G1 X-19.5225 Y37.5347
G1 X-23.3085 Y37.0019
G1 X-27.4774 Y37.069
G1 X-30.4388 Y37.5898
G1 X-33.1129 Y38.4742
G1 X-38.198 Y40.7101
G0 Z5.0
G0 X-30.0388 Y27.712
G1 Z0.0
G1 X-31.6691 Y26.5723
G1 X-32.9716 Y24.9333
G1 X-33.9286 Y22.9278
G1 X-34.523 Y20.6879
G1 X-34.7382 Y18.3454
G1 X-34.5575 Y16.033
G1 X-33.9912 Y16.7811
G1 X-33.8836 Y17.9883
G1 X-33.86 Y19.2798
G1 X-33.546 Y20.2809
G1 X-33.7487 Y16.6403
G1 X-24.1494 Y15.4635
G1 X-19.4487 Y14.4696
G1 X-15.3421 Y12.9989
G1 X-18.2686 Y19.6333
G1 X-20.1012 Y22.8472
G1 X-22.2189 Y25.5392
G1 X-23.9581 Y26.9558
G1 X-25.86 Y27.9669
G1 X-28.0968 Y28.2207
G1 X-30.0388 Y27.712
G0 Z5.0
G0 X-36.6066 Y17.0404
G1 Z0.0
G1 X-37.1454 Y17.081
G1 X-38.1985 Y16.8427
G1 X-38.0232 Y16.4951
G1 X-37.5766 Y16.5462
G1 X-36.3783 Y16.6403
G1 X-36.6066 Y17.0404
G0 Z5.0
G0 X-38.603 Y16.6403
G1 Z0.0
G1 X-40.4083 Y16.423
G1 X-41.6371 Y15.6283
G1 X-39.9902 Y16.0049
G1 X-38.603 Y16.6403
G0 Z5.0
G0 X-38.0976 Y13.1304
G1 Z0.0
G1 X-39.0072 Y12.9994
G1 X-38.2746 Y12.2658
G1 X-37.1985 Y11.8751
G1 X-34.9621 Y11.1792
G1 X-34.9927 Y12.12
G1 X-34.9246 Y12.5067
G1 X-34.5575 Y12.5947
G1 Y11.1792
G1 X-32.812 Y10.7
G1 X-30.9166 Y10.3698
G1 X-28.2871 Y12.9994
G1 X-16.3536 Y11.1792
G1 X-21.1282 Y13.0129
G1 X-26.9831 Y13.8707
G1 X-33.1865 Y13.8376
G1 X-38.0976 Y13.1304
G0 Z5.0
G0 X-40.0403 Y11.3723
G1 Z0.0
G1 X-40.2211 Y11.3813
G1 X-40.236 Y10.104
G1 X-40.199 Y9.5692
G1 X-40.0183 Y9.5607
G1 X-40.0037 Y10.8376
G1 X-40.0403 Y11.3723
G0 Z5.0
G0 X-42.6491 Y11.3764
G1 Z0.0
G1 X-42.6487 Y11.5832
G1 X-46.0132 Y9.2917
G1 X-47.1821 Y7.7575
G1 X-47.3392 Y6.812
G1 X-47.0983 Y5.7179
G1 X-44.0643 Y6.9313
G1 X-43.9952 Y8.4981
G1 X-43.3116 Y9.7149
G1 X-42.6501 Y10.7029
G1 X-42.6491 Y11.3764
G0 Z5.0
G0 X-42.6487 Y7.9428
G1 Z0.0
G1 X-42.9105 Y5.0555
G1 X-42.7469 Y3.4716
G1 X-41.8394 Y2.4816
G1 X-41.7633 Y5.6925
G1 X-41.875 Y7.1481
G1 X-42.6487 Y7.9428
G0 Z5.0
G0 X-41.4349 Y7.3358
G1 Z0.0
G1 X-41.6407 Y4.7098
G1 X-41.8394 Y2.0769
G1 X-41.1313 Y1.8747
G1 X-40.4232 Y1.6724
G1 X-40.2891 Y3.9618
G1 X-40.4232 Y6.9313
G1 X-41.4349 Y7.3358
G0 Z5.0
G0 X-44.3481 Y14.3964
G1 Z0.0
G1 X-43.6596 Y15.2243
G1 X-44.7328 Y14.78
G1 X-45.4798 Y14.0109
G1 X-44.3481 Y14.3964
G0 Z5.0
G0 X-50.4192 Y10.0409
G1 Z0.0
G1 X-50.6061 Y10.3014
G1 X-51.7509 Y10.7745
G1 X-51.4765 Y10.2393
G1 X-50.9661 Y9.9408
G1 X-49.93 Y9.359
G1 X-50.4192 Y10.0409
G0 Z5.0
G0 X-52.5591 Y8.3475
G1 Z0.0
G1 X-54.6477 Y10.0009
G1 X-56.807 Y11.5832
G1 X-56.1474 Y8.2482
G1 X-55.8365 Y6.6194
G1 X-55.9977 Y4.9087
G1 X-56.9005 Y10.377
G1 X-57.7508 Y12.7125
G1 X-59.2336 Y14.415
G1 X-60.2512 Y12.5036
G1 X-61.5231 Y11.5436
G1 X-63.0073 Y11.3394
G1 X-64.6632 Y11.6954
G1 X-68.3247 Y13.3084
G1 X-72.179 Y14.8196
G1 X-77.742 Y15.7179
G1 X-82.6968 Y16.4375
G1 X-85.5166 Y9.2602
G1 X-86.9312 Y5.4611
G1 X-88.5972 Y1.8556
G1 X-90.7013 Y-1.3046
G1 X-93.4305 Y-3.7698
G1 X-96.9703 Y-5.2882
G1 X-101.5077 Y-5.6096
G1 X-104.2739 Y-16.7905
G1 X-106.752 Y-28.4614
G1 X-108.5297 Y-40.5896
G1 X-109.1941 Y-53.142
G1 X-107.4065 Y-53.8886
G1 X-105.775 Y-54.9827
G1 X-103.1706 Y-57.9883
G1 X-101.7575 Y-61.7054
G1 X-101.6153 Y-63.69
G1 X-101.9122 Y-65.6828
G1 X-97.6404 Y-66.7654
G1 X-93.1636 Y-67.2859
G1 X-88.814 Y-67.1062
G1 X-84.9217 Y-66.0875
G1 X-80.472 Y-61.4356
G1 X-76.0814 Y-59.8958
G1 X-72.3057 Y-57.5722
G1 X-69.0734 Y-54.7028
G1 X-66.3132 Y-51.5245
G1 X-63.482 Y-48.086
G1 X-62.2281 Y-44.731
G1 X-61.3608 Y-43.2672
G1 X-59.8404 Y-42.2207
G1 X-58.3983 Y-39.4153
G1 X-57.0092 Y-36.5566
G1 X-60.4769 Y-35.5706
G1 X-63.4525 Y-33.5432
G1 X-64.3773 Y-32.255
G1 X-64.7239 Y-30.8475
G1 X-64.3408 Y-29.3668
G1 X-63.0773 Y-27.859
G1 X-63.0203 Y-26.3496
G1 X-62.5987 Y-24.9111
G1 X-61.8636 Y-21.9943
G1 X-62.2015 Y-19.7595
G1 X-62.2681 Y-17.7467
G1 X-60.901 Y-15.4718
G1 X-58.6272 Y-13.7007
G1 X-58.0202 Y-11.0708
G1 X-56.776 Y-8.919
G1 X-55.3909 Y-6.6211
G1 X-53.7723 Y-2.5757
G1 X-52.5441 Y-0.546
G1 X-51.7504 Y1.0654
G1 X-51.7703 Y2.7645
G1 X-52.1565 Y4.4901
G1 X-52.541 Y6.3243
G1 X-52.5591 Y8.3475
G0 Z5.0
G0 X-53.7728 Y12.1902
G1 Z0.0
G1 X-56.0949 Y14.723
G1 X-58.6272 Y17.045
G1 X-56.4274 Y14.3904
G1 X-53.7728 Y12.1902
G0 Z5.0
G0 X-59.6392 Y14.6173
G1 Z0.0
G1 X-61.6618 Y17.2468
G1 X-62.4248 Y14.8878
G1 X-63.0969 Y14.0339
G1 X-64.089 Y13.6062
G1 X-65.457 Y13.9357
G1 X-66.9207 Y14.8201
G1 X-70.3178 Y16.1982
G1 X-74.3559 Y17.3394
G1 X-78.7213 Y18.1311
G1 X-83.102 Y18.4606
G1 X-82.6979 Y16.8417
G1 X-75.6217 Y16.0159
G1 X-72.0849 Y15.4165
G1 X-68.7414 Y14.4145
G1 X-66.182 Y13.1847
G1 X-63.5731 Y12.114
G1 X-62.3618 Y11.9638
G1 X-61.2726 Y12.2442
G1 X-60.3503 Y13.085
G1 X-59.6392 Y14.6173
G0 Z5.0
G0 X-62.4759 Y15.8582
G1 Z0.0
G1 X-62.2686 Y18.2583
G1 X-62.9111 Y19.133
G1 X-63.6843 Y19.8762
G1 X-64.7588 Y18.9277
G1 X-65.6121 Y17.7591
G1 X-67.3258 Y15.4271
G1 X-65.5151 Y14.446
G1 X-63.7284 Y14.5887
G1 X-62.4759 Y15.8582
G0 Z5.0
G0 X-65.8525 Y18.1001
G1 Z0.0
G1 X-64.2918 Y21.0901
G1 X-66.7183 Y24.1241
G1 X-66.9182 Y21.9974
G1 X-67.123 Y19.8762
G1 X-67.178 Y24.2713
G1 X-67.6878 Y25.9864
G1 X-68.9432 Y26.9558
G1 X-69.9397 Y23.8297
G1 X-70.1571 Y20.6854
G1 X-70.3748 Y20.7711
G1 X-70.3594 Y21.0901
G1 X-70.3439 Y21.409
G1 X-70.5616 Y21.4947
G1 X-70.8551 Y19.4706
G1 X-70.5906 Y17.6634
G1 X-69.7054 Y16.356
G1 X-68.1345 Y15.8311
G1 X-65.8525 Y18.1001
G0 Z5.0
G0 X-71.3438 Y18.2456
G1 Z0.0
G1 X-71.2867 Y20.3995
G1 X-70.7565 Y23.1056
G1 X-68.9432 Y27.7646
G1 X-69.9653 Y29.8782
G1 X-70.517 Y30.8933
G1 X-71.3698 Y31.6079
G1 X-73.6208 Y29.8136
G1 X-75.6828 Y27.8302
G1 X-77.2567 Y25.3589
G1 X-78.0443 Y22.1011
G1 X-75.0194 Y21.0811
G1 X-73.458 Y20.6198
G1 X-72.179 Y19.8762
G1 X-77.8426 Y21.4947
G1 X-76.8721 Y20.2397
G1 X-75.2312 Y19.6559
G1 X-73.4299 Y19.2322
G1 X-71.9768 Y18.4606
G1 X-74.6087 Y19.1661
G1 X-77.2356 Y19.8762
G1 X-76.3168 Y18.6718
G1 X-74.8101 Y18.0544
G1 X-71.3703 Y17.2468
G1 X-71.3438 Y18.2456
G0 Z5.0
G0 X-83.404 Y17.2458
G1 Z0.0
G1 X-83.506 Y18.4606
G1 X-87.9547 Y17.9504
G1 X-92.426 Y18.2137
G1 X-96.5326 Y19.2577
G1 X-99.8903 Y21.0901
G1 X-100.2292 Y22.2683
G1 X-100.3258 Y22.9298
G1 X-100.6995 Y23.3149
G1 X-101.9252 Y22.6194
G1 X-102.7215 Y21.4947
G1 X-99.2022 Y18.8957
G1 X-94.711 Y17.2678
G1 X-89.4215 Y16.439
G1 X-83.506 Y16.2358
G1 X-83.404 Y17.2458
G0 Z5.0
G0 X-91.4208 Y14.4254
G1 Z0.0
G1 X-91.48 Y14.5939
G1 X-92.6554 Y15.5281
G1 X-95.8452 Y16.6403
G1 X-99.3825 Y17.3409
G1 X-100.8586 Y17.1352
G1 X-101.711 Y16.2358
G1 X-99.9247 Y14.6339
G1 X-97.5842 Y13.5862
G1 X-91.7995 Y12.5947
G1 X-93.7705 Y13.405
G1 X-95.9834 Y13.9733
G1 X-100.2948 Y15.2243
G1 X-97.753 Y14.8757
G1 X-95.3764 Y14.2272
G1 X-90.9903 Y13.2017
G1 X-91.4208 Y14.4254
G0 Z5.0
G0 X-94.3702 Y9.6339
G1 Z0.0
G1 X-94.4596 Y9.6889
G1 X-96.8567 Y10.7745
G1 X-99.1876 Y11.422
G1 X-101.8993 Y11.786
G1 X-103.076 Y11.6658
G1 X-103.9608 Y11.2397
G1 X-104.425 Y10.4295
G1 X-104.3403 Y9.1562
G1 X-103.6964 Y8.2117
G1 X-102.5652 Y7.6439
G1 X-99.8907 Y6.9313
G1 X-96.3168 Y5.8165
G1 X-94.3669 Y5.6819
G1 X-92.6088 Y6.3243
G1 X-92.4706 Y7.412
G1 X-92.6088 Y8.5497
G1 X-94.3702 Y9.6339
G0 Z5.0
G0 X-92.6858 Y21.0644
G1 Z0.0
G1 X-91.5978 Y21.0901
G1 X-92.4911 Y21.5107
G1 X-93.6198 Y21.6964
G1 X-93.3138 Y21.2863
G1 X-92.6858 Y21.0644
G0 Z5.0
G0 X-100.6995 Y24.1241
G1 Z0.0
G1 X-103.399 Y26.064
G1 X-104.9844 Y26.5457
G1 X-106.7675 Y25.9443
G1 X-105.4691 Y24.5418
G1 X-103.9208 Y23.386
G1 X-102.2788 Y23.0545
G1 X-101.4716 Y23.378
G1 X-100.6995 Y24.1241
G0 Z5.0
G0 X-108.9924 Y18.056
G1 Z0.0
G1 X-109.2168 Y17.2943
G1 X-109.7431 Y16.5892
G1 X-110.1466 Y16.0109
G1 X-110.0034 Y15.6283
G1 X-109.032 Y16.8741
G1 X-108.7034 Y17.5277
G1 X-108.9924 Y18.056
G0 Z5.0
G0 X-111.2173 Y13.4035
G1 Z0.0
G1 X-111.8237
G1 X-116.6113 Y3.8806
G1 X-118.7055 Y-1.1238
G1 X-120.1166 Y-6.4189
G1 X-118.2789 Y-1.0758
G1 X-116.1522 Y3.9778
G1 X-111.2173 Y13.4035
G0 Z5.0
G0 X-111.6218 Y7.1335
G1 Z0.0
G1 X-112.1998 Y5.8912
G1 X-112.8356 Y4.7064
G1 X-111.6758 Y5.8652
G1 X-111.372 Y6.5958
G1 X-111.6218 Y7.1335
G0 Z5.0
G0 X-69.8445 Y38.3931
G1 Z0.0
G1 X-69.3473 Y37.8788
G1 X-69.47 Y38.7676
G1 X-69.9547 Y39.2943
G1 X-69.8445 Y38.3931
G0 Z5.0
G0 X-57.6162 Y26.5518
G1 Z0.0
G1 X-57.1028 Y25.7496
G1 X-56.2005 Y25.3379
G1 X-56.7674 Y26.0856
G1 X-57.6162 Y26.5518
G0 Z5.0
G0 X-55.1885 Y20.2809
G1 Z0.0
G1 X-54.3152 Y19.5361
G1 X-53.1664 Y19.067
G1 X-53.9531 Y19.8982
G1 X-55.1885 Y20.2809
G0 Z5.0
G0 X-12.7126 Y13.6062
G1 Z0.0
G1 X-9.4032 Y11.8587
G1 X-5.8353 Y10.3694
G1 X-7.2886 Y11.445
G1 X-9.0001 Y12.2622
G1 X-12.7126 Y13.6062
G0 Z5.0
G0 X-2.5985 Y8.3475
G1 Z0.0
G1 X2.4566 Y5.9012
G1 X7.9334 Y2.8857
G1 X10.9008 Y1.5321
G1 X14.0602 Y0.477
G1 X17.4388 Y-0.1319
G1 X21.0662 Y-0.1479
G1 X26.0796 Y0.5682
G1 X30.2663 Y1.8051
G1 X33.7468 Y3.6333
G1 X36.6409 Y6.122
G1 X37.5909 Y7.0519
G1 X38.0568 Y8.1451
G1 X36.2713 Y5.8606
G1 X33.9099 Y3.9538
G1 X31.0672 Y2.436
G1 X27.8393 Y1.3183
G1 X24.3206 Y0.6113
G1 X20.6069 Y0.3264
G1 X16.7938 Y0.4741
G1 X12.9754 Y1.0654
G1 X1.2438 Y6.9313
G1 X-0.6599 Y7.9738
G1 X-2.5985 Y8.3475
G0 Z5.0
G0 X23.6966 Y2.481
G1 Z0.0
G1 X27.1663 Y2.9051
G1 X30.0881 Y3.8766
G1 X32.5555 Y5.3033
G1 X34.6595 Y7.0929
G1 X38.1484 Y11.3915
G1 X41.2941 Y16.033
G1 X41.0907 Y16.6403
G1 X37.263 Y10.7745
G1 X35.1164 Y8.0774
G1 X32.5956 Y5.7179
G1 X30.666 Y4.5812
G1 X28.5237 Y3.8296
G1 X23.6966 Y2.481
G0 Z5.0
G0 X29.9651 Y7.3358
G1 Z0.0
G1 X30.7713 Y7.6423
G1 X31.3815 Y8.1451
G1 X30.5728 Y8.076
G1 X29.9651 Y7.3358
G0 Z5.0
G0 X29.9666 Y13.2017
G1 Z0.0
G1 X30.6887 Y13.8432
G1 X30.9589 Y14.1952
G1 X30.7756 Y14.6173
G1 X30.1067 Y13.9218
G1 X29.8542 Y13.5522
G1 X29.9666 Y13.2017
G0 Z5.0
G0 X38.8475 Y1.8714
G1 Z0.0
G1 X37.045 Y0.4585
G1 X39.8459 Y-2.0502
G1 X42.3596 Y-4.8465
G1 X46.7541 Y-11.0702
G1 X47.9737 Y-7.486
G1 X49.0147 Y-3.7232
G1 X49.7396 Y-2.0468
G1 X50.7458 Y-0.6507
G1 X52.1415 Y0.3554
G1 X54.0356 Y0.8626
G1 X53.0819 Y5.2222
G1 X53.1489 Y9.9658
G1 X53.7477 Y12.0615
G1 X54.822 Y13.7484
G1 X56.4443 Y14.8588
G1 X58.6875 Y15.2236
G1 X58.1633 Y20.2618
G1 X57.0698 Y24.7305
G1 X53.2275 Y17.3871
G1 X48.5604 Y10.8848
G1 X43.1417 Y5.2372
G1 X38.8475 Y1.8714
G0 Z5.0
G0 X53.6756 Y5.2082
G1 Z0.0
G1 X54.6424 Y1.0649
G1 X57.3652 Y1.0208
G1 X60.7106 Y1.2673
G1 X59.8494 Y7.9914
G1 X58.8903 Y14.6173
G1 X56.8313 Y14.5367
G1 X55.3272 Y13.5932
G1 X54.3185 Y11.9873
G1 X53.7462 Y9.9201
G1 X53.6756 Y5.2082
G0 Z5.0
G0 X60.6296 Y6.3735
G1 Z0.0
G1 X61.5193 Y1.0649
G1 X65.9566 Y1.4765
G1 X70.9421 Y1.5942
G1 X75.8685 Y1.7005
G1 X80.1273 Y2.0764
G1 X79.1574 Y3.7719
G1 X78.7363 Y5.7163
G1 X78.808 Y7.7851
G1 X79.3158 Y9.8526
G1 X80.2031 Y11.7955
G1 X81.4133 Y13.4892
G1 X82.8903 Y14.8081
G1 X84.578 Y15.6283
G1 X84.2926 Y18.1751
G1 X83.9711 Y20.685
G1 X81.1388 Y19.8758
G1 X81.5155 Y17.2688
G1 X81.6953 Y16.0149
G1 X81.5435 Y14.8196
G1 X80.7347 Y19.6739
G1 X70.324 Y17.9612
G1 X64.7063 Y17.6529
G1 X59.0922 Y18.0555
G1 X60.1593 Y9.1801
G1 X60.6296 Y6.3735
G0 Z5.0
G0 X75.0729 Y0.2567
G1 Z0.0
G1 X76.0732 Y-0.6633
G1 X77.4114 Y-0.7403
G1 X80.3316 Y-0.1479
G1 X84.146 Y0.0333
G1 X88.2197 Y-0.1479
G1 X92.6272 Y-1.3822
G1 X94.8595 Y-1.8334
G1 X97.1198 Y-1.564
G1 X98.2698 Y0.6993
G1 X98.3614 Y3.2276
G1 X97.7313 Y5.9392
G1 X96.7154 Y8.752
G1 X94.5797 Y13.6798
G1 X91.9433 Y18.3669
G1 X88.7598 Y22.393
G1 X84.9835 Y25.3379
G1 X85.5908 Y21.2917
G1 X87.6137 Y18.8652
G1 X89.4334 Y16.2358
G1 X90.6162 Y15.8516
G1 X91.8604 Y15.4265
G1 X93.2045 Y13.6449
G1 X93.8365 Y11.3163
G1 X94.4896 Y5.9198
G1 X95.4663 Y3.1151
G1 X95.7744 Y1.7005
G1 X95.5014 Y0.2567
G1 X94.0573 Y-0.6401
G1 X92.5865 Y-0.573
G1 X89.2305 Y0.6613
G1 X85.6901 Y1.3253
G1 X82.0574 Y1.4275
G1 X78.472 Y1.046
G1 X75.0729 Y0.2567
G0 Z5.0
G0 X79.9303 Y3.9389
G1 Z0.0
G1 X81.3422 Y2.0764
G1 X84.1488 Y1.9853
G1 X87.2076 Y1.6719
G1 X86.1088 Y5.0393
G1 X85.859 Y8.9642
G1 X86.5364 Y12.6813
G1 X87.247 Y14.2232
G1 X88.2191 Y15.4265
G1 X85.8516 Y15.4987
G1 X83.6776 Y14.6553
G1 X81.8171 Y13.1061
G1 X80.3872 Y11.0599
G1 X79.5064 Y8.725
G1 X79.2931 Y6.3099
G1 X79.8655 Y4.0244
G1 X79.9303 Y3.9389
G0 Z5.0
G0 X89.9447 Y3.8856
G1 Z0.0
G1 X89.9426 Y3.4896
G1 X90.2427 Y2.2792
G1 X90.2657 Y5.792
G1 X90.0398 Y8.5497
G1 X89.9508 Y5.0134
G1 X89.9447 Y3.8856
G0 Z5.0
G0 X91.8601 Y4.3017
G1 Z0.0
G1 X91.8837 Y8.422
G1 X91.6573 Y11.786
G1 X91.6327 Y7.6658
G1 X91.8601 Y4.3017
G0 Z5.0
G0 X88.6402 Y16.0685
G1 Z0.0
G1 X89.0287 Y16.438
G1 X87.5125 Y18.3614
G1 X85.7923 Y20.079
G1 X85.9541 Y17.9147
G1 X86.3997 Y16.0335
G1 X87.9482 Y16.0019
G1 X88.6402 Y16.0685
G0 Z5.0
G0 X85.5469 Y16.6053
G1 Z0.0
G1 X85.5646 Y18.1485
G1 X85.1894 Y19.8487
G1 X84.578 Y21.0901
G1 X84.3137 Y20.0265
G1 X84.4634 Y18.6404
G1 X84.9817 Y15.8311
G1 X85.5469 Y16.6053
G0 Z5.0
G0 X77.2965 Y20.2809
G1 Z0.0
G1 X77.3341 Y21.4306
G1 X77.2757 Y21.9287
G1 X76.8922 Y22.1011
G1 X76.903 Y20.9994
G1 X77.2965 Y20.2809
G0 Z5.0
G0 X82.1509 Y25.5397
G1 Z0.0
G1 X82.1323 Y27.1386
G1 X81.7462 Y28.3716
G1 X81.7658 Y26.7726
G1 X82.1509 Y25.5397
G0 Z5.0
G0 X81.7462 Y28.5739
G1 Z0.0
G1 X81.7276 Y30.1726
G1 X81.3428 Y31.4056
G1 X81.3611 Y29.8066
G1 X81.7462 Y28.5739
G0 Z5.0
G0 X80.809 Y32.3853
G1 Z0.0
G1 X80.9382 Y32.4171
G1 X79.5211 Y42.9354
G1 X78.4835 Y42.8607
G1 X77.7012 Y42.5312
G1 X78.2571 Y38.4856
G1 X78.5099 Y34.6424
G1 X77.2965 Y42.3284
G1 X66.9265 Y40.5824
G1 X61.4547 Y40.2964
G1 X55.8564 Y40.7105
G1 X56.5599 Y35.4471
G1 X57.4745 Y30.395
G1 X63.5476 Y29.7682
G1 X69.7427 Y30.1247
G1 X75.6698 Y31.1215
G1 X80.809 Y32.3853
G0 Z5.0
G0 X81.7462 Y32.6194
G1 Z0.0
G1 X82.0357 Y33.9969
G1 X81.9242 Y35.5358
G1 X81.3428 Y38.6875
G1 X81.1549 Y41.4006
G1 X80.9121 Y42.6114
G1 X80.3301 Y43.5418
G1 X80.15 Y40.9113
G1 X80.4217 Y37.9664
G1 X81.7462 Y32.6194
G0 Z5.0
G0 X82.7577 Y33.0239
G1 Z0.0
G1 X83.2652 Y34.2382
G1 X83.1034 Y35.7807
G1 X82.7683 Y37.5128
G1 X82.7577 Y39.2943
G1 X82.2562 Y40.4085
G1 X82.2149 Y41.9584
G1 X82.0919 Y43.339
G1 X81.3428 Y43.9464
G1 X81.6326 Y38.5709
G1 X82.7577 Y33.0239
G0 Z5.0
G0 X78.0173 Y43.0836
G1 Z0.0
G1 X81.2031 Y44.5848
G1 X84.1174 Y46.9749
G1 X86.5041 Y49.8233
G1 X88.4215 Y52.8463
G1 X87.0752 Y52.8783
G1 X85.9693 Y53.3375
G1 X84.4404 Y55.2825
G1 X83.764 Y58.1653
G1 X83.8674 Y61.4712
G1 X84.6793 Y64.6851
G1 X86.128 Y67.292
G1 X88.1411 Y68.7762
G1 X89.3368 Y68.937
G1 X90.6473 Y68.6235
G1 X90.5691 Y69.355
G1 X90.4445 Y70.039
G1 X89.0287 Y70.2419
G1 X80.836 Y68.0406
G1 X72.8471 Y65.994
G1 X65.5398 Y63.1487
G1 X62.1773 Y61.3135
G1 X59.0938 Y59.1167
G1 X56.2211 Y56.2058
G1 X53.7934 Y52.8127
G1 X49.5865 Y45.5648
G1 X56.4639 Y41.1147
G1 X61.2702 Y40.9079
G1 X66.7522 Y41.0751
G1 X72.3992 Y41.717
G1 X77.7018 Y42.9349
G1 X78.0173 Y43.0836
G0 Z5.0
G0 X85.7923 Y54.262
G1 Z0.0
G1 X85.201 Y58.1968
G1 X85.4395 Y62.0305
G1 X86.461 Y65.4693
G1 X88.2191 Y68.2183
G1 X87.6137
G1 X85.6538 Y65.5309
G1 X84.4951 Y61.7541
G1 X84.4398 Y57.7201
G1 X84.9215 Y55.8668
G1 X85.7923 Y54.262
G0 Z5.0
G0 X87.6137 Y56.2849
G1 Z0.0
G1 X87.7687 Y57.3485
G1 X87.4109 Y58.3075
G1 X87.3858 Y57.1708
G1 X87.6137 Y56.2849
G0 Z5.0
G0 X89.426 Y56.4001
G1 Z0.0
G1 X89.4334 Y56.2849
G1 X89.4585 Y60.6585
G1 X89.2305 Y64.7803
G1 X89.1812 Y60.2554
G1 X89.426 Y56.4001
G0 Z5.0
G0 X91.0507 Y60.7346
G1 Z0.0
G1 X91.2688 Y62.6911
G1 X91.2545 Y63.7051
G1 X90.848 Y64.5775
G1 X90.8234 Y62.5298
G1 X91.0507 Y60.7346
G0 Z5.0
G0 X81.5444 Y69.2299
G1 Z0.0
G1 X76.2707 Y70.673
G1 X71.5405 Y72.9299
G1 X67.3122 Y75.7132
G1 X63.5419 Y78.7363
G1 X61.0286 Y81.0721
G1 X58.4854 Y82.9835
G1 X56.4617 Y83.7582
G1 X54.4067 Y84.0602
G1 X52.3803 Y83.9435
G1 X50.4402 Y83.4604
G1 X47.0576 Y81.6109
G1 X44.732 Y78.9386
G1 X43.7988 Y76.6912
G1 X43.3637 Y74.3356
G1 X43.583 Y69.4422
G1 X45.5398 Y59.9254
G1 X46.0622 Y54.9374
G1 X46.2256 Y50.1402
G1 X46.3492 Y41.7216
G1 X50.5799 Y49.2549
G1 X55.3698 Y55.7466
G1 X58.1282 Y58.5533
G1 X61.2115 Y61.0411
G1 X64.6811 Y63.1908
G1 X68.5992 Y64.982
G1 X81.5444 Y69.2299
G0 Z5.0
G0 X89.0287 Y78.5344
G1 Z0.0
G1 X90.2085 Y78.1377
G1 X91.2551 Y78.3055
G1 X93.2772 Y79.3435
G1 X95.0809 Y80.0566
G1 X95.5505 Y80.5619
G1 X95.2987 Y81.3661
G1 X93.1325 Y80.296
G1 X90.848 Y79.3435
G1 X92.9337 Y80.696
G1 X95.5011 Y81.5685
G1 X95.0844 Y83.3772
G1 X94.2872 Y84.8043
G1 X91.0287 Y83.1077
G1 X88.4215 Y80.7593
G1 X88.7342 Y79.655
G1 X89.0287 Y78.5344
G0 Z5.0
G0 X87.8773 Y81.216
G1 Z0.0
G1 X88.0088 Y81.2724
G1 X89.8461 Y82.7728
G1 X91.6281 Y84.3285
G1 X94.0843 Y85.2095
G1 X94.5791 Y85.0582
G1 X94.9803 Y84.6049
G1 X95.2871 Y84.302
G1 X95.5011 Y84.6025
G1 X95.6437 Y86.1825
G1 X95.2701 Y87.571
G1 X93.6796 Y89.659
G1 X91.7098 Y89.4238
G1 X89.7594 Y88.3817
G1 X86.6 Y85.614
G1 X84.5379 Y83.2766
G1 X84.4168 Y82.0467
G1 X85.3863 Y80.5569
G1 X86.8414 Y80.7712
G1 X87.8773 Y81.216
G0 Z5.0
G0 X68.9843 Y95.7438
G1 Z0.0
G1 X69.592 Y96.7342
G1 X69.6107 Y97.5475
G1 X68.4389 Y95.7863
G1 X67.3858 Y93.9065
G1 X68.9843 Y95.7438
G0 Z5.0
G0 X50.193 Y43.5418
G1 Z0.0
G1 X49.9054 Y42.4656
G1 X49.9905 Y41.5187
G1 X50.3346 Y42.5388
G1 X50.193 Y43.5418
G0 Z5.0
G0 X45.7426 Y36.665
G1 Z0.0
G1 X45.5305 Y35.8177
G1 X45.7426 Y35.0465
G1 X45.9796 Y35.8693
G1 X45.7426 Y36.665
G0 Z5.0
G0 X40.4637 Y30.8276
G1 Z0.0
G1 X40.0786 Y31.0013
G1 X39.8754 Y30.2473
G1 X40.0786 Y29.5853
G1 X40.3506 Y30.5008
G1 X40.4637 Y30.8276
G0 Z5.0
G0 X37.2475 Y36.2603
G1 Z0.0
G1 X37.1615 Y37.9945
G1 X36.6409 Y39.2943
G1 X36.8034 Y37.6364
G1 X37.2475 Y36.2603
G0 Z5.0
G0 X-117.8922 Y-56.5696
G1 Z0.0
G1 X-124.1917 Y-47.7158
G1 X-130.9168 Y-58.102
G1 X-131.2254 Y-58.8576
G1 X-131.5979 Y-60.8256
G1 X-130.2249 Y-69.6469
G1 X-128.7882 Y-77.2553
G1 X-122.3184 Y-82.8738
G1 X-112.6995 Y-88.8325
G1 X-111.3384 Y-83.2147
G1 X-116.3604 Y-66.6148
G1 X-117.4776 Y-64.135
G1 X-118.2398 Y-62.1657
G1 X-118.6584 Y-60.2302
G1 X-118.3395 Y-57.506
G1 X-117.8922 Y-56.5696
G0 Z5.0
M5
M30
