( Made using CamBam - http://www.cambam.co.uk )
( robot_A0 1/7/2014 3:11:45 PM )
( T0 : 0.0 )
G21 G90 G64 G40
G0 Z5.0
( T0 : 0.0 )
T0 M6
( 400 - 799 )
G17
M3 S1000
G0 X-43.8615 Y111.3012
G1 F2000.0 Z0.0
G1 X-48.2757 Y108.8535
G1 X-53.6157 Y106.7553
G1 X-59.0338 Y104.6546
G1 X-63.6838 Y102.1995
G1 X-65.3267 Y100.8159
G1 X-66.8045 Y98.891
G1 X-67.3794 Y96.6982
G1 X-67.0974 Y95.5875
G1 X-66.3132 Y94.5133
G1 X-64.7509 Y93.6325
G1 X-62.7028 Y93.3036
G1 X-60.488 Y93.4277
G1 X-58.4249 Y93.9065
G1 X-54.1014 Y95.6186
G1 X-49.6552 Y97.7348
G1 X-41.6366 Y101.5926
G1 X-41.1545 Y101.4684
G1 X-41.0302 Y100.9856
G1 X-40.3006 Y102.1779
G1 X-38.8054 Y102.6041
G1 X-38.8794 Y101.3592
G1 X-39.6683 Y100.4759
G1 X-40.6822 Y99.6962
G1 X-41.4349 Y98.7608
G1 X-49.8861 Y94.7478
G1 X-53.7579 Y92.4002
G1 X-57.3393 Y89.7673
G1 X-60.5886 Y86.8048
G1 X-63.4644 Y83.4683
G1 X-65.9261 Y79.7151
G1 X-67.9317 Y75.5003
G1 X-70.1481 Y69.4622
G1 X-71.7749 Y62.9594
G1 X-72.7389 Y56.1873
G1 X-74.2015 Y49.8117
G1 X-77.7073 Y50.7555
G1 X-80.6743 Y52.4412
G1 X-83.7925 Y55.4207
G1 X-85.0268 Y57.4317
G1 X-85.7314 Y59.7231
G1 X-86.2166 Y64.8028
G1 X-86.1941 Y70.0626
G1 X-85.6368 Y75.2093
G1 X-84.5177 Y79.9501
G1 X-83.0068 Y83.6707
G1 X-81.4105 Y87.1323
G1 X-80.3063 Y90.8463
G1 X-80.2698 Y95.322
G1 X-81.3414 Y98.8374
G1 X-83.3529 Y101.6732
G1 X-86.0474 Y103.5585
G1 X-89.1696 Y104.222
G1 X-91.6253 Y103.9051
G1 X-93.8551 Y103.1043
G1 X-97.8697 Y100.5931
G1 X-101.6803 Y97.7724
G1 X-103.6558 Y96.5851
G1 X-105.7556 Y95.7267
G1 X-105.1992 Y99.4178
G1 X-104.3619 Y102.8279
G1 X-103.0585 Y105.7724
G1 X-101.1035 Y108.0652
G1 X-103.2347 Y103.6222
G1 X-104.5406 Y98.3563
G1 X-102.2552 Y104.899
G1 X-99.4847 Y110.492
G1 X-98.2868 Y110.4675
G1 X-97.2447 Y110.9421
G1 X-95.6413 Y112.515
G1 X-94.108 Y112.549
G1 X-92.9728 Y112.9816
G1 X-91.1917 Y114.3352
G1 X-89.3058 Y114.3712
G1 X-87.8851 Y114.872
G1 X-85.7304 Y116.5601
G1 X-83.4535 Y116.559
G1 X-81.6714 Y117.0524
G1 X-78.8532 Y118.7855
G1 X-77.3182 Y118.5019
G1 X-75.9006 Y118.7539
G1 X-73.5942 Y120.201
G1 X-70.6248 Y120.2651
G1 X-68.1715 Y120.846
G1 X-66.1039 Y121.8125
G1 X-64.2897 Y123.0322
G1 X-60.4049 Y122.1641
G1 X-57.0083 Y120.8075
G1 X-58.7758 Y120.2557
G1 X-60.6748 Y120.6822
G1 X-62.7118 Y121.4238
G1 X-64.8966 Y121.819
G1 X-63.7579 Y121.1875
G1 X-62.3667 Y120.8089
G1 X-59.4353 Y120.2005
G1 X-63.4394 Y117.536
G1 X-67.5266 Y114.7393
G1 X-70.9752 Y111.9586
G1 X-73.9994 Y108.8739
G1 X-75.0068 Y106.6737
G1 X-75.1385 Y104.3301
G1 X-74.7665 Y103.3067
G1 X-74.0433 Y102.4889
G1 X-72.9257 Y101.9581
G1 X-71.3698 Y101.7943
G1 X-68.3198 Y102.6325
G1 X-65.5306 Y104.5515
G1 X-60.4474 Y109.0763
G1 X-56.6042 Y111.5035
G1 X-55.6668 Y111.4374
G1 X-54.7834 Y110.8965
G1 X-55.164 Y111.5276
G1 X-55.7949 Y111.908
G1 X-53.0442 Y113.4052
G1 X-49.9291 Y114.5375
G1 X-46.2887 Y110.492
G1 X-46.7368 Y111.5931
G1 X-47.6808 Y112.5891
G1 X-48.7373 Y113.599
G1 X-49.5245 Y114.7399
G1 X-47.5321 Y114.7233
G1 X-46.1359 Y113.8119
G1 X-43.8615 Y111.3012
G0 Z5.0
G0 X-43.5675 Y110.6454
G1 Z0.0
G1 X-43.4574 Y110.6948
G1 X-41.9011 Y110.8454
G1 X-40.4344 Y110.4123
G1 X-38.1985 Y108.8744
G1 X-37.7763 Y106.2701
G1 X-38.1985 Y103.8174
G1 X-49.3232 Y98.5584
G1 X-55.1469 Y95.7427
G1 X-58.0348 Y94.588
G1 X-60.8526 Y93.9065
G1 X-63.7394 Y94.0492
G1 X-65.9657 Y95.1449
G1 X-66.6493 Y95.9851
G1 X-66.9502 Y96.986
G1 X-66.7949 Y98.1224
G1 X-66.1115 Y99.3678
G1 X-63.1535 Y101.8045
G1 X-58.7238 Y104.0672
G1 X-49.3232 Y108.0652
G1 X-43.5675 Y110.6454
G0 Z5.0
G0 X-46.0868 Y115.1439
G1 Z0.0
G1 X-49.7013 Y114.9326
G1 X-52.9742 Y114.0473
G1 X-55.9716 Y112.6352
G1 X-58.7598 Y110.8424
G1 X-63.9742 Y106.7037
G1 X-69.146 Y102.8059
G1 X-70.9617 Y102.5014
G1 X-72.7259 Y102.6226
G1 X-74.116 Y103.3411
G1 X-74.809 Y104.8284
G1 X-74.468 Y106.6482
G1 X-73.5952 Y108.6716
G1 X-70.1564 Y111.9086
G1 X-63.5851 Y117.0208
G1 X-59.7553 Y119.2466
G1 X-55.9977 Y120.6061
G1 X-52.0748 Y120.9041
G1 X-49.1038 Y120.0157
G1 X-47.1019 Y118.0569
G1 X-46.0868 Y115.1439
G0 Z5.0
G0 X-34.5575 Y103.8178
G1 Z0.0
G1 X-31.547 Y105.3056
G1 X-28.0847 Y105.8404
G1 X-29.3091 Y104.9411
G1 X-31.0287 Y104.5369
G1 X-34.5575 Y103.8178
G0 Z5.0
G0 X-34.3275 Y103.2469
G1 Z0.0
G1 X-33.7964 Y103.4608
G1 X-30.5124 Y104.222
G1 X-31.7363 Y103.4227
G1 X-33.3216 Y102.9862
G1 X-34.9691 Y102.6111
G1 X-36.3783 Y101.9971
G1 X-35.2385 Y102.8799
G1 X-34.3275 Y103.2469
G0 Z5.0
G0 X-33.956 Y102.1909
G1 Z0.0
G1 X-29.906 Y103.6156
G1 X-32.3287 Y98.0106
G1 X-33.0823 Y94.8138
G1 X-33.3713 Y91.604
G1 X-33.0753 Y88.5679
G1 X-32.0742 Y85.8935
G1 X-30.249 Y83.7678
G1 X-27.4794 Y82.3776
G1 X-25.3151 Y81.9936
G1 X-23.1559 Y82.0532
G1 X-18.9515 Y83.1973
G1 X-15.0673 Y85.1953
G1 X-11.7022 Y87.4337
G1 X-1.9165 Y99.5951
G1 X3.5544 Y105.0974
G1 X6.675 Y107.4634
G1 X10.1433 Y109.4814
G1 X14.5148 Y108.7452
G1 X18.5342 Y107.6577
G1 X25.9203 Y104.8289
G1 X22.8494 Y106.5115
G1 X19.4227 Y107.8379
G1 X15.6546 Y108.8228
G1 X11.5598 Y109.4814
G1 X13.089 Y110.242
G1 X15.1301 Y110.1674
G1 X19.6494 Y108.8744
G1 X23.9137 Y107.2806
G1 X28.1172 Y105.2841
G1 X31.93 Y103.0091
G1 X35.0217 Y100.5816
G1 X33.1573 Y102.592
G1 X30.6446 Y104.3456
G1 X24.9085 Y107.256
G1 X29.1126 Y105.7148
G1 X33.0446 Y103.509
G1 X36.4987 Y100.6991
G1 X39.2696 Y97.3448
G1 X38.8509 Y96.7352
G1 X38.304 Y96.4654
G1 X37.0447 Y96.1308
G1 X34.3555 Y94.2255
G1 X31.7847 Y92.2875
G1 X27.616 Y90.4993
G1 X23.6945 Y88.6466
G1 X20.746 Y86.5314
G1 X18.031 Y83.9946
G1 X13.1763 Y77.9264
G1 X10.5216 Y71.9304
G1 X8.4632 Y65.4812
G1 X6.3846 Y58.9845
G1 X3.669 Y52.8453
G1 X-0.1674 Y47.2263
G1 X-5.028 Y41.9228
G1 X-8.3861 Y39.324
G1 X-12.3846 Y37.1953
G1 X-17.0032 Y35.6609
G1 X-22.2205 Y34.8436
G1 X-26.6286 Y34.8693
G1 X-30.7858 Y35.5722
G1 X-34.6752 Y36.8588
G1 X-38.28 Y38.6365
G1 X-41.5846 Y40.8127
G1 X-44.5711 Y43.294
G1 X-49.5265 Y48.8002
G1 X-50.526 Y50.6329
G1 X-51.7518 Y52.2388
G1 X-53.495 Y57.1637
G1 X-54.4374 Y63.0591
G1 X-54.4914 Y69.3091
G1 X-53.572 Y75.2975
G1 X-51.3433 Y81.9306
G1 X-48.3131 Y88.243
G1 X-46.1719 Y91.7228
G1 X-43.6612 Y94.5133
G1 X-40.1459 Y96.2971
G1 X-35.9746 Y97.5475
G1 X-33.8964 Y98.6496
G1 X-33.1654 Y99.5764
G1 X-32.7384 Y100.7838
G1 X-35.0722 Y100.4058
G1 X-37.3912 Y99.6216
G1 X-41.6377 Y97.5475
G1 X-39.3827 Y99.7995
G1 X-36.3032 Y101.3651
G1 X-33.956 Y102.1909
G0 Z5.0
G0 X-33.9502 Y99.7723
G1 Z0.0
G1 X-34.8019 Y98.8028
G1 X-36.1173 Y98.2981
G1 X-39.0072 Y97.5475
G1 X-42.4459 Y95.7267
G1 X-41.0552 Y97.2059
G1 X-38.9071 Y98.4578
G1 X-36.4043 Y99.3556
G1 X-33.9502 Y99.7723
G0 Z5.0
G0 X-31.2995 Y98.9628
G1 Z0.0
G1 X-31.2952 Y98.977
G1 X-29.5009 Y102.8063
G1 X-26.8024 Y105.9346
G1 X-25.4598 Y107.3337
G1 X-24.4433 Y108.8744
G1 X-20.9119 Y110.2386
G1 X-18.8855 Y110.7518
G1 X-16.3532 Y110.6948
G1 X-14.2766 Y110.0568
G1 X-12.5734 Y108.9185
G1 X-11.2489 Y107.3657
G1 X-10.3085 Y105.4825
G1 X-9.7572 Y103.3532
G1 X-9.6 Y101.0622
G1 X-9.8414 Y98.6941
G1 X-10.4874 Y96.3337
G1 X-11.7512 Y92.541
G1 X-13.5214 Y88.8494
G1 X-14.3306 Y88.243
G1 X-16.2294 Y86.2194
G1 X-18.5985 Y84.3611
G1 X-21.4633 Y83.0276
G1 X-24.8485 Y82.5794
G1 X-26.9275 Y82.8919
G1 X-28.7197 Y83.6555
G1 X-30.2085 Y84.8212
G1 X-31.3778 Y86.338
G1 X-32.2115 Y88.1564
G1 X-32.6931 Y90.2254
G1 X-32.8064 Y92.4964
G1 X-32.5349 Y94.9175
G1 X-31.2995 Y98.9628
G0 Z5.0
G0 X-30.31 Y106.0427
G1 Z0.0
G1 X-29.0517 Y106.7057
G1 X-27.4783 Y107.0537
G1 X-27.9836 Y106.5986
G1 X-28.7322 Y106.3868
G1 X-30.31 Y106.0427
G0 Z5.0
G0 X-19.3877 Y111.3016
G1 Z0.0
G1 X-16.2404 Y113.0093
G1 X-12.7126 Y114.3356
G1 X-8.8714 Y113.5776
G1 X-4.4702 Y113.1815
G1 X3.6706 Y113.3247
G1 X3.2659 Y112.7178
G1 X5.2635 Y113.502
G1 X7.3119 Y114.7403
G1 X8.348 Y114.5621
G1 X9.1321 Y114.1333
G1 X3.6836 Y111.2901
G1 X1.0712 Y109.7553
G1 X-1.1832 Y107.8629
G1 X4.1075 Y111.0678
G1 X9.9415 Y113.7288
G1 X12.5378 Y112.6847
G1 X13.7186 Y112.0448
G1 X14.5934 Y111.0993
G1 X9.1356 Y109.4269
G1 X4.6355 Y106.7969
G1 X0.8413 Y103.4613
G1 X-2.4988 Y99.6716
G1 X-8.8239 Y91.7372
G1 X-12.3126 Y88.0957
G1 X-16.3536 Y85.0071
G1 X-13.7096 Y88.2435
G1 X-11.1217 Y92.543
G1 X-9.329 Y97.6757
G1 X-8.9621 Y100.4828
G1 X-9.0717 Y103.4133
G1 X-10.1383 Y106.8564
G1 X-12.2871 Y109.4028
G1 X-15.4072 Y110.926
G1 X-19.3877 Y111.3016
G0 Z5.0
G0 X-11.7022 Y114.3352
G1 Z0.0
G1 X-10.8084 Y115.4984
G1 X-9.4042 Y116.3096
G1 X-5.5699 Y117.0317
G1 X-1.2118 Y116.8099
G1 X2.6591 Y115.9537
G1 X0.6268 Y116.8545
G1 X-1.9932 Y117.1674
G1 X-0.0074 Y117.3657
G1 X2.2544 Y117.0643
G1 X4.2128 Y116.2075
G1 X5.2889 Y114.7399
G1 X3.5482 Y114.0478
G1 X1.5494 Y113.6777
G1 X-2.9258 Y113.6266
G1 X-11.7022 Y114.3352
G0 Z5.0
G0 X5.6939
G1 Z0.0
G1 X5.8973 Y115.1448
G1 X6.7054 Y114.9426
G1 X6.324 Y114.5144
G1 X5.6939 Y114.3352
G0 Z5.0
G0 X22.687 Y87.2795
G1 Z0.0
G1 X26.593 Y89.619
G1 X30.9775 Y91.4793
G1 X30.1784 Y88.9966
G1 X29.561 Y86.2199
G1 X29.9825 Y84.4663
G1 X30.3701 Y82.7813
G1 X29.561 Y80.5564
G1 X29.2635 Y76.6605
G1 X29.561 Y72.668
G1 X32.5303 Y52.9144
G1 X35.8319 Y34.2368
G1 X38.7857 Y34.3169
G1 X41.1509 Y34.9859
G1 X43.0376 Y36.1331
G1 X44.5575 Y37.6474
G1 X46.9386 Y41.3344
G1 X49.1815 Y45.1597
G1 X50.8275 Y44.075
G1 X52.2154 Y42.7326
G1 X51.2039 Y37.2709
G1 X51.9847 Y39.7271
G1 X52.4173 Y42.5298
G1 X54.0831 Y41.8692
G1 X55.4512 Y40.9117
G1 X55.6204 Y37.2713
G1 X56.3813 Y33.5883
G1 X57.1322 Y29.977
G1 X57.272 Y26.5513
G1 X56.2679 Y23.8772
G1 X54.6421 Y20.8877
G1 X52.0232 Y16.3994
G1 X49.0076 Y12.1436
G1 X45.5734 Y8.2143
G1 X41.6975 Y4.7059
G1 X38.2671 Y2.2267
G1 X34.7207 Y0.2386
G1 X30.8697 Y-1.2851
G1 X26.5268 Y-2.3732
G1 X20.65 Y-3.0058
G1 X17.5528 Y-2.8959
G1 X14.5937 Y-2.3732
G1 X10.3896 Y-0.8575
G1 X6.365 Y1.1641
G1 X-1.3851 Y5.5147
G1 X-2.8006 Y6.3239
G1 X-8.4478 Y8.9903
G1 X-14.533 Y11.3809
G1 X-16.1319 Y16.4055
G1 X-18.3516 Y20.8107
G1 X-21.1399 Y24.6469
G1 X-24.4438 Y27.9669
G1 X-27.3662 Y28.5768
G1 X-29.8164 Y28.2097
G1 X-31.8084 Y27.017
G1 X-33.3557 Y25.152
G1 X-34.4719 Y22.7666
G1 X-35.1699 Y20.0128
G1 X-35.4638 Y17.0429
G1 X-35.3667 Y14.0105
G1 X-39.3752 Y13.2819
G1 X-43.1609 Y11.9433
G1 X-46.2351 Y9.7671
G1 X-47.3527 Y8.2937
G1 X-48.1094 Y6.5262
G1 X-52.5876 Y9.0775
G1 X-56.3848 Y12.3088
G1 X-59.7358 Y15.9864
G1 X-62.8751 Y19.8758
G1 X-56.261 Y16.5297
G1 X-52.4563 Y15.3019
G1 X-50.2276 Y15.079
G1 X-47.7053 Y15.2236
G1 X-45.2241 Y15.9979
G1 X-43.3366 Y17.4851
G1 X-42.0136 Y19.5406
G1 X-41.2265 Y22.0179
G1 X-40.9456 Y24.771
G1 X-41.1423 Y27.654
G1 X-41.7869 Y30.5208
G1 X-42.8509 Y33.2258
G1 X-45.9176 Y38.4046
G1 X-49.5255 Y43.9458
G1 X-52.5641 Y48.4095
G1 X-55.3913 Y52.8453
G1 X-57.499 Y58.0356
G1 X-58.5856 Y60.5097
G1 X-60.0439 Y62.5543
G1 X-61.7248 Y63.7391
G1 X-63.6352 Y64.2719
G1 X-65.6202 Y64.1989
G1 X-67.5275 Y63.5654
G1 X-67.6868 Y64.8699
G1 X-67.4098 Y66.1283
G1 X-66.9207 Y68.8243
G1 X-67.6913 Y66.1563
G1 X-68.1339 Y63.1607
G1 X-69.2827 Y62.2864
G1 X-70.1706 Y61.1518
G1 X-71.5726 Y58.5083
G1 X-71.4851 Y61.0317
G1 X-71.0058 Y63.5543
G1 X-69.7524 Y68.4196
G1 X-69.6828 Y67.2555
G1 X-69.9507 Y66.0385
G1 X-70.3599 Y63.3631
G1 X-69.3182 Y68.0611
G1 X-67.9351 Y72.4172
G1 X-66.2155 Y76.4373
G1 X-64.1655 Y80.1263
G1 X-61.7894 Y83.4892
G1 X-59.0934 Y86.5329
G1 X-56.0823 Y89.2615
G1 X-52.7624 Y91.6807
G1 X-54.0438 Y91.2461
G1 X-55.3618 Y90.1864
G1 X-56.5941 Y89.1664
G1 X-57.6167 Y88.849
G1 X-54.0913 Y91.567
G1 X-52.2691 Y92.7102
G1 X-50.3347 Y93.0968
G1 X-49.1891 Y94.5039
G1 X-47.1875 Y95.7348
G1 X-42.4464 Y97.7493
G1 X-45.7965 Y93.2
G1 X-49.0398 Y88.0281
G1 X-51.8691 Y82.3066
G1 X-53.9756 Y76.1062
G1 X-55.189 Y69.4317
G1 X-55.2085 Y64.1713
G1 X-54.5606 Y59.4478
G1 X-53.3192 Y55.2053
G1 X-51.5601 Y51.3891
G1 X-49.3568 Y47.9449
G1 X-46.7843 Y44.8173
G1 X-40.8284 Y39.2939
G1 X-36.4022 Y37.1602
G1 X-31.6526 Y35.4972
G1 X-26.5855 Y34.5187
G1 X-21.2084 Y34.4396
G1 X-17.5754 Y34.9679
G1 X-14.1789 Y35.9243
G1 X-11.0321 Y37.2614
G1 X-8.1509 Y38.9308
G1 X-3.2413 Y43.0796
G1 X0.4342 Y47.9916
G1 X3.1498 Y51.2939
G1 X5.2169 Y55.2444
G1 X8.7275 Y63.7686
G1 X9.979 Y68.7622
G1 X11.6465 Y73.3396
G1 X13.7406 Y77.4909
G1 X16.2714 Y81.2049
G1 X19.2503 Y84.4713
G1 X22.687 Y87.2795
G0 Z5.0
G0 X30.3554 Y87.1681
G1 Z0.0
G1 X30.371 Y88.243
G1 X31.2505 Y90.4743
G1 X32.616 Y92.2279
G1 X35.4273 Y94.5133
G1 X34.7012 Y91.9785
G1 X34.3785 Y88.95
G1 X34.6179 Y82.1748
G1 X33.6365 Y81.2535
G1 X32.717 Y81.0842
G1 X31.8933 Y81.5304
G1 X31.1977 Y82.4568
G1 X30.3269 Y85.2059
G1 X30.3554 Y87.1681
G0 Z5.0
G0 X34.6602 Y87.2701
G1 Z0.0
G1 X34.8583 Y91.2555
G1 X35.3465 Y93.0211
G1 X36.1499 Y94.4928
G1 X37.309 Y95.5655
G1 X38.8658 Y96.1314
G1 X36.913 Y93.8239
G1 X35.9875 Y92.6566
G1 X35.4273 Y91.0752
G1 X35.3906 Y89.1268
G1 X35.6123 Y87.1648
G1 X35.6912 Y85.2365
G1 X35.2238 Y83.3886
G1 X34.6602 Y87.2701
G0 Z5.0
G0 X36.1165 Y87.2018
G1 Z0.0
G1 X36.3176 Y91.4963
G1 X37.0037 Y93.3231
G1 X38.4612 Y94.5133
G1 X38.2466 Y90.4729
G1 X38.4673 Y88.5509
G1 X39.0683 Y87.0292
G1 X41.4867 Y86.7798
G1 X43.2255 Y87.5524
G1 X44.4414 Y89.1067
G1 X45.2911 Y91.2019
G1 X46.5209 Y96.0522
G1 X47.215 Y98.3257
G1 X48.1709 Y100.177
G1 X50.0092 Y102.0802
G1 X52.3495 Y103.4819
G1 X55.0788 Y104.4948
G1 X58.0816 Y105.2335
G1 X58.2835 Y105.234
G1 X58.6875
G1 X58.4903 Y104.6222
G1 X58.0235 Y104.2801
G1 X57.535 Y103.9596
G1 X57.2711 Y103.4137
G1 X57.6987 Y102.6276
G1 X58.6875 Y102.4028
G1 X58.4028 Y101.6762
G1 X58.0804 Y100.9872
G1 X58.4667 Y100.4128
G1 X59.1282 Y100.1128
G1 X60.7102 Y99.7733
G1 X60.5075 Y97.7503
G1 X61.9714 Y96.6862
G1 X64.1485 Y96.3347
G1 X64.3065 Y94.7222
G1 X65.0066 Y93.6521
G1 X66.188 Y93.0638
G1 X67.7905 Y92.8959
G1 X68.4467 Y91.5805
G1 X69.3728 Y90.5344
G1 X70.6703 Y89.8598
G1 X72.4418 Y89.659
G1 X73.1555 Y88.1983
G1 X74.3353 Y87.2039
G1 X75.9841 Y86.6781
G1 X78.1058 Y86.625
G1 X78.6366 Y84.8804
G1 X79.6903 Y83.6591
G1 X81.3171 Y83.0101
G1 X83.5665 Y82.9841
G1 X84.1069 Y81.4003
G1 X84.9817 Y80.1523
G1 X86.3708 Y79.96
G1 X87.6115 Y80.3546
G1 X88.592 Y78.6816
G1 X89.0523 Y77.9611
G1 X89.8373 Y77.5229
G1 X91.2365 Y77.6104
G1 X92.6355 Y78.2409
G1 X94.0517 Y78.9675
G1 X95.5011 Y79.3435
G1 X95.9847 Y80.6055
G1 X95.9577 Y81.879
G1 X95.8036 Y83.2495
G1 X95.9054 Y84.8043
G1 X96.9999 Y82.7642
G1 X97.6909 Y80.4818
G1 X98.13 Y75.0956
G1 X96.2856 Y73.5644
G1 X93.8825 Y72.2218
G1 X88.0162 Y70.2409
G1 X83.7568 Y69.7467
G1 X79.7965 Y70.1748
G1 X76.1133 Y71.34
G1 X72.6862 Y73.0582
G1 X66.5159 Y77.4153
G1 X61.1149 Y81.7703
G1 X57.5829 Y83.8203
G1 X55.4769 Y84.5509
G1 X53.4288 Y84.8043
G1 X51.3054 Y84.5284
G1 X49.3626 Y83.8583
G1 X46.1029 Y81.5319
G1 X43.8265 Y78.2119
G1 X42.7087 Y74.2865
G1 X42.6957 Y71.4226
G1 X43.1768 Y68.734
G1 X44.5293 Y63.1618
G1 X45.5389 Y54.3174
G1 X45.5408 Y44.7556
G1 X45.6314 Y42.6224
G1 X45.5408 Y40.5077
G1 X44.2355 Y38.1115
G1 X42.3047 Y36.0582
G1 X39.5789 Y34.9434
G1 X36.2363 Y34.8442
G1 X33.8713 Y47.5718
G1 X31.7862 Y60.7346
G1 X30.3176 Y70.904
G1 X30.0011 Y76.25
G1 X30.5728 Y81.7703
G1 X31.1409 Y81.6301
G1 X31.4552 Y81.2369
G1 X32.1909 Y80.5564
G1 X34.3269 Y81.1813
G1 X35.4977 Y82.6044
G1 X35.9931 Y84.5865
G1 X36.1018 Y86.889
G1 X36.1165 Y87.2018
G0 Z5.0
G0 X39.3152 Y88.3038
G1 Z0.0
G1 X38.8748 Y89.582
G1 X38.7807 Y93.3771
G1 X39.6752 Y96.941
G1 X42.0326 Y100.4954
G1 X45.364 Y103.3727
G1 X49.1883 Y105.3096
G1 X53.0241 Y106.0427
G1 X50.652 Y104.9296
G1 X48.6259 Y103.4043
G1 X46.9345 Y101.5099
G1 X45.5675 Y99.2911
G1 X43.7594 Y94.0537
G1 X43.1134 Y88.0417
G1 X41.4627 Y87.1433
G1 X40.2282 Y87.241
G1 X39.377 Y88.1243
G1 X39.3152 Y88.3038
G0 Z5.0
G0 X43.3156 Y88.8494
G1 Z0.0
G1 X44.5383 Y95.6236
G1 X45.619 Y98.6095
G1 X47.0911 Y101.2051
G1 X49.0141 Y103.3181
G1 X51.4477 Y104.8565
G1 X54.4502 Y105.7278
G1 X58.0816 Y105.8404
G1 X52.1604 Y103.9747
G1 X49.6986 Y102.5425
G1 X47.7669 Y100.5816
G1 X46.4762 Y97.8258
G1 X45.66 Y94.596
G1 X44.7842 Y91.4263
G1 X43.3156 Y88.8494
G0 Z5.0
G0 X47.2229 Y81.702
G1 Z0.0
G1 X50.4402 Y83.4608
G1 X52.3803 Y83.944
G1 X54.4077 Y84.0607
G1 X56.4627 Y83.7587
G1 X58.4863 Y82.9841
G1 X61.0298 Y81.0728
G1 X63.5426 Y78.7367
G1 X67.3122 Y75.7137
G1 X71.5405 Y72.9299
G1 X76.2707 Y70.673
G1 X81.5456 Y69.2304
G1 X68.6001 Y64.9825
G1 X64.6817 Y63.1913
G1 X61.2118 Y61.0416
G1 X58.1288 Y58.5538
G1 X55.3701 Y55.7471
G1 X50.5806 Y49.2553
G1 X46.3501 Y41.722
G1 X46.2265 Y50.1406
G1 X46.0631 Y54.9379
G1 X45.5408 Y59.9259
G1 X43.5836 Y69.4428
G1 X43.3637 Y74.336
G1 X43.7988 Y76.6917
G1 X44.732 Y78.939
G1 X47.0576 Y81.6116
G1 X47.2229 Y81.702
G0 Z5.0
G0 X60.913 Y98.1544
G1 Z0.0
G1 X62.5038 Y101.0637
G1 X64.7463 Y103.3221
G1 X70.015 Y107.0537
G1 X73.3548 Y107.4735
G1 X75.0238 Y107.274
G1 X76.2862 Y106.6497
G1 X72.8269 Y104.7483
G1 X69.8007 Y102.4138
G1 X64.5544 Y96.9405
G1 X62.3255 Y97.1393
G1 X60.913 Y98.1544
G0 Z5.0
G0 X60.7032 Y100.5089
G1 Z0.0
G1 X60.0186 Y100.4479
G1 X58.6875 Y100.9856
G1 X60.6459 Y103.2756
G1 X62.8214 Y105.3483
G1 X65.559 Y106.8579
G1 X69.2051 Y107.4584
G1 X65.1193 Y104.2625
G1 X63.1519 Y102.5895
G1 X61.5193 Y100.5816
G1 X60.7032 Y100.5089
G0 Z5.0
G0 X59.3537 Y103.222
G1 Z0.0
G1 X57.8788 Y103.4133
G1 X59.8845 Y105.1498
G1 X61.1419 Y105.7634
G1 X62.7332 Y106.0427
G1 X60.5991 Y103.9486
G1 X59.3537 Y103.222
G0 Z5.0
G0 X65.8311 Y97.6787
G1 Z0.0
G1 X67.5315 Y99.6656
G1 X71.8355 Y103.6156
G1 X74.1108 Y104.8979
G1 X76.9347 Y105.8178
G1 X79.7879 Y105.94
G1 X81.0633 Y105.5655
G1 X82.1516 Y104.8289
G1 X81.9397 Y104.3587
G1 X81.5746 Y104.2351
G1 X80.7363 Y104.222
G1 X76.9937 Y102.1729
G1 X73.8449 Y99.3171
G1 X70.956 Y96.1829
G1 X67.992 Y93.2997
G1 X65.8429 Y93.7994
G1 X64.9752 Y94.4739
G1 X64.5544 Y95.322
G1 X65.3824 Y97.1543
G1 X65.8311 Y97.6787
G0 Z5.0
G0 X69.6597 Y94.2705
G1 Z0.0
G1 X71.4299 Y95.9295
G1 X75.9406 Y100.4608
G1 X78.5987 Y102.5755
G1 X81.1388 Y103.8178
G1 X83.242 Y103.9616
G1 X85.0196 Y103.3913
G1 X86.3737 Y102.3266
G1 X87.2076 Y100.9867
G1 X84.7637 Y100.3782
G1 X82.5922 Y99.4022
G1 X78.8614 Y96.6662
G1 X72.4418 Y90.266
G1 X69.9101 Y90.7853
G1 X68.9545 Y91.58
G1 X68.5986 Y92.6931
G1 X69.6597 Y94.2705
G0 Z5.0
G0 X73.964 Y90.5013
G1 Z0.0
G1 X78.1965 Y95.3346
G1 X81.4565 Y98.174
G1 X84.7799 Y100.177
G1 X86.8786 Y100.5029
G1 X88.8405 Y99.8218
G1 X90.3899 Y98.3072
G1 X91.2526 Y96.1314
G1 X89.2305
G1 X85.9293 Y94.3762
G1 X83.0478 Y92.2004
G1 X77.9036 Y87.232
G1 X76.1505 Y87.2489
G1 X74.7738 Y87.6421
G1 X73.7483 Y88.3862
G1 X73.0492 Y89.4567
G1 X73.964 Y90.5013
G0 Z5.0
G0 X78.8369 Y86.859
G1 Z0.0
G1 X80.8696 Y89.5785
G1 X83.9717 Y92.4909
G1 X86.9377 Y94.4879
G1 X89.8911 Y95.4838
G1 X91.2321 Y95.4042
G1 X92.4129 Y94.8313
G1 X93.3812 Y93.6852
G1 X94.0853 Y91.8835
G1 X90.0327 Y91.3346
G1 X86.8035 Y89.9627
G1 X84.3323 Y87.8319
G1 X82.5556 Y85.0071
G1 X84.6221 Y87.5484
G1 X87.1994 Y89.7166
G1 X90.4389 Y91.0978
G1 X94.489 Y91.2776
G1 Y90.0637
G1 X93.6762 Y90.1293
G1 X92.4663 Y90.266
G1 X89.8135 Y89.0256
G1 X87.5551 Y87.3907
G1 X83.5671 Y83.591
G1 X81.7348 Y83.5048
G1 X80.2767 Y84.0256
G1 X79.1996 Y85.0371
G1 X78.5108 Y86.4227
G1 X78.8369 Y86.859
G0 Z5.0
G0 X84.5379 Y83.2766
G1 Z0.0
G1 X86.6 Y85.6135
G1 X89.7594 Y88.3813
G1 X91.7098 Y89.4232
G1 X93.6796 Y89.6586
G1 X95.2701 Y87.571
G1 X95.6437 Y86.1825
G1 X95.5011 Y84.602
G1 X95.2871 Y84.3015
G1 X94.9803 Y84.6045
G1 X94.5791 Y85.0582
G1 X94.0843 Y85.2089
G1 X91.6281 Y84.3281
G1 X89.8461 Y82.7723
G1 X88.0088 Y81.272
G1 X86.8414 Y80.7707
G1 X85.3863 Y80.5564
G1 X84.4168 Y82.0467
G1 X84.5379 Y83.2766
G0 Z5.0
G0 X88.4215 Y80.7593
G1 Z0.0
G1 X91.0284 Y83.1077
G1 X94.2872 Y84.8043
G1 X95.0844 Y83.3772
G1 X95.5011 Y81.5685
G1 X92.9346 Y80.696
G1 X90.848 Y79.3435
G1 X93.1325 Y80.296
G1 X95.2987 Y81.3661
G1 X95.5505 Y80.5614
G1 X95.0809 Y80.0561
G1 X93.2772 Y79.3435
G1 X91.2551 Y78.3055
G1 X90.2085 Y78.1377
G1 X89.0287 Y78.5344
G1 X88.7342 Y79.655
G1 X88.4215 Y80.7593
G0 Z5.0
G0 X89.0284 Y70.2409
G1 Z0.0
G1 X90.443 Y70.0386
G1 X90.5682 Y69.3546
G1 X90.6452 Y68.623
G1 X89.3352 Y68.9359
G1 X88.1395 Y68.7757
G1 X86.1268 Y67.2915
G1 X84.6783 Y64.6846
G1 X83.8665 Y61.4708
G1 X83.7634 Y58.1648
G1 X84.4398 Y55.282
G1 X85.9687 Y53.3369
G1 X87.0749 Y52.8778
G1 X88.4209 Y52.8458
G1 X86.5034 Y49.8227
G1 X84.1174 Y46.9744
G1 X81.2031 Y44.5844
G1 X77.7012 Y42.9343
G1 X72.3989 Y41.716
G1 X66.7513 Y41.074
G1 X61.2696 Y40.9073
G1 X56.4633 Y41.1141
G1 X49.5858 Y45.5639
G1 X53.7924 Y52.8123
G1 X56.2198 Y56.2053
G1 X59.0922 Y59.1162
G1 X62.1755 Y61.3135
G1 X65.5386 Y63.1487
G1 X72.8465 Y65.9935
G1 X80.8351 Y68.0401
G1 X89.0284 Y70.2409
G0 Z5.0
G0 X89.838 Y68.2183
G1 Z0.0
G1 X91.0725 Y67.291
G1 X91.9061 Y65.5613
G1 X92.3123 Y63.2889
G1 X92.265 Y60.7346
G1 X91.7986 Y58.308
G1 X90.911 Y55.9008
G1 X89.6386 Y54.0901
G1 X88.8691 Y53.5888
G1 X88.0169 Y53.4531
G1 X87.2212 Y53.736
G1 X86.6087 Y54.3916
G1 X85.865 Y56.5042
G1 X85.6408 Y59.1648
G1 X85.7923 Y61.7461
G1 X86.2935 Y63.961
G1 X87.1684 Y65.8078
G1 X88.3668 Y67.2414
G1 X89.838 Y68.2183
G0 Z5.0
G0 X88.2175
G1 Z0.0
G1 X86.46 Y65.4688
G1 X85.4382 Y62.0305
G1 X85.2004 Y58.1968
G1 X85.791 Y54.262
G1 X84.9202 Y55.8673
G1 X84.4382 Y57.7205
G1 X84.4929 Y61.7541
G1 X85.6522 Y65.5309
G1 X87.6115 Y68.2183
G1 X88.2175
G0 Z5.0
G0 X81.3428 Y43.9464
G1 Z0.0
G1 X82.0923 Y43.339
G1 X82.2156 Y41.9584
G1 X82.2565 Y40.4091
G1 X82.7577 Y39.2943
G1 X82.7683 Y37.5128
G1 X83.1034 Y35.7807
G1 X83.2652 Y34.2382
G1 X82.7577 Y33.0239
G1 X81.6326 Y38.5709
G1 X81.3428 Y43.9464
G0 Z5.0
G0 X80.4335 Y43.3767
G1 Z0.0
G1 X80.913 Y42.6114
G1 X81.1559 Y41.4006
G1 X81.3428 Y38.6875
G1 X81.9242 Y35.5358
G1 X82.0357 Y33.9969
G1 X81.7462 Y32.6194
G1 X80.4208 Y37.9659
G1 X80.149 Y40.9113
G1 X80.3301 Y43.5418
G1 X80.4335 Y43.3767
G0 Z5.0
G0 X79.5211 Y42.9349
G1 Z0.0
G1 X80.9382 Y32.4166
G1 X75.6698 Y31.1211
G1 X69.7427 Y30.1242
G1 X63.5476 Y29.7676
G1 X57.4745 Y30.3941
G1 X56.5605 Y35.4466
G1 X55.8564 Y40.7101
G1 X61.4537 Y40.2954
G1 X66.9262 Y40.5813
G1 X77.2965 Y42.3279
G1 X78.5099 Y34.642
G1 X78.2571 Y38.4852
G1 X77.7012 Y42.5308
G1 X78.4835 Y42.8603
G1 X79.5211 Y42.9349
G0 Z5.0
G0 X83.0289 Y32.7064
G1 Z0.0
G1 X83.3653 Y32.8217
G1 X84.2885 Y27.3234
G1 X84.5792 Y21.6969
G1 X83.9848 Y22.3945
G1 X83.7342 Y23.5432
G1 X83.5671 Y26.1471
G1 X82.9621 Y30.3941
G1 X82.9136 Y28.1397
G1 X83.1975 Y25.8257
G1 X83.7715 Y21.0901
G1 X82.4068 Y20.7349
G1 X81.1413 Y20.2809
G1 X80.253 Y25.4606
G1 X79.3201 Y30.5968
G1 X80.737 Y20.2809
G1 X75.7393 Y19.2654
G1 X70.1597 Y18.4866
G1 X64.4081 Y18.2513
G1 X58.8916 Y18.8652
G1 X58.0021 Y24.5101
G1 X57.4754 Y29.7875
G1 X64.1578 Y29.3374
G1 X70.6868 Y29.7306
G1 X76.7282 Y30.7591
G1 X81.95 Y32.2152
G1 X82.4928 Y31.6453
G1 X82.5559 Y30.5968
G1 X82.7848 Y31.2694
G1 X82.6987 Y32.0155
G1 X82.7432 Y32.6084
G1 X83.0289 Y32.7064
G0 Z5.0
G0 X84.9817 Y25.3379
G1 Z0.0
G1 X88.7588 Y22.393
G1 X91.9421 Y18.3675
G1 X94.5781 Y13.6804
G1 X96.7133 Y8.752
G1 X97.7297 Y5.9392
G1 X98.3598 Y3.2276
G1 X98.2676 Y0.6993
G1 X97.1179 Y-1.564
G1 X94.8586 Y-1.833
G1 X92.6265 Y-1.3817
G1 X88.2191 Y-0.1479
G1 X84.1444 Y0.0333
G1 X80.3301 Y-0.1479
G1 X77.4102 Y-0.7403
G1 X76.0723 Y-0.6633
G1 X75.0707 Y0.2567
G1 X78.4698 Y1.0454
G1 X82.0559 Y1.4275
G1 X85.6892 Y1.3249
G1 X89.2302 Y0.6613
G1 X92.5865 Y-0.573
G1 X94.0567 Y-0.6401
G1 X95.5011 Y0.2567
G1 X95.7735 Y1.6998
G1 X95.4651 Y3.1145
G1 X94.489 Y5.9198
G1 X93.8349 Y11.3163
G1 X93.2035 Y13.6449
G1 X91.8592 Y15.4265
G1 X90.615 Y15.8516
G1 X89.4327 Y16.2358
G1 X87.6115 Y18.8652
G1 X85.5892 Y21.2917
G1 X84.9817 Y25.3379
G0 Z5.0
G0 X84.5792 Y21.0901
G1 Z0.0
G1 X85.1904 Y19.8487
G1 X85.5649 Y18.1491
G1 X85.5482 Y16.6053
G1 X84.9835 Y15.8311
G1 X84.464 Y18.6404
G1 X84.3137 Y20.0265
G1 X84.5792 Y21.0901
G0 Z5.0
G0 X83.9717 Y20.6854
G1 Z0.0
G1 X84.2926 Y18.1751
G1 X84.5792 Y15.6288
G1 X82.8916 Y14.8086
G1 X81.4143 Y13.4896
G1 X80.204 Y11.7961
G1 X79.3168 Y9.8531
G1 X78.8093 Y7.7855
G1 X78.7378 Y5.717
G1 X79.1589 Y3.7726
G1 X80.1288 Y2.0769
G1 X75.8695 Y1.701
G1 X70.943 Y1.5942
G1 X65.9575 Y1.4765
G1 X61.5199 Y1.0654
G1 X60.1609 Y9.1807
G1 X59.0938 Y18.056
G1 X64.7072 Y17.6533
G1 X70.3256 Y17.9619
G1 X80.7363 Y19.6743
G1 X81.5456 Y14.8201
G1 X81.6963 Y16.0149
G1 X81.5158 Y17.2693
G1 X81.1409 Y19.8762
G1 X83.9717 Y20.6854
G0 Z5.0
G0 X85.7914 Y20.0786
G1 Z0.0
G1 X87.5125 Y18.361
G1 X89.0284 Y16.4375
G1 X88.6392 Y16.0679
G1 X87.9466 Y16.0013
G1 X86.3982 Y16.033
G1 X85.9541 Y17.9147
G1 X85.7914 Y20.0786
G0 Z5.0
G0 X85.8516 Y15.4987
G1 Z0.0
G1 X88.2197 Y15.4271
G1 X87.2476 Y14.2237
G1 X86.5364 Y12.6819
G1 X85.859 Y8.9649
G1 X86.1088 Y5.04
G1 X87.2081 Y1.6724
G1 X84.1485 Y1.9859
G1 X81.3428 Y2.0769
G1 X79.8661 Y4.0249
G1 X79.2931 Y6.3103
G1 X79.5064 Y8.725
G1 X80.3872 Y11.0599
G1 X81.8174 Y13.1065
G1 X83.6782 Y14.6553
G1 X85.8516 Y15.4987
G0 Z5.0
G0 X87.9554 Y14.1262
G1 Z0.0
G1 X88.5352 Y15.015
G1 X89.9321 Y15.6018
G1 X91.6573 Y14.8201
G1 X92.575 Y13.6353
G1 X93.243 Y11.9388
G1 X93.8194 Y7.6698
G1 X93.3654 Y3.3353
G1 X92.7455 Y1.5567
G1 X91.8604 Y0.2567
G1 X87.8144 Y1.6724
G1 X86.9522 Y3.3753
G1 X86.502 Y5.7375
G1 X86.4488 Y8.42
G1 X86.7792 Y11.086
G1 X87.4796 Y13.3969
G1 X87.9554 Y14.1262
G0 Z5.0
G0 X94.2856 Y4.5041
G1 Z0.0
G1 X94.7964 Y3.757
G1 X95.0285 Y2.6939
G1 X94.8936 Y0.4585
G1 X93.7465 Y-0.0502
G1 X92.4663 Y0.0539
G1 X93.4716 Y2.1842
G1 X94.2856 Y4.5041
G0 Z5.0
G0 X75.2747 Y-1.5635
G1 Z0.0
G1 X74.0607 Y-1.7664
G1 X73.7993 Y-0.8134
G1 X73.6561 Y0.2572
G1 X74.0607
G1 X74.8726 Y-0.4483
G1 X75.2747 Y-1.5635
G0 Z5.0
G0 X75.2766 Y-2.3741
G1 Z0.0
G1 X74.4182 Y-11.1395
G1 X73.7443 Y-15.4109
G1 X72.6868 Y-19.3011
G1 X71.0803 Y-22.58
G1 X68.7603 Y-25.0173
G1 X65.5619 Y-26.3819
G1 X61.3196 Y-26.444
G1 X60.9435 Y-26.2077
G1 X61.1168 Y-25.6347
G1 X60.2015 Y-25.7027
G1 X59.4987 Y-25.6347
G1 X57.7624 Y-24.0844
G1 X56.5714 Y-21.9161
G1 X55.8363 Y-19.2626
G1 X55.4679 Y-16.2575
G1 X55.4698 Y-9.7249
G1 X55.8574 Y-3.3853
G1 X58.0301 Y-3.8416
G1 X60.3081 Y-4.1934
G1 X57.6776 Y-5.4074
G1 X57.4754 Y-6.4763
G1 X57.6776 Y-7.4298
G1 X60.3801 Y-8.2926
G1 X64.3075 Y-8.4295
G1 X67.7517 Y-7.6617
G1 X68.7594 Y-6.8829
G1 X69.0051 Y-5.812
G1 X68.6069 Y-5.0714
G1 X67.901 Y-4.7158
G1 X67.0898 Y-4.4024
G1 X66.3762 Y-3.7887
G1 X69.125 Y-3.5039
G1 X71.8365 Y-3.1819
G1 X71.2837 Y-8.899
G1 X70.4209 Y-14.3066
G1 X71.3902 Y-10.6128
G1 X72.0384 Y-6.2164
G1 X72.1548 Y-3.8984
G1 X72.5809 Y-2.9847
G1 X73.6561 Y-2.7772
G1 X73.3533 Y-4.7999
G1 X73.2514 Y-7.0251
G1 X73.6281 Y-5.7329
G1 X73.6763 Y-4.1123
G1 X74.0182 Y-2.7853
G1 X74.494 Y-2.4263
G1 X75.2766 Y-2.3741
G0 Z5.0
G0 X73.6561 Y-1.968
G1 Z0.0
G1 X72.7089 Y-2.1918
G1 X72.3017 Y-2.0872
G1 X72.2399 Y-1.5635
G1 X72.0116 Y-2.0427
G1 X71.8355 Y-2.575
G1 X63.7817 Y-3.4925
G1 X59.645 Y-3.4853
G1 X55.8564 Y-2.7772
G1 X55.9769 Y-1.8865
G1 X56.4061 Y-1.3041
G1 X57.2726 Y-0.1474
G1 X58.4323 Y-1.3813
G1 X60.132 Y-2.1033
G1 X62.214 Y-2.3928
G1 X64.5209 Y-2.3297
G1 X69.1793 Y-1.4648
G1 X72.8471 Y-0.1474
G1 X73.5219 Y-0.7873
G1 X73.6561 Y-1.968
G0 Z5.0
G0 X72.2214 Y0.4557
G1 Z0.0
G1 X70.524 Y-0.549
G1 X67.1355 Y-1.3707
G1 X63.2662 Y-1.6315
G1 X59.0938 Y-1.564
G1 X58.495 Y-0.948
G1 X58.0816 Y-0.1479
G1 X58.9139 Y0.5076
G1 X59.6991 Y0.6613
G1 X63.16 Y0.8942
G1 X66.524 Y0.8031
G1 X69.8644 Y0.7419
G1 X73.2514 Y1.0654
G1 X72.2214 Y0.4557
G0 Z5.0
G0 X67.7816 Y-5.3922
G1 Z0.0
G1 X68.6001 Y-6.0136
G1 X67.833 Y-6.8208
G1 X66.6401 Y-7.3907
G1 X63.5159 Y-7.9025
G1 X60.304 Y-7.7226
G1 X58.0816 Y-7.0251
G1 X58.3838 Y-5.9888
G1 X59.4028 Y-5.2562
G1 X62.7363 Y-4.6142
G1 X66.3721 Y-4.9251
G1 X67.7693 Y-5.3829
G1 X67.7816 Y-5.3922
G0 Z5.0
G0 X60.7106 Y1.2677
G1 Z0.0
G1 X57.3645 Y1.0214
G1 X54.6424 Y1.0654
G1 X53.6756 Y5.2082
G1 X53.7462 Y9.9208
G1 X54.3185 Y11.9873
G1 X55.3272 Y13.5932
G1 X56.8313 Y14.5372
G1 X58.8903 Y14.6177
G1 X59.8494 Y7.9918
G1 X60.7106 Y1.2677
G0 Z5.0
G0 X56.8686 Y0.0539
G1 Z0.0
G1 X55.4518 Y-1.564
G1 X51.2045 Y-1.1594
G1 X52.0794 Y-0.1258
G1 X53.5719 Y0.3503
G1 X56.8686 Y0.0539
G0 Z5.0
G0 X54.0356 Y0.8626
G1 Z0.0
G1 X52.1415 Y0.3554
G1 X50.7458 Y-0.6507
G1 X49.7396 Y-2.0462
G1 X49.0147 Y-3.7232
G1 X47.9737 Y-7.486
G1 X46.7541 Y-11.0702
G1 X42.3587 Y-4.8468
G1 X39.8453 Y-2.0509
G1 X37.045 Y0.4585
G1 X43.1417 Y5.2372
G1 X48.5604 Y10.8848
G1 X53.2275 Y17.3871
G1 X57.0698 Y24.7305
G1 X58.163 Y20.2613
G1 X58.6875 Y15.2236
G1 X56.4443 Y14.8588
G1 X54.822 Y13.7484
G1 X53.7477 Y12.0615
G1 X53.1489 Y9.9658
G1 X53.0819 Y5.2222
G1 X54.0356 Y0.8626
G0 Z5.0
G0 X46.956 Y-25.6338
G1 Z0.0
G1 X46.7491 Y-26.7903
G1 X46.956 Y-27.859
G1 X47.293 Y-26.5925
G1 X47.3802 Y-26.0149
G1 X46.956 Y-25.6338
G0 Z5.0
G0 X43.6992 Y-25.1788
G1 Z0.0
G1 X43.5767 Y-26.0559
G1 X43.5243 Y-26.4319
G1 X42.6171 Y-27.3667
G1 X40.0786 Y-28.4655
G1 X31.8763 Y-31.3218
G1 X23.1373 Y-33.8442
G1 X5.0871 Y-38.3768
G1 X1.8087 Y-39.2123
G1 X0.669 Y-39.8986
G1 X0.2328 Y-41.006
G1 X0.8488 Y-42.2797
G1 X2.355 Y-42.7725
G1 X6.0983 Y-42.8266
G1 X13.8142 Y-43.2651
G1 X21.4708 Y-43.4334
G1 X27.1967 Y-42.9573
G1 X32.5698 Y-41.9772
G1 X42.3047 Y-39.1856
G1 X42.3771 Y-40.3557
G1 X42.377 Y-40.3558
G1 X42.3771 Y-40.3564
G1 X41.865 Y-40.993
G1 X41.8097 Y-41.062
G1 X41.8096
G1 X41.8094 Y-41.0623
G1 X39.877 Y-41.816
G1 X34.3164 Y-43.4974
G1 X28.5498 Y-44.6474
G1 X23.942 Y-45.1449
G1 X19.1662 Y-45.3018
G1 X9.738 Y-45.0518
G1 X5.3799 Y-44.9937
G1 X1.464 Y-44.5962
G1 X-0.0425 Y-43.9887
G1 X-1.0963 Y-42.9598
G1 X-1.582 Y-41.3965
G1 X-1.4033 Y-39.384
G1 X-1.3857 Y-39.1856
G1 X0.9003 Y-37.5355
G1 X4.2314 Y-36.3635
G1 X11.3576 Y-34.7358
G1 X27.6955 Y-30.3847
G1 X35.7583 Y-27.8434
G1 X42.7404 Y-25.2411
G1 X43.3156 Y-25.0266
G1 X43.3157
G1 X43.3165 Y-25.0263
G1 X43.7205
G1 X43.6992 Y-25.1788
G0 Z5.0
G0 X43.1134 Y-27.8587
G1 Z0.0
G1 Y-27.859
G1 X42.614 Y-33.1659
G1 X42.3047 Y-38.3774
G1 X40.9699 Y-38.8635
G1 X39.4726 Y-39.1856
G1 X39.1975 Y-34.3032
G1 X38.6639 Y-29.6798
G1 X38.664
G1 X38.6639 Y-29.6792
G1 X43.1134 Y-27.8587
G0 Z5.0
G0 X46.1467 Y-31.095
G1 Z0.0
G1 X45.9355 Y-35.0649
G1 X46.0041 Y-36.4333
G1 X46.1467 Y-35.9498
G1 X46.3296 Y-33.42
G1 X46.1467 Y-31.095
G0 Z5.0
G0 X45.9454 Y-36.9606
G1 Z0.0
G1 X45.7178 Y-38.0964
G1 X45.9454 Y-39.1856
G1 X46.1277 Y-38.0039
G1 X45.9454 Y-36.9606
G0 Z5.0
G0 X43.7202 Y-45.6583
G1 Z0.0
G1 X44.9215 Y-54.1155
G1 X47.1048 Y-61.5908
G1 X50.1244 Y-68.2297
G1 X53.835 Y-74.1783
G1 X50.3762 Y-67.9772
G1 X47.4501 Y-61.2449
G1 X45.188 Y-53.8485
G1 X43.7202 Y-45.6583
G0 Z5.0
G0 X42.1414 Y-46.0267
G1 Z0.0
G1 X42.6767 Y-48.3208
G1 X42.9109 Y-51.1199
G1 X41.2941
G1 X41.6817 Y-48.4742
G1 X42.1028 Y-45.8611
G1 X42.1414 Y-46.0267
G0 Z5.0
G0 X39.9533 Y-45.5277
G1 Z0.0
G1 X40.1366 Y-44.7238
G1 Y-44.7236
G1 Y-44.7235
G1 X40.0603 Y-44.0931
G1 X39.6752 Y-43.8381
G1 X39.4307 Y-44.9599
G1 X39.5307 Y-45.5667
G1 X39.8773 Y-45.8611
G1 X39.9533 Y-45.5277
G0 Z5.0
G0 X38.4034 Y-45.6831
G1 Z0.0
G1 X38.259 Y-44.2427
G1 X38.2354 Y-47.2493
G1 X38.4612 Y-49.5015
G1 X38.4848 Y-46.4949
G1 X38.4034 Y-45.6831
G0 Z5.0
G0 X36.3141 Y-45.9254
G1 Z0.0
G1 X36.2363 Y-45.2536
G1 X36.2139 Y-47.9561
G1 X36.4391 Y-49.9056
G1 X36.4624 Y-47.2037
G1 X36.3141 Y-45.9254
G0 Z5.0
G0 X34.0117 Y-47.8831
G1 Z0.0
G1 X33.9872 Y-49.4248
G1 X34.2133 Y-50.7149
G1 X34.3897 Y-49.2301
G1 X34.4108 Y-48.4729
G1 X34.0901 Y-47.9993
G1 X34.0117 Y-47.8831
G0 Z5.0
G0 X31.4001 Y-47.8982
G1 Z0.0
G1 X31.3825 Y-44.849
G1 X36.9571 Y-43.3974
G1 X41.6975 Y-41.6126
G1 X41.9426 Y-43.8462
G1 X41.6556 Y-46.3254
G1 X40.4842 Y-50.9171
G1 X38.8258 Y-50.6857
G1 X37.4332 Y-50.8435
G1 X35.2689 Y-52.0279
G1 X33.6397 Y-53.8702
G1 X32.1909 Y-55.7715
G1 X31.6449 Y-53.3149
G1 X31.4148 Y-50.4379
G1 X31.4001 Y-47.8982
G0 Z5.0
G0 X30.0159 Y-47.8567
G1 Z0.0
G1 X30.0234 Y-47.6071
G1 X29.93 Y-46.5711
G1 X29.7573 Y-46.4277
G1 X29.5623 Y-46.2652
G1 X29.5625 Y-46.266
G1 X29.5623 Y-46.2658
G1 X29.7933 Y-46.9437
G1 X29.7638 Y-47.8835
G1 X29.7346 Y-48.8229
G1 X29.7347 Y-48.823
G1 X29.7346 Y-48.8236
G1 X29.9666 Y-49.5022
G1 X30.0159 Y-47.8567
G0 Z5.0
G0 X28.1952 Y-48.1897
G1 Z0.0
G1 X28.0501 Y-47.3965
G1 X28.1458 Y-46.2658
G1 X27.8312 Y-47.3307
G1 X28.039 Y-49.0919
G1 X28.3001 Y-51.0577
G1 X28.1458 Y-52.7373
G1 X28.5299 Y-52.2646
G1 X28.6529 Y-51.4829
G1 X28.42 Y-49.4189
G1 X28.1952 Y-48.1897
G0 Z5.0
G0 X27.1966 Y-48.2141
G1 Z0.0
G1 X27.1343 Y-45.6583
G1 X30.5728 Y-45.0515
G1 X30.9228 Y-48.6273
G1 X30.9769 Y-52.5357
G1 X31.566 Y-55.3833
G1 X31.5924 Y-56.5874
G1 X30.9769 Y-57.3904
G1 X29.9651 Y-49.7049
G1 X30.0778 Y-53.4854
G1 X30.5728 Y-57.3904
G1 X29.3591 Y-57.5933
G1 X29.1151 Y-56.0159
G1 X28.7517 Y-54.5591
G1 X28.5384 Y-55.2619
G1 X28.688 Y-55.9889
G1 X28.9545 Y-57.5933
G1 X28.0635 Y-57.3333
G1 X27.6076 Y-56.373
G1 X27.3365 Y-53.9519
G1 X27.1966 Y-48.2141
G0 Z5.0
G0 X26.1324 Y-48.14
G1 Z0.0
G1 X26.1222 Y-48.2878
G1 X25.8933 Y-47.9102
G1 X25.9209 Y-47.2764
G1 X25.9479 Y-46.6421
G1 X25.7181 Y-46.2658
G1 X26.0361 Y-46.3108
G1 X26.2138 Y-46.9716
G1 X26.1324 Y-48.14
G0 Z5.0
G0 X22.2799 Y-42.6241
G1 Z0.0
G1 X20.4587
G1 Y-36.1516
G1 X20.0922 Y-37.6579
G1 X20.1348 Y-39.3548
G1 X20.2379 Y-41.0688
G1 X20.054 Y-42.6241
G1 X12.3676
G1 Y-36.9606
G1 X17.1717 Y-35.7976
G1 X22.0768 Y-34.7358
G1 X22.2159 Y-38.406
G1 X22.2799 Y-42.6241
G0 Z5.0
G0 X27.5063 Y-41.5166
G1 Z0.0
G1 X27.7147 Y-41.5471
G1 X27.8349 Y-40.9027
G1 X27.5389 Y-40.1977
G1 X27.5063 Y-41.5166
G0 Z5.0
G0 X30.3251 Y-40.9718
G1 Z0.0
G1 X30.371 Y-41.2092
G1 X30.3396 Y-38.3582
G1 X29.9666 Y-36.3545
G1 X29.9449 Y-39.0048
G1 X30.3251 Y-40.9718
G0 Z5.0
G0 X29.9666 Y-35.9498
G1 Z0.0
G1 X29.9048 Y-34.3432
G1 X29.7191 Y-33.7535
G1 X29.3591 Y-33.7249
G1 X29.6225 Y-34.8771
G1 X29.9666 Y-35.9498
G0 Z5.0
G0 X31.4136 Y-35.7671
G1 Z0.0
G1 X31.5638 Y-36.9572
G1 X31.7862 Y-41.6123
G1 X27.37 Y-42.3493
G1 X22.887 Y-42.6238
G1 X22.705 Y-39.0054
G1 X22.4823 Y-34.5336
G1 X30.9769 Y-32.3078
G1 X31.4136 Y-35.7671
G0 Z5.0
G0 X35.8319 Y-37.1634
G1 Z0.0
G1 X35.8167 Y-38.4405
G1 X35.854 Y-38.9747
G1 X36.0347 Y-38.9837
G1 X36.0487 Y-37.7063
G1 X36.0121 Y-37.1721
G1 X35.8319 Y-37.1634
G0 Z5.0
G0 X37.5785 Y-37.1216
G1 Z0.0
G1 X37.6521 Y-40.1977
G1 X36.7776 Y-40.2328
G1 X36.2363 Y-40.6017
G1 X35.8568 Y-40.2728
G1 X35.8319 Y-39.5895
G1 X35.4068 Y-40.4797
G1 X34.5974 Y-40.9853
G1 X32.393 Y-41.4104
G1 X31.584 Y-31.9041
G1 X34.899 Y-30.9711
G1 X38.0568 Y-29.882
G1 X38.8658 Y-36.9612
G1 X39.1478 Y-38.5672
G1 X39.0512 Y-39.3097
G1 X38.4612 Y-39.793
G1 X38.0062 Y-37.7464
G1 X37.8295 Y-35.5566
G1 X37.2475 Y-31.095
G1 X37.541 Y-35.5541
G1 X37.5785 Y-37.1216
G0 Z5.0
G0 X38.9686 Y-51.2087
G1 Z0.0
G1 X40.7398 Y-51.3242
G1 X42.7087 Y-51.9292
G1 X41.1804 Y-54.7771
G1 X40.846 Y-56.5417
G1 X40.8879 Y-58.4013
G1 X36.4546 Y-57.9793
G1 X32.1909 Y-57.3898
G1 X33.7521 Y-54.4255
G1 X35.9971 Y-52.2031
G1 X37.3891 Y-51.5221
G1 X38.9686 Y-51.2087
G0 Z5.0
G0 X42.1866 Y-53.5368
G1 Z0.0
G1 X42.9109 Y-52.5357
G1 X43.8665 Y-57.5206
G1 X44.4202 Y-62.7719
G1 X44.9103 Y-65.1896
G1 X45.7367 Y-67.3042
G1 X47.0442 Y-68.9928
G1 X48.979 Y-70.1326
G1 X50.3958 Y-73.369
G1 X49.4964 Y-74.6013
G1 X49.2113 Y-76.2609
G1 X49.5865 Y-80.4492
G1 X50.1753 Y-82.9492
G1 X50.3958 Y-85.1011
G1 X49.6796 Y-85.9825
G1 X48.5743 Y-86.7185
G1 X46.4181 Y-89.6664
G1 X45.0516 Y-93.4391
G1 X44.2836 Y-97.8973
G1 X43.923 Y-102.9007
G1 X40.8649 Y-99.9162
G1 X37.2369 Y-97.5209
G1 X33.1216 Y-95.6336
G1 X28.6014 Y-94.1723
G1 X18.6761 Y-92.2043
G1 X8.1222 Y-90.9673
G1 X8.4085 Y-86.6058
G1 X7.7175 Y-82.6744
G1 X10.1884 Y-82.3235
G1 X12.5002 Y-81.5592
G1 X14.6006 Y-80.4191
G1 X16.4351 Y-78.9383
G1 X17.9509 Y-77.1535
G1 X19.0957 Y-75.1007
G1 X19.8146 Y-72.8162
G1 X20.0556 Y-70.336
G1 X19.5913 Y-67.5111
G1 X18.3987 Y-65.1831
G1 X16.7195 Y-63.2073
G1 X14.7956 Y-61.4371
G1 X21.5006 Y-62.1666
G1 X28.6464 Y-62.0356
G1 X35.4919 Y-61.0489
G1 X41.2941 Y-59.2116
G1 X41.5099 Y-55.2802
G1 X42.0407 Y-53.7386
G1 X42.1866 Y-53.5368
G0 Z5.0
G0 X51.8107 Y-65.2782
G1 Z0.0
G1 X52.1141 Y-66.5412
G1 X52.4362 Y-66.9434
G1 X52.8222 Y-66.8956
G1 X52.3623 Y-66.0415
G1 X51.8107 Y-65.2782
G0 Z5.0
G0 X61.4534 Y-63.8275
G1 Z0.0
G1 X61.3177 Y-62.8511
G1 X62.2311 Y-62.3533
G1 X63.1348 Y-62.6542
G1 X63.686 Y-63.5085
G1 X63.5426 Y-64.6713
G1 X61.7224
G1 X61.4534 Y-63.8275
G0 Z5.0
G0 X61.0983 Y-63.8736
G1 Z0.0
G1 X61.1975 Y-64.6378
G1 X61.7267 Y-65.2288
G1 X62.5304 Y-65.4807
G1 X63.6525 Y-65.3195
G1 X64.259 Y-64.7188
G1 X64.4184 Y-63.8682
G1 X64.1994 Y-62.9548
G1 X63.6705 Y-62.1675
G1 X62.9006 Y-61.6948
G1 X61.9587 Y-61.725
G1 X60.913 Y-62.4464
G1 X61.0983 Y-63.8736
G0 Z5.0
G0 X63.5413 Y-72.3584
G1 Z0.0
G1 X63.5426 Y-72.3582
G1 Y-72.3581
G1 X64.5215 Y-72.2384
G1 X64.7634 Y-72.2087
G1 X64.7635 Y-72.2088
G1 X64.7637 Y-72.2087
G1 X65.9703 Y-72.7621
G1 X65.9765 Y-73.6789
G1 X65.7671 Y-74.3798
G1 X65.7664 Y-74.3799
G1 X65.7662 Y-74.3804
G1 X64.892 Y-74.4662
G1 X64.0982 Y-74.1612
G1 X63.5826 Y-73.4599
G1 X63.5413 Y-72.3584
G0 Z5.0
G0 X63.1053 Y-72.3196
G1 Z0.0
G1 X63.0333 Y-73.1295
G1 X63.2972 Y-74.0348
G1 X64.5119 Y-75.0324
G1 X65.9501 Y-74.9454
G1 X66.4929 Y-74.495
G1 X66.779 Y-73.7737
G1 X66.5405 Y-72.6074
G1 X65.6606 Y-71.7555
G1 X64.4299 Y-71.4571
G1 X63.1379 Y-71.9534
G1 X63.1053 Y-72.3196
G0 Z5.0
G0 X56.7194 Y-78.1872
G1 Z0.0
G1 X55.4518 Y-76.8075
G1 X58.6021 Y-80.8383
G1 X62.3286 Y-84.2918
G1 X56.7194 Y-78.1872
G0 Z5.0
G0 X54.711 Y-79.7179
G1 Z0.0
G1 X56.3751 Y-81.9014
G1 X58.2835 Y-83.8868
G1 X57.4745 Y-87.5282
G1 X55.2188 Y-85.94
G1 X53.7241 Y-85.5139
G1 X51.8107 Y-85.5058
G1 X51.2008 Y-80.5532
G1 X51.002 Y-75.1892
G1 X51.4061
G1 X54.6912 Y-79.692
G1 X54.711 Y-79.7179
G0 Z5.0
G0 X52.0135 Y-86.1126
G1 Z0.0
G1 X49.9334 Y-88.312
G1 X48.2014 Y-91.2574
G1 X46.8725 Y-94.7491
G1 X46.0001 Y-98.5873
G1 X45.6395 Y-102.5725
G1 X45.8448 Y-106.5058
G1 X46.6706 Y-110.1878
G1 X48.1709 Y-113.418
G1 X46.3122 Y-111.9394
G1 X45.0783 Y-109.8357
G1 X43.7202 Y-104.5188
G1 X43.9143 Y-104.1057
G1 X44.5293 Y-104.1141
G1 X44.6566 Y-99.4035
G1 X45.2541 Y-94.736
G1 X46.5004 Y-90.5608
G1 X48.5743 Y-87.3263
G1 X50.0806 Y-86.3627
G1 X52.0135 Y-86.1126
G0 Z5.0
G0 X51.4061 Y-91.3705
G1 Z0.0
G1 X50.8063 Y-91.681
G1 X50.5974 Y-92.3819
G1 X50.5976 Y-92.3818
G1 X50.5974 Y-92.3826
G1 X51.1558 Y-92.031
G1 X51.4061 Y-91.3714
G1 X51.4056 Y-91.3716
G1 X51.4061 Y-91.3705
G0 Z5.0
G0 X49.7883 Y-94.2022
G1 Z0.0
G1 X48.7411 Y-98.751
G1 X48.4392 Y-103.8657
G1 X49.2163 Y-108.599
G1 X50.1138 Y-110.5257
G1 X51.4061 Y-112.0022
G1 X52.8278 Y-112.008
G1 X53.3918 Y-111.8633
G1 X53.6316 Y-111.3949
G1 X51.8107 Y-111.5978
G1 X50.3598 Y-110.1885
G1 X49.4203 Y-108.3188
G1 X48.9079 Y-106.111
G1 X48.7371 Y-103.6846
G1 X49.0859 Y-98.6579
G1 X49.7883 Y-94.2022
G0 Z5.0
G0 X47.5635 Y-96.8323
G1 Z0.0
G1 X47.1588 Y-99.2588
G1 X47.1589 Y-99.2586
G1 X47.1588 Y-99.2594
G1 X47.5684 Y-98.9019
G1 X47.7687 Y-98.2013
G1 Y-98.2009
G1 Y-98.2007
G1 X47.5635 Y-96.8323
G0 Z5.0
G0 X46.7423 Y-96.7264
G1 Z0.0
G1 X46.7548 Y-96.6299
G1 X47.7563 Y-93.3183
G1 X49.1427 Y-90.336
G1 X50.7514 Y-87.9723
G1 X52.4188 Y-86.5157
G1 X54.1424 Y-86.1918
G1 X55.8875 Y-86.7816
G1 X57.0102 Y-88.1493
G1 X57.1369 Y-89.0816
G1 X56.8673 Y-90.1571
G1 X54.3223 Y-91.0043
G1 X52.3583 Y-92.9177
G1 X50.9722 Y-95.6078
G1 X50.162 Y-98.7852
G1 X49.9241 Y-102.1607
G1 X50.2561 Y-105.4455
G1 X51.1558 Y-108.3505
G1 X52.62 Y-110.5863
G1 X54.2238 Y-110.5713
G1 X55.4518 Y-110.1819
G1 X54.703 Y-111.5574
G1 X53.8337 Y-112.8111
G1 X51.5921 Y-112.7692
G1 X49.9244 Y-112.0055
G1 X48.7482 Y-110.6596
G1 X47.9812 Y-108.8704
G1 X47.3461 Y-104.5198
G1 X47.3613 Y-100.0688
G1 X46.9575 Y-104.1682
G1 X47.4905 Y-108.4045
G1 X48.1905 Y-110.272
G1 X49.2228 Y-111.8102
G1 X50.6209 Y-112.8987
G1 X52.4173 Y-113.4177
G1 X51.8439 Y-113.9229
G1 X51.0368 Y-114.0733
G1 X49.5865 Y-113.8223
G1 X48.3511 Y-112.9124
G1 X47.3973 Y-111.3782
G1 X46.2749 Y-106.9769
G1 X46.1007 Y-101.7004
G1 X46.7423 Y-96.7264
G0 Z5.0
G0 X54.8449 Y-99.8663
G1 Z0.0
G1 X54.8207 Y-103.7837
G1 X55.0471 Y-106.9455
G1 X55.0717 Y-103.0275
G1 X54.8449 Y-99.8663
G0 Z5.0
G0 X56.8673
G1 Z0.0
G1 Y-104.316
G1 X57.3717 Y-100.3721
G1 X57.3716 Y-100.3718
G1 X57.3717 Y-100.3715
G1 X56.8673 Y-96.4277
G1 Y-99.8663
G0 Z5.0
G0 X53.2269 Y-104.7207
G1 Z0.0
G1 Y-104.7216
G1 X53.226 Y-104.7207
G1 X53.202 Y-106.1613
G1 X53.4288 Y-107.3499
G1 X53.4295 Y-107.3458
G1 X53.4303 Y-107.3499
G1 X53.6946 Y-105.9098
G1 X53.6176 Y-105.1142
G1 X53.2269 Y-104.7207
G0 Z5.0
G0 X50.6631 Y-105.2295
G1 Z0.0
G1 X50.4899 Y-104.357
G1 X50.4688 Y-101.0626
G1 X50.9436 Y-97.7069
G1 X51.8648 Y-94.6593
G1 X53.1819 Y-92.2894
G1 X54.8443 Y-90.9649
G1 X55.9571 Y-90.7798
G1 X56.8673 Y-90.9658
G1 X56.535 Y-91.9484
G1 X56.2605 Y-92.9885
G1 X56.863 Y-94.3531
G1 X57.795 Y-95.6445
G1 X58.7183 Y-96.9734
G1 X59.2947 Y-98.4491
G1 X59.1822 Y-101.7004
G1 X58.0391 Y-105.2611
G1 X56.2083 Y-108.3481
G1 X54.0353 Y-110.1807
G1 X53.0452 Y-109.9018
G1 X52.2229 Y-109.285
G1 X51.0582 Y-107.2207
G1 X50.6631 Y-105.2295
G0 Z5.0
G0 X43.7202 Y-108.9679
G1 Z0.0
G1 X42.6531 Y-110.5304
G1 X41.9388 Y-111.1307
G1 X40.8894 Y-111.3949
G1 X42.0581 Y-109.9353
G1 X42.7417 Y-109.304
G1 X43.7202 Y-108.9679
G0 Z5.0
G0 X43.9224 Y-109.5748
G1 Z0.0
G1 X44.7578 Y-112.7276
G1 X45.1914 Y-116.1507
G1 X45.5395 Y-123.3287
G1 X44.3647 Y-123.8728
G1 X42.9103 Y-124.1377
G1 X42.596 Y-117.9929
G1 X41.8988 Y-112.0015
G1 X43.9224 Y-109.5748
G0 Z5.0
G0 X41.4062 Y-112.4267
G1 Z0.0
G1 X41.6932 Y-113.1127
G1 X41.9 Y-114.6314
G1 X42.2739 Y-119.4317
G1 X41.9 Y-124.543
G1 X41.3162 Y-123.624
G1 X41.1864 Y-122.4547
G1 X41.2925 Y-119.8907
G1 X40.7758 Y-115.7016
G1 X40.6435 Y-113.7286
G1 X40.8879 Y-112.0022
G1 X41.4062 Y-112.4267
G0 Z5.0
G0 X39.0683 Y-114.4298
G1 Z0.0
G1 X39.8733 Y-119.5479
G1 X40.0801 Y-125.5539
G1 X38.8214 Y-125.9135
G1 X37.8549 Y-126.5654
G1 X37.4332 Y-125.0365
G1 X37.3139 Y-123.083
G1 X37.2475 Y-118.8792
G1 X36.8437 Y-116.4528
G1 X37.281 Y-115.7351
G1 X37.936 Y-115.3245
G1 X39.0683 Y-114.4298
G0 Z5.0
G0 X38.6639 Y-114.0251
G1 Z0.0
G1 X37.5785 Y-115.0636
G1 X36.9509 Y-115.4978
G1 X36.0347 Y-115.6429
G1 X37.2353 Y-114.4736
G1 X37.9481 Y-114.068
G1 X38.6639 Y-114.0251
G0 Z5.0
G0 X36.2369 Y-116.0475
G1 Z0.0
G1 X36.7496 Y-119.4137
G1 X36.8437 Y-123.5318
G1 X37.0152 Y-125.3275
G1 X36.9158 Y-126.1027
G1 X36.4391 Y-126.566
G1 X35.7487 Y-121.3722
G1 X35.6294 Y-116.0475
G1 X36.2369
G0 Z5.0
G0 X32.1909 Y-126.3632
G1 Z0.0
G1 X32.1895 Y-126.3637
G1 X32.1893 Y-126.3636
G1 X27.4256 Y-128.1853
G1 X22.2497 Y-129.6005
G1 X10.953 Y-131.4192
G1 X10.9595 Y-131.4187
G1 X10.9524 Y-131.4198
G1 X16.6365 Y-131.0042
G1 X17.0316 Y-130.9754
G1 X22.5283 Y-129.949
G1 X25.5439 Y-129.0839
G1 X27.5964 Y-128.4952
G1 X32.3927 Y-126.7682
G1 X32.4949 Y-126.5744
G1 X32.4947 Y-126.5742
G1 X32.4949 Y-126.5738
G1 X32.1909 Y-126.3632
G0 Z5.0
G0 X47.7656 Y-120.6995
G1 Z0.0
G1 X53.8483 Y-118.0851
G1 X59.0928 Y-114.6314
G1 X47.7656 Y-120.6995
G0 Z5.0
G0 X59.9009 Y-113.8226
G1 Z0.0
G1 X59.9028 Y-113.822
G1 X59.9018 Y-113.8233
G1 X60.7481 Y-113.5565
G1 X61.1152 Y-112.8111
G1 X61.1146 Y-112.8115
G1 X61.1149 Y-112.8108
G1 X60.3832 Y-113.1919
G1 X59.9009 Y-113.8226
G0 Z5.0
G0 X60.7749 Y-114.8532
G1 Z0.0
G1 X58.8903 Y-116.4516
G1 X52.5986 Y-119.7035
G1 X46.1473 Y-122.3169
G1 X45.1358 Y-111.3947
G1 X46.542 Y-113.0056
G1 X48.607 Y-114.2124
G1 X51.0095 Y-114.6171
G1 X53.4288 Y-113.8211
G1 X55.6862 Y-110.9726
G1 X57.5524 Y-107.7315
G1 X58.9245 Y-103.9961
G1 X59.6991 Y-99.6641
G1 X60.3161 Y-100.0805
G1 X60.7804 Y-100.8237
G1 X61.7224 Y-102.698
G1 X64.2224 Y-106.2608
G1 X64.7954 Y-108.1822
G1 X64.3516 Y-110.5863
G1 X62.1258 Y-113.7074
G1 X60.7749 Y-114.8532
G0 Z5.0
G0 X65.8985 Y-100.2898
G1 Z0.0
G1 X65.7671 Y-100.0691
G1 Y-96.8323
G1 X66.1718 Y-98.2479
G1 X66.0376 Y-99.8296
G1 X65.8985 Y-100.2898
G0 Z5.0
G0 X64.3528 Y-99.4616
G1 Z0.0
G1 X64.1258 Y-97.2094
G1 X64.1497 Y-94.2028
G1 X64.3883 Y-96.4746
G1 X64.3528 Y-99.4616
G0 Z5.0
G0 X62.7332 Y-97.4395
G1 Z0.0
G1 X62.3392 Y-97.1758
G1 X62.2882 Y-96.5693
G1 X62.3286 Y-95.2137
G1 X62.7227 Y-95.4776
G1 X62.7748 Y-96.0836
G1 X62.7332 Y-97.4395
G0 Z5.0
G0 X65.9703 Y-95.8211
G1 Z0.0
G1 X65.7442 Y-95.2373
G1 X65.7671 Y-94.405
G1 X66.1684 Y-94.9879
G1 X65.9703 Y-95.8211
G0 Z5.0
G0 X69.4094 Y-90.7645
G1 Z0.0
G1 X69.152 Y-88.7422
G1 X69.206 Y-86.7185
G1 X69.6107 Y-87.5778
G1 X69.579 Y-88.7481
G1 X69.4094 Y-90.7645
G0 Z5.0
G0 X71.9898 Y-90.6316
G1 Z0.0
G1 X71.8104 Y-87.1487
G1 X71.8355 Y-82.4712
G1 X72.2356 Y-84.4567
G1 X72.3141 Y-86.8958
G1 X72.0384 Y-91.5733
G1 X71.9898 Y-90.6316
G0 Z5.0
G0 X75.0729 Y-89.7524
G1 Z0.0
G1 X74.8443 Y-87.0474
G1 X74.8701 Y-84.089
G1 X75.1067 Y-87.0284
G1 X75.0729 Y-89.7524
G0 Z5.0
G0 X77.4395 Y-90.8661
G1 Z0.0
G1 X78.5915 Y-88.418
G1 X78.7074 Y-85.2483
G1 X77.8649 Y-82.1573
G1 X76.2862 Y-79.6405
G1 X78.0968 Y-81.0144
G1 X79.5366 Y-82.7607
G1 X80.6152 Y-84.8679
G1 X81.3428 Y-87.326
G1 X81.9767 Y-87.4399
G1 X82.5484 Y-87.2396
G1 X83.9717 Y-86.9214
G1 X82.9712 Y-87.7415
G1 X81.5941 Y-88.1847
G1 X78.7127 Y-88.9437
G1 X79.7202 Y-89.0083
G1 X80.768 Y-88.7229
G1 X82.7577 Y-87.9322
G1 X82.154 Y-88.7251
G1 X80.9189 Y-89.2785
G1 X78.1065 Y-90.1571
G1 X78.0993 Y-90.4676
G1 X78.3086 Y-90.5618
G1 X78.5179 Y-90.6558
G1 X78.5108 Y-90.9658
G1 X77.2972 Y-91.1686
G1 X77.4395 Y-90.8661
G0 Z5.0
G0 X77.8291 Y-91.7729
G1 Z0.0
G1 X77.9251 Y-91.7316
G1 X79.7242 Y-91.3714
G1 X78.2692 Y-92.2926
G1 X76.5701 Y-92.9699
G1 X73.2514 Y-94.405
G1 X74.789 Y-94.09
G1 X76.3763 Y-93.4336
G1 X79.7242 Y-92.1798
G1 X79.927 Y-93.5963
G1 X75.275 Y-95.4165
G1 X76.3757 Y-95.3221
G1 X77.4944 Y-94.8547
G1 X79.927 Y-94.001
G1 X80.1294 Y-95.6183
G1 X78.6701 Y-96.1817
G1 X77.5005 Y-97.0351
G1 X78.913 Y-96.5261
G1 X80.3316 Y-96.023
G1 X80.4679 Y-97.6062
G1 X80.7363 Y-99.0569
G1 X78.4257 Y-99.8818
G1 X76.2862 Y-100.8774
G1 X77.4502 Y-100.7852
G1 X78.6748 Y-100.2352
G1 X79.8686 Y-99.6529
G1 X80.9382 Y-99.4616
G1 X79.9111 Y-100.8116
G1 X78.2462 Y-101.5234
G1 X76.4101 Y-102.0635
G1 X74.8701 Y-102.9004
G1 X73.458 Y-98.6233
G1 X72.6446 Y-94.2028
G1 X76.1456 Y-92.4962
G1 X77.8291 Y-91.7729
G0 Z5.0
G0 X82.1509 Y-86.7185
G1 Z0.0
G1 X83.2581 Y-83.6288
G1 X84.9858 Y-81.1598
G1 X89.4327 Y-77.2122
G1 X89.7442 Y-77.3159
G1 X89.6352 Y-77.6168
G1 X86.6166 Y-81.374
G1 X84.3761 Y-85.9098
G1 X83.3155 Y-86.3664
G1 X82.1509 Y-86.7185
G0 Z5.0
G0 X81.5435 Y-101.2815
G1 Z0.0
G1 X79.6841 Y-102.1017
G1 X78.8344 Y-102.5343
G1 X78.5099 Y-103.1026
G1 X80.3708 Y-102.283
G1 X81.2525 Y-101.8827
G1 X81.5435 Y-101.2815
G0 Z5.0
G0 X82.172 Y-102.7246
G1 Z0.0
G1 X81.9652 Y-102.8147
G1 X80.9382 Y-103.5067
G1 X82.2836 Y-103.1343
G1 X83.1624 Y-102.2939
G1 X83.1613 Y-102.2944
G1 X83.1624 Y-102.2933
G1 X82.172 Y-102.7246
G0 Z5.0
G0 X82.797 Y-101.8155
G1 Z0.0
G1 X87.6115 Y-105.1253
G1 X85.1118 Y-106.5694
G1 X82.3528 Y-107.7545
G1 X78.7322 Y-105.611
G1 X75.4754 Y-103.1032
G1 X78.3698 Y-101.9514
G1 X81.1388 Y-100.6756
G1 X82.797 Y-101.8155
G0 Z5.0
G0 X85.3101 Y-107.0354
G1 Z0.0
G1 X88.0169 Y-105.7322
G1 X88.5414 Y-107.0536
G1 X87.9666 Y-108.1322
G1 X86.9622 Y-109.1232
G1 X86.1969 Y-110.1819
G1 X86.3997 Y-112.8111
G1 X85.0012 Y-113.2329
G1 X83.5686 Y-113.6205
G1 X82.5559 Y-108.3614
G1 X85.3101 Y-107.0354
G0 Z5.0
G0 X95.0968 Y-101.687
G1 Z0.0
G1 X95.1185 Y-99.4908
G1 X94.894 Y-98.0454
G1 Y-98.0473
G1 X94.8936 Y-98.0451
G1 X94.8726 Y-100.2414
G1 X95.0965 Y-101.6864
G1 Y-101.6852
G1 X95.0968 Y-101.687
G0 Z5.0
G0 X96.6301 Y-101.602
G1 Z0.0
G1 X96.7133 Y-103.1026
G1 X96.7135 Y-103.0667
G1 X96.7154 Y-103.102
G1 X96.7393 Y-98.274
G1 X96.5127 Y-94.2028
G1 X96.5125 Y-94.2288
G1 X96.5111 Y-94.2031
G1 X96.4875 Y-99.0311
G1 X96.6301 Y-101.602
G0 Z5.0
G0 X98.5347 Y-99.8663
G1 Z0.0
G1 X98.5348 Y-99.8441
G1 X98.536 Y-99.8663
G1 X98.5605 Y-94.1776
G1 X98.3331 Y-88.7415
G1 X98.3328 Y-88.7697
G1 X98.3316 Y-88.7415
G1 X98.267 Y-94.7696
G1 X98.5347 Y-99.8663
G0 Z5.0
G0 X100.1534 Y-94.6074
G1 Z0.0
G1 X100.3633 Y-92.6565
G1 X100.3388 Y-91.5699
G1 X99.9506 Y-90.5618
G1 X99.926 Y-92.7105
G1 X100.1534 Y-94.6074
G0 Z5.0
G0 X104.1242 Y-94.8742
G1 Z0.0
G1 X103.7953 Y-99.7697
G1 X102.5808 Y-107.957
G1 X95.5766 Y-112.1791
G1 X91.6272 Y-113.8429
G1 X87.2081 Y-115.0366
G1 X86.96 Y-112.595
G1 X86.7299 Y-111.5444
G1 X86.8035 Y-110.3847
G1 X87.6613 Y-109.0031
G1 X89.151 Y-107.598
G1 X90.6808 Y-106.1703
G1 X91.6576 Y-104.721
G1 X91.4172 Y-99.6724
G1 X91.2339 Y-97.5302
G1 X90.6461 Y-95.6189
G1 X89.0209 Y-94.0264
G1 X86.4298 Y-92.7606
G1 X83.6212 Y-91.6093
G1 X81.3416 Y-90.3599
G1 X82.2975 Y-89.4487
G1 X83.3637 Y-88.7422
G1 X84.5845 Y-87.0784
G1 X85.4448 Y-85.0651
G1 X87.2076 Y-81.056
G1 X90.4849 Y-77.5581
G1 X94.0834 Y-74.3811
G1 X94.6909
G1 X99.7285 Y-82.3899
G1 X104.4003 Y-90.7645
G1 X104.1242 Y-94.8742
G0 Z5.0
G0 X105.2097 Y-95.0115
G1 Z0.0
G1 X106.4855 Y-94.6683
G1 X107.4349 Y-94.0003
G1 X106.1258 Y-94.3099
G1 X105.2097 Y-95.0115
G0 Z5.0
G0 X105.5166 Y-97.5247
G1 Z0.0
G1 X105.3193 Y-97.5488
G1 X104.805 Y-98.0454
G1 X104.8057 Y-98.0453
G1 X104.805 Y-98.046
G1 X105.6709 Y-97.8997
G1 X106.2215 Y-97.4395
G1 X106.2202 Y-97.4396
G1 X106.2215 Y-97.4386
G1 X105.5166 Y-97.5247
G0 Z5.0
G0 X104.5364 Y-97.4293
G1 Z0.0
G1 X105.0078 Y-92.5845
G1 X107.6544 Y-91.4881
G1 X110.065 Y-90.1577
G1 X107.5506 Y-91.0826
G1 X105.0078 Y-91.9779
G1 X105.8649 Y-90.5592
G1 X107.3674 Y-89.7866
G1 X109.0554 Y-89.1993
G1 X110.4684 Y-88.3369
G1 X111.0753
G1 X110.6709 Y-92.3826
G1 X109.6827 Y-92.8093
G1 X109.0367 Y-93.0581
G1 X108.6488 Y-93.5963
G1 X109.724 Y-93.2217
G1 X110.6709 Y-93.1916
G1 X108.6488 Y-105.1253
G1 X106.0755 Y-106.3952
G1 X103.1882 Y-107.3499
G1 X104.2807 Y-100.0569
G1 X104.5364 Y-97.4293
G0 Z5.0
G0 X110.6548 Y-97.386
G1 Z0.0
G1 X110.6492 Y-96.597
G1 X111.1231 Y-93.6354
G1 X111.6244 Y-90.7552
G1 X111.6834 Y-87.9329
G1 X111.1218 Y-85.9089
G1 X110.0728 Y-83.8045
G1 X107.6373 Y-79.6399
G1 X105.4118 Y-75.5938
G1 X103.1869 Y-70.9422
G1 X108.042 Y-78.8305
G1 X109.8625 Y-83.2809
G1 X111.1675 Y-85.3353
G1 X112.088 Y-87.3263
G1 X112.0482 Y-90.1273
G1 X111.6834 Y-93.1916
G1 X111.0948 Y-96.3737
G1 X110.6709 Y-99.6644
G1 X110.6548 Y-97.386
G0 Z5.0
G0 X110.2662 Y-100.0688
G1 Z0.0
G1 X110.4811 Y-101.0436
G1 X110.0635 Y-101.8889
G1 X109.9399 Y-101.0038
G1 X110.2662 Y-100.0688
G0 Z5.0
G0 X109.6607 Y-102.4958
G1 Z0.0
G1 X109.8933 Y-103.1868
G1 X109.6607 Y-103.9114
G1 X109.4553 Y-103.2492
G1 X109.6607 Y-102.4958
G0 Z5.0
G0 X112.8951 Y-94.2028
G1 Z0.0
G1 X113.3719 Y-93.6674
G1 X114.1088 Y-93.3934
G1 X113.7023 Y-93.9978
G1 X112.8951 Y-94.2028
G0 Z5.0
G0 X115.9297 Y-89.9555
G1 Z0.0
G1 X116.6498 Y-89.2592
G1 X117.7505 Y-88.9437
G1 X117.0179 Y-89.627
G1 X115.9297 Y-89.9555
G0 Z5.0
G0 X113.7537 Y-83.7756
G1 Z0.0
G1 X115.0563 Y-83.317
G1 X116.3244 Y-82.7141
G1 X117.3452 Y-81.8647
G1 X117.345 Y-81.8648
G1 X117.3458 Y-81.8641
G1 X114.7048 Y-82.9654
G1 X113.3828 Y-83.5139
G1 X113.1034 Y-83.7125
G1 X112.2887 Y-84.2915
G1 X113.7537 Y-83.7756
G0 Z5.0
G0 X113.8738 Y-81.4312
G1 Z0.0
G1 X113.2005 Y-81.3038
G1 X111.8846 Y-80.6507
G1 X109.1746 Y-75.1693
G1 X106.0187 Y-70.1326
G1 X107.1165 Y-69.4099
G1 X108.4454 Y-68.9192
G1 X111.8402 Y-74.1212
G1 X114.5135 Y-80.0439
G1 X111.3728 Y-74.5889
G1 X108.0407 Y-69.3238
G1 X114.5135 Y-81.0551
G1 X113.8738 Y-81.4312
G0 Z5.0
G0 X115.525 Y-80.6514
G1 Z0.0
G1 X116.0484 Y-80.5467
G1 X116.1996 Y-80.5166
G1 X116.1997 Y-80.5164
G1 X116.2005 Y-80.5162
G1 X116.5365 Y-80.0445
G1 X116.536 Y-80.0446
G1 X116.5365 Y-80.0439
G1 X115.8266 Y-80.1433
G1 X115.525 Y-80.6507
G1 X115.5255 Y-80.6506
G1 X115.525 Y-80.6514
G0 Z5.0
G0 X115.0249 Y-80.6659
G1 Z0.0
G1 X115.0064 Y-80.0268
G1 X114.8284 Y-78.8517
G1 X115.121 Y-78.0225
G1 X114.3117 Y-77.8203
G1 X111.8446 Y-73.1071
G1 X109.255 Y-68.5158
G1 X110.6709 Y-67.9083
G1 X115.1381 Y-75.5768
G1 X118.5586 Y-84.2915
G1 X112.6933 Y-86.9207
G1 X113.3318 Y-85.9089
G1 X114.7328 Y-85.2688
G1 X116.3272 Y-84.6959
G1 X117.548 Y-83.8868
G1 X114.9353 Y-84.7636
G1 X112.2887 Y-86.1126
G1 X103.9963 Y-70.5375
G1 X105.6137 Y-70.1332
G1 X107.6702 Y-73.5872
G1 X108.6206 Y-75.3339
G1 X109.0528 Y-77.2128
G1 X110.1374 Y-78.1507
G1 X110.6703 Y-79.6399
G1 X109.861 Y-79.842
G1 X110.4445 Y-80.0681
G1 X111.2772 Y-80.0454
G1 X111.3759 Y-80.6045
G1 X111.7334 Y-80.9039
G1 X112.1159 Y-81.1787
G1 X112.2887 Y-81.6629
G1 X111.6231 Y-81.8058
G1 X111.2772 Y-82.2703
G1 X112.4591 Y-81.9843
G1 X114.3117 Y-81.8657
G1 X115.0393 Y-81.1613
G1 X115.0249 Y-80.6659
G0 Z5.0
G0 X108.6488 Y-83.6843
G1 Z0.0
G1 X108.1339 Y-84.1819
G1 X107.2317 Y-84.2918
G1 X107.7088 Y-83.757
G1 X108.6488 Y-83.6843
G0 Z5.0
G0 X109.3791 Y-85.7357
G1 Z0.0
G1 X109.4569 Y-85.708
G1 X107.0438 Y-87.0356
G1 X104.4012 Y-88.1347
G1 X105.1646 Y-87.349
G1 X106.5115 Y-86.7565
G1 X109.3791 Y-85.7357
G0 Z5.0
G0 X102.5808 Y-65.6834
G1 Z0.0
G1 X102.8587 Y-63.6418
G1 X102.9516 Y-62.7005
G1 X102.5808 Y-62.0418
G1 X102.4826 Y-64.0169
G1 X102.5808 Y-65.6834
G0 Z5.0
G0 X97.7205 Y-65.6528
G1 Z0.0
G1 X97.7254 Y-64.8732
G1 X97.7931 Y-59.0653
G1 X97.7232 Y-56.0194
G1 X97.3207 Y-53.3445
G1 X97.5226 Y-66.0868
G1 X97.6487 Y-66.4229
G1 X97.7179 Y-66.0521
G1 X97.7205 Y-65.6528
G0 Z5.0
G0 X103.1143 Y-57.1715
G1 Z0.0
G1 X103.1869 Y-55.9734
G1 X103.2742 Y-53.2696
G1 X102.9842 Y-50.9171
G1 Y-56.378
G1 X103.1143 Y-57.1715
G0 Z5.0
G0 X97.3207 Y-49.2997
G1 Z0.0
G1 X97.3409 Y-47.3577
G1 X97.2117 Y-46.5257
G1 X96.7133 Y-46.063
G1 X96.7769 Y-47.9217
G1 X97.3207 Y-49.2997
G0 Z5.0
G0 X103.3888 Y-44.849
G1 Z0.0
G1 X103.186 Y-43.4328
G1 X103.0649 Y-41.7008
G1 X102.9423 Y-42.1334
G1 X102.9923 Y-43.5697
G1 X103.3888 Y-44.849
G0 Z5.0
G0 X107.0302 Y-24.2179
G1 Z0.0
G1 X106.7715 Y-22.6561
G1 X106.2215 Y-21.3862
G1 X106.3662 Y-23.0614
G1 X107.0302 Y-24.2179
G0 Z5.0
G0 X113.8127 Y-22.3558
G1 Z0.0
G1 X114.2157 Y-23.8235
G1 X115.5272 Y-30.0845
G1 X116.7409 Y-36.9612
G1 X117.0335 Y-44.1104
G1 X116.834 Y-50.9488
G1 X116.1334 Y-57.6196
G1 X114.92 Y-64.2673
G1 X110.5566 Y-66.5533
G1 X105.8494 Y-68.4956
G1 X96.1424 Y-72.0876
G1 X91.5126 Y-74.1075
G1 X87.2786 Y-76.523
G1 X83.6245 Y-79.519
G1 X80.737 Y-83.2809
G1 X78.8645 Y-81.0569
G1 X76.7126 Y-79.1125
G1 X74.0449 Y-77.6846
G1 X70.6231 Y-77.0103
G1 X68.9585 Y-71.5969
G1 X67.5864 Y-65.8105
G1 X65.6091 Y-53.4485
G1 X64.4699 Y-40.579
G1 X63.9482 Y-27.859
G1 X67.4662 Y-26.599
G1 X70.1495 Y-24.503
G1 X72.125 Y-21.7002
G1 X73.521 Y-18.3181
G1 X74.467 Y-14.4848
G1 X75.09 Y-10.3299
G1 X75.8819 Y-1.564
G1 X81.5767 Y-0.7834
G1 X87.4109 Y-0.7549
G1 X91.0719 Y-1.5039
G1 X94.8226 Y-2.1974
G1 X96.4614 Y-2.1105
G1 X97.7999 Y-1.5129
G1 X98.7288 Y-0.2395
G1 X99.1416 Y1.8747
G1 X98.5785 Y5.442
G1 X97.0527 Y9.3108
G1 X93.8847 Y16.4366
G1 X98.1055 Y11.1817
G1 X101.8009 Y5.4224
G1 X108.4476 Y-7.2285
G1 X110.6129 Y-12.1724
G1 X112.556 Y-17.7784
G1 X113.8127 Y-22.3558
G0 Z5.0
G0 X60.7447 Y-31.6544
G1 Z0.0
G1 X60.8646 Y-32.3817
G1 X60.5084 Y-33.3202
G1 X58.6875
G1 X58.4167 Y-32.1811
G1 X58.5981 Y-31.4248
G1 X59.6956 Y-30.9463
G1 X60.7447 Y-31.6544
G0 Z5.0
G0 X61.3965 Y-31.5179
G1 Z0.0
G1 X61.2919 Y-31.0186
G1 X60.5084 Y-30.0838
G1 X59.0882 Y-30.1454
G1 X58.1941 Y-30.8248
G1 X57.7999 Y-31.8419
G1 X57.8788 Y-32.9156
G1 X58.3903 Y-33.7976
G1 X59.1152 Y-34.1395
G1 X60.6742 Y-33.5761
G1 X61.4922 Y-31.9749
G1 X61.3965 Y-31.5179
G0 Z5.0
G0 X59.9105 Y-41.5517
G1 Z0.0
G1 X60.913 Y-41.815
G1 X61.1789 Y-43.2378
G1 X60.8124 Y-43.6593
G1 X60.3056 Y-44.2427
G1 X59.0922 Y-43.8381
G1 X58.8624 Y-42.8536
G1 X58.8625 Y-42.8533
G1 X58.8624 Y-42.853
G1 X59.1813 Y-41.9942
G1 X59.9105 Y-41.5517
G0 Z5.0
G0 X59.8357 Y-40.8811
G1 Z0.0
G1 X59.4397 Y-40.9253
G1 X58.8214 Y-41.6437
G1 X58.577 Y-42.6769
G1 X58.7264 Y-43.7285
G1 X59.2869 Y-44.503
G1 X60.2795 Y-44.7058
G1 X61.7224 Y-44.0403
G1 Y-41.6132
G1 X60.4127 Y-40.8166
G1 X59.8357 Y-40.8811
G0 Z5.0
G0 X60.832 Y-52.2643
G1 Z0.0
G1 X61.8034 Y-52.7134
G1 X62.3286 Y-53.7491
G1 X61.5199 Y-54.7606
G1 X61.5193 Y-54.7605
G1 Y-54.7606
G1 X60.5966 Y-54.5705
G1 X59.9009 Y-54.1534
G1 X60.0021 Y-52.6584
G1 X60.832 Y-52.2643
G0 Z5.0
G0 X60.7788 Y-51.5998
G1 Z0.0
G1 X60.3301 Y-51.6357
G1 X59.5354 Y-52.4084
G1 X59.3282 Y-53.5475
G1 X59.6991 Y-54.7606
G1 X60.7292 Y-55.146
G1 X62.1267 Y-55.1649
G1 X62.7218 Y-54.2913
G1 X62.7978 Y-53.2522
G1 X62.4373 Y-52.2597
G1 X61.7224 Y-51.5242
G1 X60.7788 Y-51.5998
G0 Z5.0
G0 X64.8935 Y-51.2309
G1 Z0.0
G1 X65.0709 Y-53.209
G1 X67.0221 Y-65.5307
G1 X69.8119 Y-77.0091
G1 X67.9196 Y-77.3836
G1 X66.3376 Y-78.2299
G1 X65.0733 Y-79.4541
G1 X64.1323 Y-80.9613
G1 X63.25 Y-84.4471
G1 X63.7438 Y-87.9313
G1 X62.5304 Y-87.6468
G1 X61.5404 Y-86.8642
G1 X59.9009 Y-84.8977
G1 X56.5509 Y-81.0756
G1 X53.4288 Y-76.8072
G1 X50.6365 Y-72.2689
G1 X48.0498 Y-67.2437
G1 X45.8265 Y-61.7408
G1 X44.1237 Y-55.7715
G1 X42.9867 Y-47.7385
G1 X42.8472 Y-39.1088
G1 X43.4979 Y-30.2652
G1 X44.7311 Y-21.589
G1 X43.5945 Y-33.4034
G1 X43.1997 Y-39.5175
G1 X43.5178 Y-45.4564
G1 X43.9221 Y-34.0544
G1 X45.1367 Y-22.5064
G1 X47.3125 Y-11.5622
G1 X48.8073 Y-6.5496
G1 X50.5974 Y-1.9687
G1 X51.6921 Y-1.5651
G1 X52.9306 Y-1.6817
G1 X55.4512 Y-2.1689
G1 X54.8868 Y-10.3677
G1 X54.8434 Y-14.5401
G1 X55.1763 Y-18.4719
G1 X56.0496 Y-21.9461
G1 X57.626 Y-24.7459
G1 X60.0686 Y-26.6533
G1 X63.5413 Y-27.4525
G1 X63.9224 Y-40.3983
G1 X64.8935 Y-51.2309
G0 Z5.0
G0 X27.1231 Y-55.6817
G1 Z0.0
G1 X27.1343 Y-56.7836
G1 X26.7296 Y-54.9634
G1 X27.1231 Y-55.6817
G0 Z5.0
G0 X10.7881 Y-62.9148
G1 Z0.0
G1 X10.1436 Y-62.0418
G1 X10.1435 Y-62.0419
G1 X10.1433 Y-62.0418
G1 X8.2104 Y-63.9517
G1 X6.5017 Y-66.0881
G1 X8.9138 Y-66.5076
G1 X11.357 Y-66.8962
G1 Y-66.8961
G1 X11.3576 Y-66.8962
G1 X11.1362 Y-64.0841
G1 X10.7881 Y-62.9148
G0 Z5.0
G0 X9.8512 Y-67.2199
G1 Z0.0
G1 X8.7461 Y-66.9794
G1 X5.8964 Y-66.8956
G1 X5.8293 Y-67.7546
G1 X5.8964 Y-68.313
G1 X8.2399 Y-68.7006
G1 X10.7505 Y-68.9201
G1 X11.1552 Y-67.5043
G1 X11.155 Y-67.5042
G1 X11.1552 Y-67.5037
G1 X9.8512 Y-67.2199
G0 Z5.0
G0 X9.1644 Y-71.4119
G1 Z0.0
G1 X6.3013 Y-70.9429
G1 X3.9457 Y-70.5648
G1 X2.8656 Y-70.7354
G1 X2.256 Y-71.5496
G1 X2.4696 Y-72.7466
G1 X3.4752 Y-73.2487
G1 X5.6939 Y-73.3699
G1 X11.6906 Y-74.3851
G1 X17.4258 Y-75.5954
G1 X17.1413 Y-76.3224
G1 X16.8186 Y-77.0119
G1 X14.4928 Y-76.7075
G1 X12.5707 Y-75.9995
G1 X8.7592 Y-75.5178
G1 X5.0871 Y-74.7867
G1 X2.8889 Y-74.7224
G1 X1.9833 Y-74.9789
G1 X1.4451 Y-75.5954
G1 X1.337 Y-76.3901
G1 X1.6022 Y-76.9535
G1 X2.9159 Y-77.5541
G1 X6.2995 Y-77.8206
G1 X14.1893 Y-79.438
G1 X12.1623 Y-80.8883
G1 X9.9014 Y-81.7219
G1 X7.5358 Y-81.98
G1 X5.1927 Y-81.6998
G1 X3.0013 Y-80.9228
G1 X1.0886 Y-79.6873
G1 X-0.4161 Y-78.033
G1 X-1.3857 Y-75.9995
G1 X-1.7621 Y-73.5398
G1 X-1.5565 Y-70.8981
G1 X-0.8102 Y-68.3294
G1 X0.4345 Y-66.0891
G1 X2.3749 Y-64.0931
G1 X4.7715 Y-62.5862
G1 X7.4436 Y-61.6244
G1 X10.2114 Y-61.2613
G1 X12.8943 Y-61.5523
G1 X15.3136 Y-62.5517
G1 X17.2885 Y-64.3154
G1 X18.6391 Y-66.8971
G1 X19.0227 Y-69.6804
G1 X18.6394 Y-72.9643
G1 X9.1644 Y-71.4119
G0 Z5.0
G0 X9.1128 Y-71.7674
G1 Z0.0
G1 X10.6614 Y-71.9923
G1 X17.8301 Y-73.5718
G1 X17.4258 Y-74.7851
G1 X2.8631 Y-72.3584
G1 X2.933 Y-71.8211
G1 X3.0656 Y-71.3463
G1 X6.8927 Y-71.445
G1 X9.1128 Y-71.7674
G0 Z5.0
G0 X8.6548 Y-76.0532
G1 Z0.0
G1 X8.9915 Y-76.0892
G1 X15.4027 Y-77.4147
G1 X14.9661 Y-78.0905
G1 X14.5934 Y-78.8305
G1 X10.0887 Y-77.8395
G1 X5.2889 Y-77.0103
G1 X3.4557 Y-77.0373
G1 X2.5768 Y-76.9031
G1 X1.8497 Y-76.4026
G1 X2.4575 Y-75.391
G1 X8.6548 Y-76.0532
G0 Z5.0
G0 X14.9981 Y-79.0324
G1 Z0.0
G1 X15.4627 Y-78.1821
G1 X16.2114 Y-77.6168
G1 X16.3295 Y-78.1697
G1 X16.058 Y-78.7491
G1 X15.5599 Y-79.1166
G1 X14.9981 Y-79.0324
G0 Z5.0
G0 X18.032 Y-75.1898
G1 Z0.0
G1 X18.068 Y-74.3152
G1 X18.4366 Y-73.7737
G1 X18.7279 Y-73.9348
G1 X18.6956 Y-74.4566
G1 X18.032 Y-75.1898
G0 Z5.0
G0 X7.3119 Y-83.2803
G1 Z0.0
G1 X7.8678 Y-86.3285
G1 X7.7166 Y-89.7524
G1 X4.742 Y-89.4906
G1 X2.0532 Y-88.9437
G1 X2.6631 Y-86.6785
G1 X3.5939 Y-84.5384
G1 X5.069 Y-83.1847
G1 X6.0806 Y-83.0101
G1 X7.3119 Y-83.2803
G0 Z5.0
G0 X6.1066 Y-90.148
G1 Z0.0
G1 X7.3119 Y-90.3596
G1 X5.9964 Y-90.5242
G1 X4.6824 Y-90.3596
G1 X5.9793 Y-90.1257
G1 X6.1066 Y-90.148
G0 Z5.0
G0 X3.8734 Y-89.9549
G1 Z0.0
G1 X3.5762 Y-90.2012
G1 X3.078 Y-90.1437
G1 X2.4575 Y-90.1577
G1 X2.3231 Y-89.8472
G1 X2.8162 Y-89.726
G1 X3.8734 Y-89.9549
G0 Z5.0
G0 X-7.8938 Y-87.528
G1 Z0.0
G1 X-6.7032 Y-81.7551
G1 X-5.4311 Y-75.5938
G1 X-7.1252 Y-81.8392
G1 X-7.7802 Y-85.0964
G1 X-8.0606 Y-88.3369
G1 X-7.8938 Y-87.528
G0 Z5.0
G0 X-9.8185 Y-86.4899
G1 Z0.0
G1 X-9.615 Y-86.1126
G1 X-9.2736 Y-84.2915
G1 X-5.4684 Y-71.2012
G1 X-1.5885 Y-59.0072
G1 X-6.4268 Y-72.9805
G1 X-10.4874 Y-87.73
G1 X-9.8185 Y-86.4899
G0 Z5.0
G0 X-12.1684 Y-85.9439
G1 Z0.0
G1 X-12.6887 Y-88.1831
G1 X-12.6401 Y-89.8223
G1 X-12.1058 Y-91.3714
G1 X-14.23 Y-94.6068
G1 X-16.7583 Y-97.4395
G1 X-16.6681 Y-91.74
G1 X-15.6415 Y-86.3807
G1 X-13.6556 Y-81.7461
G1 X-12.2966 Y-79.8215
G1 X-10.6902 Y-78.2234
G1 X-10.5894 Y-79.7402
G1 X-10.8509 Y-81.3564
G1 X-11.8935 Y-84.7604
G1 X-12.1684 Y-85.9439
G0 Z5.0
G0 X-11.4672 Y-88.9502
G1 Z0.0
G1 X-11.4182 Y-88.9387
G1 X-10.4874 Y-89.1462
G1 X-11.4989 Y-90.5624
G1 X-12.1428 Y-90.0937
G1 X-12.3076 Y-89.1462
G1 X-11.4672 Y-88.9502
G0 Z5.0
G0 X-16.5175 Y-88.078
G1 Z0.0
G1 X-17.2189 Y-92.1391
G1 X-17.1623 Y-98.4497
G1 X-17.8054 Y-99.1221
G1 X-18.578 Y-99.6634
G1 X-19.1849 Y-96.2249
G1 X-19.1268 Y-95.8783
G1 X-18.8158 Y-95.7845
G1 X-18.4878 Y-95.7084
G1 X-18.3757 Y-95.4156
G1 X-18.1954 Y-89.73
G1 X-17.1839 Y-84.8762
G1 X-15.3021 Y-80.8927
G1 X-12.5104 Y-77.819
G1 X-11.5694 Y-77.788
G1 X-11.1829 Y-77.8566
G1 X-11.0947 Y-78.2234
G1 X-12.7868 Y-79.8147
G1 X-14.2069 Y-81.7439
G1 X-16.2409 Y-86.4766
G1 X-16.5175 Y-88.078
G0 Z5.0
G0 X-18.2819 Y-87.6791
G1 Z0.0
G1 X-18.5605 Y-88.9117
G1 X-18.9832 Y-94.4062
G1 X-19.927 Y-93.7317
G1 X-20.3987 Y-92.5848
G1 X-23.2156 Y-90.1692
G1 X-26.4353 Y-88.2844
G1 X-29.9886 Y-86.8372
G1 X-33.8064 Y-85.7331
G1 X-41.9576 Y-84.1803
G1 X-50.3343 Y-82.8756
G1 X-52.3568
G1 X-52.1004 Y-78.3355
G1 X-52.3692 Y-76.2724
G1 X-52.9637 Y-74.7855
G1 X-49.6988 Y-74.3696
G1 X-46.7173 Y-73.0597
G1 X-44.1559 Y-71.0295
G1 X-42.1518 Y-68.4539
G1 X-40.8419 Y-65.5067
G1 X-40.3633 Y-62.3623
G1 X-40.852 Y-59.1942
G1 X-42.4459 Y-56.1764
G1 X-43.8149 Y-54.8345
G1 X-45.4798 Y-53.5472
G1 X-38.0849 Y-54.0945
G1 X-30.6046 Y-54.1215
G1 X-23.5334 Y-53.3559
G1 X-20.3051 Y-52.5907
G1 X-17.3647 Y-51.5252
G1 X-16.3606 Y-48.0786
G1 X-15.4072 Y-46.807
G1 X-13.5214 Y-46.4676
G1 X-13.0943 Y-47.7674
G1 X-13.4853 Y-48.7018
G1 X-14.937 Y-50.513
G1 X-15.5384 Y-52.5938
G1 X-15.6811 Y-54.8575
G1 X-15.4047 Y-57.1075
G1 X-14.7468 Y-59.1455
G1 X-13.7461 Y-60.775
G1 X-12.4408 Y-61.7977
G1 X-10.8698 Y-62.016
G1 X-9.0717 Y-61.2327
G1 X-9.3791 Y-63.2517
G1 X-10.241 Y-64.716
G1 X-12.7126 Y-66.8962
G1 X-12.7056 Y-72.3503
G1 X-12.3081 Y-77.415
G1 X-14.0472 Y-78.6342
G1 X-15.4668 Y-80.1728
G1 X-17.4698 Y-84.0862
G1 X-18.2819 Y-87.6791
G0 Z5.0
G0 X-14.5334 Y-97.6404
G1 Z0.0
G1 X-17.4392 Y-100.6069
G1 X-19.6801 Y-104.3772
G1 X-21.2189 Y-108.7235
G1 X-22.0171 Y-113.418
G1 X-20.9261 Y-108.694
G1 X-19.3166 Y-104.4884
G1 X-17.1859 Y-100.8032
G1 X-14.5334 Y-97.6404
G0 Z5.0
G0 X-9.0717 Y-94.2028
G1 Z0.0
G1 X-8.4203 Y-93.7419
G1 X-8.0606 Y-92.9888
G1 X-8.7437 Y-93.418
G1 X-9.0717 Y-94.2028
G0 Z5.0
G0 X-9.882 Y-95.6189
G1 Z0.0
G1 X-13.5895 Y-99.3259
G1 X-16.8098 Y-103.9114
G1 X-19.1959 Y-109.4583
G1 X-19.9675 Y-112.6173
G1 X-20.3996 Y-116.0484
G1 X-22.3182 Y-115.5394
G1 X-23.8384 Y-114.632
G1 X-22.8755 Y-109.4446
G1 X-21.0332 Y-104.7452
G1 X-18.4698 Y-100.6411
G1 X-15.3437 Y-97.2373
G1 X-12.5975 Y-93.1062
G1 X-9.4777 Y-89.3481
G1 X-9.6049 Y-90.763
G1 X-10.5054 Y-92.1667
G1 X-11.6502 Y-93.5767
G1 X-12.5104 Y-95.0115
G1 X-10.4228 Y-92.5984
G1 X-8.4653 Y-89.5509
G1 X-0.8587 Y-90.2046
G1 X6.6799 Y-91.1879
G1 X21.8752 Y-93.3941
G1 X29.8377 Y-95.1292
G1 X33.4306 Y-96.5103
G1 X36.6409 Y-98.2482
G1 X40.1407 Y-100.9398
G1 X43.1134 Y-103.9122
G1 X43.4578 Y-106.2983
G1 X44.1249 Y-108.3627
G1 X42.323 Y-108.9375
G1 X41.0252 Y-110.0164
G1 X40.2655 Y-111.6341
G1 X40.0786 Y-113.8233
G1 X39.1854 Y-113.4028
G1 X38.0568 Y-113.2158
G1 X35.0226 Y-115.4413
G1 X34.998 Y-117.8935
G1 X35.226 Y-120.0933
G1 X34.8682 Y-120.011
G1 X34.689 Y-119.3647
G1 X34.6179 Y-117.6659
G1 X33.6987 Y-117.2314
G1 X32.3897 Y-117.1202
G1 X28.9675 Y-117.5715
G1 X21.4708 Y-119.0821
G1 X16.8198 Y-119.3491
G1 X12.2154 Y-119.255
G1 X3.2659 Y-118.8792
G1 X3.6706 Y-113.8233
G1 X4.4181 Y-110.2813
G1 X5.4486 Y-106.9399
G1 X6.2473 Y-103.6514
G1 X6.2995 Y-100.2715
G1 X-0.0726 Y-99.2609
G1 X-6.4428 Y-98.2482
G1 X-11.6004 Y-101.0803
G1 X-13.9174 Y-102.7582
G1 X-15.9496 Y-104.721
G1 X-17.1578 Y-107.3055
G1 X-18.0152 Y-110.2403
G1 X-19.3881 Y-116.4528
G1 X-19.983 Y-115.691
G1 X-20.0442 Y-114.7105
G1 X-19.5905 Y-112.8111
G1 X-18.2029 Y-107.3806
G1 X-17.2119 Y-104.7561
G1 X-15.9496 Y-102.4961
G1 X-12.6486 Y-99.0687
G1 X-11.0532 Y-97.4466
G1 X-9.882 Y-95.6189
G0 Z5.0
G0 X-5.8348 Y-104.1135
G1 Z0.0
G1 X-7.2284 Y-107.6254
G1 X-7.5934 Y-109.6561
G1 X-7.4532 Y-111.7996
G1 X-7.3055 Y-109.5642
G1 X-6.7968 Y-107.5515
G1 X-5.8348 Y-104.1135
G0 Z5.0
G0 X-2.5985 Y-105.6822
G1 Z0.0
G1 X-3.4047 Y-108.062
G1 X-4.0152 Y-113.8226
G1 X-3.0326 Y-108.2819
G1 X-1.3857 Y-103.7085
G1 X-2.5985 Y-105.6822
G0 Z5.0
G0 X0.519 Y-106.7138
G1 Z0.0
G1 X-0.0817 Y-108.5288
G1 X-0.5068 Y-111.4235
G1 X-0.3742 Y-114.0251
G1 X-0.2012 Y-111.0627
G1 X0.3075 Y-108.4362
G1 X2.0532 Y-103.9107
G1 X0.8037 Y-105.8533
G1 X0.519 Y-106.7138
G0 Z5.0
G0 X-10.5308 Y-105.5307
G1 Z0.0
G1 X-10.4874 Y-105.1253
G1 X-11.7011 Y-110.3841
G1 X-10.7522 Y-107.598
G1 X-10.5308 Y-105.5307
G0 Z5.0
G0 X-22.8259 Y-115.8454
G1 Z0.0
G1 X-23.5845 Y-115.9634
G1 X-24.3025 Y-115.6531
G1 X-25.6572 Y-114.8333
G1 X-25.2559 Y-114.1227
G1 X-24.4438 Y-113.8226
G1 X-24.4258 Y-114.7152
G1 X-24.0628 Y-115.2618
G1 X-22.8259 Y-115.8454
G0 Z5.0
G0 X-28.4894 Y-116.8569
G1 Z0.0
G1 X-30.6346 Y-118.0485
G1 X-33.0452 Y-118.9762
G1 X-38.1985 Y-120.4979
G1 X-33.3927 Y-118.6287
G1 X-28.4894 Y-116.8569
G0 Z5.0
G0 X-38.603 Y-120.6995
G1 Z0.0
G1 X-42.4368 Y-121.5184
G1 X-46.6943 Y-121.9135
G1 X-42.3697 Y-121.0805
G1 X-38.603 Y-120.6995
G0 Z5.0
G0 X-47.3002 Y-122.1156
G1 Z0.0
G1 X-51.4905 Y-122.3486
G1 X-53.5371 Y-122.2601
G1 X-55.1885 Y-121.711
G1 X-51.242 Y-121.911
G1 X-47.3002 Y-122.1156
G0 Z5.0
G0 X-55.796 Y-121.7116
G1 Z0.0
G1 X-70.5992 Y-120.3836
G1 X-85.3268 Y-118.4749
G1 X-70.6887 Y-119.9669
G1 X-55.796 Y-121.7116
G0 Z5.0
G0 X-64.5686 Y-108.8803
G1 Z0.0
G1 X-64.6953 Y-108.7667
G1 Y-108.1592
G1 X-64.4811 Y-103.6306
G1 X-63.3802 Y-99.6113
G1 X-61.6728 Y-96.0736
G1 X-59.6387 Y-92.9888
G1 X-59.3157 Y-93.0705
G1 X-59.2341 Y-93.3934
G1 X-61.3854 Y-96.3494
G1 X-63.0959 Y-99.7467
G1 X-64.1901 Y-103.7598
G1 X-64.493 Y-108.5639
G1 X-64.5686 Y-108.8803
G0 Z5.0
G0 X-74.4043 Y-100.6749
G1 Z0.0
G1 X-74.3633 Y-98.965
G1 X-73.798 Y-97.3876
G1 X-72.1796 Y-94.6074
G1 X-71.8566 Y-94.6891
G1 X-71.7749 Y-95.0115
G1 X-73.465 Y-97.4678
G1 X-74.4043 Y-100.6749
G0 Z5.0
G0 X-85.7314 Y-106.7427
G1 Z0.0
G1 X-86.8412 Y-106.6884
G1 X-87.7539 Y-105.9344
G1 X-87.4815 Y-105.2964
G1 X-86.7424 Y-105.1253
G1 X-86.4646 Y-106.1623
G1 X-85.7314 Y-106.7427
G0 Z5.0
G0 X-84.7205 Y-88.336
G1 Z0.0
G1 X-82.488 Y-84.5008
G1 X-80.9898 Y-82.9648
G1 X-78.8545 Y-82.0657
G1 X-79.3809 Y-81.8278
G1 X-79.8721 Y-82.0104
G1 X-80.8771 Y-82.4701
G1 X-80.1741 Y-81.0495
G1 X-79.4615 Y-79.6393
G1 X-78.2562 Y-79.5734
G1 X-77.117 Y-79.0929
G1 X-75.9362 Y-78.5318
G1 X-74.6066 Y-78.2234
G1 X-75.6182 Y-80.6504
G1 X-76.7825 Y-80.8007
G1 X-77.6402 Y-81.2573
G1 X-77.0258 Y-81.3135
G1 X-76.2247 Y-81.0545
G1 X-77.9858 Y-83.8446
G1 X-79.8656 Y-86.5151
G1 X-82.3412 Y-87.3775
G1 X-84.7205 Y-88.336
G0 Z5.0
G0 X-88.159 Y-82.2694
G1 Z0.0
G1 X-87.6544 Y-77.5162
G1 X-88.159 Y-72.7624
G1 Y-82.2694
G0 Z5.0
G0 X-89.7764 Y-80.6514
G1 Z0.0
G1 X-89.4019 Y-79.8908
G1 X-89.2772 Y-78.6284
G1 X-89.2773 Y-78.6281
G1 X-89.2772 Y-78.6278
G1 X-89.4019 Y-77.3656
G1 X-89.7764 Y-76.6053
G1 Y-76.6059
G1 Y-80.6507
G1 Y-80.6514
G0 Z5.0
G0 X-84.7205 Y-73.1671
G1 Z0.0
G1 X-84.3768 Y-72.7246
G1 X-84.2643 Y-71.6708
G1 Y-71.6706
G1 Y-71.6705
G1 X-84.5182 Y-69.5257
G1 X-84.7205 Y-73.1671
G0 Z5.0
G0 X-86.1272 Y-73.1113
G1 Z0.0
G1 X-86.1124 Y-72.74
G1 X-86.1355 Y-67.3008
G1 X-84.5247 Y-66.3334
G1 X-83.1961 Y-65.0831
G1 X-80.472 Y-62.6492
G1 X-78.8541 Y-68.9201
G1 X-77.8021 Y-72.0453
G1 X-77.2356 Y-74.9882
G1 X-77.9923 Y-76.7559
G1 X-79.2581 Y-78.6292
G1 X-85.7309 Y-88.7434
G1 X-93.6437 Y-89.1363
G1 X-102.1145 Y-88.9459
G1 X-101.6428 Y-86.8077
G1 X-101.3053 Y-84.0912
G1 X-97.7489 Y-82.4896
G1 X-94.0234 Y-81.0569
G1 X-92.6574 Y-74.7901
G1 X-92.6563 Y-71.7326
G1 X-93.126 Y-70.4202
G1 X-94.0234 Y-69.3257
G1 X-86.3379 Y-67.7055
G1 Y-78.4256
G1 X-86.1272 Y-73.1113
G0 Z5.0
G0 X-89.9793 Y-67.9083
G1 Z0.0
G1 X-93.438 Y-68.5944
G1 X-96.8491 Y-68.6232
G1 X-100.2133 Y-68.1424
G1 X-103.5312 Y-67.3002
G1 X-103.0594 Y-66.6592
G1 X-102.5201 Y-66.0875
G1 X-96.6915 Y-67.4397
G1 X-93.5436 Y-67.8816
G1 X-89.9793 Y-67.9083
G0 Z5.0
G0 X-102.2698 Y-64.2551
G1 Z0.0
G1 X-102.7481 Y-65.5871
G1 X-103.6259 Y-66.5828
G1 X-104.9469 Y-67.099
G1 X-103.9509 Y-65.1465
G1 X-103.5496 Y-62.6051
G1 X-103.6954 Y-59.9343
G1 X-104.3399 Y-57.5926
G1 X-103.4771 Y-58.4455
G1 X-102.7951 Y-59.6824
G1 X-102.1476 Y-62.7309
G1 X-102.2698 Y-64.2551
G0 Z5.0
G0 X-104.3399 Y-67.7055
G1 Z0.0
G1 X-104.3018 Y-69.0189
G1 X-104.3399 Y-70.7394
G1 X-107.0545 Y-71.8677
G1 X-109.8016 Y-72.9643
G1 X-109.8653 Y-71.4254
G1 X-109.8016 Y-69.526
G1 X-107.0054 Y-68.6813
G1 X-104.3399 Y-67.7055
G0 Z5.0
G0 X-107.1711 Y-65.4807
G1 Z0.0
G1 X-107.3991 Y-63.4831
G1 X-107.3739 Y-61.2327
G1 X-106.9663 Y-63.1946
G1 X-107.1711 Y-65.4807
G0 Z5.0
G0 X-110.1916 Y-65.146
G1 Z0.0
G1 X-110.408 Y-67.099
G1 Y-57.9973
G1 X-109.9038 Y-62.5477
G1 X-110.1916 Y-65.146
G0 Z5.0
G0 X-112.6837 Y-64.9078
G1 Z0.0
G1 X-112.8352 Y-66.4922
G1 X-113.0625 Y-64.494
G1 X-113.0375 Y-62.2442
G1 X-112.6094 Y-64.1306
G1 X-112.6837 Y-64.9078
G0 Z5.0
G0 X-115.3905 Y-64.3685
G1 Z0.0
G1 X-115.5102 Y-64.9288
G1 X-115.8697 Y-65.0766
G1 Y-63.6607
G1 X-115.5102 Y-63.8086
G1 X-115.3905 Y-64.3685
G0 Z5.0
G0 X-110.8126 Y-69.9304
G1 Z0.0
G1 X-110.5041 Y-73.0705
G1 X-109.2783 Y-75.9268
G1 X-107.5051 Y-78.5156
G1 X-105.5537 Y-80.8533
G1 X-105.9584 Y-83.6843
G1 X-106.2123 Y-81.6063
G1 X-106.9147 Y-79.9209
G1 X-108.9704 Y-77.146
G1 X-110.733 Y-74.2022
G1 X-111.0699 Y-72.3049
G1 X-110.8126 Y-69.9304
G0 Z5.0
G0 X-109.0759 Y-73.412
G1 Z0.0
G1 X-108.0901 Y-72.9202
G1 X-107.1506 Y-72.6559
G1 X-106.1601 Y-72.7624
G1 X-104.4711 Y-72.1096
G1 X-103.7114 Y-72.1286
G1 X-103.1267 Y-72.7624
G1 X-103.9062 Y-73.3485
G1 X-104.9413 Y-73.6783
G1 X-105.9793 Y-74.0059
G1 X-106.768 Y-74.5833
G1 X-105.8391 Y-74.518
G1 X-104.9032 Y-74.0705
G1 X-103.8888 Y-73.5752
G1 X-102.7224 Y-73.3696
G1 X-102.1156 Y-74.7861
G1 X-104.3403 Y-75.7976
G1 X-103.7339 Y-75.9146
G1 X-103.1201 Y-75.6519
G1 X-101.711 Y-75.1901
G1 X-100.9333 Y-76.4354
G1 X-99.8907 Y-77.4159
G1 X-100.9538 Y-78.4256
G1 X-102.3178 Y-79.1352
G1 X-105.3514 Y-80.2467
G1 X-107.7145 Y-77.1482
G1 X-109.8016 Y-73.774
G1 X-109.0759 Y-73.412
G0 Z5.0
G0 X-111.419 Y-75.3913
G1 Z0.0
G1 X-113.0679 Y-75.9678
G1 X-114.4531 Y-76.8075
G1 X-112.7015 Y-76.3345
G1 X-111.419 Y-75.3913
G0 Z5.0
G0 X-110.1006 Y-78.8927
G1 Z0.0
G1 X-110.8667 Y-79.1812
G1 X-111.5703 Y-79.4886
G1 X-112.0265 Y-80.0445
G1 X-110.3239 Y-79.4715
G1 X-109.5783 Y-79.1376
G1 X-109.3969 Y-78.6278
G1 X-110.1006 Y-78.8927
G0 Z5.0
G0 X-108.8845 Y-78.0803
G1 Z0.0
G1 X-108.2627 Y-79.011
G1 X-106.9699 Y-81.0554
G1 X-111.8241 Y-83.2809
G1 X-113.4386 Y-82.0129
G1 X-114.7906 Y-80.4828
G1 X-117.083 Y-77.0103
G1 X-114.1476 Y-75.6798
G1 X-112.7645 Y-75.0861
G1 X-111.015 Y-74.7851
G1 X-110.5657 Y-75.7516
G1 X-110.2063 Y-76.8072
G1 X-112.2759 Y-77.5693
G1 X-114.4535 Y-78.2234
G1 X-113.394 Y-78.3861
G1 X-112.1912 Y-77.9498
G1 X-110.9063 Y-77.3469
G1 X-109.5993 Y-77.0103
G1 X-108.8845 Y-78.0803
G0 Z5.0
G0 X-109.3969 Y-84.089
G1 Z0.0
G1 X-109.5993 Y-85.303
G1 X-109.6298 Y-86.5092
G1 Y-86.5098
G1 X-109.4124 Y-86.3315
G1 Y-86.3313
G1 X-109.412 Y-86.331
G1 X-109.2608 Y-85.4668
G1 X-109.2378 Y-85.3353
G1 Y-85.3351
G1 Y-85.335
G1 X-109.3969 Y-84.089
G0 Z5.0
G0 X-109.8289 Y-83.0078
G1 Z0.0
G1 X-107.9809 Y-82.2694
G1 X-108.1837 Y-86.1126
G1 X-107.723 Y-84.0601
G1 X-107.7059 Y-82.9582
G1 X-107.9809 Y-82.2694
G1 X-106.7675 Y-81.6619
G1 X-106.9699 Y-86.1126
G1 X-110.8131 Y-87.73
G1 Y-85.5045
G1 X-111.2043 Y-86.1751
G1 X-111.2412 Y-87.1996
G1 X-111.4181 Y-88.085
G1 X-112.2288 Y-88.336
G1 X-112.0265 Y-83.8859
G1 X-109.8289 Y-83.0078
G0 Z5.0
G0 X-102.5212 Y-82.115
G1 Z0.0
G1 X-102.3173 Y-83.4828
G1 X-102.0711 Y-82.0616
G1 Y-82.0613
G1 Y-82.061
G1 X-102.3173 Y-80.6507
G1 X-102.5212 Y-82.115
G0 Z5.0
G0 X-101.056 Y-82.2257
G1 Z0.0
G1 X-101.0724 Y-82.4436
G1 X-100.6995 Y-82.8756
G1 X-100.6799 Y-81.1892
G1 Y-81.1886
G1 X-100.9018 Y-80.2464
G1 X-101.0245 Y-81.8085
G1 X-101.056 Y-82.2257
G0 Z5.0
G0 X-100.2108 Y-82.3198
G1 Z0.0
G1 X-100.2952 Y-83.0781
G1 X-103.3294 Y-84.4937
G1 X-103.7204 Y-84.1402
G1 X-103.731 Y-83.5076
G1 X-103.7339 Y-82.4712
G1 X-103.9838 Y-83.5849
G1 X-103.9363 Y-84.4937
G1 X-104.5197 Y-85.0228
G1 X-105.5548 Y-85.1005
G1 X-104.9473 Y-80.6507
G1 X-99.8907 Y-78.8302
G1 X-100.062 Y-80.9843
G1 X-100.2108 Y-82.3198
G0 Z5.0
G0 X-78.8545 Y-79.2349
G1 Z0.0
G1 X-77.439 Y-76.6053
G1 X-75.6909 Y-76.128
G1 X-74.2022 Y-75.3913
G1 X-73.9692 Y-75.9134
G1 X-74.1511 Y-76.405
G1 X-74.4094 Y-76.9464
G1 X-74.4049 Y-77.6168
G1 X-76.6297 Y-78.4262
G1 X-78.8545 Y-79.2349
G0 Z5.0
G0 X-76.8316 Y-75.9985
G1 Z0.0
G1 X-75.3663 Y-74.9358
G1 X-73.5952 Y-74.1783
G1 X-74.0624 Y-74.9748
G1 X-74.8711 Y-75.4305
G1 X-76.8316 Y-75.9985
G0 Z5.0
G0 X-76.2252 Y-71.7515
G1 Z0.0
G1 X-73.1911 Y-70.3348
G1 X-73.1912
G1 X-73.1905 Y-70.3345
G1 X-74.9818 Y-70.7689
G1 X-76.2247 Y-71.7509
G1 X-76.224 Y-71.7506
G1 X-76.2252 Y-71.7515
G0 Z5.0
G0 X-77.1046 Y-69.6728
G1 Z0.0
G1 X-71.9773 Y-67.5037
G1 X-74.8961 Y-68.3263
G1 X-77.2362 Y-69.7285
G1 X-77.1046 Y-69.6728
G0 Z5.0
G0 X-74.2022 Y-65.8853
G1 Z0.0
G1 X-73.6703 Y-65.6077
G1 X-73.4119 Y-65.4617
G1 X-73.3934 Y-65.076
G1 X-74.2467 Y-65.2819
G1 X-74.4194 Y-65.5778
G1 X-74.2022 Y-65.8853
G0 Z5.0
G0 X-75.8205 Y-66.2903
G1 Z0.0
G1 X-77.1395 Y-66.539
G1 X-78.4501 Y-67.3015
G1 X-79.0699 Y-66.1015
G1 X-79.4615 Y-64.6719
G1 X-78.6603 Y-64.4617
G1 X-78.0454 Y-64.0651
G1 X-78.6603 Y-64.0095
G1 X-79.4615 Y-64.2673
G1 X-79.7904 Y-63.1813
G1 X-79.8656 Y-61.8411
G1 X-77.6524 Y-61.1716
G1 X-75.6859 Y-60.2551
G1 X-71.7749 Y-58.4013
G1 X-70.9161 Y-64.9884
G1 X-71.2145 Y-68.0425
G1 X-71.7378 Y-69.3785
G1 X-72.5841 Y-70.5375
G1 X-72.5686 Y-71.4124
G1 X-72.8231 Y-72.0174
G1 X-73.1911 Y-73.3683
G1 X-76.4275 Y-74.7851
G1 X-77.7019 Y-71.4071
G1 X-78.4501 Y-67.5037
G1 X-75.8205 Y-66.2903
G0 Z5.0
G0 X-69.6082 Y-68.4546
G1 Z0.0
G1 X-70.9723 Y-72.3699
G1 X-72.5841 Y-80.0445
G1 X-70.402 Y-71.7081
G1 X-67.7294 Y-63.8617
G1 X-64.6953 Y-57.997
G1 X-63.0437 Y-55.1625
G1 X-61.8641 Y-52.3333
G1 X-65.3472 Y-58.5141
G1 X-68.472 Y-65.193
G1 X-69.6082 Y-68.4546
G0 Z5.0
G0 X-67.5275 Y-68.9192
G1 Z0.0
G1 X-64.6548 Y-62.8921
G1 X-61.8641 Y-56.783
G1 X-63.5646 Y-59.5318
G1 X-64.9893 Y-62.5573
G1 X-67.5275 Y-68.9192
G0 Z5.0
G0 X-64.5191 Y-69.9183
G1 Z0.0
G1 X-64.2918 Y-70.3348
G1 X-64.2913 Y-70.3335
G1 X-64.2907 Y-70.3348
G1 X-63.8916 Y-69.2608
G1 X-63.7899 Y-68.7962
G1 X-63.79 Y-68.7961
G1 X-63.7899 Y-68.7956
G1 X-63.948 Y-68.647
G1 X-64.0883 Y-68.5145
G1 X-64.0885 Y-68.515
G1 X-64.089 Y-68.5145
G1 X-64.3744 Y-69.4916
G1 X-64.5191 Y-69.9183
G0 Z5.0
G0 X-64.8977 Y-72.5603
G1 Z0.0
G1 X-66.202 Y-75.2506
G1 X-66.516 Y-78.4256
G1 X-65.8336 Y-75.3659
G1 X-64.8977 Y-72.5603
G0 Z5.0
G0 X-69.146 Y-74.3804
G1 Z0.0
G1 X-69.9097 Y-77.2063
G1 X-70.1571 Y-80.0445
G1 X-69.503 Y-77.1081
G1 X-69.146 Y-74.3804
G0 Z5.0
G0 X-73.7975 Y-80.8526
G1 Z0.0
G1 X-73.9818 Y-81.6309
G1 X-74.809 Y-82.2694
G1 X-75.0113 Y-81.0554
G1 X-74.2792 Y-80.9958
G1 X-73.7975 Y-80.8526
G0 Z5.0
G0 X-58.4249 Y-81.0551
G1 Z0.0
G1 X-57.9031 Y-78.8125
G1 X-56.9221 Y-76.5783
G1 X-55.5295 Y-75.065
G1 X-54.6933 Y-74.8022
G1 X-53.7723 Y-74.9873
G1 X-52.8891 Y-76.0535
G1 X-52.5144 Y-77.8718
G1 X-52.9637 Y-81.8641
G1 X-58.4249 Y-81.0551
G0 Z5.0
G0 X-57.0432 Y-68.9066
G1 Z0.0
G1 X-62.2681 Y-68.3123
G1 Y-67.099
G1 X-52.1545 Y-67.9083
G1 X-50.7104 Y-68.1645
G1 X-49.5249 Y-68.9198
G1 X-50.1725 Y-69.6453
G1 X-51.1745 Y-69.754
G1 X-53.3683 Y-69.3245
G1 X-57.0432 Y-68.9066
G0 Z5.0
G0 X-56.7042 Y-64.7541
G1 Z0.0
G1 X-62.6733 Y-64.2667
G1 X-62.6958 Y-63.5368
G1 X-62.4705 Y-63.0539
G1 X-55.7524 Y-63.3008
G1 X-51.9526 Y-63.8306
G1 X-48.5141 Y-64.6713
G1 X-49.2026 Y-65.6098
G1 X-50.3257 Y-65.7014
G1 X-52.7619 Y-65.076
G1 X-56.7042 Y-64.7541
G0 Z5.0
G0 X-54.7849 Y-60.2216
G1 Z0.0
G1 X-52.2756 Y-60.6455
G1 X-49.7277 Y-61.0309
G1 X-49.3422 Y-60.3032
G1 X-49.1209 Y-59.4126
G1 X-52.5286 Y-58.6131
G1 X-54.1244 Y-58.846
G1 X-54.6121 Y-59.3573
G1 X-54.7849 Y-60.2216
G0 Z5.0
G0 X-53.9756 Y-57.9973
G1 Z0.0
G1 X-51.0293 Y-58.461
G1 X-49.6246 Y-58.6063
G1 X-48.5145 Y-58.4013
G1 X-48.5146 Y-58.4011
G1 X-48.5141 Y-58.401
G1 X-49.2215 Y-56.4789
G1 X-49.5249 Y-54.1534
G1 X-52.1934 Y-55.6317
G1 X-53.9756 Y-57.9973
G0 Z5.0
G0 X-55.8318 Y-54.3723
G1 Z0.0
G1 X-54.3928 Y-53.6354
G1 X-52.1329 Y-53.0224
G1 X-49.7484 Y-52.9094
G1 X-47.3007 Y-53.3445
G1 X-45.514 Y-54.128
G1 X-44.0388 Y-55.2848
G1 X-42.8765 Y-56.743
G1 X-42.0303 Y-58.433
G1 X-41.2922 Y-62.2231
G1 X-41.84 Y-66.0881
G1 X-43.1655 Y-68.5984
G1 X-45.3141 Y-70.9316
G1 X-47.9507 Y-72.7649
G1 X-50.7394 Y-73.7737
G1 X-54.2141 Y-73.9342
G1 X-57.1435 Y-73.1702
G1 X-59.4495 Y-71.5953
G1 X-61.0549 Y-69.3238
G1 X-53.9756 Y-69.7279
G1 X-51.0287 Y-70.3229
G1 X-49.6237 Y-70.2176
G1 X-48.5145 Y-69.3238
G1 X-49.2681 Y-68.0997
G1 X-50.7394 Y-67.503
G1 X-57.6167 Y-66.6943
G1 X-60.4324 Y-66.8232
G1 X-61.6291 Y-66.5235
G1 X-62.2686 Y-65.4807
G1 X-58.7254 Y-65.1822
G1 X-55.1545 Y-65.5819
G1 X-51.6011 Y-66.0825
G1 X-48.1098 Y-66.0881
G1 X-48.2321 Y-64.8055
G1 X-49.1594 Y-63.9017
G1 X-52.7188 Y-62.9452
G1 X-61.6618 Y-62.4464
G1 X-60.9512 Y-60.083
G1 X-59.8069 Y-57.9709
G1 X-58.2917 Y-56.1584
G1 X-56.4659 Y-54.6969
G1 X-55.8318 Y-54.3723
G0 Z5.0
G0 X-59.5485 Y-53.3283
G1 Z0.0
G1 X-59.5486 Y-53.3281
G1 X-59.5485 Y-53.3279
G1 X-59.8411 Y-52.9398
G1 X-60.4814 Y-53.9675
G1 X-60.788 Y-54.436
G1 X-60.7879 Y-54.4363
G1 X-60.788
G1 X-60.6503 Y-54.9634
G1 X-59.8656 Y-53.836
G1 X-59.5485 Y-53.3283
G0 Z5.0
G0 X-58.8482 Y-51.2543
G1 Z0.0
G1 X-57.8771 Y-51.5823
G1 X-52.7619 Y-52.5351
G1 X-56.0243 Y-54.0258
G1 X-58.833 Y-55.9709
G1 X-60.9822 Y-58.5747
G1 X-62.2686 Y-62.0415
G1 X-63.2801 Y-63.0536
G1 X-62.872 Y-67.012
G1 X-61.4469 Y-70.1987
G1 X-59.0167 Y-72.6453
G1 X-55.5937 Y-74.3804
G1 X-56.9961 Y-75.7597
G1 X-57.9797 Y-77.5566
G1 X-59.2346 Y-81.8647
G1 X-62.4709 Y-81.46
G1 X-62.0399 Y-78.5541
G1 X-61.6618 Y-75.5948
G1 X-62.3913 Y-78.3038
G1 X-62.6733 Y-81.46
G1 X-64.6307 Y-81.2032
G1 X-67.123 Y-81.0554
G1 X-66.9677 Y-79.7945
G1 X-66.7183 Y-78.6278
G1 X-67.1715 Y-79.692
G1 X-67.5275 Y-80.8526
G1 X-70.774 Y-80.6945
G1 X-72.2326 Y-80.5132
G1 X-73.3934 Y-79.8411
G1 X-73.892 Y-80.2532
G1 X-74.6066 Y-80.4486
G1 X-72.2307 Y-72.0028
G1 X-69.2912 Y-64.1216
G1 X-65.8741 Y-56.7168
G1 X-62.0658 Y-49.704
G1 X-60.1449 Y-50.8165
G1 X-58.8482 Y-51.2543
G0 Z5.0
G0 X-57.894 Y-47.6484
G1 Z0.0
G1 X-57.1539 Y-47.7238
G1 X-57.1537
G1 X-57.1535
G1 X-55.796 Y-47.4785
G1 X-56.9968 Y-47.3323
G1 X-58.0207 Y-47.4785
G1 X-57.894 Y-47.6484
G0 Z5.0
G0 X-55.5932 Y-47.6807
G1 Z0.0
G1 X-55.59
G1 X-55.5932 Y-47.6813
G1 X-54.1529 Y-47.7052
G1 X-52.9637 Y-47.4785
G1 X-52.9665 Y-47.4784
G1 X-52.9637 Y-47.4779
G1 X-54.4043 Y-47.454
G1 X-55.5932 Y-47.6807
G0 Z5.0
G0 X-54.5822 Y-49.2997
G1 Z0.0
G1 X-49.3232
G1 X-51.9526 Y-48.7975
G1 X-54.5822 Y-49.2997
G0 Z5.0
G0 X-54.0659 Y-45.7734
G1 Z0.0
G1 X-57.6162 Y-45.2536
G1 X-54.8264 Y-41.4701
G1 X-52.9737 Y-40.0359
G1 X-50.537 Y-39.1856
G1 X-49.3232 Y-46.4676
G1 X-54.0659 Y-45.7734
G0 Z5.0
G0 X-57.3541 Y-43.6904
G1 Z0.0
G1 X-57.866 Y-44.4986
G1 X-59.3032 Y-45.7922
G1 X-62.2681 Y-48.2872
G1 X-61.7979 Y-45.9552
G1 X-60.9152 Y-43.9362
G1 X-59.3437 Y-42.7275
G1 X-58.2131 Y-42.5822
G1 X-56.807 Y-42.8269
G1 X-57.3541 Y-43.6904
G0 Z5.0
G0 X-57.1413 Y-42.3082
G1 Z0.0
G1 X-59.0317 Y-42.0172
G1 X-57.814 Y-39.3923
G1 X-56.4024 Y-36.9606
G1 X-53.5025 Y-37.4992
G1 X-50.9411 Y-38.3762
G1 X-53.9983 Y-40.0728
G1 X-56.4024 Y-42.4219
G1 X-57.1413 Y-42.3082
G0 Z5.0
G0 X-55.5946 Y-36.4298
G1 Z0.0
G1 X-56.9646 Y-36.0693
G1 X-60.883 Y-34.5237
G1 X-64.0883 Y-32.5115
G1 X-64.1095 Y-30.6699
G1 X-63.6838 Y-29.2745
G1 X-62.7363 Y-30.9817
G1 X-61.3588 Y-32.2587
G1 X-57.6893 Y-33.8985
G1 X-53.4273 Y-34.9457
G1 X-49.3232 Y-36.151
G1 X-48.6162 Y-35.0482
G1 X-48.492 Y-34.0317
G1 X-49.5321 Y-32.2252
G1 X-53.5711 Y-29.2745
G1 X-58.83 Y-25.0266
G1 X-60.4614 Y-23.2763
G1 X-61.5485 Y-21.3058
G1 X-61.7819 Y-18.9707
G1 X-60.8526 Y-16.1284
G1 X-60.6367 Y-16.9507
G1 X-60.7033 Y-17.8296
G1 X-60.7434 Y-18.8191
G1 X-60.4479 Y-19.9707
G1 X-58.2501 Y-22.9803
G1 X-55.0778 Y-25.5782
G1 X-48.5141 Y-30.2863
G1 X-47.6377 Y-31.3277
G1 X-46.9581 Y-32.7423
G1 X-46.6011 Y-34.446
G1 X-46.6938 Y-36.3545
G1 X-48.3117 Y-37.9722
G1 X-52.6638 Y-37.201
G1 X-55.5946 Y-36.4298
G0 Z5.0
G0 X-54.8873 Y-33.9551
G1 Z0.0
G1 X-56.4024 Y-33.5221
G1 X-56.168 Y-30.8239
G1 X-55.796 Y-28.263
G1 X-53.8219 Y-29.8612
G1 X-51.4829 Y-31.3211
G1 X-49.6822 Y-33.0724
G1 X-49.2656 Y-34.1917
G1 X-49.3232 Y-35.5451
G1 X-54.8873 Y-33.9551
G0 Z5.0
G0 X-57.0092 Y-33.3202
G1 Z0.0
G1 X-57.0098 Y-33.3201
G1 Y-33.3202
G1 X-59.5051 Y-32.5792
G1 X-61.6618 Y-31.4994
G1 X-60.4484 Y-24.2186
G1 X-60.448 Y-24.2189
G1 X-60.4479 Y-24.2186
G1 X-58.3844 Y-25.9977
G1 X-56.2 Y-27.6568
G1 X-56.7649 Y-30.2295
G1 X-57.0092 Y-33.3202
G0 Z5.0
G0 X-62.2681 Y-30.8931
G1 Z0.0
G1 X-62.7509 Y-29.1196
G1 X-62.7508 Y-29.1191
G1 X-62.7509 Y-29.1189
G1 X-62.4965 Y-27.0459
G1 X-61.6613 Y-22.8008
G1 X-61.0543 Y-23.0042
G1 Y-23.0049
G1 X-61.3849 Y-26.9742
G1 X-62.2681 Y-30.8931
G0 Z5.0
G0 X-68.1249 Y-31.7626
G1 Z0.0
G1 X-68.1339 Y-31.7019
G1 X-68.8696 Y-32.9376
G1 X-69.146 Y-34.1283
G1 X-68.3734 Y-32.9296
G1 X-68.0398 Y-32.3357
G1 X-68.1249 Y-31.7626
G0 Z5.0
G0 X-70.3588 Y-42.2197
G1 Z0.0
G1 X-71.12 Y-43.3803
G1 X-71.5611 Y-43.8996
G1 X-71.7749 Y-44.6468
G1 X-70.5757 Y-43.426
G1 X-70.1985 Y-42.7172
G1 X-70.3588 Y-42.2197
G0 Z5.0
G0 X-49.7688 Y-40.3509
G1 Z0.0
G1 X-49.9296 Y-38.579
G1 X-49.5249 Y-38.7815
G1 X-48.1094 Y-47.2764
G1 X-48.9442 Y-45.4226
G1 X-49.513 Y-43.1695
G1 X-49.7688 Y-40.3509
G0 Z5.0
G0 X-47.503 Y-41.6126
G1 Z0.0
G1 X-46.5796 Y-44.1278
G1 X-45.8845 Y-46.872
G1 X-46.9281 Y-44.4769
G1 X-47.503 Y-41.6126
G0 Z5.0
G0 X-46.6607 Y-38.7699
G1 Z0.0
G1 X-47.3007 Y-38.5803
G1 X-46.1775 Y-36.5041
G1 X-45.7389 Y-35.1305
G1 X-45.6828 Y-33.523
G1 X-46.137 Y-32.156
G1 X-46.6943 Y-30.8935
G1 X-49.7498 Y-28.3404
G1 X-53.2551 Y-25.9537
G1 X-56.5646 Y-23.4067
G1 X-59.0322 Y-20.3756
G1 X-59.3563 Y-19.1706
G1 X-59.3097 Y-17.6147
G1 X-58.4299 Y-13.9311
G1 X-55.796 Y-7.6317
G1 X-54.1775 Y-5.0027
G1 X-51.9105 Y-1.6597
G1 X-49.3232 Y1.47
G1 X-46.853 Y3.5937
G1 X-44.2666 Y5.3114
G1 X-44.2351 Y4.1345
G1 X-44.6387 Y2.9638
G1 X-45.1595 Y1.6524
G1 X-45.4805 Y0.0525
G1 X-45.4159 Y-2.6816
G1 X-44.9932 Y-5.4217
G1 X-43.8624 Y-11.4758
G1 X-42.3211 Y-20.58
G1 X-40.4239 Y-29.4779
G1 X-38.2951 Y-35.9653
G1 X-36.1764 Y-42.4229
G1 X-41.5279 Y-40.2908
G1 X-46.6607 Y-38.7699
G0 Z5.0
G0 X-44.469 Y-44.2427
G1 Z0.0
G1 X-43.8165 Y-45.4104
G1 X-43.6596 Y-47.0735
G1 X-44.469 Y-44.2427
G0 Z5.0
G0 X-47.6097 Y-50.6112
G1 Z0.0
G1 X-47.8436 Y-50.509
G1 X-48.8771 Y-50.418
G1 X-49.7277 Y-50.7149
G1 X-47.7519 Y-50.7034
G1 X-47.6097 Y-50.6112
G0 Z5.0
G0 X-47.8979 Y-52.7446
G1 Z0.0
G1 X-53.2506 Y-52.0215
G1 X-57.6848 Y-50.8832
G1 X-61.4594 Y-49.2993
G1 X-60.6397 Y-47.323
G1 X-59.1785 Y-46.4055
G1 X-57.1379 Y-46.2266
G1 X-54.5822 Y-46.4676
G1 X-50.508 Y-46.89
G1 X-48.9221 Y-47.35
G1 X-47.7047 Y-48.2878
G1 X-40.6111 Y-49.5801
G1 X-33.2039 Y-50.3608
G1 X-19.3877 Y-51.3217
G1 X-24.7042 Y-52.9727
G1 X-30.7417 Y-53.7037
G1 X-37.1193 Y-53.75
G1 X-43.4574 Y-53.3445
G1 X-47.8979 Y-52.7446
G0 Z5.0
G0 X-29.5585 Y-45.0076
G1 Z0.0
G1 X-28.2877 Y-46.872
G1 X-29.2249 Y-44.6744
G1 X-30.31 Y-42.6241
G1 X-29.5585 Y-45.0076
G0 Z5.0
G0 X-30.9256 Y-48.1734
G1 Z0.0
G1 X-32.5349 Y-47.4785
G1 X-35.7653 Y-40.4952
G1 X-38.4324 Y-32.9473
G1 X-40.5776 Y-24.8776
G1 X-42.2441 Y-16.3293
G1 X-41.6882 Y-18.3026
G1 X-41.2319 Y-20.3753
G1 X-41.2245 Y-19.0011
G1 X-41.4349 Y-17.3411
G1 X-38.903 Y-19.275
G1 X-35.6727 Y-20.6483
G1 X-31.931 Y-21.5076
G1 X-27.8655 Y-21.9011
G1 X-23.6626 Y-21.8759
G1 X-19.5104 Y-21.4806
G1 X-12.1058 Y-19.7672
G1 X-16.2661 Y-25.6158
G1 X-18.1443 Y-29.037
G1 X-19.7167 Y-32.7292
G1 X-20.8565 Y-36.6473
G1 X-21.4352 Y-40.7449
G1 X-21.3251 Y-44.9779
G1 X-20.3987 Y-49.2997
G1 X-23.7724 Y-49.7254
G1 X-27.0146 Y-49.408
G1 X-29.9825 Y-48.5807
G1 X-30.9256 Y-48.1734
G0 Z5.0
G0 X-21.8143 Y-50.3099
G1 Z0.0
G1 X-19.3798 Y-49.5089
G1 X-18.1824 Y-49.0885
G1 X-17.3647 Y-48.2878
G1 X-17.0732 Y-48.7223
G1 X-17.2494 Y-49.4236
G1 X-17.7692 Y-50.9171
G1 X-21.8143 Y-50.3099
G0 Z5.0
G0 X-19.59 Y-48.8941
G1 Z0.0
G1 X-20.7357 Y-44.5192
G1 X-20.8719 Y-40.1299
G1 X-20.1743 Y-35.8209
G1 X-18.8173 Y-31.6857
G1 X-16.9755 Y-27.8173
G1 X-14.8229 Y-24.3108
G1 X-10.2855 Y-18.757
G1 X-14.3722 Y-19.925
G1 X-18.9791 Y-20.8359
G1 X-23.8478 Y-21.3607
G1 X-28.7192 Y-21.3713
G1 X-33.3342 Y-20.7393
G1 X-37.4338 Y-19.3352
G1 X-40.7599 Y-17.0318
G1 X-42.0518 Y-15.5019
G1 X-43.0528 Y-13.6991
G1 X-43.4929 Y-9.4183
G1 X-44.3101 Y-5.217
G1 X-44.8019 Y-1.1609
G1 X-44.2662 Y2.6848
G1 X-43.0478 Y-4.5546
G1 X-41.8394 Y-11.878
G1 X-41.3503 Y-13.6541
G1 X-40.3672 Y-15.2206
G1 X-37.2775 Y-17.7222
G1 X-33.2831 Y-19.3753
G1 X-29.0964 Y-20.1716
G1 X-25.1684 Y-20.3023
G1 X-21.573 Y-19.9998
G1 X-15.197 Y-18.3973
G1 X-9.6015 Y-15.9625
G1 X-4.4196 Y-13.2941
G1 X1.6616 Y-10.3972
G1 X8.2514 Y-7.7037
G1 X15.1804 Y-5.4288
G1 X22.2799 Y-3.7878
G1 X18.3289 Y-5.9456
G1 X14.0695 Y-7.7037
G1 X5.2889 Y-11.0686
G1 X-2.8022 Y-15.1153
G1 X-6.8148 Y-17.3302
G1 X-10.2855 Y-19.7669
G1 X-12.4312 Y-22.107
G1 X-14.4794 Y-25.0092
G1 X-16.3091 Y-28.3683
G1 X-17.8008 Y-32.0774
G1 X-18.8333 Y-36.0302
G1 X-19.2866 Y-40.1203
G1 X-19.0392 Y-44.2412
G1 X-17.9721 Y-48.2863
G1 X-18.6987 Y-48.6723
G1 X-19.59 Y-48.8941
G0 Z5.0
G0 X-14.3898 Y-51.1851
G1 Z0.0
G1 X-14.0111 Y-50.3254
G1 X-12.7357 Y-49.3093
G1 X-10.8924 Y-49.2997
G1 X-12.232 Y-51.5407
G1 X-13.0902 Y-54.4855
G1 X-13.2545 Y-57.6693
G1 X-12.5109 Y-60.6268
G1 X-13.604 Y-59.9206
G1 X-14.4263 Y-58.4075
G1 X-14.9271 Y-56.3889
G1 X-15.0576 Y-54.1677
G1 X-14.7688 Y-52.0453
G1 X-14.3898 Y-51.1851
G0 Z5.0
G0 X-12.5104 Y-48.4907
G1 Z0.0
G1 X-12.9149 Y-46.4679
G1 X-11.7011 Y-46.2658
G1 X-11.5034 Y-47.5186
G1 X-11.4989 Y-48.4907
G1 X-12.5104
G0 Z5.0
G0 X-9.4768 Y-50.1083
G1 Z0.0
G1 X-9.5018 Y-53.1677
G1 X-9.274 Y-55.9737
G1 X-9.2738 Y-55.9705
G1 X-9.2736 Y-55.9734
G1 X-9.0186 Y-52.7966
G1 X-9.4764 Y-50.108
G1 Y-50.1108
G1 X-9.4768 Y-50.1083
G0 Z5.0
G0 X-10.8924 Y-52.3338
G1 Z0.0
G1 X-10.9175 Y-54.988
G1 X-10.6902 Y-57.3895
G1 X-10.4163 Y-54.7355
G1 Y-54.7351
G1 Y-54.7348
G1 X-10.4948 Y-53.3137
G1 X-10.8924 Y-52.3338
G0 Z5.0
G0 X-12.1058 Y-55.9737
G1 Z0.0
G1 Y-55.9739
G1 X-12.1062 Y-55.9737
G1 X-12.1298 Y-57.0094
G1 X-11.9039 Y-57.7945
G1 X-11.9034 Y-57.7928
G1 X-11.9029 Y-57.7945
G1 X-11.6862 Y-56.9152
G1 X-11.6475 Y-56.7591
G1 X-11.6476 Y-56.7587
G1 X-11.6475 Y-56.7584
G1 X-11.7231 Y-56.1846
G1 X-12.1058 Y-55.9737
G0 Z5.0
G0 X-12.697 Y-55.9895
G1 Z0.0
G1 X-12.7137 Y-55.3659
G1 X-11.893 Y-52.1224
G1 X-10.4878 Y-49.9056
G1 X-9.5995 Y-49.4419
G1 X-8.8804 Y-49.6615
G1 X-7.917 Y-51.5255
G1 X-7.5314 Y-54.2488
G1 X-7.6566 Y-56.5811
G1 X-8.8509 Y-59.6479
G1 X-9.893 Y-60.7079
G1 X-11.297 Y-61.2327
G1 X-12.1359 Y-60.1324
G1 X-12.6241 Y-58.711
G1 X-12.697 Y-55.9895
G0 Z5.0
G0 X-6.9617 Y-56.3562
G1 Z0.0
G1 X-6.8468 Y-54.5588
G1 X-5.4737 Y-57.1296
G1 X-4.2174 Y-59.8175
G1 X-8.6676 Y-72.9652
G1 X-9.1723 Y-75.2376
G1 X-9.5669 Y-76.3193
G1 X-10.286 Y-77.2128
G1 X-11.0537 Y-76.6044
G1 X-11.329 Y-75.5078
G1 X-11.2975 Y-72.7624
G1 Y-66.8971
G1 X-9.7722 Y-66.1732
G1 X-8.6805 Y-65.0546
G1 X-7.4842 Y-61.9542
G1 X-7.0822 Y-58.2411
G1 X-6.9617 Y-56.3562
G0 Z5.0
G0 X0.0305 Y-60.0194
G1 Z0.0
G1 X-2.1457 Y-65.5803
G1 X-3.2093 Y-68.3273
G1 X-3.8122 Y-71.1435
G1 X-3.8119 Y-71.1427
G1 X-3.8122 Y-71.1441
G1 X-1.7972 Y-65.6754
G1 X0.4345 Y-60.4244
G1 Y-60.4242
G1 Y-60.4241
G1 X0.3534 Y-60.101
G1 X0.0305 Y-60.0194
G0 Z5.0
G0 X3.8734 Y-55.1649
G1 Z0.0
G1 X4.5579 Y-54.9392
G1 X5.4917 Y-54.9627
G1 X5.261 Y-55.3047
G1 X4.9017 Y-55.2827
G1 X3.8734 Y-55.1649
G0 Z5.0
G0 X3.9206 Y-53.6979
G1 Z0.0
G1 X3.1395 Y-53.6727
G1 X1.0404 Y-53.3438
G1 X2.2684 Y-50.6267
G1 X3.8734 Y-48.2878
G1 X5.4917 Y-53.7485
G1 X3.9206 Y-53.6979
G0 Z5.0
G0 X4.7041 Y-42.5153
G1 Z0.0
G1 X2.2013 Y-42.34
G1 X1.2097 Y-41.8552
G1 X0.8392 Y-41.0064
G1 X1.2013 Y-40.3294
G1 X2.1783 Y-39.7293
G1 X5.2908 Y-38.7185
G1 X11.3576 Y-37.1634
G1 X11.762 Y-38.3271
G1 X11.7747 Y-39.6955
G1 X11.762 Y-42.4226
G1 X9.011 Y-42.3604
G1 X5.375 Y-42.5623
G1 X4.7041 Y-42.5153
G0 Z5.0
G0 X-7.0757 Y-36.5675
G1 Z0.0
G1 X-6.9645 Y-36.0535
G1 X-7.2515 Y-35.747
G1 X-7.8579 Y-37.3647
G1 X-7.0757 Y-36.5675
G0 Z5.0
G0 X-11.4994 Y-39.793
G1 Z0.0
G1 X-12.1062 Y-41.6132
G1 X-11.4328 Y-40.8215
G1 X-11.4994 Y-39.793
G0 Z5.0
G0 X-15.3421 Y-38.1746
G1 Z0.0
G1 X-14.7306 Y-36.6122
G1 X-14.5334 Y-35.1405
G1 X-15.1578 Y-36.6893
G1 X-15.3421 Y-38.1746
G0 Z5.0
G0 X-13.4999 Y-38.8498
G1 Z0.0
G1 X-14.1713 Y-40.6818
G1 X-15.3421 Y-45.8611
G1 X-16.287 Y-46.8375
G1 X-17.5675 Y-47.4785
G1 X-18.6902 Y-43.7925
G1 X-18.8984 Y-39.924
G1 X-18.3481 Y-35.9964
G1 X-17.1959 Y-32.132
G1 X-15.5965 Y-28.4543
G1 X-13.7067 Y-25.0854
G1 X-9.6787 Y-19.7672
G1 X1.606 Y-13.5566
G1 X7.5343 Y-10.7364
G1 X13.9859 Y-8.4403
G1 X12.8226 Y-9.2059
G1 X11.5188 Y-9.6047
G1 X10.2353 Y-10.0277
G1 X9.1306 Y-10.8671
G1 X9.4502 Y-11.0634
G1 X9.7375 Y-10.8671
G1 X7.9678 Y-12.5854
G1 X5.4911 Y-14.1035
G1 X9.1321 Y-11.2721
G1 X2.6445 Y-15.9197
G1 X-3.2258 Y-21.7483
G1 X-8.3285 Y-28.5587
G1 X-12.5109 Y-36.151
G1 X-13.4999 Y-38.8498
G0 Z5.0
G0 X-18.8251 Y-18.8364
G1 Z0.0
G1 X-20.8039 Y-19.3629
G1 X-27.1029 Y-19.7467
G1 X-33.0251 Y-18.848
G1 X-35.6491 Y-17.8616
G1 X-37.9435 Y-16.4874
G1 X-39.831 Y-14.7032
G1 X-41.2326 Y-12.487
G1 X-41.7178 Y-8.5115
G1 X-42.4899 Y-4.6943
G1 X-43.19 Y-0.9306
G1 X-43.4579 Y2.8857
G1 X-40.522 Y1.2011
G1 X-36.9014 Y-0.2079
G1 X-28.2701 Y-2.3378
G1 X-18.8889 Y-3.7773
G1 X-10.0837 Y-4.8009
G1 X-3.5683 Y-5.1776
G1 X2.2544 Y-5.6096
G1 X2.1426 Y-5.9024
G1 X1.814 Y-5.9785
G1 X1.5038 Y-6.0723
G1 X1.4451 Y-6.4189
G1 X4.014 Y-5.7608
G1 X7.3911 Y-5.5139
G1 X13.5813 Y-5.2049
G1 X-0.5984 Y-10.7454
G1 X-7.2439 Y-13.96
G1 X-13.5219 Y-17.543
G1 X-17.0793 Y-18.3719
G1 X-18.8251 Y-18.8364
G0 Z5.0
G0 X-16.5398 Y-3.2517
G1 Z0.0
G1 X-26.6691 Y-1.7664
G1 Y1.2677
G1 X-26.896 Y-0.1229
G1 X-26.8715 Y-1.7664
G1 X-33.7773 Y-0.5811
G1 X-40.0187 Y1.2677
G1 X-40.0192 Y6.5266
G1 X-34.9631 Y5.1111
G1 X-34.9876 Y2.5576
G1 X-34.7603 Y0.2567
G1 X-34.5329 Y2.4561
G1 X-34.5579 Y4.9087
G1 X-31.3211 Y4.3013
G1 X-31.1518 Y1.7414
G1 X-31.3211 Y-0.7549
G1 X-30.906 Y0.1446
G1 X-30.8684 Y1.4219
G1 X-30.9166 Y4.0995
G1 X-28.3617 Y3.8226
G1 X-27.2791 Y3.4896
G1 X-26.8715 Y2.481
G1 X-26.6536 Y2.5666
G1 X-26.6691 Y2.8857
G1 X-26.6847 Y3.2047
G1 X-26.4668 Y3.2902
G1 X-16.5159 Y1.9979
G1 X-5.8353 Y1.0654
G1 X0.5609 Y1.0268
G1 X3.6743 Y1.0008
G1 X6.5026 Y0.6613
G1 X9.3346 Y-0.7549
G1 X13.816 Y-2.6117
G1 X16.3416 Y-3.2741
G1 X19.0435 Y-3.5865
G1 X13.4512 Y-4.5285
G1 X7.6744 Y-4.9636
G1 X-4.1323 Y-4.6586
G1 X-15.7788 Y-3.3633
G1 X-16.5398 Y-3.2517
G0 Z5.0
G0 X-15.7833 Y2.4638
G1 Z0.0
G1 X-25.221 Y3.7129
G1 X-34.557 Y5.5151
G1 X-34.532 Y7.3604
G1 X-34.7593 Y8.9539
G1 X-34.9867 Y7.4616
G1 X-34.9621 Y5.7179
G1 X-36.853 Y6.0515
G1 X-38.4693 Y6.6604
G1 X-41.6366 Y7.9428
G1 Y10.774
G1 X-41.8639 Y9.6865
G1 X-41.8394 Y8.3475
G1 X-42.4989 Y8.7925
G1 X-42.7368 Y9.3143
G1 X-42.2977 Y10.4675
G1 X-40.2215 Y12.392
G1 X-37.9966 Y11.5828
G1 X-38.0212 Y9.1305
G1 X-37.7939 Y6.9307
G1 X-37.5665 Y9.0295
G1 X-37.5915 Y11.3809
G1 X-31.3206 Y9.7625
G1 X-29.5905 Y10.9649
G1 X-28.0847 Y12.392
G1 X-22.9871 Y11.4279
G1 X-17.9154 Y10.822
G1 X-12.6927 Y9.7916
G1 X-7.1428 Y7.5516
G1 X0.2333 Y3.8968
G1 X2.9293 Y2.6889
G1 X4.1212 Y2.0043
G1 X5.0877 Y1.0649
G1 X-5.0345 Y1.5236
G1 X-15.259 Y2.3944
G1 X-15.7833 Y2.4638
G0 Z5.0
G0 X-16.3541 Y11.1786
G1 Z0.0
G1 X-28.2877 Y12.9989
G1 X-30.917 Y10.3694
G1 X-32.8124 Y10.6989
G1 X-34.5579 Y11.1786
G1 Y12.5943
G1 X-34.9246 Y12.5061
G1 X-34.9932 Y12.1196
G1 X-34.9626 Y11.1786
G1 X-37.199 Y11.8747
G1 X-38.2751 Y12.2652
G1 X-39.0077 Y12.9989
G1 X-33.1865 Y13.8371
G1 X-26.9831 Y13.8702
G1 X-21.1282 Y13.0129
G1 X-16.3541 Y11.1786
G0 Z5.0
G0 X-15.6609 Y13.1136
G1 Z0.0
G1 X-19.4487 Y14.4706
G1 X-24.1494 Y15.4647
G1 X-33.7487 Y16.6409
G1 X-33.546 Y20.2813
G1 X-33.8595 Y19.2802
G1 X-33.8829 Y17.9889
G1 X-33.9907 Y16.7816
G1 X-34.5575 Y16.0335
G1 X-34.7382 Y18.3459
G1 X-34.523 Y20.6884
G1 X-33.9286 Y22.9282
G1 X-32.9716 Y24.9338
G1 X-31.6691 Y26.5723
G1 X-30.0388 Y27.7125
G1 X-28.0968 Y28.2212
G1 X-25.86 Y27.9673
G1 X-23.9581 Y26.9564
G1 X-22.2189 Y25.5397
G1 X-20.1012 Y22.8472
G1 X-18.2686 Y19.6338
G1 X-15.3421 Y12.9994
G1 X-15.6609 Y13.1136
G0 Z5.0
G0 X-40.4232 Y6.9313
G1 Z0.0
G1 X-40.2891 Y3.9618
G1 X-40.4232 Y1.6724
G1 X-41.1313 Y1.8747
G1 X-41.8394 Y2.0769
G1 X-41.6407 Y4.7098
G1 X-41.4349 Y7.3358
G1 X-40.4232 Y6.9313
G0 Z5.0
G0 X-41.85 Y6.8219
G1 Z0.0
G1 X-41.7633 Y5.6925
G1 X-41.8394 Y2.4816
G1 X-42.7473 Y3.4716
G1 X-42.911 Y5.0555
G1 X-42.6487 Y7.9428
G1 X-41.875 Y7.1481
G1 X-41.85 Y6.8219
G0 Z5.0
G0 X-44.0643 Y6.9313
G1 Z0.0
G1 X-47.0983 Y5.7179
G1 X-47.3392 Y6.812
G1 X-47.1821 Y7.7575
G1 X-46.0132 Y9.2917
G1 X-42.6487 Y11.5832
G1 X-42.6501 Y10.7029
G1 X-43.3112 Y9.7149
G1 X-43.9952 Y8.4981
G1 X-44.0643 Y6.9313
G0 Z5.0
G0 X-44.6707 Y6.122
G1 Z0.0
G1 X-44.5651 Y5.8276
G1 X-44.843 Y5.5341
G1 X-45.8845 Y5.3132
G1 X-45.7468 Y5.6808
G1 X-45.3342 Y5.774
G1 X-44.893 Y5.8386
G1 X-44.6707 Y6.122
G0 Z5.0
G0 X-47.0983 Y5.3139
G1 Z0.0
G1 X-51.3462 Y1.6724
G1 X-51.7084 Y4.9947
G1 X-51.9526 Y7.9433
G1 X-47.0983 Y5.3139
G0 Z5.0
G0 X-46.8956 Y4.5041
G1 Z0.0
G1 X-52.5591 Y-1.564
G1 X-50.1104 Y1.8531
G1 X-46.8956 Y4.5041
G0 Z5.0
G0 X-48.2521 Y15.5302
G1 Z0.0
G1 X-50.9406 Y15.6293
G1 X-50.2026 Y16.1377
G1 X-48.8379 Y16.4096
G1 X-46.0857 Y17.0454
G1 X-45.3844 Y17.7596
G1 X-44.4679 Y18.2588
G1 X-43.179 Y21.1031
G1 X-42.6803 Y23.9688
G1 X-42.8365 Y26.8187
G1 X-43.5119 Y29.6149
G1 X-45.8836 Y34.8922
G1 X-48.7153 Y39.4971
G1 X-51.9521 Y44.5533
G1 X-55.3909 Y49.2059
G1 X-57.1039 Y52.5043
G1 X-58.4454 Y55.671
G1 X-59.8276 Y58.6895
G1 X-61.6613 Y61.5439
G1 X-63.8195 Y62.4377
G1 X-66.1941 Y62.3986
G1 X-68.3754 Y61.629
G1 X-69.9547 Y60.3305
G1 X-69.3849 Y61.5238
G1 X-68.4499 Y62.4147
G1 X-65.8761 Y63.2845
G1 X-63.0147 Y62.93
G1 X-61.7219 Y62.2905
G1 X-60.6503 Y61.3416
G1 X-58.5991 Y57.5758
G1 X-56.807 Y53.2509
G1 X-53.3162 Y47.3424
G1 X-49.0718 Y41.2559
G1 X-45.1559 Y35.3014
G1 X-43.6587 Y32.4695
G1 X-42.6487 Y29.7875
G1 X-42.1124 Y27.0674
G1 X-42.0032 Y24.3564
G1 X-42.3317 Y21.7855
G1 X-43.1093 Y19.4866
G1 X-44.3481 Y17.5898
G1 X-46.0582 Y16.2273
G1 X-48.2521 Y15.5302
G0 Z5.0
G0 X-48.535 Y17.0544
G1 Z0.0
G1 X-51.2456 Y16.5512
G1 X-55.5932 Y17.2468
G1 X-54.9867 Y17.4497
G1 X-58.2341 Y19.3349
G1 X-61.192 Y21.5096
G1 X-63.8515 Y23.9819
G1 X-66.2051 Y26.7615
G1 X-68.2432 Y29.8557
G1 X-69.9577 Y33.274
G1 X-71.3398 Y37.024
G1 X-72.3813 Y41.1147
G1 X-71.6032 Y37.1892
G1 X-70.4213 Y33.5362
G1 X-68.8595 Y30.1652
G1 X-66.9427 Y27.085
G1 X-64.6938 Y24.3048
G1 X-62.138 Y21.8337
G1 X-59.2982 Y19.6799
G1 X-56.2 Y17.8541
G1 X-57.2881 Y17.7641
G1 X-58.4425 Y18.0724
G1 X-60.6498 Y19.2698
G1 X-63.9051 Y21.8998
G1 X-66.7174 Y24.9333
G1 X-69.6212 Y30.0765
G1 X-72.2521 Y36.5327
G1 X-73.2231 Y40.0845
G1 X-73.8355 Y43.7631
G1 X-73.9913 Y47.4998
G1 X-73.5947 Y51.2284
G1 X-72.179 Y55.2735
G1 X-70.0018 Y59.1732
G1 X-68.4885 Y60.7982
G1 X-66.7179 Y61.9484
G1 X-64.8696 Y62.0411
G1 X-63.3888 Y61.7006
G1 X-62.2111 Y60.9974
G1 X-61.2726 Y60.001
G1 X-59.8566 Y57.4041
G1 X-58.6272 Y54.4648
G1 X-56.6432 Y50.699
G1 X-54.1179 Y46.727
G1 X-48.5141 Y38.4852
G1 X-46.4404 Y35.2337
G1 X-44.5585 Y31.5827
G1 X-43.3402 Y27.4892
G1 X-43.2551 Y22.9102
G1 X-43.7548 Y20.9604
G1 X-44.6571 Y19.3684
G1 X-45.9101 Y18.1337
G1 X-47.4609 Y17.2538
G1 X-48.535 Y17.0544
G0 Z5.0
G0 X-59.6387 Y14.6177
G1 Z0.0
G1 X-60.3498 Y13.0854
G1 X-61.2722 Y12.2442
G1 X-62.3613 Y11.9643
G1 X-63.5726 Y12.1146
G1 X-66.1815 Y13.1857
G1 X-68.7409 Y14.4156
G1 X-72.0849 Y15.4181
G1 X-75.6213 Y16.0168
G1 X-82.6973 Y16.8427
G1 X-83.1015 Y18.4611
G1 X-78.7209 Y18.1316
G1 X-74.3553 Y17.3398
G1 X-70.3173 Y16.1987
G1 X-66.9202 Y14.8205
G1 X-65.4565 Y13.9363
G1 X-64.0883 Y13.6068
G1 X-63.0964 Y14.0345
G1 X-62.4244 Y14.8878
G1 X-61.6613 Y17.2473
G1 X-59.6387 Y14.6177
G0 Z5.0
G0 X-62.4754 Y15.8576
G1 Z0.0
G1 X-63.7278 Y14.5882
G1 X-65.5146 Y14.4456
G1 X-67.3247 Y15.4265
G1 X-65.6121 Y17.7591
G1 X-64.7584 Y18.9277
G1 X-63.6838 Y19.8758
G1 X-62.9107 Y19.1325
G1 X-62.2681 Y18.2579
G1 X-62.4754 Y15.8576
G0 Z5.0
G0 X-65.8525 Y18.1001
G1 Z0.0
G1 X-68.1345 Y15.8311
