( Made using CamBam - http://www.cambam.co.uk )
( robot_A0 1/7/2014 3:12:06 PM )
( T0 : 0.0 )
G21 G90 G64 G40
G0 Z5.0
( T0 : 0.0 )
T0 M6
( 299 - 399 )
G17
M3 S1000
G0 X-0.4072 Y-7.1416
G1 F2000.0 Z0.0
G1 X-6.4102 Y-10.0913
G1 X-12.9149 Y-12.891
G1 X-12.9051 Y-12.886
G1 X-12.9155 Y-12.8905
G1 X-6.7822 Y-9.7193
G1 X-0.1717 Y-7.0251
G1 X-0.1802 Y-7.0293
G1 X-0.1714 Y-7.0257
G1 X-0.4072 Y-7.1416
G0 Z5.0
G0 X-4.8243 Y-6.823
G1 Z0.0
G1 X-5.3386 Y-7.3195
G1 X-6.24 Y-7.4304
G1 X-6.2392 Y-7.4297
G1 X-6.24 Y-7.4298
G1 X-5.6892 Y-6.9692
G1 X-4.8243 Y-6.8224
G1 X-4.825 Y-6.8231
G1 X-4.8243 Y-6.823
G0 Z5.0
G0 X-7.656 Y-7.6317
G1 Z0.0
G1 X-8.9425 Y-8.5009
G1 X-10.8599 Y-9.1305
G1 X-14.7353 Y-10.464
G1 X-14.0346 Y-9.7314
G1 X-12.7497 Y-9.2385
G1 X-9.6787 Y-8.441
G1 X-7.656 Y-7.6317
G0 Z5.0
G0 X-10.6902 Y-6.4189
G1 Z0.0
G1 X-12.2455 Y-7.3351
G1 X-13.9266 Y-7.631
G1 X-12.4328 Y-6.9006
G1 X-10.6902 Y-6.4189
G0 Z5.0
G0 X-17.1628 Y-9.25
G1 Z0.0
G1 X-18.1754 Y-9.0988
G1 X-18.9832 Y-8.2385
G1 X-17.9992 Y-8.6702
G1 X-17.1628 Y-9.25
G0 Z5.0
G0 X-16.8733 Y-9.1278
G1 Z0.0
G1 X-17.1628 Y-8.4419
G1 X-19.8264 Y-7.4329
G1 X-23.0132 Y-6.6947
G1 X-26.2586 Y-6.577
G1 X-29.0964 Y-7.4304
G1 X-25.5139 Y-7.536
G1 X-22.3137 Y-8.0677
G1 X-19.4203 Y-8.9882
G1 X-16.7583 Y-10.2612
G1 X-16.8328 Y-9.2236
G1 X-16.8733 Y-9.1278
G0 Z5.0
G0 X-17.8308 Y-10.8204
G1 Z0.0
G1 X-17.919 Y-10.7705
G1 X-18.6701 Y-10.3513
G1 X-18.7802 Y-9.654
G1 X-25.1724 Y-8.1388
G1 X-28.6256 Y-7.8686
G1 X-31.3211 Y-8.4403
G1 X-32.0663 Y-9.0854
G1 X-32.3087 Y-9.5786
G1 X-32.1304 Y-10.0587
G1 X-27.9886 Y-9.7012
G1 X-24.0657 Y-10.2966
G1 X-20.5349 Y-11.5314
G1 X-17.5675 Y-13.0929
G1 X-17.7117 Y-12.3317
G1 X-18.3962 Y-11.7432
G1 X-19.9941 Y-10.6655
G1 X-18.9391 Y-10.8389
G1 X-18.206 Y-11.4513
G1 X-17.558 Y-12.0249
G1 X-16.7583 Y-12.0814
G1 X-17.0928 Y-11.2379
G1 X-17.8308 Y-10.8204
G0 Z5.0
G0 X-19.2304 Y-12.9361
G1 Z0.0
G1 X-20.3987 Y-12.487
G1 X-19.7453 Y-13.451
G1 X-18.5785 Y-13.9026
G1 X-19.2304 Y-12.9361
G0 Z5.0
G0 X-19.942 Y-13.6505
G1 Z0.0
G1 X-20.1969 Y-13.3966
G1 X-20.6781 Y-12.9172
G1 X-20.8034 Y-12.0823
G1 X-27.0383 Y-10.6407
G1 X-30.2396 Y-10.6065
G1 X-33.1419 Y-11.4749
G1 Y-12.891
G1 X-29.5781 Y-12.5388
G1 X-26.3201 Y-12.9948
G1 X-20.3987 Y-15.1165
G1 X-20.8259 Y-14.3292
G1 X-21.5455 Y-13.8348
G1 X-23.0281 Y-12.891
G1 X-21.916 Y-13.0938
G1 X-21.1278 Y-13.6202
G1 X-19.5895 Y-14.7119
G1 X-19.7152 Y-13.8764
G1 X-19.942 Y-13.6505
G0 Z5.0
G0 X-22.8264 Y-15.5209
G1 Z0.0
G1 X-22.8327 Y-15.5222
G1 X-22.8264 Y-15.5215
G1 X-24.8044 Y-15.9296
G1 X-27.1123 Y-15.9507
G1 X-31.3211 Y-15.3181
G1 X-31.3166 Y-15.3184
G1 X-31.3211 Y-15.3178
G1 X-27.2731 Y-15.5926
G1 X-25.0621 Y-15.7712
G1 X-22.8264 Y-15.5209
G0 Z5.0
G0 X-22.5758 Y-15.0277
G1 Z0.0
G1 X-23.7702 Y-14.4208
G1 X-26.7948 Y-13.4765
G1 X-30.0091 Y-13.1501
G1 X-33.1419 Y-13.6998
G1 X-32.5029 Y-15.1824
G1 X-31.3442 Y-16.2225
G1 X-29.8029 Y-16.8659
G1 X-28.0181 Y-17.1585
G1 X-24.2705 Y-16.8706
G1 X-21.2079 Y-15.7228
G1 X-22.5758 Y-15.0277
G0 Z5.0
G0 X-15.3421 Y-13.9026
G1 Z0.0
G1 X-15.3419 Y-13.9019
G1 X-15.3421 Y-13.902
G1 X-15.1929 Y-13.3942
G1 X-14.7472 Y-13.1824
G1 X-13.7243 Y-12.8905
G1 X-13.725 Y-12.8913
G1 X-13.7243 Y-12.891
G1 X-14.3646 Y-13.5656
G1 X-15.3421 Y-13.9026
G0 Z5.0
G0 X-18.5785 Y-7.0251
G1 Z0.0
G1 X-19.5114 Y-6.232
G1 X-20.897 Y-5.7537
G1 X-24.0402 Y-5.812
G1 X-21.1809 Y-6.29
G1 X-18.5785 Y-7.0251
G0 Z5.0
G0 X-18.2466 Y-6.3422
G1 Z0.0
G1 X-18.0798 Y-6.4233
G1 X-16.7748 Y-7.7444
G1 X-16.0847 Y-9.5519
G1 X-16.1508 Y-11.8795
G1 X-17.3492 Y-13.6501
G1 X-19.1849 Y-15.1165
G1 X-22.6912 Y-16.9051
G1 X-26.9591 Y-17.7067
G1 X-29.0798 Y-17.5781
G1 X-31.0316 Y-17.0113
G1 X-32.6952 Y-15.942
G1 X-33.9502 Y-14.3072
G1 X-33.5941 Y-13.5286
G1 X-33.6 Y-12.7535
G1 X-33.7483 Y-11.273
G1 X-32.9931 Y-9.5115
G1 X-31.6997 Y-8.3376
G1 X-30.217 Y-7.3171
G1 X-28.8941 Y-6.0142
G1 X-24.275 Y-5.0667
G1 X-21.9711 Y-5.117
G1 X-19.859 Y-5.5587
G1 X-18.2466 Y-6.3422
G0 Z5.0
G0 X-37.5915 Y0.8632
G1 Z0.0
G1 X-37.9962
G1 X-38.0412 Y2.7294
G1 X-37.9987 Y3.5968
G1 X-37.5915 Y4.1001
G1 Y0.8632
G0 Z5.0
G0 X-97.6654 Y1.2673
G1 Z0.0
G1 X-97.6682 Y1.2684
G1 X-97.6654 Y1.2677
G1 X-100.781 Y2.5511
G1 X-103.9358 Y3.2907
G1 X-103.9325 Y3.2894
G1 X-103.9358 Y3.2902
G1 X-100.7766 Y2.0499
G1 X-97.6654 Y1.2673
G0 Z5.0
G0 X-97.5618 Y0.8124
G1 Z0.0
G1 X-98.5016 Y0.5983
G1 X-101.1426 Y0.9328
G1 X-103.4096 Y1.8896
G1 X-104.102 Y2.5457
G1 X-104.3399 Y3.2902
G1 X-103.9628 Y4.0879
G1 X-103.0344 Y4.5066
G1 X-100.2772 Y4.3499
G1 X-97.5792 Y3.107
G1 X-96.7244 Y2.1681
G1 X-96.4516 Y1.0654
G1 X-97.5618 Y0.8124
G0 Z5.0
G0 X-98.6443 Y-9.2875
G1 Z0.0
G1 X-97.7755 Y-9.8876
G1 X-97.5085 Y-10.9776
G1 X-98.0694 Y-12.0823
G1 X-99.6879
G1 X-99.8177 Y-11.6587
G1 X-100.0305 Y-10.9652
G1 X-99.8907 Y-9.6546
G1 X-98.6443 Y-9.2875
G0 Z5.0
G0 X-100.5403 Y-20.129
G1 Z0.0
G1 X-100.2952 Y-20.1719
G1 X-99.8907 Y-21.7905
G1 X-100.9508 Y-22.3862
G1 X-102.3173 Y-22.1946
G1 X-102.5316 Y-21.2014
G1 X-102.3173 Y-20.1719
G1 X-101.2824 Y-19.9992
G1 X-100.5403 Y-20.129
G0 Z5.0
G0 X38.259 Y-15.7228
G1 Z0.0
G1 X38.2598 Y-15.7242
G1 X38.2596 Y-15.7228
G1 X38.8379 Y-16.6622
G1 X39.0683 Y-17.9483
G1 X39.0674 Y-17.9468
G1 X39.0677 Y-17.9483
G1 X38.4897 Y-17.0088
G1 X38.259 Y-15.7228
G0 Z5.0
G0 X40.1639 Y-14.8572
G1 Z0.0
G1 X39.2705 Y-12.891
G1 X39.2714 Y-12.8925
G1 X39.2705 Y-12.8905
G1 X40.5298 Y-14.8669
G1 X41.2925 Y-17.3408
G1 X41.2923 Y-17.3402
G1 X41.2925 Y-17.3411
G1 X40.1639 Y-14.8572
G0 Z5.0
G0 X41.9664 Y-14.1078
G1 Z0.0
G1 X41.2925 Y-12.487
G1 X41.2956 Y-12.4899
G1 X41.2941 Y-12.4864
G1 X42.0556 Y-13.2224
G1 X42.6519 Y-14.515
G1 X43.7202 Y-17.3408
G1 X43.7174 Y-17.336
G1 X43.7193 Y-17.3411
G1 X42.3615 Y-15.0581
G1 X41.9664 Y-14.1078
G0 Z5.0
G0 X41.2925 Y-12.0823
G1 Z0.0
G1 X40.7016 Y-11.3581
G1 X40.4832 Y-10.2612
G1 X41.0742 Y-10.9852
G1 X41.2925 Y-12.0823
G0 Z5.0
G0 X41.4954 Y-17.3408
G1 Z0.0
G1 X42.7087 Y-19.7672
G1 X41.7162 Y-18.6952
G1 X41.4954 Y-17.3411
G1 Y-17.3412
G1 Y-17.3408
G0 Z5.0
G0 X46.956 Y-25.6338
G1 Z0.0
G1 X47.3802 Y-26.0149
G1 X47.293 Y-26.5925
G1 X46.956 Y-27.859
G1 X46.7491 Y-26.7903
G1 X46.956 Y-25.6338
G0 Z5.0
G0 X46.1467 Y-31.095
G1 Z0.0
G1 X46.3296 Y-33.42
G1 X46.1467 Y-35.9498
G1 X46.0041 Y-36.4333
G1 X45.9355 Y-35.0649
G1 X46.1467 Y-31.095
G0 Z5.0
G0 X45.9454 Y-36.9606
G1 Z0.0
G1 X46.1277 Y-38.0039
G1 X45.9454 Y-39.1856
G1 X45.7178 Y-38.0964
G1 X45.9454 Y-36.9606
G0 Z5.0
G0 Y-40.1977
G1 Z0.0
G1 X46.5874 Y-46.736
G1 X47.7377 Y-52.7665
G1 X49.3066 Y-58.3781
G1 X51.2045 Y-63.6607
G1 X49.0442 Y-58.5818
G1 X47.3526 Y-52.8991
G1 X46.2724 Y-46.7313
G1 X45.9454 Y-40.1977
G0 Z5.0
G0 X43.7193 Y-45.6583
G1 Z0.0
G1 X45.1867 Y-53.8485
G1 X47.4498 Y-61.2449
G1 X50.3756 Y-67.9772
G1 X53.8328 Y-74.1783
G1 X50.1237 Y-68.2297
G1 X47.1041 Y-61.5908
G1 X44.9209 Y-54.1155
G1 X43.7193 Y-45.6583
G0 Z5.0
G0 X58.6983 Y-43.5305
G1 Z0.0
G1 X58.577 Y-42.6762
G1 X58.8214 Y-41.6433
G1 X59.4397 Y-40.9247
G1 X60.4127 Y-40.816
G1 X61.7224 Y-41.6126
G1 Y-44.04
G1 X60.2795 Y-44.7048
G1 X59.2869 Y-44.5027
G1 X58.7264 Y-43.7279
G1 X58.6983 Y-43.5305
G0 Z5.0
G0 X60.3301 Y-51.6364
G1 Z0.0
G1 X61.7224 Y-51.5245
G1 X62.4373 Y-52.2597
G1 X62.7978 Y-53.2528
G1 X62.7218 Y-54.2917
G1 X62.1267 Y-55.1656
G1 X60.7292 Y-55.1469
G1 X59.6991 Y-54.7609
G1 X59.3282 Y-53.5475
G1 X59.5354 Y-52.4084
G1 X60.3301 Y-51.6364
G0 Z5.0
G0 X61.9587 Y-61.725
G1 Z0.0
G1 X62.9006 Y-61.6948
G1 X63.6705 Y-62.1675
G1 X64.1994 Y-62.9548
G1 X64.4184 Y-63.8682
G1 X64.259 Y-64.7188
G1 X63.6525 Y-65.3195
G1 X62.5304 Y-65.4807
G1 X61.7267 Y-65.2288
G1 X61.1975 Y-64.6378
G1 X60.913 Y-62.4464
G1 X61.9587 Y-61.725
G0 Z5.0
G0 X64.4302 Y-71.4574
G1 Z0.0
G1 X65.6613 Y-71.7559
G1 X66.5405 Y-72.6077
G1 X66.779 Y-73.7737
G1 X66.4929 Y-74.495
G1 X65.9501 Y-74.9454
G1 X64.5119 Y-75.0324
G1 X63.2972 Y-74.0348
G1 X63.0333 Y-73.1295
G1 X63.1379 Y-71.9534
G1 X64.4302 Y-71.4574
G0 Z5.0
G0 X56.8965 Y-78.3796
G1 Z0.0
G1 X62.3286 Y-84.2915
G1 X58.6021 Y-80.8383
G1 X55.4518 Y-76.8072
G1 X56.8965 Y-78.3796
G0 Z5.0
G0 X52.8222 Y-66.8962
G1 Z0.0
G1 X52.4362 Y-66.9437
G1 X52.1141 Y-66.5419
G1 X51.8107 Y-65.2788
G1 X52.3626 Y-66.0418
G1 X52.8222 Y-66.8962
G0 Z5.0
G0 X59.1152 Y-34.1389
G1 Z0.0
G1 X58.3903 Y-33.7976
G1 X57.8788 Y-32.9156
G1 X57.7999 Y-31.8419
G1 X58.1941 Y-30.8248
G1 X59.0882 Y-30.1454
G1 X60.5084 Y-30.0838
G1 X61.2919 Y-31.0183
G1 X61.4922 Y-31.9742
G1 X60.6742 Y-33.5755
G1 X59.1152 Y-34.1389
G0 Z5.0
G0 X60.9869 Y-14.2142
G1 Z0.0
G1 X57.6757 Y-13.9032
G1 X57.7083 Y-12.5196
G1 X58.0804 Y-11.4758
G1 X58.0815 Y-11.4757
G1 X58.0816 Y-11.4755
G1 X63.7211 Y-10.841
G1 X66.3768 Y-11.0867
G1 X68.6001 Y-12.2833
G1 X68.5976 Y-12.284
G1 X68.5986 Y-12.2845
G1 X66.4327 Y-12.9
G1 X63.7128 Y-12.9606
G1 X58.0886 Y-12.8917
G1 X60.2761 Y-13.2985
G1 X62.9056 Y-13.3653
G1 X67.992 Y-13.0932
G1 X67.9904 Y-13.0945
G1 X67.9911
G1 X67.2859 Y-13.6756
G1 X67.2231 Y-13.7274
G1 X67.223
G1 X67.2218 Y-13.7284
G1 X66.1168 Y-14.1379
G1 X63.273 Y-14.429
G1 X60.9869 Y-14.2142
G0 Z5.0
G0 X61.241 Y-6.9047
G1 Z0.0
G1 X58.8894 Y-6.823
G1 X63.6622 Y-6.5382
G1 X68.1939 Y-6.0142
G1 X68.1931 Y-6.0145
G1 X68.1954 Y-6.0142
G1 X66.2597 Y-6.6878
G1 X63.8836 Y-6.9966
G1 X63.8826 Y-6.9965
G1 X63.8823 Y-6.9966
G1 X61.241 Y-6.9047
G0 Z5.0
G0 X61.1924 Y-7.7731
G1 Z0.0
G1 X63.5149 Y-7.9031
G1 X66.6392 Y-7.3907
G1 X67.8318 Y-6.8214
G1 X68.5986 Y-6.0142
G1 X67.7684 Y-5.3832
G1 X66.3718 Y-4.9251
G1 X62.7357 Y-4.6145
G1 X59.4018 Y-5.2565
G1 X58.3826 Y-5.9891
G1 X58.0804 Y-7.0257
G1 X60.3031 Y-7.7233
G1 X61.1924 Y-7.7731
G0 Z5.0
G0 X61.2872 Y-10.3612
G1 Z0.0
G1 X60.4124 Y-10.3932
G1 X58.5409 Y-10.8323
G1 X57.2726 Y-11.4755
G1 X57.0971 Y-13.1951
G1 X57.6773 Y-14.3066
G1 X58.7313 Y-14.9122
G1 X60.1903 Y-15.1991
G1 X63.6907 Y-15.0498
G1 X66.915 Y-14.3268
G1 X68.6001 Y-13.4976
G1 X69.0001 Y-12.1668
G1 X68.3206 Y-11.1969
G1 X66.8414 Y-10.56
G1 X64.8429 Y-10.231
G1 X61.2872 Y-10.3612
G0 Z5.0
G0 X54.9191 Y-9.9236
G1 Z0.0
G1 X55.4518 Y-2.171
G1 X52.9306 Y-1.6822
G1 X51.6927 Y-1.566
G1 X50.5986 Y-1.9707
G1 X48.8079 Y-6.5515
G1 X47.3131 Y-11.564
G1 X45.1373 Y-22.5085
G1 X43.9221 Y-34.0563
G1 X43.5184 Y-45.4586
G1 X43.201 Y-39.52
G1 X43.5954 Y-33.406
G1 X44.732 Y-21.5912
G1 X43.4982 Y-30.2671
G1 X42.8472 Y-39.111
G1 X42.987 Y-47.7403
G1 X44.1249 Y-55.774
G1 X45.8277 Y-61.743
G1 X48.0511 Y-67.2459
G1 X50.6374 Y-72.2708
G1 X53.4297 Y-76.8091
G1 X56.5515 Y-81.0765
G1 X59.9009 Y-84.8999
G1 X61.5404 Y-86.8664
G1 X62.5311 Y-87.649
G1 X63.7448 Y-87.9338
G1 X63.2507 Y-84.4492
G1 X64.1329 Y-80.9629
G1 X65.0736 Y-79.4557
G1 X66.3386 Y-78.2317
G1 X67.9206 Y-77.3855
G1 X69.8129 Y-77.0116
G1 X67.0231 Y-65.5322
G1 X65.0712 Y-53.2103
G1 X63.923 Y-40.3998
G1 X63.5426 Y-27.4543
G1 X60.0702 Y-26.6552
G1 X57.6276 Y-24.7474
G1 X56.0512 Y-21.948
G1 X55.1785 Y-18.474
G1 X54.8449 Y-14.542
G1 X54.8884 Y-10.3699
G1 X54.9191 Y-9.9236
G0 Z5.0
G0 X56.2399 Y-2.8501
G1 Z0.0
G1 X59.645 Y-3.4859
G1 X63.7817 Y-3.4925
G1 X71.8355 Y-2.5757
G1 X72.0116 Y-2.0433
G1 X72.2399 Y-1.564
G1 X72.3017 Y-2.0878
G1 X72.7089 Y-2.1925
G1 X73.6561 Y-1.9687
G1 X73.5225 Y-0.7873
G1 X72.8471 Y-0.1479
G1 X69.1793 Y-1.4648
G1 X64.5209 Y-2.3297
G1 X62.2143 Y-2.3928
G1 X60.1323 Y-2.1033
G1 X58.4323 Y-1.3817
G1 X57.2726 Y-0.1479
G1 X56.4061 Y-1.3041
G1 X55.9769 Y-1.887
G1 X55.8564 Y-2.7785
G1 X56.2399 Y-2.8501
G0 Z5.0
G0 X55.4518 Y-1.564
G1 Z0.0
G1 X56.8673 Y0.0539
G1 X53.5719 Y0.3503
G1 X52.0788 Y-0.1258
G1 X51.2033 Y-1.1594
G1 X55.4518 Y-1.564
G0 Z5.0
G0 X58.1047 Y-0.1925
G1 Z0.0
G1 X58.4953 Y-0.948
G1 X59.0938 Y-1.564
G1 X63.2662 Y-1.6315
G1 X67.1355 Y-1.3707
G1 X70.524 Y-0.549
G1 X73.2514 Y1.0654
G1 X69.8644 Y0.7419
G1 X66.524 Y0.8031
G1 X63.16 Y0.8942
G1 X59.6991 Y0.6613
G1 X58.9139 Y0.5076
G1 X58.0816 Y-0.1479
G1 X58.1047 Y-0.1925
G0 Z5.0
G0 X58.0089 Y2.4448
G1 Z0.0
G1 X58.7978 Y2.4734
G1 X59.4984 Y2.8862
G1 X55.4518
G1 Y2.4816
G1 X57.7248 Y2.4345
G1 X58.0089 Y2.4448
G0 Z5.0
G0 X57.904 Y4.0744
G1 Z0.0
G1 X59.9009 Y4.3017
G1 X57.6512 Y4.3269
G1 X55.6539 Y4.1001
G1 X57.904 Y4.0744
G0 Z5.0
G0 Y5.9198
G1 Z0.0
G1 X58.4863
G1 X58.8826 Y6.0645
G1 X58.1975 Y6.1226
G1 X56.2611 Y6.122
G1 X54.8449 Y5.9198
G1 X57.904
G0 Z5.0
G0 X73.6561 Y0.2567
G1 Z0.0
G1 X73.7993 Y-0.8139
G1 X74.0607 Y-1.7668
G1 X75.2747 Y-1.564
G1 X74.8726 Y-0.4488
G1 X74.0607 Y0.2567
G1 X73.6561
G0 Z5.0
G0 X81.3428 Y2.6834
G1 Z0.0
G1 X83.7938 Y2.6589
G1 X85.9939 Y2.8862
G1 X83.5419 Y2.9112
G1 X81.3428 Y2.6834
G0 Z5.0
G0 X81.5164 Y4.0522
G1 Z0.0
G1 X83.2885 Y3.8275
G1 X84.4525 Y3.9058
G1 X85.1845 Y4.3017
G1 X83.0363 Y4.3274
G1 X81.1388 Y4.1001
G1 X81.5164 Y4.0522
G0 Z5.0
G0 X81.2661 Y5.6929
G1 Z0.0
G1 X82.3531 Y5.9198
G1 X81.0258 Y6.1721
G1 X80.3037 Y6.076
G1 X79.927 Y5.7179
G1 X81.2661 Y5.6929
G0 Z5.0
G0 X92.6066 Y0.3483
G1 Z0.0
G1 X92.4679 Y0.0539
G1 X93.7468 Y-0.0502
G1 X94.894 Y0.4585
G1 X95.0294 Y2.6939
G1 X94.7974 Y3.757
G1 X94.2872 Y4.5041
G1 X93.4719 Y2.1842
G1 X92.6066 Y0.3483
G0 Z5.0
G0 X100.9621 Y1.0654
G1 Z0.0
G1 X102.2916 Y-1.7513
G1 X103.9969 Y-4.1931
G1 X102.6388 Y-1.4049
G1 X100.9621 Y1.0654
G0 Z5.0
G0 X72.4427 Y-12.2845
G1 Z0.0
G1 X71.7042 Y-17.4625
G1 X69.8781 Y-21.5527
G1 X68.5389 Y-23.1719
G1 X66.9066 Y-24.4974
G1 X64.9737 Y-25.5229
G1 X62.7332 Y-26.2406
G1 X65.1653 Y-25.7204
G1 X67.2324 Y-24.7663
G1 X68.9427 Y-23.421
G1 X70.3042 Y-21.7253
G1 X71.3265 Y-19.7222
G1 X72.0182 Y-17.4535
G1 X72.4427 Y-12.2845
G0 Z5.0
G0 X66.169 Y-18.807
G1 Z0.0
G1 X65.2544 Y-18.1389
G1 X62.5894 Y-17.6551
G1 X59.945 Y-18.2778
G1 X59.0577 Y-18.992
G1 X58.6875 Y-19.9691
G1 X60.1975 Y-20.8253
G1 X62.1628 Y-21.0369
G1 X64.2106 Y-20.7648
G1 X65.9696 Y-20.1719
G1 X62.3826 Y-20.2191
G1 X60.6521 Y-20.1794
G1 X59.2941 Y-19.7672
G1 X62.7578 Y-19.7427
G1 X65.9696 Y-19.9701
G1 X66.3737 Y-20.1704
G1 X66.5765 Y-19.766
G1 X66.169 Y-18.807
G0 Z5.0
G0 X44.3271 Y-17.1389
G1 Z0.0
G1 X43.705 Y-13.5749
G1 X41.9379 Y-9.8506
G1 X40.7562 Y-8.2956
G1 X39.4444 Y-7.141
G1 X38.0552 Y-6.5335
G1 X36.6409 Y-6.6211
G1 X35.6655 Y-7.3062
G1 X35.0217 Y-8.441
G1 X34.8592 Y-10.5817
G1 X35.2335 Y-12.8299
G1 X37.1742 Y-17.0777
G1 X38.5329 Y-18.7918
G1 X40.0112 Y-20.0411
G1 X41.5047 Y-20.6844
G1 X42.9103 Y-20.5772
G1 X43.5563 Y-20.0517
G1 X43.9867 Y-19.1946
G1 X44.3271 Y-17.1389
G0 Z5.0
G0 X36.4391 Y-5.2046
G1 Z0.0
G1 X34.9105 Y-3.8003
G1 X33.4045 Y-2.3729
G1 X34.8229 Y-4.3847
G1 X35.6891 Y-5.1064
G1 X36.4391 Y-5.2046
G0 Z5.0
G0 X34.2651 Y-6.018
G1 Z0.0
G1 X34.1949 Y-5.8304
G1 X33.607 Y-5.6096
G1 X33.8272 Y-6.1975
G1 X34.4151 Y-6.4189
G1 X34.2651 Y-6.018
G0 Z5.0
G0 X32.7977 Y-5.0021
G1 Z0.0
G1 X32.2548 Y-4.2301
G1 X31.3815 Y-3.7887
G1 X31.8673 Y-4.6183
G1 X32.7977 Y-5.0021
G0 Z5.0
G0 X22.2799 Y-3.7887
G1 Z0.0
G1 X15.1804 Y-5.4298
G1 X8.2514 Y-7.7046
G1 X1.6616 Y-10.3979
G1 X-4.4196 Y-13.2947
G1 X-9.6015 Y-15.9632
G1 X-15.197 Y-18.3983
G1 X-21.573 Y-20.0008
G1 X-25.1684 Y-20.3026
G1 X-29.0964 Y-20.1719
G1 X-33.2831 Y-19.3762
G1 X-37.2775 Y-17.7237
G1 X-40.3672 Y-15.2221
G1 X-41.3503 Y-13.6557
G1 X-41.8394 Y-11.8795
G1 X-43.0472 Y-4.5561
G1 X-44.2662 Y2.6834
G1 X-44.8019 Y-1.1609
G1 X-44.3101 Y-5.217
G1 X-43.4929 Y-9.419
G1 X-43.0528 Y-13.7007
G1 X-42.0518 Y-15.5035
G1 X-40.7599 Y-17.0327
G1 X-37.4338 Y-19.3359
G1 X-33.3342 Y-20.7393
G1 X-28.7192 Y-21.3719
G1 X-23.8478 Y-21.3614
G1 X-18.9791 Y-20.8359
G1 X-14.3722 Y-19.9256
G1 X-10.2855 Y-18.7573
G1 X-14.8233 Y-24.3111
G1 X-16.9755 Y-27.818
G1 X-18.8173 Y-31.6857
G1 X-20.1748 Y-35.8215
G1 X-20.8719 Y-40.1306
G1 X-20.7357 Y-44.5195
G1 X-19.59 Y-48.8953
G1 X-18.6987 Y-48.6733
G1 X-17.9721 Y-48.2878
G1 X-19.0392 Y-44.2427
G1 X-19.2866 Y-40.1216
G1 X-18.8333 Y-36.0314
G1 X-17.8008 Y-32.0789
G1 X-16.3091 Y-28.3692
G1 X-14.4794 Y-25.0102
G1 X-12.4312 Y-22.1073
G1 X-10.2855 Y-19.7672
G1 X-6.8153 Y-17.3318
G1 X-2.8022 Y-15.1165
G1 X5.2889 Y-11.0702
G1 X14.0695 Y-7.7046
G1 X18.3289 Y-5.9465
G1 X22.2799 Y-3.7887
G0 Z5.0
G0 X19.0441 Y-3.5865
G1 Z0.0
G1 X16.3419 Y-3.2741
G1 X13.8167 Y-2.6117
G1 X9.3349 Y-0.7549
G1 X6.5032 Y0.6613
G1 X3.6749 Y1.0008
G1 X0.5612 Y1.0268
G1 X-5.8348 Y1.0654
G1 X-16.5148 Y1.9979
G1 X-26.4664 Y3.2902
G1 X-26.6842 Y3.2047
G1 X-26.6687 Y2.8857
G1 X-26.6531 Y2.5666
G1 X-26.8709 Y2.481
G1 X-27.2786 Y3.4896
G1 X-28.3612 Y3.823
G1 X-30.916 Y4.0995
G1 X-30.8684 Y1.4219
G1 X-30.9055 Y0.1446
G1 X-31.3206 Y-0.7549
G1 X-31.1514 Y1.7414
G1 X-31.3206 Y4.3013
G1 X-34.5575 Y4.9087
G1 X-34.5325 Y2.4561
G1 X-34.7598 Y0.2567
G1 X-34.9871 Y2.5576
G1 X-34.9626 Y5.1111
G1 X-40.0187 Y6.5266
G1 X-40.0183 Y1.2677
G1 X-33.7762 Y-0.5811
G1 X-26.8709 Y-1.7664
G1 X-26.8954 Y-0.1229
G1 X-26.6687 Y1.2677
G1 Y-1.7664
G1 X-15.7783 Y-3.3633
G1 X-4.1317 Y-4.6592
G1 X7.675 Y-4.9636
G1 X13.4512 Y-4.5285
G1 X19.0441 Y-3.5865
G0 Z5.0
G0 X19.0435 Y2.0769
G1 Z0.0
G1 X20.0074 Y2.132
G1 X20.4407 Y2.1271
G1 X20.8637 Y2.4816
G1 X19.714 Y2.5186
G1 X19.2158 Y2.4606
G1 X19.0435 Y2.0769
G0 Z5.0
G0 X13.5819 Y-5.2046
G1 Z0.0
G1 X7.3914 Y-5.513
G1 X4.0144 Y-5.7602
G1 X1.4457 Y-6.4177
G1 X1.5041 Y-6.0717
G1 X1.8147 Y-5.9782
G1 X2.1432 Y-5.9022
G1 X2.2547 Y-5.609
G1 X-3.568 Y-5.1776
G1 X-10.0832 Y-4.8002
G1 X-18.8884 Y-3.7763
G1 X-28.2695 Y-2.3365
G1 X-36.901 Y-0.2075
G1 X-40.5214 Y1.2017
G1 X-43.4574 Y2.8862
G1 X-43.19 Y-0.9306
G1 X-42.4899 Y-4.6943
G1 X-41.7172 Y-8.5115
G1 X-41.2319 Y-12.487
G1 X-39.8304 Y-14.7032
G1 X-37.9431 Y-16.488
G1 X-35.6487 Y-17.8619
G1 X-33.0247 Y-18.848
G1 X-27.1022 Y-19.7467
G1 X-20.8034 Y-19.3632
G1 X-17.0782 Y-18.3713
G1 X-13.5214 Y-17.5427
G1 X-7.2439 Y-13.96
G1 X-0.5978 Y-10.7454
G1 X13.5819 Y-5.2046
G0 Z5.0
G0 X7.1085 Y-14.5091
G1 Z0.0
G1 X6.5392 Y-14.525
G1 X6.097 Y-15.1168
G1 X6.7725 Y-14.9818
G1 X7.1085 Y-14.5091
G0 Z5.0
G0 X4.6824 Y-16.5315
G1 Z0.0
G1 X1.7721 Y-19.0824
G1 X-0.7789 Y-21.9921
G1 X2.0786 Y-19.3887
G1 X4.6824 Y-16.5315
G0 Z5.0
G0 X5.2553 Y-20.0737
G1 Z0.0
G1 X5.2246 Y-20.0787
G1 X4.6824 Y-20.7794
G1 X5.4016 Y-20.4868
G1 X5.8964 Y-19.9701
G1 X5.2553 Y-20.0737
G0 Z5.0
G0 X-46.9586 Y-32.742
G1 Z0.0
G1 X-47.6381 Y-31.3274
G1 X-48.5141 Y-30.2857
G1 X-55.0773 Y-25.5782
G1 X-58.2501 Y-22.9797
G1 X-60.4479 Y-19.9701
G1 X-60.7439 Y-18.8185
G1 X-60.7038 Y-17.829
G1 X-60.6367 Y-16.9495
G1 X-60.8526 Y-16.1275
G1 X-61.7819 Y-18.97
G1 X-61.5485 Y-21.3051
G1 X-60.4614 Y-23.2763
G1 X-58.83 Y-25.0263
G1 X-53.5711 Y-29.2742
G1 X-49.5321 Y-32.2243
G1 X-48.4914 Y-34.0308
G1 X-48.6162 Y-35.0472
G1 X-49.3232 Y-36.1504
G1 X-53.4273 Y-34.9451
G1 X-57.6893 Y-33.8982
G1 X-61.3588 Y-32.2581
G1 X-62.7363 Y-30.9814
G1 X-63.6838 Y-29.2742
G1 X-64.1095 Y-30.6692
G1 X-64.0883 Y-32.5109
G1 X-60.883 Y-34.5224
G1 X-56.9646 Y-36.0684
G1 X-52.6638 Y-37.2007
G1 X-48.3117 Y-37.9719
G1 X-46.6938 Y-36.3538
G1 X-46.6016 Y-34.4454
G1 X-46.9586 Y-32.742
G0 Z5.0
G0 X-54.7849 Y-23.2064
G1 Z0.0
G1 X-53.9742 Y-21.1899
G1 X-53.7464 Y-20.126
G1 X-53.9756 Y-19.3629
G1 X-54.514 Y-21.4033
G1 X-54.83 Y-22.3192
G1 X-54.7849 Y-23.2064
G0 Z5.0
G0 X-59.8411 Y-19.161
G1 Z0.0
G1 X-59.817 Y-17.9231
G1 X-60.0439 Y-16.9361
G1 X-60.4644 Y-18.175
G1 X-60.3482 Y-18.839
G1 X-59.8411 Y-19.161
G0 Z5.0
G0 X-67.5275 Y-17.543
G1 Z0.0
G1 X-67.3443 Y-16.0588
G1 X-67.5275 Y-14.7119
G1 X-67.7634 Y-16.1432
G1 X-67.5275 Y-17.543
G0 Z5.0
G0 X-67.9317 Y-17.9483
G1 Z0.0
G1 X-68.9212 Y-21.8629
G1 X-69.9547 Y-25.2291
G1 X-68.4775 Y-21.8021
G1 X-68.0209 Y-19.8635
G1 X-67.9317 Y-17.9483
G0 Z5.0
G0 X-67.5275 Y-12.891
G1 Z0.0
G1 X-67.1455 Y-12.5519
G1 X-67.0483 Y-11.7898
G1 X-67.5275 Y-10.6655
G1 Y-12.891
G0 Z5.0
G0 X-62.0658 Y-8.0357
G1 Z0.0
G1 X-62.4705 Y-6.0142
G1 X-62.4403 Y-7.1969
G1 X-62.0658 Y-8.0357
G0 Z5.0
G0 X-58.6272 Y2.4816
G1 Z0.0
G1 X-58.2682 Y2.6293
G1 X-58.1485 Y3.1892
G1 X-58.2682 Y3.749
G1 X-58.6272 Y3.8972
G1 Y2.4816
G0 Z5.0
G0 X-50.7032 Y-5.9978
G1 Z0.0
G1 X-50.7388 Y-6.8235
G1 X-50.2821 Y-6.1674
G1 X-49.9296 Y-5.4074
G1 X-50.7032 Y-5.9978
G0 Z5.0
G0 X-45.885 Y5.3132
G1 Z0.0
G1 X-44.8435 Y5.5341
G1 X-44.5655 Y5.8276
G1 X-44.6711 Y6.122
G1 X-44.893 Y5.8386
G1 X-45.3342 Y5.774
G1 X-45.7474 Y5.6808
G1 X-45.885 Y5.3132
G0 Z5.0
G0 X-91.7995 Y1.2677
G1 Z0.0
G1 X-91.8816 Y1.5907
G1 X-92.2041 Y1.6724
G1 X-93.8406 Y-0.3322
G1 X-95.8801 Y-1.9331
G1 X-98.4079 Y-3.0458
G1 X-101.5081 Y-3.5865
G1 X-98.3053 Y-3.4689
G1 X-95.7419 Y-2.3238
G1 X-93.6347 Y-0.5955
G1 X-91.7995 Y1.2677
G0 Z5.0
G0 X-94.9363 Y0.8296
G1 Z0.0
G1 X-95.0354 Y1.2677
G1 X-95.7324 Y0.6499
G1 X-96.2492 Y-0.1479
G1 X-95.2512 Y0.4205
G1 X-94.9363 Y0.8296
G0 Z5.0
G0 X-96.1641 Y1.129
G1 Z0.0
G1 X-96.3068 Y2.3704
G1 X-97.2362 Y3.4835
G1 X-98.703 Y4.3764
G1 X-100.457 Y4.9567
G1 X-102.2493 Y5.132
G1 X-103.8292 Y4.8095
G1 X-104.9469 Y3.8972
G1 X-104.6498 Y2.7023
G1 X-104.054 Y1.807
G1 X-102.1697 Y0.7079
G1 X-97.0584 Y-0.1479
G1 X-96.1641 Y1.129
G0 Z5.0
G0 X-102.9243 Y-3.1828
G1 Z0.0
G1 X-103.3734 Y-2.5194
G1 X-104.1382 Y-2.171
G1 X-103.7225 Y-2.8679
G1 X-102.9243 Y-3.1828
G0 Z5.0
G0 X-99.6075 Y-9.2441
G1 Z0.0
G1 X-100.1921 Y-9.564
G1 X-100.6153 Y-10.791
G1 X-100.2713 Y-12.0569
G1 X-99.2833 Y-12.8916
G1 X-98.4471 Y-12.9432
G1 X-97.7496 Y-12.5451
G1 X-96.9433 Y-10.9808
G1 X-97.2062 Y-9.3602
G1 X-97.8446 Y-8.8919
G1 X-98.8788 Y-8.8453
G1 X-99.6075 Y-9.2441
G0 Z5.0
G0 X-101.1104 Y-19.3849
G1 Z0.0
G1 X-101.3745 Y-19.3458
G1 X-102.5316 Y-19.8098
G1 X-103.1771 Y-20.7588
G1 X-103.1267 Y-21.9921
G1 X-102.6488 Y-22.7123
G1 X-101.9468 Y-23.0542
G1 X-100.3605 Y-22.776
G1 X-99.3479 Y-21.499
G1 X-99.3634 Y-20.593
G1 X-99.8907 Y-19.5657
G1 X-101.1104 Y-19.3849
G0 Z5.0
G0 X-122.7529 Y-15.9783
G1 Z0.0
G1 X-122.1397 Y-12.0823
G1 X-123.4892 Y-18.0648
G1 X-124.0215 Y-21.1415
G1 X-124.1622 Y-24.2186
G1 X-123.0681 Y-17.9806
G1 X-122.7529 Y-15.9783
G0 Z5.0
G0 X-124.4982 Y-15.6978
G1 Z0.0
G1 X-123.9644 Y-12.3758
G1 X-122.9648 Y-8.8804
G1 X-121.9578 Y-5.5198
G1 X-121.3305 Y-2.171
G1 X-123.4055 Y-8.9456
G1 X-124.2899 Y-12.4289
G1 X-124.5674 Y-16.1281
G1 X-124.4982 Y-15.6978
G0 Z5.0
M5
M30
