( Made using CamBam - http://www.cambam.co.uk )
( Untitled 1/2/2014 10:49:57 PM )
( T0 : 0.0 )
G21 G90 G64 G40
G0 Z10.0
( T0 : 0.0 )
T0 M6
( S )
G17
M3 S1000
G0 X29.8125 Y48.6563
G1 F500.0 Z0.0
G3 F2000.0 X24.9258 Y49.9219 I-11.2071 J-33.205
G3 X20.3203 Y50.3438 I-4.6382 J-25.2844
G3 X14.2187 Y49.6854 I-0.2798 J-26.0112
G3 X8.6484 Y47.1094 I3.1859 J-14.1995
G3 X5.5002 Y43.1278 I6.19 J-8.1299
G3 X4.5352 Y38.1445 I11.3169 J-4.7766
G3 X6.6094 Y31.6055 I10.6314 J-0.2262
G3 X8.5093 Y29.6355 I10.8484 J8.561
G3 X10.6621 Y27.9455 I19.2456 J22.3004
G3 X15.2578 Y24.9961 I34.6442 J48.9273
G3 X17.5078 Y23.6953 I91.8633 J156.3023
G2 X22.081 Y20.6727 I-19.2459 J-34.0897
G2 X25.8747 Y16.7156 I-9.7891 J-13.1819
G2 X27.0 Y13.1836 I-5.5144 J-3.7022
G2 X24.0117 Y6.4336 I-8.4018 J-0.3169
G2 X20.2664 Y4.4542 I-6.4938 J7.7543
G2 X16.0664 Y3.9023 I-4.0318 J14.4248
G2 X10.8984 Y4.6758 I0.1798 J18.8538
G2 X5.168 Y7.1367 I9.4671 J29.9472
G1 X4.6055 Y1.9336
G3 X10.1953 Y0.2109 I11.8389 J28.4855
G3 X15.9961 Y-0.3516 I5.8038 J29.6598
G3 X22.1213 Y0.5097 I0.2346 J20.5432
G3 X27.5273 Y3.5156 I-4.2923 J14.0838
G3 X30.8871 Y8.0579 I-8.1935 J9.574
G3 X31.957 Y13.6055 I-12.8651 J5.3583
G3 X29.918 Y20.3555 I-11.1186 J0.3242
G3 X27.9903 Y22.3717 I-10.3141 J-7.9318
G3 X25.79 Y24.0863 I-19.0405 J-22.163
G3 X21.0938 Y27.0703 I-35.1245 J-50.0928
G3 X19.0547 Y28.2305 I-37.1765 J-62.9685
G2 X14.4852 Y31.1779 I22.4626 J39.8405
G2 X10.5641 Y34.9452 I10.6565 J15.0158
G2 X9.2813 Y38.3906 I4.7382 J3.7258
G2 X12.1641 Y44.0859 I6.6347 J0.219
G2 X16.0312 Y45.7373 I6.0561 J-8.8286
G2 X20.2148 Y46.1602 I3.9978 J-18.6446
G2 X24.8203 Y45.5977 I0.06 J-18.6439
G2 X29.1445 Y43.9805 I-4.4345 J-18.4473
G1 X29.8125 Y48.6563
G0 Z10.0
M5
M30
