( Made using CamBam - http://www.cambam.co.uk )
( Plane_3Mx3M(A3) 1/20/2014 2:53:59 PM )
( T0 : 0.0 )
G21 G90 G64 G40
G0 Z5.0
( T0 : 0.0 )
T0 M6
( 31-40 )
G17
M3 S1000
G0 X-14.3572 Y-47.4131
G1 F2000.0 Z0.0
G1 X-14.3511 Y-46.9056
G1 X-14.3174 Y-44.9076
G1 X-14.1785 Y-37.4152
G1 X-14.0714 Y-31.7959
G1 X-13.7447 Y-14.9383
G0 Z5.0
G0 X-37.3512 Y-8.7118
G1 Z0.0
G1 X-47.3674 Y-12.8699
G0 Z5.0
G0 X-54.2391 Y-4.8099
G1 Z0.0
G1 X-54.3376 Y-11.4145
G0 Z5.0
G0 X-62.0657 Y-16.359
G1 Z0.0
G1 X-61.9708 Y-16.195
G1 X-61.875 Y-16.0333
G2 X-61.0446 Y-14.7952 I11.947 J-7.1148
G2 X-60.6086 Y-14.2524 I8.4183 J-6.3161
G1 X-60.5537 Y-14.1888
G2 X-59.6051 Y-13.2461 I6.8256 J-5.9195
G2 X-58.5957 Y-12.5235 I4.7324 J-5.5444
G2 X-56.4515 Y-11.7071 I3.4695 J-5.888
G2 X-55.9624 Y-11.6248 I1.6319 J-8.2007
G2 X-55.0069 Y-11.5477 I1.1524 J-8.3305
G2 X-54.1108 Y-11.5593 I0.2978 J-11.6744
G1 X-54.0584 Y-11.5621
G2 X-52.3985 Y-11.7507 I-0.9607 J-15.8536
G1 X-52.2184 Y-11.781
G1 X-52.0415 Y-11.8124
G1 X-51.6939 Y-11.8782
G2 X-51.0234 Y-12.0196 I-9.5816 J-47.1225
G2 X-50.7103 Y-12.0912 I-2.6176 J-12.1532
G2 X-49.5036 Y-12.3949 I-10.7578 J-45.2981
G1 X-48.9785 Y-12.538
G1 X-48.917 Y-12.5552
G1 X-48.856 Y-12.5722
G2 X-46.9278 Y-13.1381 I-22.4859 J-80.1908
G1 X-46.2072 Y-13.3585
G1 X-46.1284 Y-13.3828
G1 X-45.5082 Y-13.5745
G1 X-43.3383 Y-14.2465
G1 X-42.2519 Y-14.5776
G3 X-42.1159 Y-14.6186 I1.8787 J5.987
G1 X-42.0564 Y-14.6365
G1 X-41.1634 Y-14.9022
G2 X-38.4909 Y-15.8007 I-9.9772 J-34.0989
G1 X-38.3462 Y-15.8561
G1 X-38.2028 Y-15.9116
G2 X-33.7976 Y-18.0077 I-12.0057 J-30.9083
G2 X-33.5974 Y-18.1234 I-2.891 J-5.2368
G2 X-33.4011 Y-18.2387 I-2.8934 J-5.1479
G1 X-33.2087 Y-18.3538
G1 X-33.02 Y-18.4685
G1 X-32.8351 Y-18.5829
G1 X-32.6538 Y-18.6969
G1 X-32.4761 Y-18.8104
G1 X-32.3019 Y-18.9236
G1 X-32.1312 Y-19.0362
G1 X-31.9639 Y-19.1484
G1 X-31.8 Y-19.26
G1 X-31.6393 Y-19.3712
G1 X-31.4819 Y-19.4817
G1 X-31.3276 Y-19.5917
G2 X-29.0145 Y-21.4749 I-13.7006 J-19.191
G2 X-28.6063 Y-21.8642 I-9.8819 J-10.7687
G2 X-27.1815 Y-23.4308 I-12.2599 J-12.5819
G2 X-26.9354 Y-23.7461 I-11.737 J-9.412
G2 X-26.0966 Y-24.9901 I-9.993 J-7.6435
G2 X-25.8226 Y-25.4847 I-8.1697 J-4.8486
G2 X-25.8083 Y-25.5123 I-0.1892 J-0.1152
G2 X-25.6986 Y-25.7323 I-3.9072 J-2.0859
G2 X-25.3428 Y-26.5831 I-7.1499 J-3.4897
G2 X-25.1461 Y-27.2479 I-5.9323 J-2.1172
G2 X-25.0034 Y-28.278 I-5.1084 J-1.2325
G2 X-25.1084 Y-29.3126 I-3.7954 J-0.1375
G0 Z5.0
G0 X-17.4657 Y-57.8138
G1 Z0.0
G2 X-17.6552 Y-57.086 I2.5739 J1.0587
G2 X-17.6577 Y-56.3934 I3.0041 J0.3573
G2 X-17.5361 Y-55.762 I3.8442 J-0.4132
G2 X-17.3375 Y-55.1959 I4.6105 J-1.2992
G2 X-16.8014 Y-54.2109 I5.5244 J-2.3682
G2 X-16.2026 Y-53.434 I6.068 J-4.0581
G2 X-13.4742 Y-51.3809 I6.3672 J-5.6219
G2 X-11.8317 Y-50.8469 I2.8867 J-6.0863
G2 X-10.9689 Y-50.761 I0.9398 J-5.0642
G2 X-10.1046 Y-50.8283 I0.0857 J-4.488
G0 Z5.0
G0 X-65.6362 Y-18.5636
G1 Z0.0
G2 X-63.4187 Y-18.4113 I2.3285 J-17.689
G1 X-63.2888 Y-18.4106
G2 X-61.2235 Y-18.5073 I-0.0201 J-22.5178
G2 X-60.2624 Y-18.6165 I-2.2525 J-24.1286
G2 X-58.416 Y-18.9278 I-3.5004 J-26.3919
G2 X-56.7079 Y-19.3236 I-6.9717 J-33.9636
G2 X-53.5679 Y-20.2877 I-10.1885 J-38.7806
G2 X-50.8883 Y-21.3208 I-17.1867 J-48.568
G2 X-48.5923 Y-22.3398 I-24.5687 J-58.4535
G2 X-48.0957 Y-22.575 I-17.4247 J-37.4306
G2 X-44.3105 Y-24.5231 I-32.8995 J-68.579
G1 X-44.1356 Y-24.6192
G2 X-41.408 Y-26.1802 I-50.3777 J-91.1907
G1 X-40.9017 Y-26.4817
G1 X-40.4284 Y-26.7665
G1 X-39.9858 Y-27.0354
G2 X-38.3343 Y-28.0572 I-106.7306 J-174.3413
G1 X-38.0259 Y-28.2508
G1 X-37.4485 Y-28.6152
G1 X-35.4317 Y-29.8966
G1 X-34.9266 Y-30.2155
G1 X-34.7368 Y-30.3345
G1 X-34.5704 Y-30.4382
G3 X-34.4246 Y-30.5287 I2.1695 J3.3341
G1 X-33.9123 Y-30.8416
G3 X-33.6543 Y-30.9951 I9.847 J16.2601
G3 X-33.6381 Y-31.0046 I0.0558 J0.0764
G3 X-33.3946 Y-31.1454 I4.295 J7.1449
G2 X-33.3287 Y-31.1512 I-0.0752 J-1.2374
G2 X-33.263 Y-31.1569 I-0.0759 J-1.2439
G1 X-32.2172 Y-31.2475
G1 X-31.7264 Y-31.2879
G3 X-29.8215 Y-31.4154 I5.4762 J67.5539
G1 X-29.4036 Y-31.4341
G1 X-28.9987 Y-31.448
G1 X-28.6061 Y-31.4572
G1 X-28.4158 Y-31.46
G1 X-28.2286 Y-31.4616
G1 X-28.0442 Y-31.4622
G3 X-26.593 Y-31.4238 I0.0295 J26.3302
G1 X-26.4344 Y-31.4146
G3 X-23.9511 Y-31.1191 I-1.2691 J21.2471
G3 X-20.3467 Y-30.093 I-3.3947 J18.7684
G3 X-19.4822 Y-29.7287 I-6.2436 J16.0266
G3 X-16.9971 Y-28.4123 I-9.3397 J20.6342
G1 X-16.9301 Y-27.4643
G1 X-16.8994 Y-27.0198
G1 X-16.8423 Y-26.1586
G1 X-16.7925 Y-25.3509
G3 X-16.7506 Y-24.5934 I-53.65 J3.3489
G1 X-16.7165 Y-23.883
G3 X-16.7129 Y-23.7997 I-0.9252 J0.082
G1 X-16.6993 Y-23.4692
G3 X-16.657 Y-22.1882 I-124.3626 J4.7424
G1 X-16.6304 Y-21.0671
G1 X-16.6116 Y-20.086
G1 X-16.5552 Y-16.6521
G1 X-16.5517 Y-16.4374
G1 X-16.4966 Y-13.2182
G0 Z5.0
G0 X11.5151 Y9.8119
G1 Z0.0
G3 X7.8152 Y8.7013 I19.9484 J-73.1747
G3 X7.4141 Y8.5684 I8.8892 J-27.5083
G1 X7.02 Y8.4356
G1 X6.2462 Y8.1684
G1 X5.8723 Y8.0363
G3 X4.4061 Y7.4997 I23.4352 J-66.3108
G3 X-1.0092 Y5.2768 I35.6805 J-94.6273
G3 X-4.9867 Y3.4183 I49.0649 J-110.1944
G3 X-7.9237 Y1.9299 I59.0323 J-120.128
G3 X-8.0605 Y1.8582 I2.2741 J-4.5061
G3 X-8.195 Y1.7875 I2.1638 J-4.2807
G3 X-8.3273 Y1.7178 I2.067 J-4.0825
G3 X-10.4006 Y0.5996 I52.3407 J-99.5292
G3 X-16.4987 Y-2.9696 I66.0367 J-119.8205
G0 Z5.0
G0 X-49.3541 Y5.4823
G1 Z0.0
G1 X-22.7188 Y-6.5829
G0 Z5.0
G0 X-50.8686 Y2.4074
G1 Z0.0
G1 X-51.4015 Y-11.69
G0 Z5.0
G0 X-50.4017 Y10.2933
G1 Z0.0
G1 X-19.4834 Y-3.8452
G0 Z5.0
M5
M30
