( Made using CamBam - http://www.cambam.co.uk )
( Plane_3Mx3M 1/20/2014 12:44:19 PM )
( T0 : 0.0 )
G21 G90 G64 G40
G0 Z5.0
( T0 : 0.0 )
T0 M6
( 1-10 )
G17
M3 S1000
G0 X52.21 Y-68.7424
G1 F2000.0 Z0.0
G3 X54.0298 Y-70.1617 I15.9139 J18.5278
G3 X55.8637 Y-71.3202 I11.6349 J16.3875
G3 X56.3112 Y-71.5616 I9.0353 J16.2185
G3 X58.1371 Y-72.3777 I7.5862 J14.5207
G3 X59.9272 Y-72.9136 I4.8678 J13.0032
G3 X60.7836 Y-73.0764 I2.746 J12.1088
G3 X64.1418 Y-73.1164 I1.8169 J11.5553
G3 X66.9549 Y-72.3822 I-1.6054 J11.9077
G3 X69.2121 Y-71.2454 I-5.1114 J12.9576
G3 X71.0036 Y-69.9615 I-8.7712 J14.1316
G3 X72.4318 Y-68.6702 I-12.8291 J15.6251
G3 X74.643 Y-66.1342 I-17.3851 J17.3903
G1 X74.6908 Y-66.0714
G1 X74.738 Y-66.009
G1 X74.7846 Y-65.9469
G1 X74.8307 Y-65.8852
G3 X76.2105 Y-63.8671 I-23.9358 J17.8456
G1 X76.2713 Y-63.7699
G3 X76.7388 Y-62.998 I-32.4139 J20.1601
G3 X76.9371 Y-62.6566 I-11.2433 J6.7575
G1 X76.9831 Y-62.5762
G3 X78.3289 Y-59.9916 I-35.0094 J19.8723
G1 X78.4839 Y-59.6619
G3 X79.4921 Y-57.3199 I-40.4973 J18.8203
G1 X79.1058 Y-57.5793
G1 X78.7236 Y-57.8316
G2 X75.6558 Y-59.7282 I-39.8648 J61.0529
G2 X74.9734 Y-60.1248 I-43.9355 J74.8082
G1 X74.6416 Y-60.3148
G2 X72.0024 Y-61.7639 I-50.6026 J89.0307
G2 X70.8335 Y-62.3725 I-57.851 J109.6913
G1 X70.2827 Y-62.6524
G2 X68.1316 Y-63.7038 I-38.1823 J75.3905
G1 X67.8946 Y-63.8156
G1 X67.661 Y-63.9249
G2 X63.9404 Y-65.5543 I-34.5932 J73.9256
G1 X63.2334 Y-65.8388
G2 X60.554 Y-66.834 I-23.6603 J59.5918
G2 X60.4906 Y-66.8559 I-0.2753 J0.696
G2 X59.481 Y-67.1922 I-15.0275 J43.4293
G1 X59.0372 Y-67.3328
G2 X58.6199 Y-67.4608 I-13.791 J44.2172
G2 X55.4505 Y-68.2795 I-11.1082 J36.4609
G2 X53.8384 Y-68.5683 I-5.2429 J24.6194
G2 X52.21 Y-68.7424 I-2.8313 J18.7783
G0 Z5.0
G0 X81.8436 Y15.9807
G1 Z0.0
G1 X-28.6444 Y-23.1088
G1 X-46.9922 Y-33.479
G0 Z5.0
G0 X-46.5379 Y-33.8499
G1 Z0.0
G2 X-52.6105 Y-36.5115 I-445.1047 J1007.2808
G2 X-64.045 Y-41.3924 I-364.8352 J838.8644
G1 X-65.3 Y-41.9161
G1 X-66.5364 Y-42.4296
G1 X-67.1452 Y-42.6815
G1 X-67.7496 Y-42.9309
G1 X-68.3494 Y-43.1778
G1 X-68.9448 Y-43.4223
G1 X-69.5357 Y-43.6644
G1 X-70.1223 Y-43.904
G1 X-70.7045 Y-44.1413
G1 X-71.2823 Y-44.3761
G1 X-71.8558 Y-44.6087
G1 X-72.425 Y-44.8389
G1 X-72.9901 Y-45.0668
G1 X-73.5509 Y-45.2924
G2 X-82.4816 Y-48.803 I-224.3925 J557.7236
G1 X-82.9717 Y-48.991
G1 X-83.458 Y-49.177
G1 X-83.9408 Y-49.3612
G1 X-84.4199 Y-49.5435
G2 X-99.7197 Y-55.092 I-185.1903 J486.7836
G1 X-101.1632 Y-55.5867
G1 X-101.863 Y-55.8247
G2 X-112.9344 Y-59.4212 I-145.0639 J427.7221
G1 X-113.4557 Y-59.5825
G1 X-113.9691 Y-59.7407
G2 X-122.0813 Y-62.1424 I-121.2731 J394.7132
G1 X-123.6079 Y-62.5736
G2 X-135.1126 Y-65.6032 I-101.7915 J363.1852
G2 X-140.9007 Y-66.9766 I-79.6163 J322.6555
G1 X-142.3513 Y-67.3046
G1 X-142.8956 Y-67.4259
G1 X-143.3721 Y-67.5314
G1 X-143.7891 Y-67.6232
G1 X-145.2496 Y-67.9401
G1 X-146.7114 Y-68.2507
G1 X-147.6856 Y-68.2823
G3 X-148.6291 Y-68.3195 I2.3694 J-72.1214
G3 X-148.6862 Y-68.3219 I0.0197 J-1.1313
G3 X-148.7433 Y-68.3244 I0.0202 J-1.1315
G3 X-152.3834 Y-68.5162 I9.7365 J-219.3785
G3 X-153.9758 Y-68.6146 I15.2779 J-260.3158
G1 X-154.3492 Y-68.6382
G1 X-155.819 Y-68.7316
G1 X-157.1973 Y-68.8173
G2 X-157.2782 Y-68.8222 I-0.141 J1.6533
G2 X-157.3587 Y-68.8271 I-0.1406 J1.6546
G2 X-157.4389 Y-68.8319 I-0.1401 J1.6559
G2 X-157.5188 Y-68.8367 I-0.1397 J1.6573
G1 X-158.7915 Y-68.9103
G1 X-159.9853 Y-68.9728
G1 X-160.545 Y-68.9994
G2 X-164.8866 Y-69.1192 I-5.1486 J107.8608
G2 X-166.5161 Y-69.1117 I-0.5071 J67.5342
G1 X-167.2289 Y-69.0972
G2 X-169.8996 Y-68.9731 I1.6465 J64.1968
G2 X-171.8975 Y-68.7985 I3.6901 J53.7601
G2 X-173.3906 Y-68.6166 I6.079 J56.1139
G2 X-177.8239 Y-67.7827 I6.1356 J44.8188
G1 X-178.1007 Y-67.7088
G2 X-182.4667 Y-66.4341 I26.0567 J97.3629
G2 X-183.4137 Y-66.1286 I18.2482 J58.1766
G2 X-197.5806 Y-60.0834 I27.6367 J84.3891
G2 X-200.9478 Y-58.2105 I47.5192 J89.3981
G1 X-201.5714 Y-57.8458
G2 X-203.8893 Y-56.4437 I54.3222 J92.423
G1 X-204.7506 Y-55.9049
G2 X-204.9385 Y-55.7861 I3.5552 J5.8312
G1 X-205.6645 Y-55.323
G1 X-205.8229 Y-55.2211
G1 X-205.9763 Y-55.1222
G1 X-206.5694 Y-54.7371
G1 X-206.6989 Y-54.6524
G1 X-206.8243 Y-54.5703
G2 X-210.6727 Y-51.9691 I97.6317 J148.5911
G0 Z5.0
G0 X-225.4468 Y-32.1419
G1 Z0.0
G2 X-226.6813 Y-30.1035 I25.0587 J16.5693
G2 X-227.6915 Y-28.1109 I29.4834 J16.2002
G2 X-229.2276 Y-24.2145 I32.4902 J15.0593
G2 X-230.8324 Y-17.0628 I36.1363 J11.8647
G2 X-231.0955 Y-11.5558 I35.2772 J4.4453
G2 X-230.9675 Y-9.4875 I33.8406 J-1.056
G2 X-230.4207 Y-5.9027 I30.8815 J-2.8764
G2 X-229.7246 Y-3.2716 I28.0179 J-6.0052
G2 X-229.0339 Y-1.3501 I25.8464 J-8.2061
G2 X-227.7202 Y1.4159 I23.1686 J-9.3088
G2 X-226.0752 Y3.9986 I21.4677 J-11.8581
G2 X-226.0193 Y4.0612 I1.4293 J-1.2213
G2 X-218.7463 Y11.9561 I265.7174 J-237.486
G1 X-217.9361 Y12.8058
G2 X-217.8361 Y12.9101 I2.2142 J-2.0199
G2 X-217.7363 Y13.0143 I2.218 J-2.0256
G2 X-217.6367 Y13.1182 I2.2219 J-2.0313
G2 X-217.5372 Y13.2218 I2.2259 J-2.0371
G2 X-211.0891 Y19.7473 I223.9666 J-214.8609
G2 X-210.9996 Y19.8353 I2.7122 J-2.6708
G2 X-199.2778 Y30.7568 I211.9217 J-215.699
G2 X-190.117 Y38.5325 I203.2175 J-230.1324
G1 X-189.2429 Y39.2432
G1 X-188.3938 Y39.9286
G1 X-187.569 Y40.59
G2 X-181.1057 Y45.6249 I209.9471 J-262.8432
G1 X-180.4936 Y46.0889
G1 X-179.8996 Y46.5371
G1 X-179.3233 Y46.9702
G1 X-178.2042 Y47.8059
G2 X-169.7139 Y53.9398 I226.1429 J-304.0743
G1 X-169.1779 Y54.3157
G1 X-168.6748 Y54.6674
G2 X-161.0712 Y59.8573 I256.4411 J-367.5393
G1 X-160.0433 Y63.5567
G1 X-159.5589 Y65.2905
G1 X-159.3232 Y66.1301
G1 X-159.0905 Y66.9565
G1 X-158.9756 Y67.3632
G1 X-158.5172 Y68.9764
G1 X-158.0688 Y70.538
G1 X-157.6296 Y72.0496
G1 X-157.1987 Y73.5126
G2 X-156.3459 Y76.342 I299.7826 J-88.806
G1 X-155.9368 Y77.6655
G1 X-155.5339 Y78.9457
G1 X-155.3363 Y79.5651
G1 X-154.9422 Y80.7829
G2 X-153.3447 Y85.4784 I188.5644 J-61.5339
G2 X-150.2227 Y93.5774 I146.3601 J-51.7675
G1 X-149.9059 Y94.327
G1 X-149.5948 Y95.0514
G2 X-144.2377 Y106.031 I123.1053 J-53.2689
G2 X-142.7447 Y108.6964 I121.9846 J-66.5742
G1 X-142.6018 Y108.9446
G2 X-137.9359 Y116.4969 I131.6983 J-76.1472
G1 X-284.9549 Y182.009
G1 X-439.3306 Y270.3091
G2 X-440.6341 Y271.064 I7.0267 J13.6366
G2 X-444.966 Y274.6831 I11.6352 J18.3289
G2 X-446.3132 Y276.3441 I13.4104 J12.2532
G2 X-447.313 Y277.9291 I13.0151 J9.3186
G2 X-448.5546 Y280.9601 I12.3117 J6.8128
G2 X-448.9763 Y285.8355 I13.0353 J3.5836
G2 X-448.5557 Y288.2524 I15.6577 J-1.4801
G2 X-448.2122 Y289.4307 I16.8342 J-4.2683
G1 X-448.114 Y289.7213
G2 X-447.7919 Y290.5837 I16.2566 J-5.5806
G2 X-446.7654 Y292.7303 I16.9564 J-6.7898
G2 X-445.5459 Y294.6681 I19.1056 J-10.6706
G2 X-444.2001 Y296.4189 I22.0758 J-15.5769
G2 X-443.8543 Y296.825 I18.5232 J-15.4225
G2 X-443.1477 Y297.6119 I28.2358 J-24.6416
G2 X-441.6866 Y299.0923 I26.9636 J-25.1526
G2 X-441.5042 Y299.2655 I4.7859 J-4.8558
G1 X-441.413 Y299.3513
G2 X-438.3713 Y301.9465 I30.561 J-32.7398
G1 X-438.279 Y302.0184
G1 X-438.1868 Y302.09
G2 X-436.6939 Y303.2059 I34.5841 J-44.7157
G1 X-436.6023 Y303.2718
G2 X-433.619 Y305.2901 I38.076 J-53.0665
G1 X-433.4411 Y305.4034
G1 X-433.2635 Y305.5157
G1 X-433.0863 Y305.627
G1 X-432.9094 Y305.7374
G1 X-432.733 Y305.847
G1 X-432.557 Y305.9556
G1 X-432.3813 Y306.0633
G1 X-432.2061 Y306.1701
G2 X-431.5054 Y306.5911 I38.6206 J-63.4789
G2 X-428.7085 Y308.1833 I45.115 J-75.9992
G1 X-428.543 Y308.2735
G2 X-425.8823 Y309.6693 I48.1177 J-88.4892
G1 X-425.2532 Y309.9855
G2 X-420.2371 Y312.3467 I56.9372 J-114.4477
G2 X-418.0132 Y313.3142 I50.5843 J-113.2366
G2 X-409.5508 Y316.6423 I67.4408 J-159.0581
G1 X-408.7493 Y316.9325
G2 X-402.4976 Y319.0689 I71.1438 J-197.9693
G1 X-401.9083 Y319.2594
G1 X-400.7649 Y319.6241
G2 X-392.1335 Y322.1736 I71.7978 J-227.1856
G2 X-387.7831 Y323.3257 I62.64 J-227.7317
G1 X-386.6919 Y323.5999
G1 X-385.8726 Y323.8014
G1 X-385.2573 Y323.95
G1 X-385.0265 Y324.0052
G1 X-384.2178 Y324.1952
G1 X-383.813 Y324.2882
G1 X-383.4078 Y324.379
G1 X-377.4841 Y322.2048
G2 X-377.3019 Y322.1378 I-4.0827 J-11.3901
G2 X-377.1198 Y322.0709 I-4.0853 J-11.3962
G2 X-376.9377 Y322.004 I-4.0879 J-11.4022
G2 X-376.7558 Y321.9371 I-4.0906 J-11.4084
G2 X-376.5739 Y321.8702 I-4.0932 J-11.4145
G2 X-376.3922 Y321.8034 I-4.0958 J-11.4206
G2 X-376.2105 Y321.7366 I-4.0985 J-11.4267
G2 X-376.0289 Y321.6698 I-4.1011 J-11.4329
G2 X-375.8474 Y321.6031 I-4.1038 J-11.4391
G2 X-375.666 Y321.5364 I-4.1065 J-11.4454
G2 X-329.3134 Y304.3107 I-2462.1023 J-6696.2679
G2 X-328.9969 Y304.1918 I-7.28 J-19.8643
G2 X-248.2606 Y273.2776 I-2337.7802 J-6226.272
G1 X-244.4862 Y271.8024
G1 X-242.6287 Y271.0755
G1 X-240.786 Y270.3536
G1 X-238.9579 Y269.6368
G1 X-237.1444 Y268.9251
G2 X-222.7571 Y263.2561 I-1978.6759 J-5042.7512
G1 X-219.3871 Y261.9224
G1 X-216.0705 Y260.6075
G1 X-212.8064 Y259.3114
G1 X-206.3824 Y256.7543
G1 X-200.1619 Y254.2703
G1 X-197.1498 Y253.0647
G2 X-149.7933 Y233.8684 I-2277.7037 J-5687.0146
G1 X-145.3618 Y232.0486
G2 X-76.8575 Y203.4002 I-2358.3087 J-5735.4326
G1 X-74.7223 Y202.4916
G1 X-70.5865 Y200.7291
G1 X-66.7102 Y199.0739
G1 X-64.8936 Y198.2972
G2 X-36.7676 Y186.1843 I-2529.6219 J-5912.4464
G1 X-33.256 Y184.6605
G1 X-27.1129 Y181.9889
G1 X-22.5075 Y179.9809
G1 X-19.0544 Y178.4725
G1 X-13.8765 Y176.2062
G1 X-11.2882 Y175.0713
G1 X-8.7006 Y173.9353
G0 Z5.0
G0 X-11.8919 Y173.9349
G1 Z0.0
G1 X41.5564 Y171.5418
G1 X138.8824 Y209.8337
G1 X139.0326 Y209.9284
G1 X140.2318 Y210.6857
G1 X140.3793 Y210.779
G1 X140.5266 Y210.8721
G1 X141.7018 Y211.6157
G1 X142.8582 Y212.3483
G3 X143.9963 Y213.07 I-124.9406 J198.2889
G1 X146.2359 Y214.4921
G1 X150.5721 Y217.2523
G1 X152.6033 Y218.5484
G1 X156.5363 Y221.0633
G1 X160.2206 Y223.4258
G1 X163.6718 Y225.645
G1 X166.9047 Y227.7297
G3 X179.0023 Y235.5873 I-1447.712 J2242.1384
G1 X180.1341 Y236.3278
G1 X182.3254 Y237.7645
G1 X184.378 Y239.1143
G1 X186.3007 Y240.3823
G3 X186.357 Y240.4195 I-0.8125 J1.2912
G3 X186.4132 Y240.4566 I-0.8084 J1.2848
G3 X186.4694 Y240.4937 I-0.8043 J1.2784
G3 X186.5253 Y240.5307 I-0.8003 J1.2721
G1 X188.3119 Y241.713
G3 X191.657 Y243.9369 I-589.8724 J890.8628
G1 X193.1183 Y244.9132
G1 X194.487 Y245.8306
G1 X194.8076 Y246.0459
G1 X196.0691 Y246.8948
G1 X197.2505 Y247.6924
G1 X198.357 Y248.442
G1 X199.3932 Y249.1463
G1 X201.3328 Y250.4716
G1 X203.0261 Y251.637
G1 X204.5043 Y252.6619
G1 X205.1498 Y253.112
G1 X206.358 Y253.959
G1 X206.8856 Y254.3311
G1 X207.873 Y255.0312
G1 X208.7347 Y255.6468
G1 X209.4868 Y256.1882
G1 X210.1432 Y256.6643
G1 X210.4299 Y256.8733
G1 X210.6984 Y257.0698
G3 X211.7017 Y257.8106 I-56.4289 J77.4734
G1 X211.7955 Y257.8805
G1 X212.1584 Y258.1518
G1 X212.7914 Y258.6295
G1 X213.264 Y258.9905
G3 X213.3524 Y259.0585 I-1.2608 J1.7309
G1 X214.0127 Y259.5716
G3 X214.6675 Y260.0917 I-25.4083 J32.6639
G3 X215.2246 Y260.935 I-13.4873 J9.5154
G1 X215.2905 Y261.0416
G3 X215.8017 Y261.9022 I-35.5782 J21.7146
G1 X216.0474 Y262.3337
G1 X216.2883 Y262.7655
G3 X217.2199 Y264.5014 I-77.6916 J42.8156
G1 X217.3322 Y264.7162
G3 X219.0786 Y268.1699 I-149.2992 J77.6648
G1 X219.4919 Y269.0112
G1 X219.594 Y269.2201
G1 X219.7972 Y269.6373
G1 X220.2002 Y270.4693
G1 X220.5978 Y271.2959
G1 X221.3811 Y272.9388
G1 X221.7641 Y273.7486
G1 X221.9536 Y274.1506
G3 X224.9338 Y280.5759 I-628.3658 J295.3505
G1 X225.6235 Y282.0857
G1 X226.3 Y283.5732
G1 X226.9635 Y285.0384
G1 X227.1265 Y285.3992
G1 X228.4211 Y288.2757
G1 X228.7336 Y288.9729
G1 X229.3525 Y290.3567
G1 X229.9604 Y291.7196
G1 X231.1534 Y294.4044
G1 X232.3049 Y297.0071
G1 X233.4168 Y299.5301
G1 X233.9542 Y300.7527
G1 X235.0101 Y303.1605
G1 X235.5206 Y304.3273
G3 X239.5214 Y313.5238 I-2176.4019 J952.2887
G1 X239.9571 Y314.5305
G1 X240.1715 Y315.026
G1 X241.0214 Y316.993
G3 X244.3037 Y324.6196 I-2441.0851 J1055.1109
G1 X244.6617 Y325.4542
G1 X245.3661 Y327.0975
G3 X256.206 Y352.6017 I-4836.2952 J2070.6096
G1 X258.8962 Y358.9861
G1 X259.0221 Y359.2855
G1 X261.0033 Y364.0011
G1 X261.7452 Y365.7699
G1 X263.0421 Y368.8658
G1 X264.0136 Y371.1883
G1 X264.7415 Y372.9305
G1 X265.832 Y375.5443
G1 X266.9204 Y378.1589
G2 X272.2893 Y382.4191 I56.5878 J-65.8007
G1 X272.4409 Y382.5294
G2 X273.6573 Y383.395 I42.03 J-57.7752
G1 X274.2523 Y383.8059
G1 X274.3994 Y383.9062
G1 X274.5461 Y384.0057
G2 X274.5827 Y384.0305 I0.3862 J-0.5316
G2 X274.6193 Y384.0552 I0.3859 J-0.5317
G2 X274.6558 Y384.0799 I0.3855 J-0.5319
G2 X277.0198 Y385.6104 I39.7387 J-58.7888
G2 X286.3675 Y390.4971 I37.4412 J-60.2359
G2 X287.2774 Y390.8827 I47.4822 J-110.7791
G2 X290.8485 Y392.2632 I29.2458 J-70.3437
G2 X290.947 Y392.2985 I0.5624 J-1.4157
G2 X291.0453 Y392.3335 I0.5619 J-1.4207
G2 X291.1431 Y392.3683 I0.5615 J-1.4258
G2 X291.2407 Y392.4028 I0.5611 J-1.4311
G2 X291.3379 Y392.4371 I0.5606 J-1.4362
G2 X294.4561 Y393.4672 I31.0076 J-88.6279
G1 X294.7994 Y393.573
G2 X297.5146 Y394.3638 I29.2352 J-95.3232
G2 X297.6637 Y394.405 I0.8978 J-2.9566
G2 X300.0365 Y395.0346 I32.3744 J-117.2185
G2 X304.2115 Y396.0467 I45.6774 J-179.3085
G1 X304.9965 Y396.2273
G1 X306.4695 Y396.5609
G1 X307.7592 Y396.8489
G1 X308.8881 Y397.0994
G1 X310.8636 Y397.5376
G1 X312.3447 Y397.8689
G1 X313.4548 Y398.1204
G1 X314.2869 Y398.3113
G1 X315.5339 Y398.6024
G1 X316.7793 Y398.9002
G1 X293.645 Y261.6879
G2 X293.7222 Y261.6497 I-0.4484 J-1.0049
G2 X294.3261 Y261.3241 I-4.6743 J-9.3915
G2 X294.8846 Y260.9691 I-3.7047 J-6.4443
G2 X295.8552 Y260.1483 I-3.4956 J-5.1181
G2 X296.541 Y259.2102 I-3.0768 J-2.9691
G2 X296.894 Y258.2161 I-3.1407 J-1.675
G2 X296.9461 Y257.2548 I-3.6164 J-0.678
G2 X296.7891 Y256.3809 I-4.4759 J0.3531
G2 X296.5087 Y255.6048 I-5.5631 J1.5712
G2 X296.4286 Y255.4295 I-4.2716 J1.8462
G2 X296.0706 Y254.7616 I-7.8991 J3.8039
G2 X295.8832 Y254.4606 I-6.9194 J4.0995
G2 X295.0675 Y253.3571 I-9.7936 J6.3855
G2 X294.9714 Y253.242 I-3.5883 J2.8992
G1 X294.9476 Y253.2138
G1 X294.7553 Y252.9915
G1 X294.5651 Y252.7795
G2 X292.9899 Y251.2358 I-15.536 J14.2782
G1 X292.6787 Y250.9634
G1 X292.3835 Y250.7123
G2 X290.0796 Y248.9411 I-23.1517 J27.7295
G2 X289.4839 Y248.5248 I-35.2371 J49.7904
G2 X287.6617 Y247.3286 I-30.7064 J44.7915
G1 X315.1835 Y255.3064
G2 X325.8413 Y250.4533 I-478.157 J-1064.1967
G1 X327.0047 Y249.9166
G1 X327.5772 Y249.652
G1 X329.8482 Y248.5995
G1 X332.0466 Y247.576
G1 X334.1748 Y246.581
G2 X350.6091 Y238.7398 I-534.0119 J-1140.3761
G1 X350.8012 Y238.6463
G1 X350.9925 Y238.5531
G1 X352.5163 Y237.8092
G1 X352.8852 Y237.6286
G1 X353.2512 Y237.4493
G1 X354.7028 Y236.7362
G1 X356.1081 Y236.0428
G2 X357.4684 Y235.3687 I-95.8242 J-195.0861
G1 X358.7853 Y234.7133
G2 X358.9447 Y234.6338 I-2.5908 J-5.3923
G1 X360.2144 Y233.9987
G1 X360.8291 Y233.6903
G1 X362.0385 Y233.0814
G1 X362.624 Y232.7856
G1 X363.7759 Y232.2016
G1 X364.3336 Y231.918
G1 X365.4308 Y231.358
G2 X369.6725 Y229.167 I-245.7291 J-480.9227
G1 X370.5985 Y228.6826
G1 X371.0468 Y228.4472
G2 X378.0715 Y224.6719 I-193.5742 J-368.6078
G1 X378.7273 Y224.3095
G1 X378.8861 Y224.2215
G1 X380.144 Y223.5195
G1 X380.2914 Y223.4367
G1 X380.4375 Y223.3545
G1 X381.5952 Y222.699
G2 X385.9037 Y220.1789 I-98.7848 J-173.826
G2 X389.093 Y218.198 I-66.6711 J-110.898
G2 X391.4464 Y216.6339 I-49.0635 J-76.378
G2 X393.1756 Y215.3934 I-32.8133 J-47.5662
G1 X393.3358 Y215.2728
G1 X393.4906 Y215.1552
G1 X393.64 Y215.0404
G1 X393.7843 Y214.9285
G2 X394.8809 Y214.0339 I-17.9887 J-23.1691
G2 X395.2814 Y213.6812 I-27.4371 J-31.5581
G2 X395.9582 Y213.0347 I-11.1266 J-12.3269
G2 X396.2019 Y212.7794 I-8.4346 J-8.2908
G1 X396.2542 Y212.7223
G2 X396.6428 Y212.2654 I-6.6947 J-6.0877
G2 X396.9086 Y211.8998 I-4.3038 J-3.4079
G2 X397.2312 Y211.3016 I-2.79 J-1.8906
G2 X397.3299 Y210.9741 I-1.525 J-0.6381
G2 X397.3513 Y210.6326 I-1.2435 J-0.2495
G2 X396.5238 Y209.1162 I-14.48 J6.9177
G2 X395.5953 Y207.7311 I-19.422 J12.0166
G1 X395.4763 Y207.5684
G1 X395.3566 Y207.4073
G1 X395.1144 Y207.0891
G1 X394.9926 Y206.9326
G2 X393.9863 Y205.7151 I-26.927 J21.232
G1 X393.7341 Y205.4278
G1 X393.481 Y205.1455
G1 X393.4178 Y205.0758
G2 X392.3864 Y203.9845 I-27.3459 J24.8105
G2 X392.131 Y203.7258 I-8.9993 J8.63
G1 X392.0035 Y203.5982
G1 X391.876 Y203.4716
G2 X390.844 Y202.4801 I-30.8204 J31.0455
G2 X390.7172 Y202.362 I-6.2245 J6.5579
G2 X390.5905 Y202.2448 I-3.8964 J4.0848
G2 X389.5682 Y201.3251 I-44.2398 J48.1442
G2 X385.4275 Y197.9744 I-45.4743 J51.9627
G1 X385.3109 Y197.8871
G2 X381.5156 Y195.2147 I-51.3101 J68.8373
G2 X374.5655 Y191.0128 I-53.5314 J80.6945
G1 X373.8962 Y190.6487
G2 X371.2772 Y189.2868 I-46.2767 J85.7977
G1 X370.9882 Y189.1426
G1 X370.418 Y188.8615
G2 X369.308 Y188.3275 I-32.5237 J66.1874
G2 X369.0468 Y188.2044 I-27.1412 J57.2371
G2 X364.8856 Y186.3722 I-39.9387 J85.0615
G2 X361.7062 Y185.1379 I-32.7612 J79.68
G1 X361.1046 Y184.9209
G1 X360.539 Y184.7218
G1 X360.0074 Y184.539
G1 X359.5079 Y184.3712
G2 X359.4492 Y184.3517 I-0.4062 J1.1263
G2 X359.391 Y184.3325 I-0.4024 J1.1188
G2 X359.3332 Y184.3134 I-0.3987 J1.1114
G2 X359.2759 Y184.2946 I-0.3951 J1.104
G2 X355.607 Y183.1952 I-22.2732 J67.6624
G1 X355.1442 Y183.0722
G2 X354.3323 Y182.8652 I-12.8355 J48.6574
G1 X353.7214 Y182.7171
G2 X353.492 Y182.6632 I-1.7329 J6.8593
G1 X353.09 Y182.571
G1 X352.4858 Y182.4381
G1 X352.1832 Y182.374
G1 X351.8802 Y182.3116
G1 X351.3955 Y182.3594
G2 X349.4692 Y182.5911 I6.0271 J58.2212
G2 X348.5243 Y182.7254 I11.0909 J81.4188
G1 X348.2901 Y182.7605
G2 X344.5645 Y183.3982 I16.5561 J107.9285
G1 X343.6658 Y183.5707
G1 X343.443 Y183.6145
G1 X342.5545 Y183.7923
G2 X339.0381 Y184.5449 I38.5168 J188.5647
G1 X338.1887 Y184.7368
G2 X334.8247 Y185.5286 I60.4745 J264.4485
G1 X334.0117 Y185.7269
G2 X327.5758 Y187.3721 I87.1933 J354.5064
G2 X327.1996 Y187.4719 I4.9505 J19.4217
G1 X325.7015 Y187.8727
G1 X324.9646 Y188.0717
G1 X323.5034 Y188.47
G1 X322.0661 Y188.8661
G1 X320.6523 Y189.2597
G1 X319.9567 Y189.4547
G1 X319.2668 Y189.6489
G2 X317.8985 Y190.0366 I92.6895 J329.7914
G1 X317.2253 Y190.2284
G2 X311.8884 Y191.7729 I230.1178 J805.1348
G1 X309.3902 Y192.5088
G1 X306.972 Y193.2279
G1 X305.8012 Y193.5783
G1 X303.4974 Y194.2716
G1 X302.382 Y194.609
G1 X300.1868 Y195.2762
G1 X299.124 Y195.6006
G1 X298.0779 Y195.9207
G1 X296.0191 Y196.5529
G1 X294.0254 Y197.1679
G2 X293.0599 Y197.4665 I44.2849 J144.8746
G1 X292.5848 Y197.6137
G2 X288.8147 Y198.7856 I669.6661 J2160.8967
G1 X285.2819 Y199.8897
G1 X281.971 Y200.9286
G1 X278.8679 Y201.9052
G1 X273.0509 Y203.7404
G1 X270.5062 Y204.5441
G1 X268.1205 Y205.2976
G3 X259.172 Y208.1158 I-2641.061 J-8370.2452
G1 X257.4934 Y208.6418
G1 X256.7064 Y208.888
G1 X253.6559 Y209.8391
G3 X250.9853 Y210.6668 I-435.1662 J-1399.2916
G1 X248.6473 Y211.3868
G1 X246.6003 Y212.0129
G1 X246.1524 Y212.1493
G1 X244.4159 Y212.6757
G1 X242.8957 Y213.1333
G1 X242.2302 Y213.3326
G3 X239.7331 Y214.0736 I-226.486 J-758.6072
G1 X238.7958 Y214.3488
G1 X237.1544 Y214.826
G3 X234.6889 Y215.5302 I-176.2911 J-612.6076
G3 X233.4544 Y215.8759 I-51.2928 J-180.7584
G3 X233.2999 Y215.9188 I-1.7854 J-6.129
G1 X232.2185 Y216.2167
G0 Z5.0
G0 X248.572 Y210.6315
G1 Z0.0
G1 X137.6857 Y106.5254
G0 Z5.0
G0 X59.0104 Y140.2441
G1 Z0.0
G1 X427.7232 Y-29.4904
G1 X427.1437 Y-29.9491
G1 X426.8553 Y-30.1755
G1 X426.5675 Y-30.4006
G1 X425.9934 Y-30.8474
G1 X425.4223 Y-31.2892
G1 X424.8546 Y-31.7262
G1 X423.7251 Y-32.5894
G1 X422.6096 Y-33.4345
G1 X422.5752 Y-33.4604
G1 X421.4743 Y-34.2877
G2 X417.1107 Y-37.5069 I-235.4272 J314.5544
G1 X416.5963 Y-37.8804
G2 X408.3523 Y-43.702 I-235.6092 J324.8967
G1 X407.441 Y-44.3267
G1 X406.9918 Y-44.6332
G1 X406.5456 Y-44.9366
G1 X406.1025 Y-45.2372
G1 X405.9925 Y-45.3116
G2 X398.9123 Y-49.9844 I-203.5315 J300.6879
G1 X398.1305 Y-50.4855
G1 X397.3595 Y-50.9767
G2 X395.8374 Y-51.9376 I-115.4828 J181.2581
G2 X395.4679 Y-52.169 I-18.559 J29.2181
G1 X395.2845 Y-52.2837
G2 X389.3949 Y-55.8683 I-157.7773 J252.5983
G1 X388.745 Y-56.252
G1 X388.1042 Y-56.6279
G1 X387.7884 Y-56.8123
G1 X387.4748 Y-56.9948
G2 X382.461 Y-59.8306 I-118.4471 J203.5705
G2 X380.244 Y-61.0325 I-86.2375 J156.4258
G1 X379.1996 Y-61.5869
G2 X379.0729 Y-61.6537 I-1.514 J2.7206
G1 X378.0616 Y-62.1822
G1 X377.0788 Y-62.6886
G2 X376.1237 Y-63.1738 I-40.7516 J79.0367
G1 X375.66 Y-63.4068
G2 X371.9842 Y-65.1929 I-74.6027 J148.8644
G2 X365.4358 Y-68.0749 I-57.9804 J122.8571
G2 X364.8133 Y-68.3266 I-16.7262 J40.4884
G2 X364.7378 Y-68.3568 I-0.4713 J1.0677
G2 X364.6625 Y-68.3869 I-0.4685 J1.0635
G2 X364.5875 Y-68.4168 I-0.4658 J1.0593
G2 X364.5128 Y-68.4465 I-0.4631 J1.0552
G2 X364.4384 Y-68.476 I-0.4604 J1.051
G2 X359.6505 Y-70.2401 I-36.1967 J90.8645
G2 X355.9959 Y-71.3826 I-24.8656 J73.1194
G2 X355.9526 Y-71.395 I-0.2082 J0.6484
G2 X355.2636 Y-71.5874 I-9.862 J33.9854
G2 X352.6617 Y-72.2419 I-17.1776 J62.7879
G2 X351.6786 Y-72.4573 I-16.7595 J74.1474
G1 X351.463 Y-72.502
G1 X351.254 Y-72.5445
G2 X347.9936 Y-73.0862 I-9.163 J45.0624
G2 X344.7005 Y-73.3668 I-4.7982 J36.8482
G2 X344.4679 Y-73.3468 I-0.0085 J1.2593
G1 X344.3531 Y-73.328
G2 X344.1249 Y-73.2839 I0.7 J4.2336
G2 X343.221 Y-73.0715 I5.2662 J24.4419
G2 X341.4352 Y-72.5914 I22.4065 J86.9015
G1 X340.5526 Y-72.3415
G2 X339.6748 Y-72.0883 I20.4399 J72.503
G2 X336.1847 Y-71.0528 I109.9166 J376.8527
G1 X334.4699 Y-70.5332
G1 X332.7698 Y-70.0134
G1 X331.0841 Y-69.4944
G1 X329.4123 Y-68.9767
G1 X326.0969 Y-67.9431
G1 X322.8353 Y-66.9192
G1 X322.0329 Y-66.6664
G1 X318.8367 Y-65.6565
G1 X315.6916 Y-64.6587
G1 X314.1439 Y-64.1665
G1 X313.76 Y-64.0443
G1 X310.6957 Y-63.0671
G1 X307.68 Y-62.103
G1 X301.7445 Y-60.1993
G1 X295.9964 Y-58.3494
G1 X295.6484 Y-58.2372
G1 X295.3011 Y-58.1252
G1 X289.756 Y-56.3351
G1 X284.3853 Y-54.5973
G1 X283.0847 Y-54.176
G1 X277.9236 Y-52.5022
G1 X277.2987 Y-52.2993
G1 X276.6761 Y-52.0972
G1 X271.7162 Y-50.4856
G1 X262.1082 Y-47.3577
G1 X257.6051 Y-45.8893
G2 X248.8815 Y-43.0408 I2542.9897 J7802.8164
G1 X247.8592 Y-42.7067
G1 X243.8025 Y-41.3803
G1 X212.3714 Y-31.0754
G1 X209.4254 Y-30.1074
G1 X198.0105 Y-26.3535
G1 X188.0236 Y-23.0655
G1 X179.2857 Y-20.1861
G2 X179.2259 Y-20.1664 I0.3893 J1.2815
G1 X177.3165 Y-19.5369
G1 X162.5194 Y-14.6547
G1 X151.4229 Y-10.9894
G1 X143.1012 Y-8.2384
G1 X130.6197 Y-4.1084
G1 X127.4995 Y-3.0752
G1 X122.8195 Y-1.5248
G1 X120.4796 Y-0.7493
G1 X119.8946 Y-0.5554
G1 X119.0172 Y-0.2645
G1 X118.1398 Y0.0265
G1 X107.4025 Y4.904
G1 X67.1335 Y23.1849
G1 X59.5823 Y26.611
G1 X45.4231 Y33.0334
G1 X20.642 Y44.2666
G1 X2.053 Y52.6847
G1 X-4.9189 Y55.8395
G1 X-11.0198 Y58.5987
G1 X-21.6979 Y63.4237
G1 X-29.7083 Y67.0383
G1 X-35.7177 Y69.7458
G1 X-36.8447 Y70.253
G1 X-41.0717 Y72.1533
G1 X-44.2429 Y73.5761
G1 X-46.6223 Y74.6412
G1 X-48.4075 Y75.4383
G1 X-51.0875 Y76.6296
G3 X-53.7734 Y77.807 I-149.37 J-337.0959
G0 Z5.0
G0 X-118.9016 Y-93.4903
G1 Z0.0
G2 X-121.8549 Y-95.7554 I-43.383 J53.5051
G1 X-122.516 Y-96.2312
G2 X-127.776 Y-99.7195 I-56.4511 J79.4141
G2 X-129.8073 Y-100.9395 I-51.1904 J82.9281
G2 X-131.6104 Y-101.9642 I-45.4797 J77.9263
G2 X-133.2088 Y-102.825 I-37.5025 J67.7297
G2 X-133.2968 Y-102.871 I-0.7628 J1.351
G2 X-136.1229 Y-104.2688 I-32.7982 J62.7572
G1 X-136.3914 Y-104.3929
G2 X-136.6521 Y-104.512 I-8.8007 J18.9295
G2 X-138.6926 Y-105.388 I-22.2786 J49.0762
G2 X-139.0795 Y-105.5422 I-13.5826 J33.5256
G2 X-139.125 Y-105.5601 I-0.2157 J0.4826
G2 X-139.1701 Y-105.5777 I-0.2135 J0.4792
G2 X-139.2149 Y-105.5952 I-0.2114 J0.4758
G2 X-140.6465 Y-106.1227 I-14.1537 J36.2049
G2 X-142.8337 Y-106.7964 I-10.5309 J30.3034
G1 X-143.1106 Y-106.8683
G2 X-144.0865 Y-107.0941 I-6.1255 J24.2521
G2 X-145.0722 Y-107.2726 I-4.202 J20.4021
G3 X-143.1343 Y-108.5261 I14.1765 J19.7913
G3 X-141.2054 Y-109.5185 I10.1188 J17.2964
G3 X-140.7384 Y-109.7195 I7.4934 J16.7705
G3 X-138.8476 Y-110.3717 I6.2619 J15.0873
G3 X-137.0173 Y-110.7478 I3.6979 J13.3553
G3 X-135.2782 Y-110.8602 I1.6939 J12.6985
G3 X-132.0716 Y-110.3897 I-0.0639 J11.5985
G3 X-129.486 Y-109.2935 I-3.53 J11.9237
G1 X-129.2211 Y-109.1409
G3 X-128.2126 Y-108.4848 I-6.9891 J11.8477
G3 X-127.7598 Y-108.15 I-10.134 J14.1783
G3 X-126.9182 Y-107.457 I-9.2398 J12.0781
G1 X-126.7278 Y-107.2868
G3 X-126.0025 Y-106.5911 I-11.7744 J12.9996
G3 X-125.3575 Y-105.9052 I-12.9338 J12.8086
G3 X-124.2346 Y-104.5445 I-17.3099 J15.4292
G3 X-122.5181 Y-101.9817 I-20.8882 J15.8467
G3 X-121.4158 Y-99.9483 I-26.7595 J15.8207
G3 X-120.0215 Y-96.7727 I-34.0762 J16.8557
G1 X-119.9826 Y-96.6715
G1 X-119.945 Y-96.5733
G3 X-118.9016 Y-93.4903 I-42.3117 J16.038
G0 Z5.0
G0 X-260.1445 Y170.2931
G1 Z0.0
G3 X-260.0729 Y170.1696 I1.4579 J0.7623
G1 X-259.9952 Y170.0502
G1 X-259.8336 Y169.816
G1 X-259.6683 Y169.5852
G1 X-259.3326 Y169.1287
G3 X-258.6524 Y168.2277 I75.6037 J56.3673
G3 X-258.3119 Y167.783 I64.5454 J49.0656
G1 X-257.9715 Y167.3411
G3 X-256.607 Y165.5867 I254.3513 J196.4261
G1 X-255.9321 Y164.7258
G1 X-254.5888 Y163.0206
G1 X-253.2627 Y161.3451
G1 X-252.609 Y160.5213
G1 X-252.4467 Y160.317
G1 X-252.1227 Y159.9093
G1 X-251.4769 Y159.0974
G1 X-250.1941 Y157.4874
G1 X-247.6644 Y154.3211
G1 X-245.2098 Y151.2569
G1 X-242.8291 Y148.2907
G1 X-240.5206 Y145.419
G1 X-236.0432 Y139.8589
G1 X-231.8411 Y134.6499
G1 X-227.8985 Y129.769
G1 X-224.2 Y125.195
G1 X-217.2605 Y116.6227
G1 X-211.1841 Y109.1254
G1 X-205.8644 Y102.5676
G1 X-196.5499 Y91.0956
G1 X-189.5601 Y82.4948
G1 X-188.2492 Y80.8824
G1 X-183.3323 Y74.8367
G1 X-175.9543 Y65.7703
G1 X-172.2641 Y61.2381
G1 X-168.5728 Y56.7069
G0 Z5.0
G0 X180.6549 Y238.0285
G1 Z0.0
G1 X139.3491 Y265.8129
G1 X139.1292 Y265.9606
G3 X138.6929 Y266.2467 I-10.1842 J-15.0568
G1 X138.2661 Y266.5186
G1 X138.058 Y266.6488
G1 X137.8524 Y266.776
G1 X137.6494 Y266.9005
G1 X137.4489 Y267.0224
G1 X137.2511 Y267.1418
G1 X136.4693 Y267.6079
G1 X136.2852 Y267.7168
G1 X136.1038 Y267.824
G1 X135.9252 Y267.9297
G1 X135.7493 Y268.0338
G1 X135.4032 Y268.2395
G1 X135.0683 Y268.4401
G2 X133.7821 Y269.2392 I23.0822 J38.5835
G1 X133.6427 Y269.33
G2 X133.0992 Y269.6954 I23.3511 J35.3268
G2 X132.1088 Y270.4239 I10.978 J15.9616
G2 X132.0559 Y270.4658 I0.4167 J0.5806
G2 X131.2431 Y271.1611 I8.1152 J10.3085
G2 X129.978 Y272.5412 I7.32 J7.98
G2 X128.6351 Y275.0004 I7.2707 J5.5667
G2 X128.2522 Y276.351 I9.8907 J3.5335
G1 X128.2432 Y276.394
G1 X128.2346 Y276.4357
G2 X128.0444 Y277.7394 I12.0026 J2.4171
G1 X128.6717 Y278.3514
G2 X131.1965 Y280.7042 I62.4674 J-64.5033
G1 X131.8013 Y281.2413
G2 X134.2334 Y283.2969 I53.5045 J-60.838
G2 X135.402 Y284.225 I45.4815 J-56.0675
G1 X135.5448 Y284.3357
G2 X137.8583 Y286.05 I44.0164 J-56.983
G1 X138.4108 Y286.4372
G2 X142.8998 Y289.2743 I35.0745 J-50.5275
G2 X147.0162 Y291.4193 I28.9986 J-50.6286
G1 X147.4759 Y291.6338
G2 X147.5326 Y291.66 I0.4179 J-0.832
G2 X147.5892 Y291.686 I0.4178 J-0.8343
G2 X151.2569 Y293.2278 I25.6721 J-55.9373
G2 X154.5352 Y294.3933 I25.2331 J-65.7825
G2 X154.6256 Y294.423 I0.8642 J-2.4788
G2 X156.0704 Y294.8818 I24.1682 J-73.606
G1 X156.7503 Y295.088
G1 X157.4105 Y295.2829
G1 X157.7307 Y295.3756
G1 X158.362 Y295.5551
G1 X158.9746 Y295.7254
G1 X159.2717 Y295.8066
G1 X159.5643 Y295.8859
G2 X160.7182 Y296.1912 I27.7669 J-102.5962
G1 X161.26 Y296.331
G2 X162.3111 Y296.5966 I46.5003 J-181.8178
G1 X162.8043 Y296.719
G1 X163.7606 Y296.9527
G1 X164.2092 Y297.061
G1 X164.644 Y297.1652
G1 X166.3297 Y297.5643
G1 X167.8057 Y297.9099
G1 X167.9672 Y297.9476
G1 X168.1262 Y297.9848
G1 X170.6287 Y298.5718
G1 X171.0977 Y298.6829
G1 X171.9767 Y298.8927
G1 X172.7454 Y299.0782
G1 X173.4176 Y299.2421
G1 X174.5928 Y299.5332
G1 X175.4733 Y299.7556
G1 X175.6383 Y299.7977
G1 X176.2567 Y299.9569
G1 X177.1831 Y300.1995
G1 X178.1083 Y300.447
G1 X225.5621 Y285.386
G0 Z5.0
G0 X337.3035 Y-66.7924
G1 F2000.0 Z0.0
G2 X337.2251 Y-66.1017 I4.8429 J0.8995
G2 X337.3533 Y-64.757 I5.376 J0.1658
G1 X337.3622 Y-64.7173
G2 X337.7662 Y-63.4838 I7.1314 J-1.6528
G2 X338.3332 Y-62.3553 I9.1783 J-3.9048
G2 X339.0012 Y-61.3162 I11.5742 J-6.7059
G2 X339.7334 Y-60.3512 I15.5373 J-11.0292
G2 X341.3235 Y-58.5818 I19.8507 J-16.24
G1 X341.5258 Y-58.3776
G2 X341.9341 Y-57.9763 I21.6362 J-21.6022
G2 X342.7624 Y-57.1998 I22.1848 J-22.8355
G1 X343.1779 Y-56.8266
G2 X344.0156 Y-56.1014 I25.391 J-28.4858
G2 X345.708 Y-54.7267 I37.5059 J-44.4438
G1 X345.76 Y-54.6861
G2 X347.4421 Y-53.4138 I48.034 J-61.7575
G2 X350.7895 Y-51.0733 I53.5912 J-73.0847
G2 X354.0051 Y-48.9968 I67.3893 J-100.83
G2 X357.0699 Y-47.1315 I78.8259 J-126.0621
G1 X357.2507 Y-47.0243
G2 X360.149 Y-45.3443 I109.3875 J-185.3687
G1 X360.8323 Y-44.9577
G2 X366.259 Y-41.9956 I120.6439 J-214.5708
G2 X366.8569 Y-41.6796 I23.7959 J-44.3048
G1 X368.0361 Y-41.0618
G1 X369.1811 Y-40.4684
G2 X369.4588 Y-40.3254 I5.683 J-10.6961
G1 X370.5623 Y-39.7607
G1 X371.0976 Y-39.4887
G1 X371.625 Y-39.222
G1 X372.6647 Y-38.6995
G1 X373.1689 Y-38.4477
G2 X377.1532 Y-36.492 I192.4545 J-387.0497
G2 X380.6573 Y-34.8179 I149.109 J-307.6107
G2 X383.7358 Y-33.3792 I158.3823 J-334.8899
G2 X383.778 Y-33.3597 I0.3278 J-0.6531
G1 X384.4516 Y-33.0487
G1 X385.1046 Y-32.7485
G2 X385.1442 Y-32.7304 I0.2962 J-0.5934
G1 X386.4082 Y-32.1528
G1 X387.0014 Y-31.8833
G1 X387.5762 Y-31.623
G1 X388.6911 Y-31.1208
G2 X388.7565 Y-31.0914 I0.3274 J-0.6417
G2 X392.9318 Y-29.2401 I207.726 J-462.8559
G2 X393.7164 Y-28.8972 I38.9902 J-88.1431
G1 X394.0845 Y-28.7368
G1 X394.7979 Y-28.4271
G2 X400.1634 Y-26.1387 I197.3758 J-455.3373
G2 X402.8565 Y-25.0191 I176.5814 J-420.9921
G1 X404.2062 Y-24.4667
G1 X404.2906 Y-24.4324
G1 X405.5586 Y-23.9214
G0 Z5.0
G0 X232.2185 Y216.6148
G1 Z0.0
G2 X232.2497 Y216.8767 I3.515 J-0.2861
G2 X232.5513 Y217.8721 I4.1052 J-0.7004
G2 X232.7725 Y218.324 I6.3687 J-2.8388
G2 X233.0249 Y218.752 I6.2282 J-3.3836
G2 X233.3003 Y219.1588 I7.5954 J-4.8452
G1 X233.4444 Y219.3545
G2 X234.0588 Y220.1018 I9.2148 J-6.9512
G2 X234.7103 Y220.7929 I12.796 J-11.4098
G2 X235.3842 Y221.4387 I15.4001 J-15.395
G2 X235.4689 Y221.5161 I1.0925 J-1.1106
G2 X236.1573 Y222.1201 I22.9753 J-25.4909
G1 X236.503 Y222.409
G2 X237.9105 Y223.5101 I22.7066 J-27.5741
G2 X240.7505 Y225.4855 I33.6089 J-45.2906
G1 X240.9203 Y225.5961
G1 X241.2593 Y225.8151
G1 X241.5968 Y226.0305
G1 X242.2697 Y226.4528
G1 X242.9358 Y226.8625
G1 X243.265 Y227.062
G1 X243.9204 Y227.454
G1 X244.0013 Y227.5019
G1 X244.3245 Y227.6924
G1 X244.6458 Y227.8802
G1 X245.2852 Y228.2498
G2 X247.8238 Y229.6679 I61.1932 J-106.5584
G2 X252.6531 Y232.1968 I86.9585 J-160.1879
G1 X253.719 Y232.7313
G1 X254.2363 Y232.9881
G1 X255.2567 Y233.4899
G1 X255.5042 Y233.6107
G1 X256.4878 Y234.0874
G1 X256.7263 Y234.2022
G1 X257.674 Y234.6554
G1 X258.5938 Y235.091
G2 X260.3801 Y235.9255 I109.9971 J-233.1193
G2 X260.7996 Y236.1194 I12.1754 J-25.7886
G1 X261.6263 Y236.4994
G2 X263.2309 Y237.2289 I195.1406 J-427.0987
G2 X263.3251 Y237.2714 I0.7152 J-1.4593
G2 X264.0758 Y237.6089 I183.6352 J-407.3682
G2 X264.8037 Y237.9343 I32.3107 J-71.3194
G1 X265.5096 Y238.2479
G2 X266.879 Y238.8514 I121.3913 J-273.6058
G2 X269.4528 Y239.9688 I157.692 J-359.7139
G2 X278.5171 Y243.7478 I185.6371 J-432.5033
G1 X279.0863 Y243.9776
G1 X280.1542 Y244.4065
G1 X280.6218 Y244.5933
G1 X281.499 Y244.9422
G1 X283.0358 Y245.5484
G1 X284.19 Y245.9993
G1 X284.2983 Y246.0414
G1 X284.4033 Y246.0822
G1 X285.2166 Y246.397
G2 X287.6617 Y247.3282 I110.1118 J-285.4483
G0 Z5.0
G0 X273.3018 Y241.7439
G1 Z0.0
G1 X383.79 Y198.2666
G0 Z5.0
G0 X296.8363 Y382.546
G1 Z0.0
G1 X296.7999 Y382.4152
G1 X296.5174 Y381.3675
G1 X295.9627 Y379.2869
G1 X294.8752 Y375.1896
G1 X292.7731 Y367.2496
G1 X288.8375 Y352.3607
G1 X287.1169 Y345.8464
G1 X274.2221 Y296.9874
G1 X267.7782 Y272.5568
G1 X264.5569 Y260.3414
G1 X262.9464 Y254.2337
G1 X261.3361 Y248.1259
G0 Z5.0
G0 X149.6515 Y292.7998
G1 Z0.0
G3 X149.7736 Y292.7252 I0.7563 J1.1017
G3 X150.277 Y292.4562 I7.4658 J13.3631
G1 X150.7829 Y292.2018
G1 X151.0349 Y292.0776
G1 X151.2863 Y291.9548
G3 X153.298 Y290.9932 I98.3919 J203.2407
G1 X154.2752 Y290.5335
G1 X156.2022 Y289.6348
G1 X158.0713 Y288.7694
G1 X158.5243 Y288.5604
G1 X159.4234 Y288.1462
G1 X161.1943 Y287.3325
G1 X162.9107 Y286.5462
G1 X163.7424 Y286.1658
G1 X165.3802 Y285.418
G1 X166.9672 Y284.6945
G1 X168.5051 Y283.9945
G1 X171.4854 Y282.6403
G1 X174.2805 Y281.3727
G1 X179.5232 Y279.0002
G1 X181.8175 Y277.9637
G1 X186.1202 Y276.0223
G1 X193.6523 Y272.6301
G1 X199.3031 Y270.0897
G1 X203.5421 Y268.1862
G1 X205.1319 Y267.4728
G1 X210.6968 Y264.9775
G1 X211.3925 Y264.6658
G1 X213.8276 Y263.5751
G1 X216.2631 Y262.4851
G0 Z5.0
G0 X138.8824 Y209.4349
G1 Z0.0
G3 X138.768 Y209.4149 I0.0132 J-0.4119
G1 X138.713 Y209.3979
G3 X138.2912 Y209.2175 I1.3574 J-3.7576
G3 X137.4872 Y208.7932 I7.1371 J-14.4986
G3 X136.7111 Y208.3485 I22.4295 J-40.0368
G1 X136.6162 Y208.2927
G1 X136.427 Y208.181
G1 X136.0512 Y207.9567
G3 X134.5696 Y207.0505 I51.1481 J-85.2957
G1 X133.8558 Y206.6053
G1 X133.155 Y206.1642
G1 X132.8107 Y205.9462
G1 X132.4692 Y205.7294
G1 X132.1308 Y205.5138
G1 X131.963 Y205.4067
G1 X130.6281 Y204.5502
G1 X129.9827 Y204.1335
G1 X128.7139 Y203.3103
G1 X128.1001 Y202.9104
G1 X126.893 Y202.1211
G1 X126.3088 Y201.7379
G1 X126.2369 Y201.6907
G1 X123.9442 Y200.1803
G1 X123.4075 Y199.8253
G3 X119.1871 Y197.0208 I624.5609 J-944.4499
G1 X119.0718 Y196.9439
G1 X117.2357 Y195.7171
G1 X116.3755 Y195.1413
G1 X114.7098 Y194.0243
G1 X111.5895 Y191.9258
G1 X110.2253 Y191.0062
G1 X107.6691 Y189.2797
G1 X105.4338 Y187.7668
G1 X104.945 Y187.4356
G1 X103.0515 Y186.1513
G1 X101.3955 Y185.0266
G1 X98.4988 Y183.056
G3 X89.8207 Y177.1272 I1830.912 J-2689.2419
G3 X88.6676 Y176.3185 I4.4031 J-7.5049
G3 X87.7553 Y175.4002 I4.1618 J-5.0471
G3 X87.4083 Y174.9075 I3.9677 J-3.1629
G3 X87.1512 Y174.4014 I2.7824 J-1.7313
G3 X87.002 Y173.8973 I2.4297 J-0.9936
G3 X86.9762 Y173.4173 I1.7647 J-0.3353
G3 X87.3104 Y172.6269 I1.3302 J0.0965
G3 X87.5797 Y172.3931 I1.1019 J0.997
G3 X88.179 Y172.1223 I1.1431 J1.7314
G3 X88.7394 Y172.0187 I0.8717 J3.1494
G1 X88.8633 Y172.0082
G3 X89.825 Y172.0321 I0.3419 J5.6034
G3 X91.2402 Y172.3016 I-1.0655 J9.4439
G1 X91.4141 Y172.3488
G3 X91.7167 Y172.4371 I-1.9941 J7.4017
G3 X92.6127 Y172.7395 I-4.6113 J15.1417
G1 X292.4486 Y260.8902
G0 Z5.0
G0 X265.3247 Y373.7711
G1 Z0.0
G1 X265.3758 Y373.7477
G3 X266.2185 Y373.4384 I2.6965 J6.0452
G3 X266.3238 Y373.4086 I0.5536 J1.7529
G3 X267.1765 Y373.2239 I2.1761 J7.9873
G3 X268.8775 Y373.0861 I1.7673 J11.2496
G1 X269.0829 Y373.0855
G1 X269.2874 Y373.0878
G3 X270.9126 Y373.1948 I-0.3272 J17.3649
G1 X271.1081 Y373.217
G1 X271.4969 Y373.2664
G1 X271.6894 Y373.2933
G1 X271.8808 Y373.3216
G3 X273.398 Y373.5955 I-4.184 J27.5134
G3 X276.2927 Y374.3177 I-8.0368 J38.3768
G3 X276.9628 Y374.5152 I-27.4531 J94.3775
G1 X277.2915 Y374.6157
G1 X277.617 Y374.7174
G1 X278.2611 Y374.9251
G1 X278.3402 Y374.9511
G1 X278.4191 Y374.9773
G1 X278.4978 Y375.0034
G1 X279.125 Y375.216
G1 X279.7401 Y375.4314
G1 X280.3436 Y375.6488
G3 X282.7021 Y376.5525 I-27.1638 J74.4282
G1 X283.251 Y376.774
G1 X283.7899 Y376.9953
G3 X287.9914 Y378.8368 I-47.3867 J113.8365
G1 X288.9013 Y379.2598
G1 X289.7799 Y379.6755
G3 X291.4747 Y380.4968 I-102.1045 J212.8614
G1 X291.8705 Y380.6921
G3 X292.0651 Y380.7886 I-4.7358 J9.7963
G1 X292.8364 Y381.174
G1 X293.5817 Y381.5508
G3 X296.4545 Y383.0414 I-94.0263 J184.727
G1 X297.0797 Y383.3734
G3 X301.8902 Y386.0117 I-120.2789 J225.0113
G3 X301.9463 Y386.0433 I-0.3228 J0.6386
G1 X302.8381 Y386.5481
G1 X303.6724 Y387.0244
G3 X305.2321 Y387.9253 I-81.7143 J143.2572
G3 X305.2747 Y387.9502 I-0.2274 J0.4396
G3 X305.3171 Y387.9749 I-0.2263 J0.4373
G3 X305.3594 Y387.9995 I-0.2252 J0.4351
G3 X305.4015 Y388.024 I-0.2241 J0.433
G3 X305.4434 Y388.0485 I-0.2231 J0.4308
G1 X306.1104 Y388.4387
G3 X306.1495 Y388.4616 I-0.2055 J0.3949
G3 X306.1885 Y388.4845 I-0.2046 J0.393
G1 X307.4263 Y389.2156
G1 X307.9667 Y389.5374
G3 X308.4728 Y389.8402 I-28.5018 J48.2093
G1 X308.7098 Y389.9825
G3 X308.9392 Y390.1205 I-4.6446 J7.9797
G3 X309.827 Y390.6574 I-49.2377 J82.4268
G1 X310.6023 Y391.1298
G1 X310.6871 Y391.1816
G1 X310.7705 Y391.2327
G1 X310.8525 Y391.283
G1 X311.498 Y391.6798
G1 X312.062 Y392.0284
G3 X315.982 Y394.5124 I-109.0741 J176.4705
G0 Z5.0
G0 X71.0742 Y20.3684
G1 Z0.0
G1 X-28.6444 Y-15.9289
G0 Z5.0
G0 X-53.9425 Y78.1113
G1 Z0.0
G2 X-54.7987 Y79.3554 I3.8514 J3.5672
G2 X-55.2657 Y80.6615 I5.654 J2.7584
G2 X-55.3886 Y81.2934 I8.5408 J1.9887
G2 X-55.4868 Y82.5322 I9.08 J1.3433
G2 X-55.4794 Y83.1125 I8.8398 J0.1766
G2 X-55.3859 Y84.2316 I12.4273 J-0.4748
G2 X-54.9893 Y86.2952 I17.0893 J-2.2146
G2 X-54.4642 Y88.0552 I21.6141 J-5.49
G1 X-54.3315 Y88.4342
G1 X-54.2985 Y88.5258
G2 X-53.093 Y91.3679 I28.6859 J-10.4902
G2 X-50.8071 Y95.3931 I32.2985 J-15.6806
G2 X-50.1536 Y96.3496 I24.6195 J-16.1196
G1 X-49.8998 Y96.7022
G1 X-49.6735 Y97.0078
G1 X-49.5734 Y97.1406
G2 X-49.1908 Y97.6332 I41.5055 J-31.834
G2 X-49.0445 Y97.8157 I7.1573 J-5.5903
G1 X-48.915 Y97.9743
G2 X-48.4518 Y98.5206 I28.1986 J-23.4416
G2 X-47.9709 Y99.0516 I13.2977 J-11.5594
G1 X-47.6432 Y98.9243
G1 X-46.9914 Y98.6644
G1 X-46.3443 Y98.4002
G1 X-46.0226 Y98.2672
G1 X-45.3813 Y97.9995
G2 X-42.8345 Y96.9139 I-132.3503 J-314.0212
G1 X-41.5842 Y96.3723
G1 X-40.345 Y95.8316
G1 X-39.1167 Y95.2926
G1 X-37.8988 Y94.7558
G1 X-36.6912 Y94.2214
G1 X-36.0923 Y93.9558
G1 X-33.7078 Y92.8943
G1 X-32.5348 Y92.3702
G1 X-30.2084 Y91.3277
G1 X-27.9196 Y90.2987
G1 X-25.6677 Y89.2834
G1 X-21.2367 Y87.2788
G1 X-16.9468 Y85.3312
G1 X-12.7929 Y83.4401
G1 X-10.7814 Y82.5228
G1 X-6.8224 Y80.7146
G1 X-4.9052 Y79.8378
G1 X-3.9616 Y79.406
G1 X-3.7276 Y79.2989
G1 X-1.8591 Y78.4433
G1 X1.8188 Y76.7575
G1 X5.381 Y75.1228
G1 X8.8312 Y73.5377
G1 X12.1731 Y72.001
G2 X15.4101 Y70.5113 I-625.9808 J-1364.4371
G2 X15.8021 Y70.3308 I-13.4789 J-29.791
G1 X17.3637 Y69.6117
G1 X23.5116 Y66.778
G1 X29.274 Y64.1188
G1 X30.6244 Y63.4952
G1 X41.2569 Y58.5803
G1 X43.5824 Y57.5043
G1 X44.1456 Y57.2437
G1 X45.2632 Y56.7264
G1 X49.6631 Y54.689
G1 X50.6943 Y54.2113
G1 X54.7543 Y52.33
G1 X62.3658 Y48.8005
G1 X64.0307 Y48.0281
G1 X76.9314 Y42.0378
G1 X86.6049 Y37.5406
G1 X90.232 Y35.8533
G1 X96.579 Y32.8992
G1 X106.098 Y28.4651
G1 X115.6149 Y24.0267
G1 X345.2009 Y-57.202
G0 Z5.0
G0 X-232.5941 Y157.5698
G1 Z0.0
G1 X-160.49 Y65.0948
G0 Z5.0
G0 X392.5851 Y-28.4336
G1 F2000.0 Z0.0
G1 X194.0244 Y64.6415
G0 Z5.0
G0 X206.9989 Y72.5385
G1 Z0.0
G2 X201.4882 Y69.1771 I-137.8798 J219.844
G1 X200.9667 Y68.868
G1 X199.9541 Y68.2725
G2 X196.1287 Y66.0844 I-99.4717 J169.4658
G2 X193.2177 Y64.5022 I-66.6531 J119.1612
G1 X192.942 Y64.3571
G1 X192.4064 Y64.0782
G2 X191.3969 Y63.5636 I-28.5952 J54.8535
G1 X190.9523 Y63.3422
G1 X190.5339 Y63.1372
G1 X190.1401 Y62.9473
G2 X189.3973 Y62.5985 I-28.0753 J58.8358
G1 X189.2337 Y62.5236
G2 X188.5969 Y62.2389 I-16.2473 J35.4944
G2 X187.4672 Y61.7684 I-11.3582 J25.679
G1 X187.2519 Y61.685
G1 X187.0489 Y61.6085
G2 X186.2791 Y61.3424 I-6.5099 J17.58
G1 X185.9843 Y61.2528
G1 X185.8541 Y61.216
G1 X185.7313 Y61.183
G2 X185.2658 Y61.0767 I-1.6725 J6.2482
G2 X184.9086 Y61.0218 I-0.8094 J4.0784
G1 X184.7723 Y61.0094
G2 X184.532 Y61.0038 I-0.1694 J2.108
G2 X184.1738 Y61.0575 I0.02 J1.3572
G2 X184.0067 Y61.1331 I0.1816 J0.6231
G2 X183.8712 Y61.2567 I0.278 J0.4408
G3 X183.7459 Y61.3658 I-0.469 J-0.412
G3 X183.6781 Y61.413 I-0.5013 J-0.6486
G3 X183.3978 Y61.5876 I-2.6474 J-3.9382
G1 X183.112 Y61.7514
G1 X182.8239 Y61.9097
G1 X182.6795 Y61.9874
G1 X182.5348 Y62.0644
G1 X182.39 Y62.1408
G1 X181.8091 Y62.4416
G3 X181.664 Y62.5157 I-1.7962 J-3.3387
G3 X181.5915 Y62.5526 I-0.4779 J-0.8494
G1 X181.4464 Y62.6262
G1 X181.1562 Y62.7725
G1 X181.0112 Y62.8452
G1 X180.7213 Y62.9899
G1 X180.1417 Y63.277
G1 X178.9844 Y63.8431
G1 X177.8334 Y64.3995
G1 X176.6897 Y64.9476
G1 X176.1217 Y65.2184
G1 X175.5556 Y65.4875
G1 X174.4272 Y66.0218
G1 X173.8669 Y66.2862
G1 X171.6331 Y67.3354
G3 X167.2285 Y69.3871 I-417.8613 J-891.3175
G1 X165.0928 Y70.3759
G1 X162.9893 Y71.3468
G1 X162.7304 Y71.4662
G3 X154.4555 Y75.2633 I-1255.5956 J-2725.3561
G1 X150.5733 Y77.0359
G1 X146.811 Y78.7497
G1 X144.9881 Y79.5787
G1 X144.8759 Y79.6297
G1 X141.2898 Y81.2585
G1 X140.8554 Y81.4556
G1 X133.9316 Y84.5929
G1 X127.438 Y87.5283
G1 X121.3482 Y90.276
G1 X118.4931 Y91.5628
G1 X112.9604 Y94.0538
G1 X110.3665 Y95.2206
G1 X107.8535 Y96.3505
G1 X102.9839 Y98.5383
G1 X93.8516 Y102.6363
G1 X85.8591 Y106.218
G1 X78.8644 Y109.3492
G1 X66.6211 Y114.823
G3 X66.0471 Y115.0795 I-26.1231 J-57.7042
G1 X57.0061 Y119.1162
G1 X50.2243 Y122.1414
G1 X40.0499 Y126.6756
G1 X29.8732 Y131.2045
G1 X29.9319 Y131.2171
G1 X30.166 Y131.2681
G3 X30.2821 Y131.2937 I-1.9962 J9.3292
G1 X30.5132 Y131.3451
G3 X31.4296 Y131.553 I-21.5556 J97.1461
G3 X45.5018 Y135.3018 I-48.9649 J212.0886
G1 X45.6107 Y135.335
G1 X45.7188 Y135.3679
G1 X46.5755 Y135.6318
G1 X47.3775 Y135.883
G1 X48.1282 Y136.1221
G3 X50.933 Y137.0514 I-51.7186 J160.7854
G1 X51.4568 Y137.2318
G1 X52.4371 Y137.5757
G3 X54.1457 Y138.1963 I-34.4626 J97.5428
G3 X55.4209 Y138.6789 I-27.9644 J75.8231
G3 X57.3218 Y139.4334 I-41.7247 J107.8881
G1 X57.7946 Y139.6284
G3 X58.1483 Y139.7764 I-12.936 J31.4264
G1 X58.4133 Y139.8884
G1 X58.8098 Y140.058
G1 X59.2056 Y140.2298
G1 X59.3159 Y140.3494
G1 X59.4235 Y140.4695
G3 X59.8294 Y140.9632 I-7.5964 J6.6579
G3 X60.1791 Y141.4679 I-5.7728 J4.3735
G3 X60.4612 Y141.9827 I-4.0734 J2.5673
G3 X60.6629 Y142.5034 I-3.3982 J1.6158
G3 X60.7862 Y143.5511 I-2.7562 J0.8554
G3 X60.555 Y144.4721 I-2.8723 J-0.2316
G3 X60.1199 Y145.2274 I-3.7266 J-1.6436
G1 X60.09 Y145.2685
G3 X59.5683 Y145.8845 I-4.8711 J-3.5959
G1 X59.5028 Y145.9524
G1 X59.4369 Y146.019
G1 X59.3709 Y146.0843
G1 X59.2381 Y146.2119
G3 X58.1263 Y147.1416 I-9.3524 J-10.0532
G3 X58.0631 Y147.1895 I-0.5737 J-0.6928
G3 X58.0002 Y147.2366 I-0.5297 J-0.6406
G3 X57.4955 Y147.6032 I-25.4134 J-34.4555
G3 X56.5294 Y148.2616 I-24.9908 J-35.635
G3 X56.3156 Y148.4019 I-7.889 J-11.7869
G1 X55.8996 Y148.671
G1 X55.7038 Y148.7961
G3 X54.1783 Y149.7514 I-64.1077 J-100.6743
G1 X53.0306 Y150.4621
G1 X52.8156 Y150.5956
G2 X49.6165 Y152.64 I65.1626 J105.4889
G3 X49.4108 Y152.773 I-6.6741 J-10.1029
G1 X49.2032 Y152.9007
G1 X48.9943 Y153.0242
G1 X48.8895 Y153.0845
G1 X48.7846 Y153.144
G3 X47.9359 Y153.5986 I-11.6033 J-20.6438
G1 X47.5131 Y153.812
G1 X47.0911 Y154.0187
G3 X45.3993 Y154.8027 I-29.1701 J-60.7295
G3 X42.077 Y156.2197 I-48.3514 J-108.7615
G1 X41.6853 Y156.3799
G3 X41.5881 Y156.4195 I-1.6351 J-3.8764
G3 X40.811 Y156.7336 I-55.2367 J-135.5365
G1 X40.0448 Y157.0395
G1 X39.2895 Y157.338
G1 X38.5449 Y157.6293
G1 X37.8113 Y157.9139
G3 X34.9156 Y159.0166 I-103.2364 J-266.7508
G3 X34.5756 Y159.1442 I-5.9749 J-15.4042
G1 X33.9007 Y159.3964
G1 X32.5707 Y159.8898
G1 X31.2808 Y160.364
G1 X31.1245 Y160.4212
G1 X29.8786 Y160.8751
G1 X29.7275 Y160.9299
G3 X24.9089 Y162.6557 I-211.9845 J-584.279
G1 X22.797 Y163.4002
G1 X20.8153 Y164.0931
G1 X18.956 Y164.7387
G1 X17.2119 Y165.3406
G1 X16.3939 Y165.6218
G3 X15.9976 Y165.7577 I-8.7775 J-24.9398
G1 X15.2173 Y166.0249
G3 X15.1228 Y166.0573 I-0.5224 J-1.3731
G1 X13.6164 Y166.5713
G1 X10.79 Y167.5299
G3 X0.8817 Y170.8376 I-499.7483 J-1480.5362
G1 X-1.5989 Y171.6538
G1 X-2.5295 Y171.9589
G1 X-4.1585 Y172.4912
G3 X-4.464 Y172.5908 I-13.4658 J-40.7833
G1 X-6.756 Y173.3356
G1 X-7.9026 Y173.7063
G1 X-9.0497 Y174.0754
G0 Z5.0
G0 X-55.8686 Y164.4857
G1 Z0.0
G3 X-60.2905 Y163.2215 I42.2304 J-156.081
G1 X-60.5485 Y163.1438
G3 X-64.6441 Y161.8524 I52.4089 J-173.3517
G1 X-64.8831 Y161.7738
G3 X-68.6782 Y160.4795 I64.4064 J-195.0692
G3 X-75.7231 Y157.8561 I70.7265 J-200.6958
G1 X-76.1057 Y157.7057
G1 X-76.4851 Y157.5558
G1 X-76.8612 Y157.4064
G3 X-82.7973 Y154.9498 I91.7518 J-230.1085
G3 X-87.938 Y152.6762 I97.9629 J-228.4425
G1 X-89.0559 Y152.1643
G3 X-97.6416 Y148.0306 I120.5298 J-261.3251
G1 X-98.4394 Y147.6286
G3 X-104.5814 Y144.4332 I132.8226 J-262.8048
G3 X-122.5679 Y134.0529 I152.2773 J-284.6314
G0 Z5.0
G0 X-166.8408 Y55.2176
G1 Z0.0
G2 X-163.4062 Y55.3841 I4.6593 J-60.5786
G2 X-156.7508 Y55.187 I1.3381 J-67.2639
G2 X-150.5516 Y54.4388 I-5.8683 J-74.684
G2 X-144.8054 Y53.2931 I-13.0133 J-80.2481
G1 X-144.1369 Y53.1325
G2 X-138.8779 Y51.6726 I-21.2728 J-86.8332
G2 X-129.2747 Y48.1047 I-28.1679 J-90.5236
G2 X-113.5145 Y39.4719 I-38.8285 J-89.5885
G1 X-112.8128 Y38.9931
G2 X-107.4464 Y34.9977 I-51.1583 J-74.3154
G2 X-103.0041 Y31.1626 I-52.8559 J-65.7143
G2 X-99.3498 Y27.5396 I-51.0622 J-55.1576
G1 X-98.9648 Y27.1276
G2 X-96.0511 Y23.7764 I-50.9525 J-47.2434
G2 X-96.0127 Y23.7292 I-0.9031 J-0.7729
G2 X-95.9745 Y23.682 I-0.9023 J-0.7708
G2 X-93.6285 Y20.5968 I-47.5158 J-38.5649
G2 X-91.743 Y17.7736 I-46.0868 J-32.8219
G2 X-91.6938 Y17.6947 I-1.1518 J-0.773
G2 X-88.862 Y12.496 I-42.1122 J-26.3096
G1 X-88.6295 Y11.9911
G2 X-87.0494 Y7.9843 I-37.9898 J-17.2967
G2 X-87.0173 Y7.8885 I-1.4545 J-0.5395
G2 X-86.9858 Y7.7933 I-1.4537 J-0.5347
G2 X-86.1133 Y4.7332 I-36.5169 J-12.0654
G2 X-85.6337 Y2.3947 I-34.0083 J-8.1942
G2 X-85.2205 Y-1.1614 I-32.4669 J-5.5741
G2 X-85.2075 Y-1.3849 I-5.4305 J-0.4282
G2 X-85.2009 Y-4.7414 I-32.1693 J-1.7413
G1 X-85.2816 Y-6.2725
G2 X-85.3022 Y-6.6433 I-134.1035 J7.2422
G2 X-85.3229 Y-7.0113 I-35.66 J1.8287
G2 X-85.3439 Y-7.3764 I-25.5846 J1.2886
G1 X-85.4312 Y-8.8251
G2 X-85.5218 Y-10.2283 I-153.6276 J9.216
G2 X-85.5275 Y-10.3133 I-1.3234 J0.0459
G2 X-85.5332 Y-10.3982 I-1.32 J0.0461
G1 X-85.6273 Y-11.7521
G1 X-85.7242 Y-13.0635
G2 X-86.1583 Y-18.1418 I-261.1793 J19.7636
G2 X-86.1649 Y-18.2113 I-1.0312 J0.0634
G2 X-86.1715 Y-18.2806 I-1.0289 J0.0635
G2 X-86.3939 Y-20.4925 I-362.9469 J35.3756
G1 X-86.5056 Y-21.5289
G2 X-87.5563 Y-29.5402 I-183.1527 J19.9477
G1 X-87.5855 Y-29.7277
G1 X-87.6147 Y-29.9137
G1 X-87.6439 Y-30.0983
G2 X-88.7046 Y-35.9327 I-123.5518 J19.4478
G2 X-88.7188 Y-36.0009 I-0.6965 J0.1094
G2 X-89.1956 Y-38.1677 I-84.7271 J17.5095
G1 X-89.3068 Y-38.6404
G2 X-89.5298 Y-39.5545 I-63.0307 J14.8954
G2 X-89.9774 Y-41.2614 I-68.5576 J17.0629
G1 X-90.0808 Y-41.6336
G2 X-90.96 Y-44.4945 I-56.304 J15.7367
G2 X-91.7271 Y-46.606 I-44.0364 J14.8021
G1 X-91.8046 Y-46.802
G1 X-91.8808 Y-46.9915
G1 X-91.9556 Y-47.1747
G1 X-92.0289 Y-47.3517
G2 X-93.2994 Y-50.0351 I-27.3442 J11.304
G1 X-93.4787 Y-50.3604
G2 X-94.15 Y-51.4737 I-18.2625 J10.2527
G2 X-94.8991 Y-52.5363 I-13.4839 J8.7112
G0 Z5.0
G0 X-85.9589 Y-11.1403
G1 Z0.0
G2 X-91.0356 Y-14.4859 I-90.8667 J132.361
G1 X-91.1109 Y-14.5336
G1 X-91.1862 Y-14.5812
G1 X-91.2614 Y-14.6287
G2 X-93.6757 Y-16.1304 I-129.6602 J205.7751
G1 X-93.7492 Y-16.1754
G1 X-93.8226 Y-16.2203
G1 X-93.896 Y-16.2652
G2 X-98.6171 Y-19.0757 I-121.2597 J198.3253
G1 X-99.1748 Y-19.3985
G2 X-101.3958 Y-20.6665 I-173.7101 J301.6853
G2 X-118.9796 Y-29.8212 I-145.0787 J257.194
G1 X-119.8222 Y-30.2224
G1 X-120.6531 Y-30.6147
G1 X-121.0626 Y-30.8068
G1 X-121.4693 Y-30.9968
G1 X-122.2773 Y-31.3718
G1 X-123.074 Y-31.7384
G1 X-123.8595 Y-32.0967
G2 X-124.2467 Y-32.2722 I-10.5335 J22.7248
G2 X-130.4321 Y-34.9704 I-102.4548 J226.4295
G1 X-131.1144 Y-35.2555
G1 X-131.7871 Y-35.534
G1 X-132.4503 Y-35.806
G2 X-133.1041 Y-36.0717 I-31.4923 J76.5496
G2 X-133.1847 Y-36.1043 I-0.766 J1.7787
G2 X-138.3562 Y-38.113 I-72.5773 J179.1948
G1 X-138.9263 Y-38.3241
G2 X-143.4417 Y-39.9166 I-57.0047 J154.4318
G2 X-147.4382 Y-41.1974 I-44.6612 J132.4824
G2 X-150.9728 Y-42.2148 I-36.7057 J120.8704
G1 X-151.7515 Y-42.4228
G1 X-152.5074 Y-42.6187
G1 X-153.2413 Y-42.8031
G1 X-153.9539 Y-42.9764
G1 X-154.6457 Y-43.1392
G1 X-155.3173 Y-43.2917
G2 X-155.9691 Y-43.4346 I-9.6431 J42.4465
G2 X-156.0482 Y-43.4516 I-0.2212 J0.8382
G2 X-156.127 Y-43.4684 I-0.2195 J0.835
G2 X-156.2055 Y-43.4851 I-0.2179 J0.8318
G2 X-156.2838 Y-43.5016 I-0.2162 J0.8287
G2 X-156.3617 Y-43.518 I-0.2145 J0.8255
G2 X-156.4394 Y-43.5343 I-0.2129 J0.8224
G2 X-156.5167 Y-43.5505 I-0.2112 J0.8193
G2 X-156.5938 Y-43.5665 I-0.2096 J0.8162
G2 X-161.5358 Y-44.4148 I-14.2398 J68.134
G2 X-162.4714 Y-44.531 I-7.9111 J59.8634
G2 X-162.5264 Y-44.5374 I-0.0962 J0.5934
G2 X-162.5811 Y-44.5436 I-0.0952 J0.5914
G2 X-164.3278 Y-44.7121 I-5.6021 J48.9451
G2 X-165.0942 Y-44.7658 I-4.0477 J52.2267
G2 X-165.274 Y-44.7765 I-0.4975 J6.8445
G2 X-168.1101 Y-44.8381 I-2.2168 J36.7505
G1 X-168.3763 Y-44.8324
G2 X-168.8922 Y-44.8152 I0.7305 J29.6052
G1 X-169.3755 Y-44.7912
G2 X-170.2804 Y-44.7244 I1.4018 J25.1604
G2 X-171.8569 Y-44.5316 I2.4101 J26.2344
G2 X-173.0286 Y-44.3144 I3.3971 J21.6058
G2 X-174.7551 Y-43.852 I3.775 J17.547
G2 X-176.4181 Y-43.1969 I4.3701 J13.532
G0 Z5.0
G0 X-229.9797 Y-3.1179
G1 Z0.0
G2 X-228.442 Y-2.4734 I7.8669 J-16.6137
G2 X-225.2981 Y-1.5933 I7.1682 J-19.5494
G2 X-222.1786 Y-1.1848 I4.7738 J-24.3411
G2 X-219.1358 Y-1.1437 I1.9196 J-29.4382
G2 X-216.1946 Y-1.385 I-1.405 J-35.1725
G2 X-213.3648 Y-1.8436 I-5.1712 J-40.8673
G2 X-212.6822 Y-1.9846 I-5.3295 J-27.515
G1 X-212.513 Y-2.0213
G2 X-209.8315 Y-2.6923 I-9.7499 J-44.6574
G1 X-209.6696 Y-2.738
G2 X-204.581 Y-4.4574 I-15.5797 J-54.4993
G2 X-199.9087 Y-6.4881 I-24.6495 J-63.1053
G1 X-199.7723 Y-6.5536
G1 X-199.6363 Y-6.6192
G2 X-195.3625 Y-8.8561 I-33.5093 J-69.2234
G2 X-193.3796 Y-10.0085 I-46.6692 J-82.5824
G2 X-189.6026 Y-12.408 I-43.8645 J-73.2205
G2 X-182.7639 Y-17.4813 I-51.0798 J-75.9999
G2 X-177.0149 Y-22.6056 I-56.2329 J-68.876
G1 X-176.7039 Y-22.91
G2 X-176.0905 Y-23.52 I-33.4223 J-34.2244
G2 X-171.4851 Y-28.5692 I-53.9068 J-53.7944
G1 X-171.24 Y-28.8656
G2 X-169.3537 Y-31.2707 I-49.7539 J-40.9651
G2 X-168.9236 Y-31.8536 I-25.7711 J-19.4613
G1 X-168.714 Y-32.1431
G2 X-167.1126 Y-34.4888 I-48.1618 J-34.6002
G2 X-166.7518 Y-35.0556 I-44.4553 J-28.7003
G2 X-166.5765 Y-35.3368 I-14.4542 J-9.2013
G2 X-165.2533 Y-37.6119 I-42.2039 J-26.069
G2 X-165.2162 Y-37.6801 I-0.7239 J-0.4373
G2 X-164.099 Y-39.8952 I-37.5228 J-20.3156
G2 X-163.6213 Y-40.9631 I-41.2679 J-19.1004
G2 X-162.7974 Y-43.0802 I-31.5428 J-13.4937
G2 X-162.7755 Y-43.1433 I-0.6538 J-0.2629
G2 X-162.7537 Y-43.2064 I-0.6533 J-0.261
G2 X-162.732 Y-43.2694 I-0.6527 J-0.2592
G2 X-162.1188 Y-45.3053 I-25.4414 J-8.7742
G2 X-161.6946 Y-47.2582 I-23.5624 J-6.1407
G2 X-161.4537 Y-49.1188 I-20.8015 J-3.6384
G2 X-161.3876 Y-50.8766 I-18.8996 J-1.5913
G2 X-161.4834 Y-52.5213 I-16.6833 J0.1471
G2 X-161.7242 Y-54.0444 I-16.1792 J1.7773
G2 X-163.9916 Y-59.3113 I-14.0209 J2.9145
G2 X-165.334 Y-60.9812 I-12.6952 J8.8303
G2 X-166.6764 Y-62.2849 I-12.5717 J11.6027
G2 X-167.3042 Y-62.8092 I-11.1231 J12.6788
G2 X-168.5369 Y-63.7203 I-12.6639 J15.8454
G1 X-168.8151 Y-63.9075
G2 X-169.9178 Y-64.5935 I-12.2061 J18.3918
G1 X-170.1638 Y-64.7355
G1 X-170.4036 Y-64.8704
G2 X-172.3064 Y-65.8316 I-13.5549 J24.4689
G2 X-175.2729 Y-67.0223 I-14.273 J31.2689
G1 X-175.4617 Y-67.0878
G2 X-178.3289 Y-67.9598 I-13.9036 J40.5636
G0 Z5.0
G0 X-182.2249 Y232.1771
G1 Z0.0
G1 X-385.2982 Y314.5347
G0 Z5.0
G0 X-439.4511 Y290.2788
G1 Z0.0
G1 X-268.5317 Y195.5104
G1 X-266.1819 Y194.5691
G1 X-263.8695 Y193.6404
G1 X-259.3187 Y191.8082
G1 X-254.9118 Y190.0289
G1 X-250.6441 Y188.3015
G1 X-250.5795 Y188.2753
G2 X-234.0632 Y181.5525 I-2376.0217 J-5860.9916
G2 X-205.2122 Y169.658 I-1921.5999 J-4701.8853
G1 X-203.8616 Y169.0958
G1 X-198.5456 Y166.8778
G1 X-198.2342 Y166.7476
G1 X-195.7531 Y165.7092
G2 X-176.5525 Y157.5973 I-1290.7152 J-3081.884
G1 X-174.7552 Y156.8301
G1 X-173.0146 Y156.0857
G1 X-169.6437 Y154.6395
G1 X-166.4856 Y153.279
G1 X-165.0059 Y152.6396
G1 X-162.1405 Y151.3975
G1 X-160.7979 Y150.8138
G2 X-160.1478 Y150.5306 I-26.5086 J-61.7555
G1 X-159.8278 Y150.3912
G1 X-159.5104 Y150.2527
G1 X-156.9918 Y149.1519
G1 X-154.6323 Y148.1161
G1 X-152.4217 Y147.1415
G1 X-150.3507 Y146.2246
G1 X-149.8655 Y146.0092
G1 X-147.9561 Y145.1592
G1 X-146.1672 Y144.3594
G1 X-145.748 Y144.1715
G1 X-145.3355 Y143.9864
G1 X-144.9295 Y143.804
G1 X-144.5299 Y143.6243
G1 X-144.1367 Y143.4472
G1 X-143.7496 Y143.2728
G1 X-143.3687 Y143.1009
G1 X-142.9938 Y142.9316
G1 X-142.6248 Y142.7648
G1 X-141.8985 Y142.4359
G1 X-141.1953 Y142.1167
G1 X-140.5143 Y141.807
G2 X-135.246 Y139.3864 I-408.9274 J-896.9489
G2 X-127.3848 Y135.6672 I-225.3513 J-486.4817
G1 X-126.8956 Y135.43
G2 X-123.2391 Y133.6273 I-151.2521 J-311.4043
G1 X-122.3289 Y133.1688
G2 X-119.6106 Y131.769 I-84.8473 J-168.0959
G1 X-119.7798 Y131.6898
G1 X-120.1155 Y131.5322
G1 X-120.7751 Y131.2197
G1 X-121.0941 Y131.0669
G3 X-121.1333 Y131.048 I0.1635 J-0.3896
G3 X-121.1725 Y131.0291 I0.1643 J-0.3908
G1 X-121.7959 Y130.7252
G1 X-122.3971 Y130.4251
G3 X-124.6867 Y129.1862 I20.0786 J-39.8454
G3 X-128.4476 Y126.6236 I16.0954 J-27.6626
G1 X-128.7806 Y126.3572
G3 X-130.0408 Y125.2887 I22.1597 J-27.4126
G3 X-130.5779 Y124.805 I18.485 J-21.0675
G3 X-131.5639 Y123.8756 I37.5303 J-40.7984
G3 X-132.4063 Y123.0414 I29.6337 J-30.7672
G1 X-132.7695 Y122.6711
G1 X-132.8119 Y122.6274
G1 X-133.1467 Y122.2801
G1 X-133.1858 Y122.2392
G3 X-133.8017 Y121.5864 I48.6018 J-46.4723
G1 X-134.0687 Y121.2985
G1 X-134.5656 Y120.7553
G1 X-134.9966 Y120.2767
G3 X-136.4813 Y118.5801 I70.6071 J-63.2861
G1 X-136.8473 Y118.1515
G1 X-137.1207 Y117.829
G1 X-137.5288 Y117.3438
G3 X-137.7321 Y117.1005 I9.4969 J-8.1425
G1 X-137.7829 Y117.0396
G1 X-137.9349 Y116.8568
G0 Z5.0
G0 X-157.4055 Y237.2536
G1 Z0.0
G3 X-158.4499 Y237.0257 I8.6091 J-41.9586
G1 X-158.9548 Y236.911
G1 X-159.9482 Y236.6824
G1 X-160.91 Y236.4588
G1 X-162.7729 Y236.0225
G1 X-166.2643 Y235.1981
G1 X-169.3184 Y234.473
G1 X-170.6543 Y234.155
G1 X-175.6634 Y232.9597
G1 X-183.1757 Y231.1607
G1 X-190.6868 Y229.3562
G1 X-188.4545 Y228.3346
G3 X-188.1798 Y228.2089 I11.8472 J25.5398
G1 X-185.9862 Y227.2061
G1 X-185.4463 Y226.9594
G1 X-183.2952 Y225.9768
G1 X-179.0594 Y224.0438
G1 X-170.8505 Y220.3033
G1 X-163.1522 Y216.8021
G1 X-155.9326 Y213.5244
G1 X-149.1623 Y210.456
G1 X-148.3687 Y210.0967
G1 X-145.2191 Y208.6714
G1 X-144.4562 Y208.3263
G1 X-138.3999 Y205.5896
G1 X-132.7204 Y203.0276
G1 X-131.3889 Y202.4277
G1 X-126.1457 Y200.0676
G1 X-123.6873 Y198.9626
G1 X-123.0918 Y198.695
G1 X-122.5009 Y198.4296
G1 X-121.3284 Y197.9032
G1 X-116.711 Y195.8322
G1 X-114.546 Y194.8626
G1 X-113.4972 Y194.3931
G1 X-109.3668 Y192.5467
G1 X-108.3985 Y192.1144
G1 X-107.4452 Y191.6889
G1 X-103.6912 Y190.0156
G1 X-100.1704 Y188.4494
G1 X-96.8685 Y186.9837
G1 X-93.7719 Y185.612
G1 X-92.3199 Y184.9699
G1 X-89.5059 Y183.7276
G3 X-89.4234 Y183.6912 I0.6094 J1.2702
G1 X-86.7894 Y182.5311
G1 X-84.3191 Y181.4456
G1 X-83.7399 Y181.1915
G1 X-82.5994 Y180.6916
G1 X-80.3893 Y179.7247
G1 X-78.3163 Y178.8202
G1 X-76.372 Y177.974
G1 X-75.9162 Y177.776
G1 X-74.1209 Y176.9974
G1 X-72.4369 Y176.2692
G1 X-69.2771 Y174.9091
G1 X-67.8935 Y174.3164
G1 X-65.2972 Y173.2099
G1 X-64.7288 Y172.9688
G1 X-64.1779 Y172.7355
G1 X-62.042 Y171.8352
G1 X-60.1707 Y171.0528
G1 X-58.5309 Y170.3732
G3 X-55.6547 Y169.1987 I195.2523 J474.0495
G3 X-55.1141 Y168.9812 I37.4138 J92.179
G3 X-54.0992 Y168.5761 I49.6329 J122.8963
G1 X-53.6545 Y168.4003
G1 X-52.8196 Y168.0733
G1 X-52.4538 Y167.9314
G3 X-52.1104 Y167.7992 I5.9544 J14.9519
G1 X-51.9493 Y167.7375
G1 X-51.3243 Y167.5004
G1 X-51.1874 Y167.4489
G3 X-49.0534 Y166.6832 I23.4084 J61.881
G3 X-47.9685 Y166.3423 I6.9444 J20.2011
G1 X-47.6926 Y166.2676
G3 X-47.4836 Y166.2172 I1.4099 J5.3877
G3 X-47.1658 Y166.1585 I0.6936 J2.8632
G3 X-47.0031 Y166.1459 I0.1905 J1.4047
G3 X-46.9209 Y166.151 I0.0036 J0.6084
G3 X-46.8432 Y166.1784 I-0.0181 J0.1749
G2 X-46.5806 Y166.3293 I0.9944 J-1.4265
G2 X-46.0261 Y166.5541 I2.6271 J-5.6861
G2 X-45.9567 Y166.5787 I0.5576 J-1.4612
G2 X-44.8367 Y166.93 I6.6583 J-19.2645
G2 X-44.2894 Y167.0832 I8.3161 J-28.6522
G2 X-42.1209 Y167.6351 I18.5268 J-68.2627
G1 X-41.6108 Y167.7568
G2 X-37.5812 Y168.6592 I48.6985 J-207.9962
G1 X-36.6978 Y168.8475
G1 X-36.4837 Y168.8927
G2 X-33.0826 Y169.5947 I72.9482 J-344.8255
G1 X-31.5931 Y169.8941
G1 X-31.4184 Y169.9289
G1 X-30.0321 Y170.2036
G2 X-28.7319 Y170.4585 I87.4224 J-442.4633
G1 X-28.1222 Y170.5772
G1 X-25.7592 Y171.0328
G1 X-23.6905 Y171.4262
G1 X-21.8798 Y171.767
G1 X-21.4835 Y171.8412
G2 X-18.4123 Y172.4112 I114.0482 J-605.9451
G1 X-16.1079 Y172.8337
G1 X-15.6757 Y172.9124
G1 X-14.0549 Y173.2065
G1 X-11.6231 Y173.6437
G1 X-9.1903 Y174.0754
G0 Z5.0
G0 X-444.5278 Y280.1246
G1 Z0.0
G2 X-444.5345 Y281.4122 I3.9745 J0.6644
G2 X-444.4043 Y282.011 I4.5621 J-0.6781
G1 X-444.3616 Y282.1553
G2 X-444.1556 Y282.7181 I5.7693 J-1.7927
G2 X-443.6163 Y283.7685 I7.3712 J-3.1216
G2 X-442.9694 Y284.7233 I10.0891 J-6.1383
G2 X-442.2575 Y285.6013 I12.6757 J-9.5495
G2 X-441.5051 Y286.4171 I13.4545 J-11.6552
G2 X-441.4097 Y286.5145 I1.9261 J-1.7899
G2 X-439.8201 Y288.0011 I20.0416 J-19.8374
G2 X-439.016 Y288.6799 I19.7117 J-22.5339
G2 X-438.8153 Y288.8436 I4.7488 J-5.6188
G2 X-437.1839 Y290.1053 I29.3158 J-36.2187
G2 X-435.5597 Y291.2665 I33.9509 J-45.7703
G2 X-435.1612 Y291.54 I17.8529 J-25.5863
G2 X-433.5626 Y292.6 I43.8165 J-64.3494
G1 X-433.3673 Y292.7258
G2 X-430.2162 Y294.6665 I54.8891 J-85.594
G1 X-429.4686 Y295.1058
G2 X-426.4975 Y296.788 I71.3628 J-122.5769
G2 X-426.1468 Y296.9806 I9.6215 J-17.1024
G1 X-425.4497 Y297.3601
G1 X-425.2778 Y297.4531
G1 X-425.1065 Y297.5454
G1 X-424.423 Y297.9115
G1 X-424.2545 Y298.0011
G1 X-423.9186 Y298.1792
G1 X-423.2511 Y298.5304
G1 X-422.922 Y298.7023
G1 X-422.5952 Y298.8723
G1 X-421.9458 Y299.2078
G2 X-421.3054 Y299.5357 I28.7683 J-55.3799
G1 X-421.1477 Y299.6161
G2 X-416.0878 Y302.1157 I108.922 J-214.1152
G1 X-414.9738 Y302.6478
G2 X-412.8092 Y303.6652 I205.5562 J-434.5186
G2 X-411.7919 Y304.1363 I87.1612 J-186.8722
G2 X-411.2985 Y304.3633 I17.1484 J-36.6293
G2 X-407.4009 Y306.1233 I151.6376 J-330.615
G2 X-407.294 Y306.1708 I0.7517 J-1.5479
G2 X-407.1875 Y306.2181 I0.7438 J-1.5319
G2 X-407.0814 Y306.2651 I0.7361 J-1.5164
G2 X-406.9757 Y306.312 I0.7286 J-1.5013
G2 X-406.8703 Y306.3586 I0.7212 J-1.4865
G2 X-406.8179 Y306.3818 I0.4951 J-1.0479
G2 X-406.7655 Y306.405 I0.4926 J-1.0428
G2 X-406.7132 Y306.4281 I0.4902 J-1.0379
G2 X-400.0143 Y309.3183 I168.6235 J-381.6342
G2 X-389.8818 Y313.4525 I194.7798 J-462.9066
G1 X-388.6089 Y313.9535
G1 X-387.494 Y314.3891
G1 X-387.3719 Y314.4366
G1 X-386.4106 Y314.8094
G1 X-385.5689 Y315.1339
G1 X-384.8318 Y315.4166
G1 X-384.1865 Y315.6629
G1 X-383.0564 Y316.0914
G1 X-382.208 Y316.4107
G1 X-382.0488 Y316.4704
G1 X-381.4517 Y316.6934
G1 X-381.2276 Y316.7768
G2 X-379.6576 Y317.3545 I90.821 J-244.376
G0 Z5.0
G0 X-38.9458 Y-8.1264
G1 F2000.0 Z0.0
G1 X-38.945 Y-7.9753
G2 X-38.9447 Y-7.9376 I0.1904 J0.0172
G1 X-38.9285 Y-6.7322
G1 X-38.8894 Y-4.3594
G1 X-38.8079 Y0.2378
G1 X-38.6488 Y8.8575
G1 X-38.3632 Y23.9419
G1 X-37.9277 Y46.5683
G1 X-37.4875 Y69.1946
G0 Z5.0
G0 X-93.6934 Y84.0195
G1 Z0.0
G1 X-117.5415 Y74.1194
G0 Z5.0
G0 X-133.9027 Y93.3097
G1 Z0.0
G1 X-134.1371 Y77.5846
G0 Z5.0
G0 X-152.5374 Y65.8119
G1 Z0.0
G1 X-152.425 Y66.0074
G1 X-152.312 Y66.2016
G2 X-150.3567 Y69.1984 I30.3417 J-17.6607
G1 X-150.2326 Y69.3666
G2 X-149.9819 Y69.6989 I10.1465 J-7.3944
G2 X-149.4702 Y70.3466 I26.5215 J-20.4273
G1 X-149.2114 Y70.6589
G1 X-148.95 Y70.9644
G1 X-148.6859 Y71.2629
G1 X-148.5531 Y71.4092
G1 X-148.4198 Y71.5538
G2 X-147.3124 Y72.6608 I14.7865 J-13.6842
G2 X-146.1662 Y73.6436 I12.9566 J-13.9502
G2 X-144.9881 Y74.4975 I10.4737 J-13.2092
G2 X-139.872 Y76.7315 I8.894 J-13.3935
G2 X-137.4994 Y77.1463 I4.3359 J-17.809
G2 X-136.3786 Y77.2395 I2.2276 J-19.9923
G2 X-134.203 Y77.2648 I1.3841 J-25.489
G2 X-132.1712 Y77.1333 I-0.9299 J-30.1238
G2 X-131.2234 Y77.0291 I-3.0498 J-32.116
G2 X-129.3958 Y76.7635 I-5.2001 J-42.1953
G2 X-127.6938 Y76.4508 I-8.4924 J-51.0219
G2 X-124.529 Y75.7395 I-14.4838 J-71.8315
G1 X-123.8409 Y75.5669
G1 X-123.1755 Y75.3951
G1 X-122.8535 Y75.3103
G1 X-122.2205 Y75.1407
G1 X-122.1439 Y75.1199
G1 X-122.0676 Y75.0992
G1 X-121.9916 Y75.0785
G1 X-121.9159 Y75.0578
G2 X-119.51 Y74.3783 I-41.067 J-150.0026
G1 X-119.2475 Y74.3019
G1 X-118.2147 Y73.9977
G1 X-117.2477 Y73.7085
G1 X-117.1344 Y73.6743
G1 X-117.0221 Y73.6404
G2 X-113.4596 Y72.5486 I-121.6583 J-403.2859
G1 X-110.7907 Y71.7203
G1 X-108.7886 Y71.1004
G1 X-107.286 Y70.6385
G1 X-106.1584 Y70.2946
G1 X-104.4653 Y69.7839
G1 X-103.618 Y69.5312
G1 X-103.512 Y69.4998
G1 X-103.1411 Y69.39
G1 X-102.7701 Y69.2806
G1 X-102.3677 Y69.1612
G1 X-101.969 Y69.0408
G1 X-101.5738 Y68.9194
G1 X-101.1821 Y68.7972
G2 X-95.0476 Y66.6111 I-25.4736 J-81.181
G1 X-94.7157 Y66.4774
G1 X-94.3868 Y66.3434
G1 X-94.061 Y66.209
G2 X-88.9707 Y63.8868 I-30.4395 J-73.464
G2 X-84.6465 Y61.5473 I-34.0608 J-68.1217
G1 X-84.4136 Y61.4105
G1 X-84.1831 Y61.2738
G1 X-83.9548 Y61.1374
G1 X-83.7288 Y61.0011
G1 X-83.5049 Y60.8651
G1 X-83.2833 Y60.7292
G1 X-83.0639 Y60.5936
G1 X-82.8466 Y60.4582
G1 X-82.6315 Y60.323
G1 X-82.4186 Y60.1881
G1 X-82.2077 Y60.0534
G1 X-81.9989 Y59.9189
G1 X-81.7922 Y59.7848
G1 X-81.5876 Y59.6509
G1 X-81.3849 Y59.5173
G1 X-81.1844 Y59.3839
G1 X-80.9858 Y59.2509
G1 X-80.7892 Y59.1182
G1 X-80.5946 Y58.9857
G1 X-80.4019 Y58.8536
G1 X-80.2112 Y58.7218
G1 X-80.0224 Y58.5904
G1 X-79.8354 Y58.4592
G1 X-79.6504 Y58.3284
G1 X-79.4673 Y58.198
G2 X-76.625 Y56.0379 I-33.7402 J-47.3474
G1 X-76.4728 Y55.9144
G1 X-76.3222 Y55.7914
G1 X-76.1731 Y55.6687
G1 X-76.0256 Y55.5465
G1 X-75.8796 Y55.4247
G1 X-75.7352 Y55.3033
G1 X-75.5922 Y55.1824
G1 X-75.4508 Y55.0619
G2 X-73.2637 Y53.0838 I-32.2015 J-37.8022
G2 X-72.3413 Y52.1754 I-28.2413 J-29.5975
G2 X-70.681 Y50.4003 I-30.4637 J-30.157
G2 X-69.9856 Y49.5917 I-31.6878 J-27.9592
G2 X-68.7424 Y48.0225 I-27.241 J-22.8566
G1 X-68.4819 Y47.6691
G1 X-68.2338 Y47.3234
G2 X-66.4814 Y44.5296 I-23.0328 J-16.3938
G2 X-65.4124 Y42.2877 I-18.8376 J-10.3576
G2 X-65.0826 Y41.4135 I-14.5501 J-5.9879
G2 X-65.0166 Y41.2198 I-6.0465 J-2.1714
G2 X-64.5891 Y39.6935 I-14.6692 J-4.9315
G2 X-64.3816 Y38.5213 I-12.4497 J-2.8084
G2 X-64.2964 Y36.738 I-10.6526 J-1.4022
G2 X-64.3245 Y36.2919 I-9.6693 J0.3838
G2 X-64.5438 Y34.9699 I-8.5586 J0.7407
G0 Z5.0
G0 X-46.3469 Y-32.8899
G1 Z0.0
G2 X-46.798 Y-31.1569 I5.9652 J2.4783
G2 X-46.8041 Y-29.5082 I7.4352 J0.8516
G2 X-46.5145 Y-28.0048 I9.1541 J-0.984
G2 X-46.0416 Y-26.6568 I10.9726 J-3.0917
G2 X-45.4587 Y-25.4542 I12.3784 J-5.257
G2 X-44.0837 Y-23.3639 I14.03 J-7.7323
G2 X-42.6444 Y-21.7128 I15.165 J-11.7659
G2 X-39.717 Y-19.2371 I14.6412 J-14.3439
G2 X-37.2366 Y-17.7634 I11.1858 J-16.0028
G2 X-35.2396 Y-16.9171 I7.6566 J-15.2888
G2 X-33.6768 Y-16.4575 I5.2618 J-15.0057
G2 X-31.2588 Y-16.1097 I3.0913 J-12.9105
G2 X-28.8205 Y-16.2578 I0.5515 J-11.0678
G0 Z5.0
G0 X-161.0386 Y60.563
G1 Z0.0
G1 X-160.7103 Y60.6051
G1 X-160.3831 Y60.6443
G2 X-159.0768 Y60.7745 I5.2553 J-46.1277
G2 X-156.499 Y60.9131 I3.6898 J-44.5778
G2 X-154.0024 Y60.9087 I1.1623 J-49.0753
G2 X-152.7957 Y60.8611 I-1.8846 J-63.0669
G2 X-150.426 Y60.6868 I-2.6431 J-52.123
G2 X-148.1415 Y60.4233 I-5.0573 J-53.8837
G2 X-143.753 Y59.6766 I-8.8542 J-65.3039
G2 X-142.7332 Y59.4609 I-22.8061 J-110.3501
G1 X-142.4828 Y59.4056
G2 X-138.5182 Y58.4145 I-16.963 J-76.2818
G1 X-138.2876 Y58.3504
G1 X-138.0581 Y58.2859
G1 X-137.8296 Y58.221
G1 X-137.6022 Y58.1558
G2 X-134.0028 Y57.0383 I-25.3823 J-88.1116
G1 X-133.584 Y56.8983
G2 X-127.0182 Y54.4495 I-36.1778 J-107.0279
G2 X-121.3965 Y52.0077 I-50.8945 J-124.8692
G2 X-121.2443 Y51.9376 I-1.3735 J-3.1799
G2 X-116.4337 Y49.6178 I-66.1471 J-143.319
G2 X-115.3915 Y49.0901 I-109.4234 J-217.4305
G1 X-114.3851 Y48.5726
G2 X-106.6881 Y44.3704 I-98.1293 J-188.8892
G1 X-106.3314 Y44.1659
G2 X-103.5348 Y42.536 I-117.9397 J-205.5741
G1 X-102.3176 Y41.8124
G2 X-102.2463 Y41.7697 I-0.4383 J-0.8138
G2 X-102.1753 Y41.7273 I-0.4364 J-0.8098
G2 X-102.1046 Y41.6849 I-0.4345 J-0.8058
G1 X-100.9805 Y41.0082
G1 X-99.9292 Y40.3694
G1 X-99.4372 Y40.0687
G1 X-98.9611 Y39.7765
G2 X-98.5003 Y39.4927 I-39.6159 J-64.8516
G1 X-97.6087 Y38.9411
G1 X-96.7742 Y38.4218
G1 X-95.9929 Y37.9332
G1 X-94.5305 Y37.0132
G1 X-93.253 Y36.2047
G1 X-91.0203 Y34.7853
G1 X-90.1832 Y34.2527
G1 X-88.7171 Y33.3226
G3 X-88.1664 Y32.975 I30.5354 J47.7758
G3 X-86.2318 Y31.7707 I137.5444 J218.7833
G3 X-84.2728 Y30.6061 I37.343 J60.5886
G1 X-81.7637 Y30.3881
G1 X-80.5861 Y30.2899
G1 X-80.0153 Y30.244
G1 X-78.891 Y30.1583
G3 X-77.8008 Y30.0821 I8.9376 J120.0189
G3 X-77.6688 Y30.0734 I0.3804 J4.7713
G3 X-73.4543 Y29.8763 I6.8634 J101.6016
G3 X-72.5304 Y29.8586 I1.4591 J52.1046
G1 X-72.0829 Y29.854
G3 X-68.5586 Y29.9191 I0.5543 J65.3664
G3 X-65.4815 Y30.147 I-2.6396 J56.5363
G3 X-60.1503 Y30.9964 I-4.879 J47.7778
G3 X-58.182 Y31.4736 I-8.9945 J41.3969
G1 X-58.075 Y31.5022
G3 X-51.4507 Y33.8446 I-12.0028 J44.4826
G1 X-51.0493 Y34.0237
G1 X-50.6745 Y34.1949
G3 X-47.9106 Y35.5753 I-22.1449 J47.7961
G3 X-47.2328 Y35.9458 I-26.4486 J49.1936
G1 X-46.98 Y36.0872
G1 X-46.5394 Y36.3379
G3 X-45.8828 Y36.7214 I-25.7294 J44.8062
G1 X-45.5564 Y36.9164
G1 X-45.2313 Y37.1137
G1 X-45.0716 Y39.3709
G1 X-44.9274 Y41.4875
G1 X-44.8626 Y42.4798
G1 X-44.802 Y43.4412
G3 X-44.5965 Y47.1684 I-257.9433 J16.0882
G3 X-44.4663 Y50.4319 I-240.3392 J11.224
G1 X-44.4549 Y50.7891
G1 X-44.4144 Y52.195
G1 X-44.4059 Y52.5246
G1 X-44.375 Y53.8223
G3 X-44.3716 Y53.9744 I-3.6786 J0.1575
G3 X-44.3683 Y54.1253 I-3.73 J0.1569
G1 X-44.3436 Y55.323
G1 X-44.3223 Y56.446
G1 X-44.2855 Y58.5514
G1 X-44.2552 Y60.3938
G1 X-44.1507 Y66.842
G1 X-44.1373 Y67.648
G1 X-44.0396 Y73.2901
G0 Z5.0
G0 X22.655 Y128.1235
G1 Z0.0
G3 X18.233 Y126.8594 I42.5811 J-157.317
G1 X17.975 Y126.7816
G3 X13.8795 Y125.4903 I52.9009 J-174.9197
G1 X13.6404 Y125.4117
G3 X9.8453 Y124.1175 I65.1144 J-197.1523
G3 X2.8005 Y121.4941 I71.0276 J-201.5096
G1 X2.4179 Y121.3437
G1 X2.0385 Y121.1938
G1 X1.6623 Y121.0444
G3 X-4.2738 Y118.5879 I92.0284 J-230.7815
G3 X-9.4145 Y116.3143 I97.9274 J-228.3667
G1 X-10.5324 Y115.8024
G3 X-19.1181 Y111.6688 I119.9772 J-260.1827
G1 X-19.9159 Y111.2668
G3 X-32.1272 Y104.7403 I140.0482 J-276.721
G3 X-35.1345 Y103.0256 I182.2885 J-323.1976
G1 X-36.2574 Y102.3743
G1 X-37.2379 Y101.8008
G3 X-44.0446 Y97.6915 I159.9961 J-272.7062
G0 Z5.0
G0 X-122.2717 Y117.8149
G1 Z0.0
G1 X-58.8542 Y89.0884
G0 Z5.0
G0 X-125.8775 Y110.4938
G1 Z0.0
G1 X-127.1465 Y76.9285
G0 Z5.0
G0 X-124.7661 Y129.2697
G1 Z0.0
G1 X-51.1509 Y95.6066
G0 Z5.0
G0 X-96.4573 Y135.7363
G1 F2000.0 Z0.0
G3 X-96.9003 Y135.658 I0.2057 J-2.4562
G3 X-97.3281 Y135.5188 I1.2917 J-4.6955
G3 X-98.1424 Y135.1415 I2.3396 J-6.1173
G3 X-99.6233 Y134.1416 I4.3186 J-7.9929
G3 X-100.4838 Y133.318 I4.994 J-6.0789
G3 X-100.9077 Y132.7844 I4.2983 J-3.8504
G3 X-101.105 Y132.4787 I2.9914 J-2.1469
G3 X-101.4475 Y131.7174 I3.0312 J-1.8212
G3 X-101.5418 Y131.2785 I2.745 J-0.8197
G3 X-101.4109 Y130.2342 I2.0779 J-0.2699
G3 X-101.1282 Y129.7283 I2.0848 J0.8331
G3 X-100.7036 Y129.2614 I2.4766 J1.8262
G3 X-100.1623 Y128.8477 I2.8075 J3.1114
G3 X-99.5302 Y128.4877 I3.5066 J5.4227
G3 X-98.8282 Y128.1772 I3.5511 J7.0799
G1 X-98.6469 Y128.1078
G3 X-97.8795 Y127.8509 I4.9496 J13.5118
G1 X-97.6834 Y127.7933
G1 X-97.4846 Y127.7378
G1 X-97.3843 Y127.7109
G3 X-95.6071 Y127.3247 I5.5406 J21.2176
G3 X-93.6852 Y127.0482 I5.8207 J33.6406
G3 X-92.7078 Y126.9472 I4.6217 J39.934
G3 X-90.7221 Y126.8038 I4.6054 J49.949
G1 X-90.473 Y126.7908
G3 X-89.464 Y126.7478 I2.4289 J45.2262
G1 X-88.9551 Y126.7318
G3 X-84.5599 Y128.2553 I-32.8444 J101.856
G3 X-80.2287 Y129.9524 I-47.0759 J126.5136
G1 X-79.9513 Y130.0669
G1 X-79.6651 Y130.1857
G1 X-79.37 Y130.309
G1 X-79.0656 Y130.4368
G1 X-78.7516 Y130.5694
G1 X-78.4279 Y130.7069
G1 X-78.0939 Y130.8496
G1 X-77.3826 Y131.1563
G1 X-76.6253 Y131.4867
G3 X-75.819 Y131.8426 I-49.6796 J113.642
G1 X-75.6144 Y131.9335
G1 X-75.4067 Y132.0261
G1 X-75.1957 Y132.1204
G1 X-74.9815 Y132.2164
G1 X-74.7641 Y132.3142
G1 X-73.8375 Y132.7335
G1 X-72.8508 Y133.1846
G1 X-72.6005 Y133.2998
G1 X-71.5336 Y133.7934
G1 X-70.3972 Y134.3234
G1 X-69.1866 Y134.8918
G1 X-69.0341 Y134.9636
G1 X-68.8804 Y135.036
G1 X-67.57 Y135.6547
G1 X-64.5755 Y137.0698
G1 X-62.9766 Y137.8202
G1 X-62.1502 Y138.2052
G1 X-61.2961 Y138.6003
G1 X-60.8618 Y138.8
G1 X-60.6428 Y138.9003
G1 X-60.422 Y139.0012
G2 X-56.3632 Y140.7985 I74.4881 J-162.7314
G2 X-54.1769 Y141.7072 I57.2748 J-134.7224
G3 X-53.3914 Y142.4467 I-6.6465 J7.8463
G3 X-52.7182 Y143.2897 I-4.1935 J4.0389
G3 X-52.3926 Y143.9331 I-2.7729 J1.8077
G3 X-52.2865 Y144.3335 I-2.0357 J0.7535
G3 X-52.4794 Y145.4403 I-1.6298 J0.2861
G3 X-52.8915 Y145.9588 I-1.9427 J-1.1211
G3 X-53.4951 Y146.4154 I-2.4314 J-2.5875
G3 X-54.252 Y146.8034 I-2.982 J-4.8833
G3 X-55.1432 Y147.1312 I-3.4799 J-8.0869
G3 X-56.1563 Y147.4038 I-3.9656 J-12.7197
G1 X-56.2857 Y147.433
G3 X-57.4151 Y147.6452 I-4.2431 J-19.4725
G3 X-60.0822 Y147.9179 I-3.9837 J-25.7747
G3 X-63.3073 Y147.917 I-1.6035 J-30.239
G3 X-65.0824 Y147.749 I1.2375 J-22.542
G3 X-65.5342 Y147.6789 I4.1346 J-28.1384
G3 X-66.4764 Y147.4748 I1.7051 J-10.1472
G3 X-66.9486 Y147.3236 I1.4766 J-5.4241
G2 X-70.8044 Y145.8295 I-126.9959 J322.0171
G1 X-72.0931 Y145.3403
G1 X-72.8301 Y145.062
G1 X-73.6725 Y144.7448
G1 X-75.9201 Y143.9019
G2 X-75.991 Y143.8754 I-0.4188 J1.0108
G2 X-76.0624 Y143.8487 I-0.424 J1.024
G1 X-76.6714 Y143.6207
G3 X-79.9191 Y142.4044 I578.6636 J-1550.0551
G1 X-81.7739 Y141.7065
G1 X-83.8917 Y140.9036
G1 X-84.4377 Y140.6951
G1 X-84.715 Y140.589
G3 X-87.2468 Y139.6104 I174.7707 J-455.9385
G1 X-87.8991 Y139.3549
G1 X-87.9809 Y139.3227
G1 X-88.6561 Y139.0562
G1 X-89.3523 Y138.7792
G3 X-89.5276 Y138.7091 I2.0732 J-5.4375
G1 X-89.8836 Y138.5662
G1 X-90.6179 Y138.2692
G1 X-90.9904 Y138.1173
G1 X-91.7584 Y137.8012
G1 X-92.148 Y137.6392
G1 X-92.9507 Y137.3014
G3 X-94.6554 Y136.5624 I46.4295 J-109.4289
G3 X-96.4573 Y135.7363 I29.7729 J-67.3196
G0 Z5.0
G0 X-31.6125 Y67.4614
G1 Z0.0
G2 X-31.6066 Y67.2905 I-4.159 J-0.2282
G1 X-31.5883 Y66.6124
G1 X-31.5753 Y65.9554
G1 X-31.557 Y64.6824
G1 X-31.5447 Y63.4888
G1 X-31.5286 Y61.2508
G1 X-31.5104 Y57.3343
G1 X-31.4988 Y54.3969
G1 X-31.4886 Y52.1938
G1 X-31.4863 Y51.7807
G1 X-31.4762 Y50.2317
G3 X-31.4759 Y50.1953 I0.2761 J-0.0161
G3 X-31.4757 Y50.1592 I0.2736 J-0.016
G1 X-31.4657 Y49.0157
G1 X-31.4562 Y48.158
G1 X-31.4542 Y47.9971
G1 X-31.4455 Y47.394
G1 X-31.4284 Y46.4895
G3 X-31.401 Y45.5853 I50.9015 J1.0874
G1 X-31.39 Y45.406
G3 X-31.3552 Y45.0582 I9.2798 J0.754
G3 X-31.2226 Y44.4115 I3.8598 J0.4543
G3 X-30.9923 Y43.8779 I2.2335 J0.6476
G3 X-30.6656 Y43.4973 I1.2658 J0.7559
G3 X-30.2935 Y43.2815 I0.8711 J1.0737
G3 X-29.9345 Y43.1844 I0.6768 J1.7893
G3 X-29.612 Y43.1525 I0.4101 J2.5007
G3 X-29.0468 Y43.1738 I0.1324 J3.9983
G1 X-29.0204 Y43.1765
G1 X-28.9944 Y43.1793
G1 X-28.7906 Y43.2048
G1 X-28.613 Y43.2317
G1 X-28.5741 Y43.238
G3 X-27.9759 Y43.3535 I-2.2581 J13.3074
G1 X-27.8271 Y43.3859
G1 X-27.3818 Y43.488
G1 X-27.1841 Y43.5535
G1 X-26.9884 Y43.6199
G3 X-25.4504 Y44.189 I-11.3961 J33.156
G1 X-25.2718 Y44.2597
G1 X-24.9182 Y44.4021
G3 X-22.1648 Y45.5975 I-28.113 J68.5248
G1 X-21.8664 Y45.7343
G1 X-21.2803 Y46.0065
G1 X-20.7139 Y46.2732
G3 X-18.5302 Y47.33 I-76.5258 J160.9058
G3 X-14.7368 Y49.2364 I-160.2247 J323.5595
G1 X-13.3188 Y49.9605
G1 X-12.6986 Y50.2777
G1 X-11.5356 Y50.8721
G1 X-11.0264 Y51.1317
G1 X-10.0709 Y51.6166
G1 X-9.2335 Y52.0385
G1 X-9.0501 Y52.1304
G1 X-8.3385 Y52.4845
G1 X-8.0266 Y52.6385
G1 X-7.7339 Y52.7821
G1 X-7.4592 Y52.9161
G1 X-7.2013 Y53.0411
G2 X-5.2544 Y53.9512 I31.5824 J-65.0267
G1 X-4.7626 Y54.1679
G2 X-4.0193 Y54.48 I10.6029 J-24.2139
G2 X-3.2669 Y54.7692 I7.6498 J-18.7744
G0 Z5.0
G0 X10.324 Y3.7768
G1 Z0.0
G2 X10.4934 Y5.4659 I9.2193 J-0.0714
G2 X11.6412 Y8.381 I8.6277 J-1.7136
G2 X12.0152 Y8.9444 I7.1575 J-4.3454
G2 X12.839 Y9.958 I8.3782 J-5.9677
G2 X13.7074 Y10.8153 I8.919 J-8.1666
G1 X13.9218 Y11.0036
G1 X14.1364 Y11.1846
G2 X15.9325 Y12.4703 I10.5946 J-12.9029
G2 X16.7631 Y12.9614 I10.3748 J-16.5983
G2 X18.3733 Y13.7833 I11.6735 J-20.8809
G1 X18.7329 Y13.9476
G1 X19.0835 Y14.1018
G2 X21.858 Y15.1517 I13.1847 J-30.6517
G2 X21.9241 Y15.1736 I0.2737 J-0.7176
G1 X22.4493 Y15.3426
G2 X24.4373 Y15.9161 I12.8078 J-40.6598
G2 X25.9433 Y16.2903 I13.665 J-51.7763
G1 X26.2269 Y16.3557
G1 X26.7593 Y16.4744
G2 X27.2261 Y16.5743 I4.8015 J-21.296
G2 X28.8651 Y16.8974 I14.9971 J-71.7427
G1 X28.9678 Y16.9164
G1 X29.0642 Y16.9341
G2 X30.5101 Y17.1893 I50.8719 J-284.0
G0 Z5.0
G0 X38.1939 Y0.4757
G1 Z0.0
G3 X38.2956 Y0.2522 I2.1299 J0.8345
G1 X38.3506 Y0.1435
G3 X38.3645 Y0.1165 I0.2451 J0.1094
G1 X38.4778 Y-0.0975
G3 X39.4289 Y-1.7683 I50.7469 J27.7829
G1 X39.8865 Y-2.5446
G1 X40.1095 Y-2.9198
G1 X40.3297 Y-3.2888
G1 X40.384 Y-3.3796
G3 X40.8174 Y-4.1021 I99.6983 J59.3228
G1 X41.6616 Y-5.4994
G1 X42.4567 Y-6.8071
G1 X43.2046 Y-8.0316
G1 X43.5559 Y-8.6052
G1 X44.2375 Y-9.7159
G3 X49.3785 Y-18.0274 I1748.3761 J1075.6974
G1 X49.701 Y-18.5461
G1 X52.1238 Y-22.434
G1 X52.7305 Y-23.4055
G1 X54.5528 Y-26.3181
G0 Z5.0
G0 X54.7082 Y-26.5426
G1 Z0.0
G1 X54.2162 Y-26.8832
G1 X53.5229 Y-27.3655
G1 X53.3928 Y-27.4559
G1 X52.9045 Y-27.7939
G1 X52.1693 Y-28.2969
G1 X51.9848 Y-28.4216
G1 X51.8462 Y-28.5148
G2 X51.4291 Y-28.7924 I-17.9863 J26.5754
G3 X50.2109 Y-29.4805 I4.1347 J-8.7423
G3 X49.1273 Y-30.2823 I7.0606 J-10.6743
G3 X48.1568 Y-31.1508 I9.885 J-12.0227
G3 X46.4616 Y-33.0146 I14.5294 J-14.9187
G1 X46.2768 Y-33.2452
G3 X44.9012 Y-35.1441 I22.9378 J-18.0654
G1 X44.7495 Y-35.3739
G3 X44.1666 Y-36.2985 I23.1934 J-15.2699
G3 X42.1676 Y-40.0359 I34.0818 J-20.6324
G3 X39.5629 Y-47.0216 I41.359 J-19.3997
G3 X39.5388 Y-47.1071 I1.8768 J-0.5745
G1 X39.4446 Y-47.448
G3 X38.8003 Y-50.1592 I42.5465 J-11.543
G3 X38.3883 Y-52.5774 I37.9771 J-7.7161
G1 X38.3526 Y-52.8449
G3 X38.2885 Y-53.3724 I19.2043 J-2.6022
G1 X38.2341 Y-53.8851
G1 X38.189 Y-54.383
G3 X38.0907 Y-56.3197 I27.8854 J-2.3865
G3 X38.0879 Y-56.5328 I5.3535 J-0.1777
G3 X38.0867 Y-56.7427 I4.9721 J-0.132
G3 X38.0873 Y-56.9494 I4.6766 J-0.0919
G3 X38.1514 Y-58.5761 I25.8393 J0.2042
G3 X38.1654 Y-58.7543 I3.5596 J0.1895
G3 X38.3287 Y-60.1524 I19.2191 J1.5375
G3 X38.3528 Y-60.305 I4.2419 J0.5903
G3 X38.9155 Y-62.6694 I15.5633 J2.4544
G3 X39.6058 Y-64.3648 I11.5875 J3.7301
G3 X40.3026 Y-65.5511 I9.2046 J4.6082
G3 X41.6571 Y-67.1059 I7.2318 J4.9333
G3 X43.3516 Y-68.281 I5.4547 J6.0562
G3 X45.2561 Y-68.5551 I3.1181 J14.9121
G3 X46.1821 Y-68.6087 I1.489 J17.6975
G3 X46.6378 Y-68.6192 I0.5921 J15.794
G1 X46.8638 Y-68.6209
G3 X47.7637 Y-68.6054 I-0.0327 J28.1068
G3 X47.9848 Y-68.5965 I-0.0928 J5.0812
G1 X48.425 Y-68.5733
G1 X48.8611 Y-68.5434
G1 X48.9692 Y-68.5349
G3 X50.6896 Y-68.3487 I-2.5516 J31.6179
G3 X53.9864 Y-67.7607 I-5.6193 J41.044
G1 X54.3691 Y-67.6755
G3 X57.3823 Y-66.8981 I-12.0016 J52.7474
G1 X57.4699 Y-66.8728
G1 X57.5573 Y-66.8475
G3 X63.0612 Y-64.9903 I-20.0081 J68.3768
G1 X63.2096 Y-64.9335
G3 X64.3881 Y-64.471 I-34.9132 J90.6988
G3 X68.8891 Y-62.5197 I-33.4824 J83.3982
G3 X76.5086 Y-58.5615 I-42.2939 J90.7293
G3 X76.5959 Y-58.5112 I-1.444 J2.6082
G3 X76.6829 Y-58.461 I-1.4108 J2.5444
G3 X82.1127 Y-55.0799 I-47.1586 J81.784
G3 X86.0234 Y-52.2944 I-47.7423 J71.1652
G1 X86.2028 Y-52.1581
G1 X86.3789 Y-52.0234
G3 X87.7516 Y-50.9446 I-41.2746 J53.9334
G3 X90.0862 Y-48.9731 I-42.1994 J52.3378
G3 X90.1398 Y-48.9255 I-0.4794 J0.5937
G3 X90.1929 Y-48.8782 I-0.4769 J0.589
G3 X90.2455 Y-48.8312 I-0.4744 J0.5844
G3 X91.8848 Y-47.3058 I-37.1695 J41.5856
G3 X94.2073 Y-44.8794 I-30.54 J31.5572
G3 X94.242 Y-44.84 I-0.3712 J0.3623
G3 X94.2762 Y-44.8012 I-0.3681 J0.3582
G3 X94.3098 Y-44.7629 I-0.3651 J0.354
G3 X94.3428 Y-44.7251 I-0.3621 J0.3499
G3 X94.3752 Y-44.6879 I-0.3591 J0.3459
G3 X94.6286 Y-44.3938 I-13.4349 J11.8329
G3 X94.6562 Y-44.3615 I-0.3322 J0.3107
G3 X94.6832 Y-44.3296 I-0.3295 J0.3072
G3 X94.7099 Y-44.2982 I-0.3268 J0.3038
G3 X96.3026 Y-42.2545 I-23.4403 J19.9112
G3 X99.9526 Y-36.0132 I-33.2409 J23.6272
G3 X101.0561 Y-33.4183 I-33.1858 J15.6447
G3 X101.8626 Y-31.0411 I-30.9265 J11.8178
G3 X101.9409 Y-30.773 I-13.0873 J3.9706
G3 X102.4695 Y-28.6342 I-26.6728 J7.7262
G3 X102.7874 Y-26.7016 I-23.147 J4.8005
G3 X102.8745 Y-25.8368 I-19.3529 J2.3863
G1 X102.8897 Y-25.6325
G3 X102.9282 Y-24.0175 I-17.7402 J1.2315
G3 X102.8236 Y-22.5932 I-13.3637 J-0.2657
G3 X102.5982 Y-21.3541 I-10.8083 J-1.3263
G1 X102.5292 Y-21.0858
G3 X102.1864 Y-20.0678 I-8.5116 J-2.2996
G3 X101.995 Y-19.6369 I-6.5349 J-2.6448
G3 X101.7909 Y-19.2445 I-6.4159 J-3.0874
G3 X100.8024 Y-17.9177 I-5.3767 J-2.9744
G3 X98.7287 Y-16.58 I-4.0453 J-3.9947
G3 X97.5342 Y-16.2545 I-2.4208 J-6.5293
G3 X96.3026 Y-16.1286 I-1.4781 J-8.3718
G1 X95.8495 Y-16.2616
G1 X94.9571 Y-16.5224
G1 X94.092 Y-16.7732
G2 X93.8824 Y-16.8337 I-3.6127 J12.1303
G2 X92.2172 Y-17.309 I-76.1772 J263.7376
G1 X91.4357 Y-17.5285
G2 X89.9194 Y-17.9471 I-47.3565 J168.6133
G1 X89.2075 Y-18.1398
G2 X86.4423 Y-18.8614 I-42.5981 J157.5707
G2 X84.0124 Y-19.4538 I-32.1755 J126.6997
G2 X83.9458 Y-19.4694 I-0.3541 J1.3609
G2 X83.8794 Y-19.4849 I-0.3516 J1.3541
G2 X83.8133 Y-19.5004 I-0.3492 J1.3473
G2 X79.5827 Y-20.4061 I-26.5611 J113.7315
G2 X79.483 Y-20.4253 I-0.3212 J1.3981
G2 X79.3841 Y-20.4443 I-0.3174 J1.3884
G2 X76.2355 Y-20.9885 I-17.0268 J89.1265
G2 X75.0494 Y-21.1608 I-12.5285 J82.0699
G2 X70.878 Y-21.5976 I-8.5057 J61.0883
G2 X66.6854 Y-21.7127 I-3.3994 J47.4105
G3 X64.5356 Y-21.8503 I-0.2436 J-13.063
G3 X62.7009 Y-22.2515 I2.0386 J-13.7165
G3 X62.6026 Y-22.2803 I0.4482 J-1.7101
G3 X61.0695 Y-22.8235 I4.6424 J-15.5392
G3 X59.7755 Y-23.4114 I6.949 J-17.0113
G3 X59.2228 Y-23.6956 I13.2693 J-26.4936
G1 X58.9663 Y-23.8336
G3 X57.9867 Y-24.3938 I14.0968 J-25.7861
G1 X57.5646 Y-24.6498
G1 X57.172 Y-24.8949
G3 X56.443 Y-25.3653 I37.399 J-58.7531
G1 X56.2846 Y-25.4699
G1 X55.6737 Y-25.8793
G1 X55.1422 Y-26.2422
G1 X54.7082 Y-26.5426
G0 Z5.0
G0 X21.9766 Y-5.1647
G1 Z0.0
G3 X22.1463 Y-5.4018 I3.2647 J2.1574
G1 X22.2334 Y-5.5172
G3 X22.9405 Y-6.4271 I53.8012 J41.0776
G3 X24.3279 Y-8.1763 I246.6757 J194.2397
G1 X24.6544 Y-8.5852
G1 X25.9422 Y-10.1934
G3 X28.3633 Y-13.2038 I1873.5366 J1504.3464
G3 X30.4857 Y-15.8346 I805.8162 J647.9037
G1 X30.7181 Y-16.1223
G3 X31.633 Y-17.2547 I372.5599 J300.0867
G1 X35.0667 Y-21.4985
G1 X40.2233 Y-27.8594
G1 X42.8038 Y-31.0381
G1 X43.1265 Y-31.4354
G1 X45.3856 Y-34.2157
G0 Z5.0
G0 X47.8954 Y30.7676
G1 Z0.0
G2 X46.9816 Y29.5775 I-15.6335 J11.0587
G1 X46.7544 Y29.3098
G2 X44.8272 Y27.33 I-18.6056 J16.1831
G1 X44.7161 Y27.2278
G1 X44.6053 Y27.1269
G1 X44.4949 Y27.0274
G2 X42.6883 Y25.5116 I-24.2262 J27.0409
G2 X41.0436 Y24.2664 I-32.5874 J41.3339
G2 X40.3108 Y23.7394 I-27.2893 J37.1665
G2 X40.2245 Y23.6781 I-1.628 J2.2041
G2 X37.4553 Y21.7775 I-81.7865 J116.1931
G1 X36.9324 Y21.4258
G1 X35.9522 Y20.7656
G1 X35.097 Y20.1839
G3 X34.7242 Y19.9273 I84.6194 J-123.3239
G3 X34.6805 Y19.8971 I0.2863 J-0.4604
G3 X34.6372 Y19.8671 I0.284 J-0.4562
G3 X34.5943 Y19.8373 I0.2818 J-0.4521
G3 X34.5517 Y19.8077 I0.2796 J-0.4481
G3 X34.5094 Y19.7783 I0.2775 J-0.4441
G3 X34.4675 Y19.7492 I0.2754 J-0.4402
G3 X34.426 Y19.7202 I0.2733 J-0.4363
G3 X34.3847 Y19.6914 I0.2712 J-0.4325
G3 X34.3439 Y19.6628 I0.2692 J-0.4287
G3 X33.0587 Y18.7406 I30.0993 J-43.2998
G1 X32.8208 Y18.5633
G3 X32.378 Y18.2263 I15.9164 J-21.3695
G3 X31.6166 Y17.6194 I15.668 J-20.4366
G3 X31.476 Y17.5027 I3.9846 J-4.9421
G1 X31.2148 Y17.2812
G1 X31.1016 Y17.1831
G1 X30.8911 Y16.9971
G3 X30.1764 Y16.3221 I12.8573 J-14.3293
G3 X29.5067 Y15.6022 I8.8216 J-8.8779
G3 X29.9588 Y14.5605 I73.99 J31.494
G3 X30.775 Y12.7483 I94.5157 J41.4787
G1 X31.09 Y12.0727
G3 X31.6545 Y10.8968 I64.3536 J30.1646
G3 X31.7083 Y10.7869 I2.2175 J1.0192
G3 X31.7607 Y10.6806 I2.1552 J0.9948
G3 X31.8115 Y10.5777 I2.097 J0.972
G3 X32.6208 Y8.9936 I54.4851 J26.8383
G1 X32.8305 Y8.6014
G1 X32.9901 Y8.3086
G1 X33.2342 Y7.8718
G3 X33.4866 Y7.4398 I11.1858 J6.2457
G0 Z5.0
G0 X-96.3804 Y-65.4322
G1 Z0.0
G1 X-96.7931 Y-65.8321
G1 X-97.2036 Y-66.228
G2 X-103.8429 Y-72.3845 I-169.0683 J175.6678
G2 X-109.8633 Y-77.5714 I-145.3293 J162.5997
G1 X-110.1991 Y-77.8494
G1 X-110.5329 Y-78.1247
G2 X-113.2036 Y-80.2836 I-119.6613 J145.2964
G1 X-113.836 Y-80.7833
G1 X-114.4607 Y-81.2727
G1 X-114.7691 Y-81.5127
G2 X-115.9984 Y-82.4585 I-123.9784 J159.8613
G2 X-118.4058 Y-84.2604 I-114.6543 J150.6765
G2 X-118.477 Y-84.3126 I-1.612 J2.1219
G2 X-118.548 Y-84.3647 I-1.5951 J2.1014
G2 X-118.6189 Y-84.4166 I-1.5785 J2.0813
G2 X-118.6897 Y-84.4684 I-1.5624 J2.0619
G2 X-118.7604 Y-84.52 I-1.5467 J2.043
G2 X-123.337 Y-87.7325 I-89.0172 J121.951
G2 X-123.4007 Y-87.7753 I-0.9505 J1.3446
G2 X-123.4642 Y-87.818 I-0.9454 J1.3389
G2 X-125.5058 Y-89.1607 I-83.5036 J124.741
G2 X-125.5661 Y-89.1995 I-0.8002 J1.1772
G2 X-129.4649 Y-91.5992 I-58.5415 J90.7457
G2 X-132.9687 Y-93.5603 I-46.5488 J79.0554
G2 X-134.5318 Y-94.3705 I-45.9714 J86.7833
G1 X-134.9009 Y-94.5557
G1 X-135.2653 Y-94.7361
G2 X-138.169 Y-96.0869 I-33.056 J67.2597
G2 X-140.7649 Y-97.1546 I-24.8942 J56.8345
G1 X-141.0522 Y-97.2641
G2 X-143.3359 Y-98.0687 I-19.4018 J51.4305
G1 X-143.841 Y-98.2302
G1 X-144.3321 Y-98.3812
G2 X-148.1942 Y-99.3491 I-11.6708 J38.3788
G2 X-148.9296 Y-99.4856 I-6.4755 J32.8503
G1 X-149.2755 Y-99.544
G2 X-151.9738 Y-99.8657 I-4.9271 J29.8531
G1 X-152.2281 Y-99.883
G2 X-152.7215 Y-99.9097 I-1.0343 J14.5337
G2 X-154.574 Y-99.9253 I-1.1486 J26.3453
G2 X-157.3407 Y-99.6709 I0.5946 J21.6374
G1 X-157.6835 Y-99.6135
G2 X-160.0466 Y-99.0401 I3.2642 J18.6076
G0 Z5.0
G0 X-143.2743 Y-68.1002
G1 Z0.0
G3 X-144.6261 Y-68.7267 I7.0763 J-17.04
G3 X-147.083 Y-70.2366 I9.3043 J-17.8939
G3 X-149.1893 Y-71.9399 I14.2639 J-19.7925
G3 X-150.9973 Y-73.7378 I18.0493 J-19.9594
G3 X-151.7928 Y-74.6386 I20.8365 J-19.2024
G3 X-152.532 Y-75.5421 I21.6528 J-18.4685
G3 X-153.8765 Y-77.3689 I26.3536 J-20.8037
G3 X-155.0368 Y-79.1675 I30.0513 J-20.6604
G3 X-156.9468 Y-82.7264 I34.1607 J-20.6258
G1 X-157.1364 Y-83.1331
G3 X-158.4691 Y-86.4106 I35.6902 J-16.4229
G3 X-159.3984 Y-89.4135 I34.9763 J-12.4684
G3 X-159.4205 Y-89.4979 I0.9348 J-0.2901
G3 X-159.4423 Y-89.5822 I0.9285 J-0.2858
G3 X-159.7619 Y-90.931 I36.3719 J-9.3296
G3 X-160.2075 Y-93.5083 I30.1271 J-6.5355
G3 X-160.3315 Y-94.6609 I27.7348 J-3.568
G3 X-160.4231 Y-96.8438 I24.6139 J-2.1253
G3 X-160.3228 Y-98.7718 I20.2657 J0.0876
G1 X-160.2998 Y-98.9835
G1 X-160.2746 Y-99.1917
G3 X-159.9821 Y-100.8174 I15.3363 J1.9198
G3 X-159.5692 Y-102.2103 I12.6691 J2.9979
G3 X-159.0675 Y-103.3827 I10.3119 J3.7193
G3 X-158.5088 Y-104.3507 I8.66 J4.3537
G3 X-157.9232 Y-105.1347 I7.3241 J4.8596
G3 X-155.2187 Y-107.1926 I5.893 J4.9385
G3 X-153.6041 Y-107.7441 I3.581 J7.8442
G3 X-151.9173 Y-107.9996 I2.4037 J10.176
G3 X-145.1256 Y-107.1351 I-1.5697 J39.4459
G3 X-139.3907 Y-105.4819 I-9.4077 J43.4089
G3 X-139.2375 Y-105.4264 I-1.0784 J3.2144
G3 X-134.4573 Y-103.4038 I-17.9429 J49.0655
G3 X-130.4462 Y-101.285 I-27.3632 J56.6592
G3 X-128.7405 Y-100.2725 I-37.9921 J65.9419
G1 X-128.345 Y-100.0285
G1 X-127.9571 Y-99.7859
G1 X-127.5767 Y-99.5449
G1 X-127.2036 Y-99.3054
G3 X-124.3114 Y-97.3511 I-47.2437 J73.0326
G1 X-123.6892 Y-96.9087
G1 X-123.0898 Y-96.4756
G3 X-120.7962 Y-94.7577 I-71.9155 J98.4058
G3 X-118.8239 Y-93.2098 I-88.0557 J114.2312
G1 X-118.3962 Y-92.8664
G3 X-115.1202 Y-90.1587 I-121.7763 J150.6724
G1 X-114.512 Y-89.6437
G1 X-113.9431 Y-89.1594
G1 X-113.4107 Y-88.7043
G1 X-111.4189 Y-86.992
G1 X-109.925 Y-85.708
G1 X-109.3633 Y-85.228
G1 X-108.8708 Y-84.8093
G1 X-108.6549 Y-84.6266
G1 X-107.8427 Y-83.9446
G1 X-107.6898 Y-83.8173
G1 X-107.5463 Y-83.6982
G1 X-107.2768 Y-83.4756
G1 X-106.8034 Y-83.0883
G2 X-105.3659 Y-81.9478 I45.2039 J-55.5015
G3 X-103.8957 Y-80.7357 I-16.8479 J21.9336
G3 X-102.596 Y-79.5081 I-18.3193 J20.6968
G3 X-100.4115 Y-76.9661 I-16.9284 J16.7567
G3 X-98.8288 Y-74.4968 I-17.145 J12.7309
G3 X-96.9466 Y-69.7352 I-18.095 J9.9057
G3 X-96.3295 Y-65.9462 I-20.8466 J5.3396
G3 X-96.2979 Y-63.0671 I-23.607 J1.6995
G3 X-96.8819 Y-58.791 I-25.5427 J-1.3108
G3 X-97.1391 Y-57.7416 I-25.9098 J-5.7938
G3 X-97.6083 Y-56.1904 I-25.4375 J-6.8475
G1 X-97.7422 Y-55.8079
G3 X-97.9571 Y-55.2392 I-15.1448 J-5.3994
G3 X-98.194 Y-54.6794 I-9.9778 J-3.8929
G0 Z5.0
G0 X-61.7353 Y119.2994
G1 F2000.0 Z0.0
G3 X-62.2591 Y119.199 I0.2143 J-2.534
G1 X-62.429 Y119.1457
G3 X-63.0863 Y118.8754 I1.9995 J-5.7948
G3 X-63.5069 Y118.6579 I3.4867 J-7.2584
G3 X-65.0515 Y117.5786 I4.5846 J-8.2061
G3 X-65.9322 Y116.6826 I4.9293 J-5.7261
G3 X-66.3503 Y116.0975 I4.2152 J-3.4539
G3 X-66.7033 Y115.3517 I3.0489 J-1.8995
G1 X-66.7347 Y115.2513
G3 X-66.824 Y114.809 I2.3459 J-0.7037
G3 X-66.6739 Y113.7607 I2.0678 J-0.2389
G3 X-66.3804 Y113.2567 I2.1386 J0.9081
G3 X-65.9465 Y112.7934 I2.4373 J1.8478
G3 X-65.398 Y112.3836 I2.9549 J3.3825
G3 X-64.7602 Y112.0273 I3.4502 J5.4269
G3 X-64.0541 Y111.7201 I3.6535 J7.4345
G3 X-62.4539 Y111.2201 I4.9338 J12.9776
G3 X-60.6533 Y110.848 I5.581 J22.4647
G1 X-60.1901 Y110.7741
G3 X-59.9561 Y110.7396 I5.626 J37.2926
G3 X-58.9937 Y110.6148 I4.9364 J34.3095
G3 X-58.9635 Y110.6113 I0.0413 J0.2249
G3 X-57.9861 Y110.5103 I4.7039 J40.7143
G3 X-56.0005 Y110.3668 I4.6471 J50.5016
G1 X-55.7514 Y110.3538
G3 X-54.7423 Y110.3108 I2.4282 J45.1775
G1 X-54.2335 Y110.2947
G3 X-49.8888 Y111.8766 I-19.3176 J59.8139
G3 X-45.6562 Y113.738 I-30.0797 J74.1398
G1 X-45.0995 Y114.0032
G1 X-44.5076 Y114.2898
G1 X-44.2028 Y114.4392
G1 X-43.8886 Y114.5944
G3 X-40.5665 Y116.3054 I-55.2566 J111.3739
G3 X-36.1978 Y118.698 I-110.482 J206.9091
G1 X-35.6371 Y119.0122
G1 X-35.0587 Y119.3372
G1 X-32.417 Y120.8256
G1 X-31.0065 Y121.6163
G1 X-30.6477 Y121.8163
G1 X-30.283 Y122.019
G1 X-29.5293 Y122.4355
G1 X-29.1459 Y122.6461
G2 X-25.615 Y124.5232 I67.7037 J-123.088
G1 X-25.1625 Y124.7535
G2 X-23.2178 Y125.7088 I37.9567 J-74.8157
G1 X-22.971 Y125.8256
G2 X-21.9476 Y126.298 I23.7762 J-50.164
G2 X-19.7368 Y127.2454 I23.4579 J-51.6849
G1 X-19.5874 Y127.3751
G1 X-19.4402 Y127.5074
G3 X-19.1542 Y127.7807 I-5.1902 J5.7186
G3 X-18.9706 Y127.97 I-4.0357 J4.0964
G3 X-18.3194 Y128.7994 I-3.9364 J3.7609
G1 X-18.247 Y128.9202
G3 X-17.956 Y129.6143 I-2.3705 J1.402
G3 X-17.8944 Y130.0432 I-1.8848 J0.4896
G3 X-17.9547 Y130.5406 I-1.64 J0.0534
G3 X-18.2004 Y131.068 I-1.7942 J-0.5149
G3 X-18.6468 Y131.57 I-2.1498 J-1.4624
G3 X-19.2658 Y132.0167 I-2.7244 J-3.1223
G3 X-20.0293 Y132.406 I-3.3819 J-5.6898
G1 X-20.1292 Y132.4488
G3 X-20.2309 Y132.491 I-1.3418 J-3.0967
G1 X-20.4414 Y132.5737
G3 X-20.8905 Y132.7327 I-3.3688 J-8.7981
G3 X-21.123 Y132.8071 I-4.0187 J-12.1697
G1 X-21.3627 Y132.8787
G3 X-22.4239 Y133.1457 I-4.5537 J-15.8552
G3 X-22.9817 Y133.2591 I-6.3781 J-29.9421
G3 X-25.6393 Y133.6147 I-4.8654 J-26.2568
G3 X-25.8081 Y133.6287 I-0.4359 J-4.2389
G3 X-29.0932 Y133.7232 I-2.5552 J-31.6629
G3 X-30.9118 Y133.6182 I0.551 J-25.3384
G3 X-31.8644 Y133.5001 I1.8889 J-19.1395
G3 X-32.8579 Y133.2993 I1.5479 J-10.2161
G3 X-33.356 Y133.1431 I1.1071 J-4.4049
G3 X-33.8177 Y132.9584 I15.676 J-39.846
G3 X-33.8485 Y132.946 I0.1155 J-0.3298
G1 X-34.0124 Y132.8794
G1 X-34.6663 Y132.6098
G1 X-35.101 Y132.4271
G3 X-36.831 Y131.6759 I43.4992 J-102.5432
G3 X-40.2575 Y130.0987 I58.1818 J-130.9122
G1 X-41.23 Y129.6343
G1 X-42.3387 Y129.0977
G3 X-45.2828 Y127.6422 I139.7832 J-286.4525
G1 X-46.0655 Y127.2492
G1 X-46.8995 Y126.8281
G1 X-47.7881 Y126.3772
G1 X-48.735 Y125.8945
G1 X-50.8968 Y124.7862
G1 X-51.4543 Y124.4993
G1 X-52.6434 Y123.8869
G1 X-55.3614 Y122.4881
G1 X-56.0635 Y122.1283
G1 X-56.4202 Y121.9458
G1 X-57.9441 Y121.1707
G1 X-58.7321 Y120.7736
G1 X-58.9308 Y120.6739
G2 X-60.631 Y119.8321 I-66.9943 J133.1713
G1 X-60.8459 Y119.7274
G2 X-61.7353 Y119.2994 I-28.3404 J57.7533
G0 Z5.0
G0 X-68.8684 Y103.7746
G1 Z0.0
G1 X-124.7733 Y129.4611
G3 X-126.864 Y128.0761 I15.2262 J-25.2547
G3 X-128.7715 Y126.5838 I19.2848 J-26.617
G1 X-128.9949 Y126.3948
G1 X-129.2159 Y126.2048
G1 X-129.4345 Y126.0139
G3 X-131.1271 Y124.4385 I27.9832 J-31.7603
G1 X-131.5237 Y124.0441
G3 X-134.511 Y120.7632 I37.6853 J-37.3132
G3 X-137.0777 Y117.4976 I50.0426 J-41.9738
G3 X-139.3098 Y114.3108 I64.0833 J-47.2598
G3 X-141.2695 Y111.2364 I82.3196 J-54.6338
G3 X-141.4914 Y110.8714 I27.0351 J-16.6894
G3 X-141.6009 Y110.69 I9.2366 J-5.7007
G1 X-141.7096 Y110.5091
G1 X-141.8176 Y110.3287
G1 X-142.244 Y109.6077
G1 X-142.6582 Y108.8949
G1 X-142.7593 Y108.7189
G1 X-142.8597 Y108.5435
G1 X-142.9594 Y108.3686
G3 X-145.9815 Y102.709 I108.1402 J-61.382
G1 X-146.2948 Y102.0812
G1 X-146.6001 Y101.4617
G1 X-146.8976 Y100.8504
G3 X-147.475 Y99.6429 I85.1136 J-41.4363
G1 X-147.5442 Y99.4963
G1 X-147.6129 Y99.3502
G3 X-149.7238 Y94.6574 I149.9067 J-70.2511
G1 X-150.1656 Y93.6221
G3 X-151.8142 Y89.5843 I155.3138 J-65.7685
G1 X-151.9016 Y89.3623
G1 X-152.2453 Y88.4803
G1 X-152.5741 Y87.6243
G1 X-152.6531 Y87.4167
G1 X-152.7313 Y87.2106
G1 X-152.8086 Y87.0061
G3 X-155.1448 Y80.4697 I185.1278 J-69.8541
G3 X-158.2414 Y70.5296 I209.6051 J-70.749
G1 X-158.4193 Y69.9036
G3 X-160.8715 Y60.4561 I221.7518 J-62.6009
G2 X-155.6134 Y60.7779 I5.6246 J-48.7922
G2 X-150.6926 Y60.5969 I0.4168 J-55.6683
G2 X-146.1182 Y60.0516 I-5.1468 J-62.6273
G1 X-145.5858 Y59.966
G1 X-145.0584 Y59.8769
G1 X-144.5359 Y59.7844
G2 X-142.4699 Y59.3779 I-12.7125 J-70.0625
G2 X-140.4814 Y58.9271 I-13.6815 J-64.9691
G2 X-136.6671 Y57.907 I-18.4866 J-76.7633
G1 X-136.2237 Y57.7756
G2 X-129.2813 Y55.3953 I-27.6623 J-91.9905
G2 X-129.0942 Y55.323 I-2.5762 J-6.9549
G2 X-128.9079 Y55.2508 I-2.4807 J-6.6694
G2 X-128.7225 Y55.1784 I-2.3952 J-6.4129
G2 X-128.5379 Y55.106 I-2.3181 J-6.1808
G1 X-127.804 Y54.8143
G1 X-127.0837 Y54.5221
G1 X-126.3766 Y54.2296
G1 X-125.6825 Y53.9372
G1 X-125.001 Y53.6451
G2 X-124.8336 Y53.5725 I-1.5185 J-3.7345
G2 X-119.5534 Y51.1371 I-51.8449 J-119.3426
G2 X-118.4127 Y50.5749 I-80.9676 J-165.7371
G2 X-118.3438 Y50.5405 I-0.7315 J-1.5538
G2 X-113.9776 Y48.2771 I-73.0689 J-146.2884
G2 X-113.9184 Y48.2452 I-0.591 J-1.1703
G2 X-113.8592 Y48.2134 I-0.5893 J-1.1661
G2 X-110.1093 Y46.1382 I-83.4746 J-155.2658
G1 X-109.2951 Y45.6734
G1 X-108.5084 Y45.2197
G2 X-105.4769 Y43.4322 I-109.3871 J-188.9865
G1 X-104.8171 Y43.0355
G1 X-103.542 Y42.2616
G1 X-102.3502 Y41.5304
G2 X-97.9057 Y38.7479 I-226.1809 J-366.2259
G1 X-96.246 Y37.6931
G1 X-94.7952 Y36.7679
G1 X-94.1604 Y36.3629
G1 X-92.9699 Y35.6044
G3 X-90.8822 Y34.2837 I239.7863 J376.7213
G3 X-89.3089 Y33.3047 I80.5119 J127.6338
G1 X-88.7163 Y32.9418
G3 X-88.1961 Y32.6267 I125.7207 J206.9747
G1 X-87.7397 Y32.3534
G3 X-86.1287 Y31.4194 I35.383 J59.1757
G3 X-84.4865 Y30.5412 I21.3892 J38.0219
G1 X-84.3314 Y30.515
G3 X-84.2541 Y30.502 I0.1674 J0.7594
G3 X-81.7811 Y30.1252 I14.0223 J83.7457
G3 X-79.452 Y29.843 I9.896 J71.9038
G1 X-78.9047 Y29.7874
G3 X-74.5824 Y29.503 I6.4301 J64.748
G3 X-74.3455 Y29.4958 I0.4298 J10.1714
G3 X-73.8752 Y29.4841 I0.7518 J20.7773
G3 X-72.0233 Y29.4738 I1.27 J61.7268
G3 X-70.2875 Y29.5179 I-0.5379 J55.3538
G3 X-63.8142 Y30.185 I-2.0419 J51.5517
G3 X-62.6131 Y30.4029 I-7.3294 J43.8186
G3 X-58.1678 Y31.4866 I-9.3684 J48.0901
G3 X-56.5303 Y31.999 I-15.4246 J52.1643
G1 X-56.1745 Y32.1185
G3 X-53.4479 Y33.1306 I-17.0456 J50.0987
G3 X-49.4636 Y34.9052 I-22.704 J56.3368
G1 X-48.9742 Y35.1457
G3 X-45.5965 Y36.9227 I-36.9383 J74.3115
G1 X-44.001 Y72.821
G1 X-52.1789 Y77.2082
G2 X-53.0882 Y77.6833 I2.5529 J5.9941
G2 X-53.8015 Y78.2259 I2.7464 J4.3503
G2 X-54.7427 Y79.4643 I2.9433 J3.2139
G2 X-54.978 Y79.9953 I4.5839 J2.3486
G2 X-55.2609 Y80.9692 I6.3677 J2.3778
G2 X-55.2805 Y81.0622 I1.1255 J0.2859
G2 X-55.4019 Y81.7884 I9.5616 J1.972
G1 X-55.4358 Y82.0624
G1 X-55.4613 Y82.3025
G2 X-55.4808 Y82.513 I4.6551 J0.5381
G1 X-55.496 Y82.6973
G2 X-55.5081 Y82.8587 I3.1993 J0.32
G2 X-55.5267 Y83.1413 I29.0224 J2.0525
G1 X-55.5498 Y83.5653
G2 X-55.5596 Y83.7775 I12.5328 J0.6887
G1 X-55.5686 Y83.9896
G2 X-55.0533 Y85.9275 I51.4148 J-12.6343
G1 X-54.9493 Y86.2889
G1 X-54.9246 Y86.3736
G2 X-54.0705 Y89.0155 I44.6669 J-12.9807
G2 X-53.8276 Y89.6664 I48.4059 J-17.6898
G2 X-53.4306 Y90.6298 I18.6757 J-7.1342
G2 X-52.9761 Y91.5674 I12.7743 J-5.6125
G3 X-52.7153 Y92.0602 I-36.5732 J19.6717
G3 X-51.8348 Y93.8014 I-80.2246 J41.6616
G1 X-51.7808 Y93.9108
G1 X-51.5791 Y94.3212
G1 X-51.4286 Y94.6295
G1 X-51.4005 Y94.6873
G1 X-51.2951 Y94.9043
G1 X-50.9812 Y95.556
G1 X-68.8684 Y103.7746
G0 Z5.0
G0 X-5.41 Y173.3371
G1 Z0.0
G1 X22.6104 Y163.3652
G1 X62.9967 Y163.5646
G1 X41.1583 Y171.6411
G1 X35.5804 Y171.8518
G1 X30.0026 Y172.0615
G1 X18.8467 Y172.4778
G1 X11.4093 Y172.7522
G1 X7.1593 Y172.9073
G1 X2.302 Y173.0817
G3 X-3.2494 Y173.2729 I-52.7599 J-1451.3826
G1 X-4.6822 Y173.3177
G1 X-5.41 Y173.3371
G0 Z5.0
G0 X34.6764 Y159.5756
G1 Z0.0
G3 X36.775 Y158.3426 I6.5628 J8.7675
G3 X36.924 Y158.2775 I1.4512 J3.1159
G3 X37.7294 Y157.9566 I7.8772 J18.6031
G1 X37.8343 Y157.9176
G1 X38.0584 Y157.8355
G1 X38.2978 Y157.7491
G1 X39.5738 Y157.2915
G1 X39.7381 Y157.2313
G1 X40.0878 Y157.1016
G2 X41.9355 Y156.3711 I-17.9645 J-48.136
G1 X42.4235 Y156.1651
G1 X42.9419 Y155.9405
G1 X43.4926 Y155.6959
G1 X44.0774 Y155.4297
G1 X44.2255 Y155.3612
G1 X44.3759 Y155.2913
G1 X45.0155 Y154.9896
G1 X45.6949 Y154.6617
G1 X46.0444 Y154.4903
G1 X46.9546 Y154.039
G1 X47.2573 Y153.8869
G2 X47.6602 Y153.6829 I-15.4482 J-31.0126
G1 X48.1962 Y153.4086
G1 X48.9085 Y153.0385
G1 X49.098 Y152.9389
G1 X49.5303 Y152.7097
G2 X50.6777 Y152.0881 I-69.6448 J-129.9106
G2 X52.1926 Y151.2325 I-34.5718 J-62.9783
G2 X52.3866 Y151.1196 I-10.1888 J-17.7374
G1 X52.7995 Y150.8766
G1 X53.2378 Y150.6143
G2 X53.3489 Y150.5471 I-1.1443 J-2.0158
G2 X55.678 Y149.0515 I-25.7566 J-42.6735
G1 X55.823 Y148.9519
G2 X55.8959 Y148.9014 I-0.5152 J-0.8222
G2 X56.5127 Y148.4643 I-15.6778 J-22.7754
G2 X57.8831 Y147.4111 I-17.117 J-23.6908
G2 X59.3483 Y146.0831 I-11.6925 J-14.3735
G1 X59.5225 Y145.9021
G1 X59.696 Y145.7146
G2 X60.3844 Y144.8667 I-7.2076 J-6.5553
G2 X60.6938 Y144.3936 I-6.336 J-4.4811
G2 X60.9641 Y143.8734 I-4.7278 J-2.7869
G2 X61.1669 Y143.2978 I-3.2611 J-1.473
G2 X61.2541 Y142.6631 I-2.6025 J-0.6806
G2 X61.1538 Y141.9866 I-2.1192 J-0.0314
G2 X60.8037 Y141.3276 I-2.0824 J0.6837
G2 X60.2074 Y140.7595 I-2.2563 J1.7713
G2 X59.4063 Y140.3301 I-2.007 J2.782
G3 X69.1517 Y135.5362 I356.2072 J711.828
G1 X69.8037 Y135.2213
G1 X71.2952 Y134.5041
G1 X72.0914 Y134.1232
G1 X73.9136 Y133.2569
G1 X74.3843 Y133.0345
G1 X74.6236 Y132.9217
G1 X74.8666 Y132.8072
G1 X75.9045 Y132.3205
G1 X77.0129 Y131.8044
G1 X77.2947 Y131.6739
G1 X77.5811 Y131.5416
G1 X78.8043 Y130.9801
G1 X78.8811 Y130.945
G1 X78.9583 Y130.9098
G3 X81.7879 Y129.6418 I111.1178 J244.1785
G3 X85.0518 Y128.2611 I46.3103 J104.9233
G1 X85.1551 Y128.2198
G1 X85.5752 Y128.0537
G3 X86.0036 Y127.8887 I14.4697 J36.9128
G3 X86.8939 Y127.5638 I9.6192 J24.9739
G3 X87.8269 Y127.2673 I4.9736 J14.0372
G2 X88.7142 Y129.0101 I48.1142 J-23.4012
G1 X89.6309 Y130.7377
G3 X89.8897 Y131.2329 I-24.0571 J12.8897
G3 X90.5574 Y132.565 I-44.5748 J23.1767
G1 X90.6402 Y132.7386
G1 X90.7247 Y132.9182
G3 X91.543 Y134.8714 I-22.2075 J10.4519
G3 X91.6347 Y135.1289 I-5.9371 J2.2608
G3 X92.0018 Y136.3242 I-15.6078 J5.447
G3 X92.1569 Y136.9735 I-11.773 J3.1561
G1 X92.1913 Y137.1395
G3 X92.3127 Y137.8534 I-11.304 J2.2901
G3 X92.4208 Y139.509 I-10.9098 J1.5441
G3 X92.2218 Y141.4039 I-10.0394 J-0.0968
G3 X92.1974 Y141.5217 I-1.7464 J-0.2999
G3 X91.5173 Y143.6227 I-10.5863 J-2.2662
G3 X90.9941 Y144.6826 I-11.3873 J-4.9626
G3 X90.336 Y145.7603 I-12.5467 J-6.9218
G3 X90.3139 Y145.7931 I-0.2543 J-0.147
G3 X89.5154 Y146.8818 I-14.254 J-9.6178
G3 X88.5812 Y147.9761 I-17.0305 J-13.5925
G3 X88.3326 Y148.2438 I-12.5989 J-11.4486
G3 X87.2313 Y149.3417 I-19.7336 J-18.6942
G3 X85.9969 Y150.4415 I-21.1086 J-22.4507
G1 X85.6751 Y150.7105
G1 X85.3452 Y150.9798
G1 X85.0074 Y151.2493
G1 X84.6617 Y151.5189
G3 X83.164 Y152.6243 I-26.9902 J-34.9993
G1 X83.0686 Y152.6917
G3 X81.4286 Y153.802 I-29.2352 J-41.4162
G1 X81.0067 Y154.0746
G3 X79.1977 Y155.1924 I-37.0598 J-57.949
G3 X75.0392 Y157.518 I-44.8639 J-75.342
G3 X74.7737 Y157.6573 I-16.8701 J-31.8458
G3 X73.6791 Y158.2215 I-35.7587 J-68.0281
G3 X72.5491 Y158.7885 I-70.2189 J-138.5258
G3 X71.383 Y159.3587 I-102.8184 J-208.8168
G3 X70.1802 Y159.9321 I-51.1528 J-105.739
G1 X69.8767 Y160.0746
G3 X69.4832 Y160.2175 I-1.0873 J-2.3821
G3 X69.3485 Y160.2542 I-0.6588 J-2.1494
G1 X69.1676 Y160.2976
G3 X68.4359 Y160.4288 I-2.0462 J-9.3074
G1 X68.2255 Y160.4577
G3 X66.5375 Y160.6126 I-3.2123 J-25.7255
G1 X66.0541 Y160.6404
G3 X65.5014 Y160.6662 I-1.5483 J-27.2894
G1 X65.2066 Y160.6776
G1 X64.5329 Y160.6988
G1 X64.3589 Y160.7032
G1 X63.5642 Y160.7187
G1 X62.6562 Y160.7282
G1 X62.5409 Y160.7289
G3 X62.3028 Y160.7299 I-0.1658 J-10.9754
G1 X62.0571 Y160.7304
G3 X59.4381 Y160.7106 I0.0776 J-182.7529
G1 X59.1002 Y160.7051
G3 X58.3796 Y160.6915 I1.3846 J-92.8979
G1 X58.0076 Y160.6836
G1 X57.8187 Y160.6794
G1 X57.0129 Y160.6596
G1 X56.1535 Y160.6357
G1 X55.237 Y160.6075
G3 X50.3532 Y160.4166 I11.1383 J-347.6533
G1 X50.1994 Y160.4097
G1 X48.8873 Y160.3487
G1 X47.4881 Y160.2801
G1 X46.7659 Y160.2433
G1 X45.2257 Y160.1623
G1 X44.4309 Y160.1192
G3 X42.7355 Y160.0245 I14.3516 J-272.248
G1 X41.8606 Y159.9744
G1 X40.9575 Y159.9219
G1 X36.8303 Y159.6769
G1 X35.7652 Y159.6162
G1 X35.4967 Y159.6019
G1 X35.3619 Y159.5951
G2 X34.8141 Y159.5732 I-1.1844 J22.7306
G2 X34.6764 Y159.5756 I-0.0431 J1.4477
G0 Z5.0
G0 X1.3075 Y-4.9613
G1 Z0.0
G1 X1.5128 Y-4.7204
G1 X1.7163 Y-4.4836
G2 X3.3603 Y-2.6492 I50.269 J-43.4008
G2 X3.5482 Y-2.4491 I9.7537 J-8.9691
G2 X5.0698 Y-0.9081 I32.3749 J-30.4462
G2 X6.4946 Y0.3926 I23.0673 J-23.838
G2 X6.822 Y0.6698 I19.7667 J-23.0081
G2 X7.4709 Y1.1935 I13.2396 J-15.74
G1 X7.6266 Y1.3139
G1 X7.781 Y1.4312
G1 X7.9343 Y1.5455
G1 X8.0864 Y1.6568
G1 X8.2373 Y1.7652
G1 X8.387 Y1.8706
G2 X9.6045 Y2.6456 I9.1214 J-12.9846
G2 X9.8829 Y2.801 I4.3296 J-7.4274
G2 X10.9989 Y3.3345 I5.7467 J-10.5887
G2 X11.5084 Y3.5266 I3.7676 J-9.2171
G2 X12.494 Y3.7972 I2.5235 J-7.2638
G2 X12.9359 Y3.8715 I1.2629 J-6.1533
G2 X14.6108 Y3.8522 I0.7735 J-5.5562
G2 X15.8139 Y3.4963 I-0.8806 J-5.1875
G2 X16.2372 Y3.2916 I-2.2617 J-5.2181
G2 X16.9332 Y2.8541 I-3.1307 J-5.7529
G2 X17.8651 Y2.0487 I-4.5831 J-6.2447
G2 X18.672 Y1.1181 I-6.8978 J-6.7964
G0 Z5.0
G0 X-189.0227 Y-36.9829
G1 Z0.0
G3 X-189.2798 Y-35.7868 I-19.8585 J-3.643
G3 X-189.5055 Y-34.9387 I-21.1929 J-5.1858
G3 X-189.565 Y-34.7346 I-4.5739 J-1.2214
G3 X-190.7268 Y-31.5691 I-26.4175 J-7.8997
G1 X-190.8011 Y-31.3999
G3 X-192.1087 Y-28.7758 I-30.025 J-13.3241
G3 X-194.9133 Y-24.4711 I-31.8036 J-17.6544
G3 X-197.4185 Y-21.5182 I-27.2952 J-20.6175
G3 X-199.5324 Y-19.5084 I-20.418 J-19.3596
G3 X-201.2646 Y-18.1604 I-15.2681 J-17.832
G3 X-202.6558 Y-17.273 I-10.4839 J-14.9021
G3 X-203.7554 Y-16.7007 I-7.7785 J-13.6038
