( Made using CamBam - http://www.cambam.co.uk )
( Plane_3Mx3M 1/20/2014 12:44:30 PM )
( T0 : 0.0 )
G21 G90 G64 G40
G0 Z5.0
( T0 : 0.0 )
T0 M6
( 21-30 )
G17
M3 S1000
G0 X392.5851 Y-28.4336
G1 F2000.0 Z0.0
G1 X194.0244 Y64.6415
G0 Z5.0
G0 X206.9989 Y72.5385
G1 Z0.0
G2 X201.4882 Y69.1771 I-137.8798 J219.844
G1 X200.9667 Y68.868
G1 X199.9541 Y68.2725
G2 X196.1287 Y66.0844 I-99.4717 J169.4658
G2 X193.2177 Y64.5022 I-66.6531 J119.1612
G1 X192.942 Y64.3571
G1 X192.4064 Y64.0782
G2 X191.3969 Y63.5636 I-28.5952 J54.8535
G1 X190.9523 Y63.3422
G1 X190.5339 Y63.1372
G1 X190.1401 Y62.9473
G2 X189.3973 Y62.5985 I-28.0753 J58.8358
G1 X189.2337 Y62.5236
G2 X188.5969 Y62.2389 I-16.2473 J35.4944
G2 X187.4672 Y61.7684 I-11.3582 J25.679
G1 X187.2519 Y61.685
G1 X187.0489 Y61.6085
G2 X186.2791 Y61.3424 I-6.5099 J17.58
G1 X185.9843 Y61.2528
G1 X185.8541 Y61.216
G1 X185.7313 Y61.183
G2 X185.2658 Y61.0767 I-1.6725 J6.2482
G2 X184.9086 Y61.0218 I-0.8094 J4.0784
G1 X184.7723 Y61.0094
G2 X184.532 Y61.0038 I-0.1694 J2.108
G2 X184.1738 Y61.0575 I0.02 J1.3572
G2 X184.0067 Y61.1331 I0.1816 J0.6231
G2 X183.8712 Y61.2567 I0.278 J0.4408
G3 X183.7459 Y61.3658 I-0.469 J-0.412
G3 X183.6781 Y61.413 I-0.5013 J-0.6486
G3 X183.3978 Y61.5876 I-2.6474 J-3.9382
G1 X183.112 Y61.7514
G1 X182.8239 Y61.9097
G1 X182.6795 Y61.9874
G1 X182.5348 Y62.0644
G1 X182.39 Y62.1408
G1 X181.8091 Y62.4416
G3 X181.664 Y62.5157 I-1.7962 J-3.3387
G3 X181.5915 Y62.5526 I-0.4779 J-0.8494
G1 X181.4464 Y62.6262
G1 X181.1562 Y62.7725
G1 X181.0112 Y62.8452
G1 X180.7213 Y62.9899
G1 X180.1417 Y63.277
G1 X178.9844 Y63.8431
G1 X177.8334 Y64.3995
G1 X176.6897 Y64.9476
G1 X176.1217 Y65.2184
G1 X175.5556 Y65.4875
G1 X174.4272 Y66.0218
G1 X173.8669 Y66.2862
G1 X171.6331 Y67.3354
G3 X167.2285 Y69.3871 I-417.8613 J-891.3175
G1 X165.0928 Y70.3759
G1 X162.9893 Y71.3468
G1 X162.7304 Y71.4662
G3 X154.4555 Y75.2633 I-1255.5956 J-2725.3561
G1 X150.5733 Y77.0359
G1 X146.811 Y78.7497
G1 X144.9881 Y79.5787
G1 X144.8759 Y79.6297
G1 X141.2898 Y81.2585
G1 X140.8554 Y81.4556
G1 X133.9316 Y84.5929
G1 X127.438 Y87.5283
G1 X121.3482 Y90.276
G1 X118.4931 Y91.5628
G1 X112.9604 Y94.0538
G1 X110.3665 Y95.2206
G1 X107.8535 Y96.3505
G1 X102.9839 Y98.5383
G1 X93.8516 Y102.6363
G1 X85.8591 Y106.218
G1 X78.8644 Y109.3492
G1 X66.6211 Y114.823
G3 X66.0471 Y115.0795 I-26.1231 J-57.7042
G1 X57.0061 Y119.1162
G1 X50.2243 Y122.1414
G1 X40.0499 Y126.6756
G1 X29.8732 Y131.2045
G1 X29.9319 Y131.2171
G1 X30.166 Y131.2681
G3 X30.2821 Y131.2937 I-1.9962 J9.3292
G1 X30.5132 Y131.3451
G3 X31.4296 Y131.553 I-21.5556 J97.1461
G3 X45.5018 Y135.3018 I-48.9649 J212.0886
G1 X45.6107 Y135.335
G1 X45.7188 Y135.3679
G1 X46.5755 Y135.6318
G1 X47.3775 Y135.883
G1 X48.1282 Y136.1221
G3 X50.933 Y137.0514 I-51.7186 J160.7854
G1 X51.4568 Y137.2318
G1 X52.4371 Y137.5757
G3 X54.1457 Y138.1963 I-34.4626 J97.5428
G3 X55.4209 Y138.6789 I-27.9644 J75.8231
G3 X57.3218 Y139.4334 I-41.7247 J107.8881
G1 X57.7946 Y139.6284
G3 X58.1483 Y139.7764 I-12.936 J31.4264
G1 X58.4133 Y139.8884
G1 X58.8098 Y140.058
G1 X59.2056 Y140.2298
G1 X59.3159 Y140.3494
G1 X59.4235 Y140.4695
G3 X59.8294 Y140.9632 I-7.5964 J6.6579
G3 X60.1791 Y141.4679 I-5.7728 J4.3735
G3 X60.4612 Y141.9827 I-4.0734 J2.5673
G3 X60.6629 Y142.5034 I-3.3982 J1.6158
G3 X60.7862 Y143.5511 I-2.7562 J0.8554
G3 X60.555 Y144.4721 I-2.8723 J-0.2316
G3 X60.1199 Y145.2274 I-3.7266 J-1.6436
G1 X60.09 Y145.2685
G3 X59.5683 Y145.8845 I-4.8711 J-3.5959
G1 X59.5028 Y145.9524
G1 X59.4369 Y146.019
G1 X59.3709 Y146.0843
G1 X59.2381 Y146.2119
G3 X58.1263 Y147.1416 I-9.3524 J-10.0532
G3 X58.0631 Y147.1895 I-0.5737 J-0.6928
G3 X58.0002 Y147.2366 I-0.5297 J-0.6406
G3 X57.4955 Y147.6032 I-25.4134 J-34.4555
G3 X56.5294 Y148.2616 I-24.9908 J-35.635
G3 X56.3156 Y148.4019 I-7.889 J-11.7869
G1 X55.8996 Y148.671
G1 X55.7038 Y148.7961
G3 X54.1783 Y149.7514 I-64.1077 J-100.6743
G1 X53.0306 Y150.4621
G1 X52.8156 Y150.5956
G2 X49.6165 Y152.64 I65.1626 J105.4889
G3 X49.4108 Y152.773 I-6.6741 J-10.1029
G1 X49.2032 Y152.9007
G1 X48.9943 Y153.0242
G1 X48.8895 Y153.0845
G1 X48.7846 Y153.144
G3 X47.9359 Y153.5986 I-11.6033 J-20.6438
G1 X47.5131 Y153.812
G1 X47.0911 Y154.0187
G3 X45.3993 Y154.8027 I-29.1701 J-60.7295
G3 X42.077 Y156.2197 I-48.3514 J-108.7615
G1 X41.6853 Y156.3799
G3 X41.5881 Y156.4195 I-1.6351 J-3.8764
G3 X40.811 Y156.7336 I-55.2367 J-135.5365
G1 X40.0448 Y157.0395
G1 X39.2895 Y157.338
G1 X38.5449 Y157.6293
G1 X37.8113 Y157.9139
G3 X34.9156 Y159.0166 I-103.2364 J-266.7508
G3 X34.5756 Y159.1442 I-5.9749 J-15.4042
G1 X33.9007 Y159.3964
G1 X32.5707 Y159.8898
G1 X31.2808 Y160.364
G1 X31.1245 Y160.4212
G1 X29.8786 Y160.8751
G1 X29.7275 Y160.9299
G3 X24.9089 Y162.6557 I-211.9845 J-584.279
G1 X22.797 Y163.4002
G1 X20.8153 Y164.0931
G1 X18.956 Y164.7387
G1 X17.2119 Y165.3406
G1 X16.3939 Y165.6218
G3 X15.9976 Y165.7577 I-8.7775 J-24.9398
G1 X15.2173 Y166.0249
G3 X15.1228 Y166.0573 I-0.5224 J-1.3731
G1 X13.6164 Y166.5713
G1 X10.79 Y167.5299
G3 X0.8817 Y170.8376 I-499.7483 J-1480.5362
G1 X-1.5989 Y171.6538
G1 X-2.5295 Y171.9589
G1 X-4.1585 Y172.4912
G3 X-4.464 Y172.5908 I-13.4658 J-40.7833
G1 X-6.756 Y173.3356
G1 X-7.9026 Y173.7063
G1 X-9.0497 Y174.0754
G0 Z5.0
G0 X-55.8686 Y164.4857
G1 Z0.0
G3 X-60.2905 Y163.2215 I42.2304 J-156.081
G1 X-60.5485 Y163.1438
G3 X-64.6441 Y161.8524 I52.4089 J-173.3517
G1 X-64.8831 Y161.7738
G3 X-68.6782 Y160.4795 I64.4064 J-195.0692
G3 X-75.7231 Y157.8561 I70.7265 J-200.6958
G1 X-76.1057 Y157.7057
G1 X-76.4851 Y157.5558
G1 X-76.8612 Y157.4064
G3 X-82.7973 Y154.9498 I91.7518 J-230.1085
G3 X-87.938 Y152.6762 I97.9629 J-228.4425
G1 X-89.0559 Y152.1643
G3 X-97.6416 Y148.0306 I120.5298 J-261.3251
G1 X-98.4394 Y147.6286
G3 X-104.5814 Y144.4332 I132.8226 J-262.8048
G3 X-122.5679 Y134.0529 I152.2773 J-284.6314
G0 Z5.0
G0 X-166.8408 Y55.2176
G1 Z0.0
G2 X-163.4062 Y55.3841 I4.6593 J-60.5786
G2 X-156.7508 Y55.187 I1.3381 J-67.2639
G2 X-150.5516 Y54.4388 I-5.8683 J-74.684
G2 X-144.8054 Y53.2931 I-13.0133 J-80.2481
G1 X-144.1369 Y53.1325
G2 X-138.8779 Y51.6726 I-21.2728 J-86.8332
G2 X-129.2747 Y48.1047 I-28.1679 J-90.5236
G2 X-113.5145 Y39.4719 I-38.8285 J-89.5885
G1 X-112.8128 Y38.9931
G2 X-107.4464 Y34.9977 I-51.1583 J-74.3154
G2 X-103.0041 Y31.1626 I-52.8559 J-65.7143
G2 X-99.3498 Y27.5396 I-51.0622 J-55.1576
G1 X-98.9648 Y27.1276
G2 X-96.0511 Y23.7764 I-50.9525 J-47.2434
G2 X-96.0127 Y23.7292 I-0.9031 J-0.7729
G2 X-95.9745 Y23.682 I-0.9023 J-0.7708
G2 X-93.6285 Y20.5968 I-47.5158 J-38.5649
G2 X-91.743 Y17.7736 I-46.0868 J-32.8219
G2 X-91.6938 Y17.6947 I-1.1518 J-0.773
G2 X-88.862 Y12.496 I-42.1122 J-26.3096
G1 X-88.6295 Y11.9911
G2 X-87.0494 Y7.9843 I-37.9898 J-17.2967
G2 X-87.0173 Y7.8885 I-1.4545 J-0.5395
G2 X-86.9858 Y7.7933 I-1.4537 J-0.5347
G2 X-86.1133 Y4.7332 I-36.5169 J-12.0654
G2 X-85.6337 Y2.3947 I-34.0083 J-8.1942
G2 X-85.2205 Y-1.1614 I-32.4669 J-5.5741
G2 X-85.2075 Y-1.3849 I-5.4305 J-0.4282
G2 X-85.2009 Y-4.7414 I-32.1693 J-1.7413
G1 X-85.2816 Y-6.2725
G2 X-85.3022 Y-6.6433 I-134.1035 J7.2422
G2 X-85.3229 Y-7.0113 I-35.66 J1.8287
G2 X-85.3439 Y-7.3764 I-25.5846 J1.2886
G1 X-85.4312 Y-8.8251
G2 X-85.5218 Y-10.2283 I-153.6276 J9.216
G2 X-85.5275 Y-10.3133 I-1.3234 J0.0459
G2 X-85.5332 Y-10.3982 I-1.32 J0.0461
G1 X-85.6273 Y-11.7521
G1 X-85.7242 Y-13.0635
G2 X-86.1583 Y-18.1418 I-261.1793 J19.7636
G2 X-86.1649 Y-18.2113 I-1.0312 J0.0634
G2 X-86.1715 Y-18.2806 I-1.0289 J0.0635
G2 X-86.3939 Y-20.4925 I-362.9469 J35.3756
G1 X-86.5056 Y-21.5289
G2 X-87.5563 Y-29.5402 I-183.1527 J19.9477
G1 X-87.5855 Y-29.7277
G1 X-87.6147 Y-29.9137
G1 X-87.6439 Y-30.0983
G2 X-88.7046 Y-35.9327 I-123.5518 J19.4478
G2 X-88.7188 Y-36.0009 I-0.6965 J0.1094
G2 X-89.1956 Y-38.1677 I-84.7271 J17.5095
G1 X-89.3068 Y-38.6404
G2 X-89.5298 Y-39.5545 I-63.0307 J14.8954
G2 X-89.9774 Y-41.2614 I-68.5576 J17.0629
G1 X-90.0808 Y-41.6336
G2 X-90.96 Y-44.4945 I-56.304 J15.7367
G2 X-91.7271 Y-46.606 I-44.0364 J14.8021
G1 X-91.8046 Y-46.802
G1 X-91.8808 Y-46.9915
G1 X-91.9556 Y-47.1747
G1 X-92.0289 Y-47.3517
G2 X-93.2994 Y-50.0351 I-27.3442 J11.304
G1 X-93.4787 Y-50.3604
G2 X-94.15 Y-51.4737 I-18.2625 J10.2527
G2 X-94.8991 Y-52.5363 I-13.4839 J8.7112
G0 Z5.0
G0 X-85.9589 Y-11.1403
G1 Z0.0
G2 X-91.0356 Y-14.4859 I-90.8667 J132.361
G1 X-91.1109 Y-14.5336
G1 X-91.1862 Y-14.5812
G1 X-91.2614 Y-14.6287
G2 X-93.6757 Y-16.1304 I-129.6602 J205.7751
G1 X-93.7492 Y-16.1754
G1 X-93.8226 Y-16.2203
G1 X-93.896 Y-16.2652
G2 X-98.6171 Y-19.0757 I-121.2597 J198.3253
G1 X-99.1748 Y-19.3985
G2 X-101.3958 Y-20.6665 I-173.7101 J301.6853
G2 X-118.9796 Y-29.8212 I-145.0787 J257.194
G1 X-119.8222 Y-30.2224
G1 X-120.6531 Y-30.6147
G1 X-121.0626 Y-30.8068
G1 X-121.4693 Y-30.9968
G1 X-122.2773 Y-31.3718
G1 X-123.074 Y-31.7384
G1 X-123.8595 Y-32.0967
G2 X-124.2467 Y-32.2722 I-10.5335 J22.7248
G2 X-130.4321 Y-34.9704 I-102.4548 J226.4295
G1 X-131.1144 Y-35.2555
G1 X-131.7871 Y-35.534
G1 X-132.4503 Y-35.806
G2 X-133.1041 Y-36.0717 I-31.4923 J76.5496
G2 X-133.1847 Y-36.1043 I-0.766 J1.7787
G2 X-138.3562 Y-38.113 I-72.5773 J179.1948
G1 X-138.9263 Y-38.3241
G2 X-143.4417 Y-39.9166 I-57.0047 J154.4318
G2 X-147.4382 Y-41.1974 I-44.6612 J132.4824
G2 X-150.9728 Y-42.2148 I-36.7057 J120.8704
G1 X-151.7515 Y-42.4228
G1 X-152.5074 Y-42.6187
G1 X-153.2413 Y-42.8031
G1 X-153.9539 Y-42.9764
G1 X-154.6457 Y-43.1392
G1 X-155.3173 Y-43.2917
G2 X-155.9691 Y-43.4346 I-9.6431 J42.4465
G2 X-156.0482 Y-43.4516 I-0.2212 J0.8382
G2 X-156.127 Y-43.4684 I-0.2195 J0.835
G2 X-156.2055 Y-43.4851 I-0.2179 J0.8318
G2 X-156.2838 Y-43.5016 I-0.2162 J0.8287
G2 X-156.3617 Y-43.518 I-0.2145 J0.8255
G2 X-156.4394 Y-43.5343 I-0.2129 J0.8224
G2 X-156.5167 Y-43.5505 I-0.2112 J0.8193
G2 X-156.5938 Y-43.5665 I-0.2096 J0.8162
G2 X-161.5358 Y-44.4148 I-14.2398 J68.134
G2 X-162.4714 Y-44.531 I-7.9111 J59.8634
G2 X-162.5264 Y-44.5374 I-0.0962 J0.5934
G2 X-162.5811 Y-44.5436 I-0.0952 J0.5914
G2 X-164.3278 Y-44.7121 I-5.6021 J48.9451
G2 X-165.0942 Y-44.7658 I-4.0477 J52.2267
G2 X-165.274 Y-44.7765 I-0.4975 J6.8445
G2 X-168.1101 Y-44.8381 I-2.2168 J36.7505
G1 X-168.3763 Y-44.8324
G2 X-168.8922 Y-44.8152 I0.7305 J29.6052
G1 X-169.3755 Y-44.7912
G2 X-170.2804 Y-44.7244 I1.4018 J25.1604
G2 X-171.8569 Y-44.5316 I2.4101 J26.2344
G2 X-173.0286 Y-44.3144 I3.3971 J21.6058
G2 X-174.7551 Y-43.852 I3.775 J17.547
G2 X-176.4181 Y-43.1969 I4.3701 J13.532
G0 Z5.0
G0 X-229.9797 Y-3.1179
G1 Z0.0
G2 X-228.442 Y-2.4734 I7.8669 J-16.6137
G2 X-225.2981 Y-1.5933 I7.1682 J-19.5494
G2 X-222.1786 Y-1.1848 I4.7738 J-24.3411
G2 X-219.1358 Y-1.1437 I1.9196 J-29.4382
G2 X-216.1946 Y-1.385 I-1.405 J-35.1725
G2 X-213.3648 Y-1.8436 I-5.1712 J-40.8673
G2 X-212.6822 Y-1.9846 I-5.3295 J-27.515
G1 X-212.513 Y-2.0213
G2 X-209.8315 Y-2.6923 I-9.7499 J-44.6574
G1 X-209.6696 Y-2.738
G2 X-204.581 Y-4.4574 I-15.5797 J-54.4993
G2 X-199.9087 Y-6.4881 I-24.6495 J-63.1053
G1 X-199.7723 Y-6.5536
G1 X-199.6363 Y-6.6192
G2 X-195.3625 Y-8.8561 I-33.5093 J-69.2234
G2 X-193.3796 Y-10.0085 I-46.6692 J-82.5824
G2 X-189.6026 Y-12.408 I-43.8645 J-73.2205
G2 X-182.7639 Y-17.4813 I-51.0798 J-75.9999
G2 X-177.0149 Y-22.6056 I-56.2329 J-68.876
G1 X-176.7039 Y-22.91
G2 X-176.0905 Y-23.52 I-33.4223 J-34.2244
G2 X-171.4851 Y-28.5692 I-53.9068 J-53.7944
G1 X-171.24 Y-28.8656
G2 X-169.3537 Y-31.2707 I-49.7539 J-40.9651
G2 X-168.9236 Y-31.8536 I-25.7711 J-19.4613
G1 X-168.714 Y-32.1431
G2 X-167.1126 Y-34.4888 I-48.1618 J-34.6002
G2 X-166.7518 Y-35.0556 I-44.4553 J-28.7003
G2 X-166.5765 Y-35.3368 I-14.4542 J-9.2013
G2 X-165.2533 Y-37.6119 I-42.2039 J-26.069
G2 X-165.2162 Y-37.6801 I-0.7239 J-0.4373
G2 X-164.099 Y-39.8952 I-37.5228 J-20.3156
G2 X-163.6213 Y-40.9631 I-41.2679 J-19.1004
G2 X-162.7974 Y-43.0802 I-31.5428 J-13.4937
G2 X-162.7755 Y-43.1433 I-0.6538 J-0.2629
G2 X-162.7537 Y-43.2064 I-0.6533 J-0.261
G2 X-162.732 Y-43.2694 I-0.6527 J-0.2592
G2 X-162.1188 Y-45.3053 I-25.4414 J-8.7742
G2 X-161.6946 Y-47.2582 I-23.5624 J-6.1407
G2 X-161.4537 Y-49.1188 I-20.8015 J-3.6384
G2 X-161.3876 Y-50.8766 I-18.8996 J-1.5913
G2 X-161.4834 Y-52.5213 I-16.6833 J0.1471
G2 X-161.7242 Y-54.0444 I-16.1792 J1.7773
G2 X-163.9916 Y-59.3113 I-14.0209 J2.9145
G2 X-165.334 Y-60.9812 I-12.6952 J8.8303
G2 X-166.6764 Y-62.2849 I-12.5717 J11.6027
G2 X-167.3042 Y-62.8092 I-11.1231 J12.6788
G2 X-168.5369 Y-63.7203 I-12.6639 J15.8454
G1 X-168.8151 Y-63.9075
G2 X-169.9178 Y-64.5935 I-12.2061 J18.3918
G1 X-170.1638 Y-64.7355
G1 X-170.4036 Y-64.8704
G2 X-172.3064 Y-65.8316 I-13.5549 J24.4689
G2 X-175.2729 Y-67.0223 I-14.273 J31.2689
G1 X-175.4617 Y-67.0878
G2 X-178.3289 Y-67.9598 I-13.9036 J40.5636
G0 Z5.0
G0 X-182.2249 Y232.1771
G1 Z0.0
G1 X-385.2982 Y314.5347
G0 Z5.0
G0 X-439.4511 Y290.2788
G1 Z0.0
G1 X-268.5317 Y195.5104
G1 X-266.1819 Y194.5691
G1 X-263.8695 Y193.6404
G1 X-259.3187 Y191.8082
G1 X-254.9118 Y190.0289
G1 X-250.6441 Y188.3015
G1 X-250.5795 Y188.2753
G2 X-234.0632 Y181.5525 I-2376.0217 J-5860.9916
G2 X-205.2122 Y169.658 I-1921.5999 J-4701.8853
G1 X-203.8616 Y169.0958
G1 X-198.5456 Y166.8778
G1 X-198.2342 Y166.7476
G1 X-195.7531 Y165.7092
G2 X-176.5525 Y157.5973 I-1290.7152 J-3081.884
G1 X-174.7552 Y156.8301
G1 X-173.0146 Y156.0857
G1 X-169.6437 Y154.6395
G1 X-166.4856 Y153.279
G1 X-165.0059 Y152.6396
G1 X-162.1405 Y151.3975
G1 X-160.7979 Y150.8138
G2 X-160.1478 Y150.5306 I-26.5086 J-61.7555
G1 X-159.8278 Y150.3912
G1 X-159.5104 Y150.2527
G1 X-156.9918 Y149.1519
G1 X-154.6323 Y148.1161
G1 X-152.4217 Y147.1415
G1 X-150.3507 Y146.2246
G1 X-149.8655 Y146.0092
G1 X-147.9561 Y145.1592
G1 X-146.1672 Y144.3594
G1 X-145.748 Y144.1715
G1 X-145.3355 Y143.9864
G1 X-144.9295 Y143.804
G1 X-144.5299 Y143.6243
G1 X-144.1367 Y143.4472
G1 X-143.7496 Y143.2728
G1 X-143.3687 Y143.1009
G1 X-142.9938 Y142.9316
G1 X-142.6248 Y142.7648
G1 X-141.8985 Y142.4359
G1 X-141.1953 Y142.1167
G1 X-140.5143 Y141.807
G2 X-135.246 Y139.3864 I-408.9274 J-896.9489
G2 X-127.3848 Y135.6672 I-225.3513 J-486.4817
G1 X-126.8956 Y135.43
G2 X-123.2391 Y133.6273 I-151.2521 J-311.4043
G1 X-122.3289 Y133.1688
G2 X-119.6106 Y131.769 I-84.8473 J-168.0959
G1 X-119.7798 Y131.6898
G1 X-120.1155 Y131.5322
G1 X-120.7751 Y131.2197
G1 X-121.0941 Y131.0669
G3 X-121.1333 Y131.048 I0.1635 J-0.3896
G3 X-121.1725 Y131.0291 I0.1643 J-0.3908
G1 X-121.7959 Y130.7252
G1 X-122.3971 Y130.4251
G3 X-124.6867 Y129.1862 I20.0786 J-39.8454
G3 X-128.4476 Y126.6236 I16.0954 J-27.6626
G1 X-128.7806 Y126.3572
G3 X-130.0408 Y125.2887 I22.1597 J-27.4126
G3 X-130.5779 Y124.805 I18.485 J-21.0675
G3 X-131.5639 Y123.8756 I37.5303 J-40.7984
G3 X-132.4063 Y123.0414 I29.6337 J-30.7672
G1 X-132.7695 Y122.6711
G1 X-132.8119 Y122.6274
G1 X-133.1467 Y122.2801
G1 X-133.1858 Y122.2392
G3 X-133.8017 Y121.5864 I48.6018 J-46.4723
G1 X-134.0687 Y121.2985
G1 X-134.5656 Y120.7553
G1 X-134.9966 Y120.2767
G3 X-136.4813 Y118.5801 I70.6071 J-63.2861
G1 X-136.8473 Y118.1515
G1 X-137.1207 Y117.829
G1 X-137.5288 Y117.3438
G3 X-137.7321 Y117.1005 I9.4969 J-8.1425
G1 X-137.7829 Y117.0396
G1 X-137.9349 Y116.8568
G0 Z5.0
G0 X-157.4055 Y237.2536
G1 Z0.0
G3 X-158.4499 Y237.0257 I8.6091 J-41.9586
G1 X-158.9548 Y236.911
G1 X-159.9482 Y236.6824
G1 X-160.91 Y236.4588
G1 X-162.7729 Y236.0225
G1 X-166.2643 Y235.1981
G1 X-169.3184 Y234.473
G1 X-170.6543 Y234.155
G1 X-175.6634 Y232.9597
G1 X-183.1757 Y231.1607
G1 X-190.6868 Y229.3562
G1 X-188.4545 Y228.3346
G3 X-188.1798 Y228.2089 I11.8472 J25.5398
G1 X-185.9862 Y227.2061
G1 X-185.4463 Y226.9594
G1 X-183.2952 Y225.9768
G1 X-179.0594 Y224.0438
G1 X-170.8505 Y220.3033
G1 X-163.1522 Y216.8021
G1 X-155.9326 Y213.5244
G1 X-149.1623 Y210.456
G1 X-148.3687 Y210.0967
G1 X-145.2191 Y208.6714
G1 X-144.4562 Y208.3263
G1 X-138.3999 Y205.5896
G1 X-132.7204 Y203.0276
G1 X-131.3889 Y202.4277
G1 X-126.1457 Y200.0676
G1 X-123.6873 Y198.9626
G1 X-123.0918 Y198.695
G1 X-122.5009 Y198.4296
G1 X-121.3284 Y197.9032
G1 X-116.711 Y195.8322
G1 X-114.546 Y194.8626
G1 X-113.4972 Y194.3931
G1 X-109.3668 Y192.5467
G1 X-108.3985 Y192.1144
G1 X-107.4452 Y191.6889
G1 X-103.6912 Y190.0156
G1 X-100.1704 Y188.4494
G1 X-96.8685 Y186.9837
G1 X-93.7719 Y185.612
G1 X-92.3199 Y184.9699
G1 X-89.5059 Y183.7276
G3 X-89.4234 Y183.6912 I0.6094 J1.2702
G1 X-86.7894 Y182.5311
G1 X-84.3191 Y181.4456
G1 X-83.7399 Y181.1915
G1 X-82.5994 Y180.6916
G1 X-80.3893 Y179.7247
G1 X-78.3163 Y178.8202
G1 X-76.372 Y177.974
G1 X-75.9162 Y177.776
G1 X-74.1209 Y176.9974
G1 X-72.4369 Y176.2692
G1 X-69.2771 Y174.9091
G1 X-67.8935 Y174.3164
G1 X-65.2972 Y173.2099
G1 X-64.7288 Y172.9688
G1 X-64.1779 Y172.7355
G1 X-62.042 Y171.8352
G1 X-60.1707 Y171.0528
G1 X-58.5309 Y170.3732
G3 X-55.6547 Y169.1987 I195.2523 J474.0495
G3 X-55.1141 Y168.9812 I37.4138 J92.179
G3 X-54.0992 Y168.5761 I49.6329 J122.8963
G1 X-53.6545 Y168.4003
G1 X-52.8196 Y168.0733
G1 X-52.4538 Y167.9314
G3 X-52.1104 Y167.7992 I5.9544 J14.9519
G1 X-51.9493 Y167.7375
G1 X-51.3243 Y167.5004
G1 X-51.1874 Y167.4489
G3 X-49.0534 Y166.6832 I23.4084 J61.881
G3 X-47.9685 Y166.3423 I6.9444 J20.2011
G1 X-47.6926 Y166.2676
G3 X-47.4836 Y166.2172 I1.4099 J5.3877
G3 X-47.1658 Y166.1585 I0.6936 J2.8632
G3 X-47.0031 Y166.1459 I0.1905 J1.4047
G3 X-46.9209 Y166.151 I0.0036 J0.6084
G3 X-46.8432 Y166.1784 I-0.0181 J0.1749
G2 X-46.5806 Y166.3293 I0.9944 J-1.4265
G2 X-46.0261 Y166.5541 I2.6271 J-5.6861
G2 X-45.9567 Y166.5787 I0.5576 J-1.4612
G2 X-44.8367 Y166.93 I6.6583 J-19.2645
G2 X-44.2894 Y167.0832 I8.3161 J-28.6522
G2 X-42.1209 Y167.6351 I18.5268 J-68.2627
G1 X-41.6108 Y167.7568
G2 X-37.5812 Y168.6592 I48.6985 J-207.9962
G1 X-36.6978 Y168.8475
G1 X-36.4837 Y168.8927
G2 X-33.0826 Y169.5947 I72.9482 J-344.8255
G1 X-31.5931 Y169.8941
G1 X-31.4184 Y169.9289
G1 X-30.0321 Y170.2036
G2 X-28.7319 Y170.4585 I87.4224 J-442.4633
G1 X-28.1222 Y170.5772
G1 X-25.7592 Y171.0328
G1 X-23.6905 Y171.4262
G1 X-21.8798 Y171.767
G1 X-21.4835 Y171.8412
G2 X-18.4123 Y172.4112 I114.0482 J-605.9451
G1 X-16.1079 Y172.8337
G1 X-15.6757 Y172.9124
G1 X-14.0549 Y173.2065
G1 X-11.6231 Y173.6437
G1 X-9.1903 Y174.0754
G0 Z5.0
G0 X-444.5278 Y280.1246
G1 Z0.0
G2 X-444.5345 Y281.4122 I3.9745 J0.6644
G2 X-444.4043 Y282.011 I4.5621 J-0.6781
G1 X-444.3616 Y282.1553
G2 X-444.1556 Y282.7181 I5.7693 J-1.7927
G2 X-443.6163 Y283.7685 I7.3712 J-3.1216
G2 X-442.9694 Y284.7233 I10.0891 J-6.1383
G2 X-442.2575 Y285.6013 I12.6757 J-9.5495
G2 X-441.5051 Y286.4171 I13.4545 J-11.6552
G2 X-441.4097 Y286.5145 I1.9261 J-1.7899
G2 X-439.8201 Y288.0011 I20.0416 J-19.8374
G2 X-439.016 Y288.6799 I19.7117 J-22.5339
G2 X-438.8153 Y288.8436 I4.7488 J-5.6188
G2 X-437.1839 Y290.1053 I29.3158 J-36.2187
G2 X-435.5597 Y291.2665 I33.9509 J-45.7703
G2 X-435.1612 Y291.54 I17.8529 J-25.5863
G2 X-433.5626 Y292.6 I43.8165 J-64.3494
G1 X-433.3673 Y292.7258
G2 X-430.2162 Y294.6665 I54.8891 J-85.594
G1 X-429.4686 Y295.1058
G2 X-426.4975 Y296.788 I71.3628 J-122.5769
G2 X-426.1468 Y296.9806 I9.6215 J-17.1024
G1 X-425.4497 Y297.3601
G1 X-425.2778 Y297.4531
G1 X-425.1065 Y297.5454
G1 X-424.423 Y297.9115
G1 X-424.2545 Y298.0011
G1 X-423.9186 Y298.1792
G1 X-423.2511 Y298.5304
G1 X-422.922 Y298.7023
G1 X-422.5952 Y298.8723
G1 X-421.9458 Y299.2078
G2 X-421.3054 Y299.5357 I28.7683 J-55.3799
G1 X-421.1477 Y299.6161
G2 X-416.0878 Y302.1157 I108.922 J-214.1152
G1 X-414.9738 Y302.6478
G2 X-412.8092 Y303.6652 I205.5562 J-434.5186
G2 X-411.7919 Y304.1363 I87.1612 J-186.8722
G2 X-411.2985 Y304.3633 I17.1484 J-36.6293
G2 X-407.4009 Y306.1233 I151.6376 J-330.615
G2 X-407.294 Y306.1708 I0.7517 J-1.5479
G2 X-407.1875 Y306.2181 I0.7438 J-1.5319
G2 X-407.0814 Y306.2651 I0.7361 J-1.5164
G2 X-406.9757 Y306.312 I0.7286 J-1.5013
G2 X-406.8703 Y306.3586 I0.7212 J-1.4865
G2 X-406.8179 Y306.3818 I0.4951 J-1.0479
G2 X-406.7655 Y306.405 I0.4926 J-1.0428
G2 X-406.7132 Y306.4281 I0.4902 J-1.0379
G2 X-400.0143 Y309.3183 I168.6235 J-381.6342
G2 X-389.8818 Y313.4525 I194.7798 J-462.9066
G1 X-388.6089 Y313.9535
G1 X-387.494 Y314.3891
G1 X-387.3719 Y314.4366
G1 X-386.4106 Y314.8094
G1 X-385.5689 Y315.1339
G1 X-384.8318 Y315.4166
G1 X-384.1865 Y315.6629
G1 X-383.0564 Y316.0914
G1 X-382.208 Y316.4107
G1 X-382.0488 Y316.4704
G1 X-381.4517 Y316.6934
G1 X-381.2276 Y316.7768
G2 X-379.6576 Y317.3545 I90.821 J-244.376
G0 Z5.0
M5
M30
