( Made using CamBam - http://www.cambam.co.uk )
( Plane_3Mx3M 1/20/2014 12:44:19 PM )
( T0 : 0.0 )
G21 G90 G64 G40
G0 Z5.0
( T0 : 0.0 )
T0 M6
( 1-10 )
G17
M3 S1000
G0 X52.21 Y-68.7424
G1 F2000.0 Z0.0
G3 X54.0298 Y-70.1617 I15.9139 J18.5278
G3 X55.8637 Y-71.3202 I11.6349 J16.3875
G3 X56.3112 Y-71.5616 I9.0353 J16.2185
G3 X58.1371 Y-72.3777 I7.5862 J14.5207
G3 X59.9272 Y-72.9136 I4.8678 J13.0032
G3 X60.7836 Y-73.0764 I2.746 J12.1088
G3 X64.1418 Y-73.1164 I1.8169 J11.5553
G3 X66.9549 Y-72.3822 I-1.6054 J11.9077
G3 X69.2121 Y-71.2454 I-5.1114 J12.9576
G3 X71.0036 Y-69.9615 I-8.7712 J14.1316
G3 X72.4318 Y-68.6702 I-12.8291 J15.6251
G3 X74.643 Y-66.1342 I-17.3851 J17.3903
G1 X74.6908 Y-66.0714
G1 X74.738 Y-66.009
G1 X74.7846 Y-65.9469
G1 X74.8307 Y-65.8852
G3 X76.2105 Y-63.8671 I-23.9358 J17.8456
G1 X76.2713 Y-63.7699
G3 X76.7388 Y-62.998 I-32.4139 J20.1601
G3 X76.9371 Y-62.6566 I-11.2433 J6.7575
G1 X76.9831 Y-62.5762
G3 X78.3289 Y-59.9916 I-35.0094 J19.8723
G1 X78.4839 Y-59.6619
G3 X79.4921 Y-57.3199 I-40.4973 J18.8203
G1 X79.1058 Y-57.5793
G1 X78.7236 Y-57.8316
G2 X75.6558 Y-59.7282 I-39.8648 J61.0529
G2 X74.9734 Y-60.1248 I-43.9355 J74.8082
G1 X74.6416 Y-60.3148
G2 X72.0024 Y-61.7639 I-50.6026 J89.0307
G2 X70.8335 Y-62.3725 I-57.851 J109.6913
G1 X70.2827 Y-62.6524
G2 X68.1316 Y-63.7038 I-38.1823 J75.3905
G1 X67.8946 Y-63.8156
G1 X67.661 Y-63.9249
G2 X63.9404 Y-65.5543 I-34.5932 J73.9256
G1 X63.2334 Y-65.8388
G2 X60.554 Y-66.834 I-23.6603 J59.5918
G2 X60.4906 Y-66.8559 I-0.2753 J0.696
G2 X59.481 Y-67.1922 I-15.0275 J43.4293
G1 X59.0372 Y-67.3328
G2 X58.6199 Y-67.4608 I-13.791 J44.2172
G2 X55.4505 Y-68.2795 I-11.1082 J36.4609
G2 X53.8384 Y-68.5683 I-5.2429 J24.6194
G2 X52.21 Y-68.7424 I-2.8313 J18.7783
G0 Z5.0
G0 X81.8436 Y15.9807
G1 Z0.0
G1 X-28.6444 Y-23.1088
G1 X-46.9922 Y-33.479
G0 Z5.0
G0 X-46.5379 Y-33.8499
G1 Z0.0
G2 X-52.6105 Y-36.5115 I-445.1047 J1007.2808
G2 X-64.045 Y-41.3924 I-364.8352 J838.8644
G1 X-65.3 Y-41.9161
G1 X-66.5364 Y-42.4296
G1 X-67.1452 Y-42.6815
G1 X-67.7496 Y-42.9309
G1 X-68.3494 Y-43.1778
G1 X-68.9448 Y-43.4223
G1 X-69.5357 Y-43.6644
G1 X-70.1223 Y-43.904
G1 X-70.7045 Y-44.1413
G1 X-71.2823 Y-44.3761
G1 X-71.8558 Y-44.6087
G1 X-72.425 Y-44.8389
G1 X-72.9901 Y-45.0668
G1 X-73.5509 Y-45.2924
G2 X-82.4816 Y-48.803 I-224.3925 J557.7236
G1 X-82.9717 Y-48.991
G1 X-83.458 Y-49.177
G1 X-83.9408 Y-49.3612
G1 X-84.4199 Y-49.5435
G2 X-99.7197 Y-55.092 I-185.1903 J486.7836
G1 X-101.1632 Y-55.5867
G1 X-101.863 Y-55.8247
G2 X-112.9344 Y-59.4212 I-145.0639 J427.7221
G1 X-113.4557 Y-59.5825
G1 X-113.9691 Y-59.7407
G2 X-122.0813 Y-62.1424 I-121.2731 J394.7132
G1 X-123.6079 Y-62.5736
G2 X-135.1126 Y-65.6032 I-101.7915 J363.1852
G2 X-140.9007 Y-66.9766 I-79.6163 J322.6555
G1 X-142.3513 Y-67.3046
G1 X-142.8956 Y-67.4259
G1 X-143.3721 Y-67.5314
G1 X-143.7891 Y-67.6232
G1 X-145.2496 Y-67.9401
G1 X-146.7114 Y-68.2507
G1 X-147.6856 Y-68.2823
G3 X-148.6291 Y-68.3195 I2.3694 J-72.1214
G3 X-148.6862 Y-68.3219 I0.0197 J-1.1313
G3 X-148.7433 Y-68.3244 I0.0202 J-1.1315
G3 X-152.3834 Y-68.5162 I9.7365 J-219.3785
G3 X-153.9758 Y-68.6146 I15.2779 J-260.3158
G1 X-154.3492 Y-68.6382
G1 X-155.819 Y-68.7316
G1 X-157.1973 Y-68.8173
G2 X-157.2782 Y-68.8222 I-0.141 J1.6533
G2 X-157.3587 Y-68.8271 I-0.1406 J1.6546
G2 X-157.4389 Y-68.8319 I-0.1401 J1.6559
G2 X-157.5188 Y-68.8367 I-0.1397 J1.6573
G1 X-158.7915 Y-68.9103
G1 X-159.9853 Y-68.9728
G1 X-160.545 Y-68.9994
G2 X-164.8866 Y-69.1192 I-5.1486 J107.8608
G2 X-166.5161 Y-69.1117 I-0.5071 J67.5342
G1 X-167.2289 Y-69.0972
G2 X-169.8996 Y-68.9731 I1.6465 J64.1968
G2 X-171.8975 Y-68.7985 I3.6901 J53.7601
G2 X-173.3906 Y-68.6166 I6.079 J56.1139
G2 X-177.8239 Y-67.7827 I6.1356 J44.8188
G1 X-178.1007 Y-67.7088
G2 X-182.4667 Y-66.4341 I26.0567 J97.3629
G2 X-183.4137 Y-66.1286 I18.2482 J58.1766
G2 X-197.5806 Y-60.0834 I27.6367 J84.3891
G2 X-200.9478 Y-58.2105 I47.5192 J89.3981
G1 X-201.5714 Y-57.8458
G2 X-203.8893 Y-56.4437 I54.3222 J92.423
G1 X-204.7506 Y-55.9049
G2 X-204.9385 Y-55.7861 I3.5552 J5.8312
G1 X-205.6645 Y-55.323
G1 X-205.8229 Y-55.2211
G1 X-205.9763 Y-55.1222
G1 X-206.5694 Y-54.7371
G1 X-206.6989 Y-54.6524
G1 X-206.8243 Y-54.5703
G2 X-210.6727 Y-51.9691 I97.6317 J148.5911
G0 Z5.0
G0 X-225.4468 Y-32.1419
G1 Z0.0
G2 X-226.6813 Y-30.1035 I25.0587 J16.5693
G2 X-227.6915 Y-28.1109 I29.4834 J16.2002
G2 X-229.2276 Y-24.2145 I32.4902 J15.0593
G2 X-230.8324 Y-17.0628 I36.1363 J11.8647
G2 X-231.0955 Y-11.5558 I35.2772 J4.4453
G2 X-230.9675 Y-9.4875 I33.8406 J-1.056
G2 X-230.4207 Y-5.9027 I30.8815 J-2.8764
G2 X-229.7246 Y-3.2716 I28.0179 J-6.0052
G2 X-229.0339 Y-1.3501 I25.8464 J-8.2061
G2 X-227.7202 Y1.4159 I23.1686 J-9.3088
G2 X-226.0752 Y3.9986 I21.4677 J-11.8581
G2 X-226.0193 Y4.0612 I1.4293 J-1.2213
G2 X-218.7463 Y11.9561 I265.7174 J-237.486
G1 X-217.9361 Y12.8058
G2 X-217.8361 Y12.9101 I2.2142 J-2.0199
G2 X-217.7363 Y13.0143 I2.218 J-2.0256
G2 X-217.6367 Y13.1182 I2.2219 J-2.0313
G2 X-217.5372 Y13.2218 I2.2259 J-2.0371
G2 X-211.0891 Y19.7473 I223.9666 J-214.8609
G2 X-210.9996 Y19.8353 I2.7122 J-2.6708
G2 X-199.2778 Y30.7568 I211.9217 J-215.699
G2 X-190.117 Y38.5325 I203.2175 J-230.1324
G1 X-189.2429 Y39.2432
G1 X-188.3938 Y39.9286
G1 X-187.569 Y40.59
G2 X-181.1057 Y45.6249 I209.9471 J-262.8432
G1 X-180.4936 Y46.0889
G1 X-179.8996 Y46.5371
G1 X-179.3233 Y46.9702
G1 X-178.2042 Y47.8059
G2 X-169.7139 Y53.9398 I226.1429 J-304.0743
G1 X-169.1779 Y54.3157
G1 X-168.6748 Y54.6674
G2 X-161.0712 Y59.8573 I256.4411 J-367.5393
G1 X-160.0433 Y63.5567
G1 X-159.5589 Y65.2905
G1 X-159.3232 Y66.1301
G1 X-159.0905 Y66.9565
G1 X-158.9756 Y67.3632
G1 X-158.5172 Y68.9764
G1 X-158.0688 Y70.538
G1 X-157.6296 Y72.0496
G1 X-157.1987 Y73.5126
G2 X-156.3459 Y76.342 I299.7826 J-88.806
G1 X-155.9368 Y77.6655
G1 X-155.5339 Y78.9457
G1 X-155.3363 Y79.5651
G1 X-154.9422 Y80.7829
G2 X-153.3447 Y85.4784 I188.5644 J-61.5339
G2 X-150.2227 Y93.5774 I146.3601 J-51.7675
G1 X-149.9059 Y94.327
G1 X-149.5948 Y95.0514
G2 X-144.2377 Y106.031 I123.1053 J-53.2689
G2 X-142.7447 Y108.6964 I121.9846 J-66.5742
G1 X-142.6018 Y108.9446
G2 X-137.9359 Y116.4969 I131.6983 J-76.1472
G1 X-284.9549 Y182.009
G1 X-439.3306 Y270.3091
G2 X-440.6341 Y271.064 I7.0267 J13.6366
G2 X-444.966 Y274.6831 I11.6352 J18.3289
G2 X-446.3132 Y276.3441 I13.4104 J12.2532
G2 X-447.313 Y277.9291 I13.0151 J9.3186
G2 X-448.5546 Y280.9601 I12.3117 J6.8128
G2 X-448.9763 Y285.8355 I13.0353 J3.5836
G2 X-448.5557 Y288.2524 I15.6577 J-1.4801
G2 X-448.2122 Y289.4307 I16.8342 J-4.2683
G1 X-448.114 Y289.7213
G2 X-447.7919 Y290.5837 I16.2566 J-5.5806
G2 X-446.7654 Y292.7303 I16.9564 J-6.7898
G2 X-445.5459 Y294.6681 I19.1056 J-10.6706
G2 X-444.2001 Y296.4189 I22.0758 J-15.5769
G2 X-443.8543 Y296.825 I18.5232 J-15.4225
G2 X-443.1477 Y297.6119 I28.2358 J-24.6416
G2 X-441.6866 Y299.0923 I26.9636 J-25.1526
G2 X-441.5042 Y299.2655 I4.7859 J-4.8558
G1 X-441.413 Y299.3513
G2 X-438.3713 Y301.9465 I30.561 J-32.7398
G1 X-438.279 Y302.0184
G1 X-438.1868 Y302.09
G2 X-436.6939 Y303.2059 I34.5841 J-44.7157
G1 X-436.6023 Y303.2718
G2 X-433.619 Y305.2901 I38.076 J-53.0665
G1 X-433.4411 Y305.4034
G1 X-433.2635 Y305.5157
G1 X-433.0863 Y305.627
G1 X-432.9094 Y305.7374
G1 X-432.733 Y305.847
G1 X-432.557 Y305.9556
G1 X-432.3813 Y306.0633
G1 X-432.2061 Y306.1701
G2 X-431.5054 Y306.5911 I38.6206 J-63.4789
G2 X-428.7085 Y308.1833 I45.115 J-75.9992
G1 X-428.543 Y308.2735
G2 X-425.8823 Y309.6693 I48.1177 J-88.4892
G1 X-425.2532 Y309.9855
G2 X-420.2371 Y312.3467 I56.9372 J-114.4477
G2 X-418.0132 Y313.3142 I50.5843 J-113.2366
G2 X-409.5508 Y316.6423 I67.4408 J-159.0581
G1 X-408.7493 Y316.9325
G2 X-402.4976 Y319.0689 I71.1438 J-197.9693
G1 X-401.9083 Y319.2594
G1 X-400.7649 Y319.6241
G2 X-392.1335 Y322.1736 I71.7978 J-227.1856
G2 X-387.7831 Y323.3257 I62.64 J-227.7317
G1 X-386.6919 Y323.5999
G1 X-385.8726 Y323.8014
G1 X-385.2573 Y323.95
G1 X-385.0265 Y324.0052
G1 X-384.2178 Y324.1952
G1 X-383.813 Y324.2882
G1 X-383.4078 Y324.379
G1 X-377.4841 Y322.2048
G2 X-377.3019 Y322.1378 I-4.0827 J-11.3901
G2 X-377.1198 Y322.0709 I-4.0853 J-11.3962
G2 X-376.9377 Y322.004 I-4.0879 J-11.4022
G2 X-376.7558 Y321.9371 I-4.0906 J-11.4084
G2 X-376.5739 Y321.8702 I-4.0932 J-11.4145
G2 X-376.3922 Y321.8034 I-4.0958 J-11.4206
G2 X-376.2105 Y321.7366 I-4.0985 J-11.4267
G2 X-376.0289 Y321.6698 I-4.1011 J-11.4329
G2 X-375.8474 Y321.6031 I-4.1038 J-11.4391
G2 X-375.666 Y321.5364 I-4.1065 J-11.4454
G2 X-329.3134 Y304.3107 I-2462.1023 J-6696.2679
G2 X-328.9969 Y304.1918 I-7.28 J-19.8643
G2 X-248.2606 Y273.2776 I-2337.7802 J-6226.272
G1 X-244.4862 Y271.8024
G1 X-242.6287 Y271.0755
G1 X-240.786 Y270.3536
G1 X-238.9579 Y269.6368
G1 X-237.1444 Y268.9251
G2 X-222.7571 Y263.2561 I-1978.6759 J-5042.7512
G1 X-219.3871 Y261.9224
G1 X-216.0705 Y260.6075
G1 X-212.8064 Y259.3114
G1 X-206.3824 Y256.7543
G1 X-200.1619 Y254.2703
G1 X-197.1498 Y253.0647
G2 X-149.7933 Y233.8684 I-2277.7037 J-5687.0146
G1 X-145.3618 Y232.0486
G2 X-76.8575 Y203.4002 I-2358.3087 J-5735.4326
G1 X-74.7223 Y202.4916
G1 X-70.5865 Y200.7291
G1 X-66.7102 Y199.0739
G1 X-64.8936 Y198.2972
G2 X-36.7676 Y186.1843 I-2529.6219 J-5912.4464
G1 X-33.256 Y184.6605
G1 X-27.1129 Y181.9889
G1 X-22.5075 Y179.9809
G1 X-19.0544 Y178.4725
G1 X-13.8765 Y176.2062
G1 X-11.2882 Y175.0713
G1 X-8.7006 Y173.9353
G0 Z5.0
G0 X-11.8919 Y173.9349
G1 Z0.0
G1 X41.5564 Y171.5418
G1 X138.8824 Y209.8337
G1 X139.0326 Y209.9284
G1 X140.2318 Y210.6857
G1 X140.3793 Y210.779
G1 X140.5266 Y210.8721
G1 X141.7018 Y211.6157
G1 X142.8582 Y212.3483
G3 X143.9963 Y213.07 I-124.9406 J198.2889
G1 X146.2359 Y214.4921
G1 X150.5721 Y217.2523
G1 X152.6033 Y218.5484
G1 X156.5363 Y221.0633
G1 X160.2206 Y223.4258
G1 X163.6718 Y225.645
G1 X166.9047 Y227.7297
G3 X179.0023 Y235.5873 I-1447.712 J2242.1384
G1 X180.1341 Y236.3278
G1 X182.3254 Y237.7645
G1 X184.378 Y239.1143
G1 X186.3007 Y240.3823
G3 X186.357 Y240.4195 I-0.8125 J1.2912
G3 X186.4132 Y240.4566 I-0.8084 J1.2848
G3 X186.4694 Y240.4937 I-0.8043 J1.2784
G3 X186.5253 Y240.5307 I-0.8003 J1.2721
G1 X188.3119 Y241.713
G3 X191.657 Y243.9369 I-589.8724 J890.8628
G1 X193.1183 Y244.9132
G1 X194.487 Y245.8306
G1 X194.8076 Y246.0459
G1 X196.0691 Y246.8948
G1 X197.2505 Y247.6924
G1 X198.357 Y248.442
G1 X199.3932 Y249.1463
G1 X201.3328 Y250.4716
G1 X203.0261 Y251.637
G1 X204.5043 Y252.6619
G1 X205.1498 Y253.112
G1 X206.358 Y253.959
G1 X206.8856 Y254.3311
G1 X207.873 Y255.0312
G1 X208.7347 Y255.6468
G1 X209.4868 Y256.1882
G1 X210.1432 Y256.6643
G1 X210.4299 Y256.8733
G1 X210.6984 Y257.0698
G3 X211.7017 Y257.8106 I-56.4289 J77.4734
G1 X211.7955 Y257.8805
G1 X212.1584 Y258.1518
G1 X212.7914 Y258.6295
G1 X213.264 Y258.9905
G3 X213.3524 Y259.0585 I-1.2608 J1.7309
G1 X214.0127 Y259.5716
G3 X214.6675 Y260.0917 I-25.4083 J32.6639
G3 X215.2246 Y260.935 I-13.4873 J9.5154
G1 X215.2905 Y261.0416
G3 X215.8017 Y261.9022 I-35.5782 J21.7146
G1 X216.0474 Y262.3337
G1 X216.2883 Y262.7655
G3 X217.2199 Y264.5014 I-77.6916 J42.8156
G1 X217.3322 Y264.7162
G3 X219.0786 Y268.1699 I-149.2992 J77.6648
G1 X219.4919 Y269.0112
G1 X219.594 Y269.2201
G1 X219.7972 Y269.6373
G1 X220.2002 Y270.4693
G1 X220.5978 Y271.2959
G1 X221.3811 Y272.9388
G1 X221.7641 Y273.7486
G1 X221.9536 Y274.1506
G3 X224.9338 Y280.5759 I-628.3658 J295.3505
G1 X225.6235 Y282.0857
G1 X226.3 Y283.5732
G1 X226.9635 Y285.0384
G1 X227.1265 Y285.3992
G1 X228.4211 Y288.2757
G1 X228.7336 Y288.9729
G1 X229.3525 Y290.3567
G1 X229.9604 Y291.7196
G1 X231.1534 Y294.4044
G1 X232.3049 Y297.0071
G1 X233.4168 Y299.5301
G1 X233.9542 Y300.7527
G1 X235.0101 Y303.1605
G1 X235.5206 Y304.3273
G3 X239.5214 Y313.5238 I-2176.4019 J952.2887
G1 X239.9571 Y314.5305
G1 X240.1715 Y315.026
G1 X241.0214 Y316.993
G3 X244.3037 Y324.6196 I-2441.0851 J1055.1109
G1 X244.6617 Y325.4542
G1 X245.3661 Y327.0975
G3 X256.206 Y352.6017 I-4836.2952 J2070.6096
G1 X258.8962 Y358.9861
G1 X259.0221 Y359.2855
G1 X261.0033 Y364.0011
G1 X261.7452 Y365.7699
G1 X263.0421 Y368.8658
G1 X264.0136 Y371.1883
G1 X264.7415 Y372.9305
G1 X265.832 Y375.5443
G1 X266.9204 Y378.1589
G2 X272.2893 Y382.4191 I56.5878 J-65.8007
G1 X272.4409 Y382.5294
G2 X273.6573 Y383.395 I42.03 J-57.7752
G1 X274.2523 Y383.8059
G1 X274.3994 Y383.9062
G1 X274.5461 Y384.0057
G2 X274.5827 Y384.0305 I0.3862 J-0.5316
G2 X274.6193 Y384.0552 I0.3859 J-0.5317
G2 X274.6558 Y384.0799 I0.3855 J-0.5319
G2 X277.0198 Y385.6104 I39.7387 J-58.7888
G2 X286.3675 Y390.4971 I37.4412 J-60.2359
G2 X287.2774 Y390.8827 I47.4822 J-110.7791
G2 X290.8485 Y392.2632 I29.2458 J-70.3437
G2 X290.947 Y392.2985 I0.5624 J-1.4157
G2 X291.0453 Y392.3335 I0.5619 J-1.4207
G2 X291.1431 Y392.3683 I0.5615 J-1.4258
G2 X291.2407 Y392.4028 I0.5611 J-1.4311
G2 X291.3379 Y392.4371 I0.5606 J-1.4362
G2 X294.4561 Y393.4672 I31.0076 J-88.6279
G1 X294.7994 Y393.573
G2 X297.5146 Y394.3638 I29.2352 J-95.3232
G2 X297.6637 Y394.405 I0.8978 J-2.9566
G2 X300.0365 Y395.0346 I32.3744 J-117.2185
G2 X304.2115 Y396.0467 I45.6774 J-179.3085
G1 X304.9965 Y396.2273
G1 X306.4695 Y396.5609
G1 X307.7592 Y396.8489
G1 X308.8881 Y397.0994
G1 X310.8636 Y397.5376
G1 X312.3447 Y397.8689
G1 X313.4548 Y398.1204
G1 X314.2869 Y398.3113
G1 X315.5339 Y398.6024
G1 X316.7793 Y398.9002
G1 X293.645 Y261.6879
G2 X293.7222 Y261.6497 I-0.4484 J-1.0049
G2 X294.3261 Y261.3241 I-4.6743 J-9.3915
G2 X294.8846 Y260.9691 I-3.7047 J-6.4443
G2 X295.8552 Y260.1483 I-3.4956 J-5.1181
G2 X296.541 Y259.2102 I-3.0768 J-2.9691
G2 X296.894 Y258.2161 I-3.1407 J-1.675
G2 X296.9461 Y257.2548 I-3.6164 J-0.678
G2 X296.7891 Y256.3809 I-4.4759 J0.3531
G2 X296.5087 Y255.6048 I-5.5631 J1.5712
G2 X296.4286 Y255.4295 I-4.2716 J1.8462
G2 X296.0706 Y254.7616 I-7.8991 J3.8039
G2 X295.8832 Y254.4606 I-6.9194 J4.0995
G2 X295.0675 Y253.3571 I-9.7936 J6.3855
G2 X294.9714 Y253.242 I-3.5883 J2.8992
G1 X294.9476 Y253.2138
G1 X294.7553 Y252.9915
G1 X294.5651 Y252.7795
G2 X292.9899 Y251.2358 I-15.536 J14.2782
G1 X292.6787 Y250.9634
G1 X292.3835 Y250.7123
G2 X290.0796 Y248.9411 I-23.1517 J27.7295
G2 X289.4839 Y248.5248 I-35.2371 J49.7904
G2 X287.6617 Y247.3286 I-30.7064 J44.7915
G1 X315.1835 Y255.3064
G2 X325.8413 Y250.4533 I-478.157 J-1064.1967
G1 X327.0047 Y249.9166
G1 X327.5772 Y249.652
G1 X329.8482 Y248.5995
G1 X332.0466 Y247.576
G1 X334.1748 Y246.581
G2 X350.6091 Y238.7398 I-534.0119 J-1140.3761
G1 X350.8012 Y238.6463
G1 X350.9925 Y238.5531
G1 X352.5163 Y237.8092
G1 X352.8852 Y237.6286
G1 X353.2512 Y237.4493
G1 X354.7028 Y236.7362
G1 X356.1081 Y236.0428
G2 X357.4684 Y235.3687 I-95.8242 J-195.0861
G1 X358.7853 Y234.7133
G2 X358.9447 Y234.6338 I-2.5908 J-5.3923
G1 X360.2144 Y233.9987
G1 X360.8291 Y233.6903
G1 X362.0385 Y233.0814
G1 X362.624 Y232.7856
G1 X363.7759 Y232.2016
G1 X364.3336 Y231.918
G1 X365.4308 Y231.358
G2 X369.6725 Y229.167 I-245.7291 J-480.9227
G1 X370.5985 Y228.6826
G1 X371.0468 Y228.4472
G2 X378.0715 Y224.6719 I-193.5742 J-368.6078
G1 X378.7273 Y224.3095
G1 X378.8861 Y224.2215
G1 X380.144 Y223.5195
G1 X380.2914 Y223.4367
G1 X380.4375 Y223.3545
G1 X381.5952 Y222.699
G2 X385.9037 Y220.1789 I-98.7848 J-173.826
G2 X389.093 Y218.198 I-66.6711 J-110.898
G2 X391.4464 Y216.6339 I-49.0635 J-76.378
G2 X393.1756 Y215.3934 I-32.8133 J-47.5662
G1 X393.3358 Y215.2728
G1 X393.4906 Y215.1552
G1 X393.64 Y215.0404
G1 X393.7843 Y214.9285
G2 X394.8809 Y214.0339 I-17.9887 J-23.1691
G2 X395.2814 Y213.6812 I-27.4371 J-31.5581
G2 X395.9582 Y213.0347 I-11.1266 J-12.3269
G2 X396.2019 Y212.7794 I-8.4346 J-8.2908
G1 X396.2542 Y212.7223
G2 X396.6428 Y212.2654 I-6.6947 J-6.0877
G2 X396.9086 Y211.8998 I-4.3038 J-3.4079
G2 X397.2312 Y211.3016 I-2.79 J-1.8906
G2 X397.3299 Y210.9741 I-1.525 J-0.6381
G2 X397.3513 Y210.6326 I-1.2435 J-0.2495
G2 X396.5238 Y209.1162 I-14.48 J6.9177
G2 X395.5953 Y207.7311 I-19.422 J12.0166
G1 X395.4763 Y207.5684
G1 X395.3566 Y207.4073
G1 X395.1144 Y207.0891
G1 X394.9926 Y206.9326
G2 X393.9863 Y205.7151 I-26.927 J21.232
G1 X393.7341 Y205.4278
G1 X393.481 Y205.1455
G1 X393.4178 Y205.0758
G2 X392.3864 Y203.9845 I-27.3459 J24.8105
G2 X392.131 Y203.7258 I-8.9993 J8.63
G1 X392.0035 Y203.5982
G1 X391.876 Y203.4716
G2 X390.844 Y202.4801 I-30.8204 J31.0455
G2 X390.7172 Y202.362 I-6.2245 J6.5579
G2 X390.5905 Y202.2448 I-3.8964 J4.0848
G2 X389.5682 Y201.3251 I-44.2398 J48.1442
G2 X385.4275 Y197.9744 I-45.4743 J51.9627
G1 X385.3109 Y197.8871
G2 X381.5156 Y195.2147 I-51.3101 J68.8373
G2 X374.5655 Y191.0128 I-53.5314 J80.6945
G1 X373.8962 Y190.6487
G2 X371.2772 Y189.2868 I-46.2767 J85.7977
G1 X370.9882 Y189.1426
G1 X370.418 Y188.8615
G2 X369.308 Y188.3275 I-32.5237 J66.1874
G2 X369.0468 Y188.2044 I-27.1412 J57.2371
G2 X364.8856 Y186.3722 I-39.9387 J85.0615
G2 X361.7062 Y185.1379 I-32.7612 J79.68
G1 X361.1046 Y184.9209
G1 X360.539 Y184.7218
G1 X360.0074 Y184.539
G1 X359.5079 Y184.3712
G2 X359.4492 Y184.3517 I-0.4062 J1.1263
G2 X359.391 Y184.3325 I-0.4024 J1.1188
G2 X359.3332 Y184.3134 I-0.3987 J1.1114
G2 X359.2759 Y184.2946 I-0.3951 J1.104
G2 X355.607 Y183.1952 I-22.2732 J67.6624
G1 X355.1442 Y183.0722
G2 X354.3323 Y182.8652 I-12.8355 J48.6574
G1 X353.7214 Y182.7171
G2 X353.492 Y182.6632 I-1.7329 J6.8593
G1 X353.09 Y182.571
G1 X352.4858 Y182.4381
G1 X352.1832 Y182.374
G1 X351.8802 Y182.3116
G1 X351.3955 Y182.3594
G2 X349.4692 Y182.5911 I6.0271 J58.2212
G2 X348.5243 Y182.7254 I11.0909 J81.4188
G1 X348.2901 Y182.7605
G2 X344.5645 Y183.3982 I16.5561 J107.9285
G1 X343.6658 Y183.5707
G1 X343.443 Y183.6145
G1 X342.5545 Y183.7923
G2 X339.0381 Y184.5449 I38.5168 J188.5647
G1 X338.1887 Y184.7368
G2 X334.8247 Y185.5286 I60.4745 J264.4485
G1 X334.0117 Y185.7269
G2 X327.5758 Y187.3721 I87.1933 J354.5064
G2 X327.1996 Y187.4719 I4.9505 J19.4217
G1 X325.7015 Y187.8727
G1 X324.9646 Y188.0717
G1 X323.5034 Y188.47
G1 X322.0661 Y188.8661
G1 X320.6523 Y189.2597
G1 X319.9567 Y189.4547
G1 X319.2668 Y189.6489
G2 X317.8985 Y190.0366 I92.6895 J329.7914
G1 X317.2253 Y190.2284
G2 X311.8884 Y191.7729 I230.1178 J805.1348
G1 X309.3902 Y192.5088
G1 X306.972 Y193.2279
G1 X305.8012 Y193.5783
G1 X303.4974 Y194.2716
G1 X302.382 Y194.609
G1 X300.1868 Y195.2762
G1 X299.124 Y195.6006
G1 X298.0779 Y195.9207
G1 X296.0191 Y196.5529
G1 X294.0254 Y197.1679
G2 X293.0599 Y197.4665 I44.2849 J144.8746
G1 X292.5848 Y197.6137
G2 X288.8147 Y198.7856 I669.6661 J2160.8967
G1 X285.2819 Y199.8897
G1 X281.971 Y200.9286
G1 X278.8679 Y201.9052
G1 X273.0509 Y203.7404
G1 X270.5062 Y204.5441
G1 X268.1205 Y205.2976
G3 X259.172 Y208.1158 I-2641.061 J-8370.2452
G1 X257.4934 Y208.6418
G1 X256.7064 Y208.888
G1 X253.6559 Y209.8391
G3 X250.9853 Y210.6668 I-435.1662 J-1399.2916
G1 X248.6473 Y211.3868
G1 X246.6003 Y212.0129
G1 X246.1524 Y212.1493
G1 X244.4159 Y212.6757
G1 X242.8957 Y213.1333
G1 X242.2302 Y213.3326
G3 X239.7331 Y214.0736 I-226.486 J-758.6072
G1 X238.7958 Y214.3488
G1 X237.1544 Y214.826
G3 X234.6889 Y215.5302 I-176.2911 J-612.6076
G3 X233.4544 Y215.8759 I-51.2928 J-180.7584
G3 X233.2999 Y215.9188 I-1.7854 J-6.129
G1 X232.2185 Y216.2167
G0 Z5.0
G0 X248.572 Y210.6315
G1 Z0.0
G1 X137.6857 Y106.5254
G0 Z5.0
G0 X59.0104 Y140.2441
G1 Z0.0
G1 X427.7232 Y-29.4904
G1 X427.1437 Y-29.9491
G1 X426.8553 Y-30.1755
G1 X426.5675 Y-30.4006
G1 X425.9934 Y-30.8474
G1 X425.4223 Y-31.2892
G1 X424.8546 Y-31.7262
G1 X423.7251 Y-32.5894
G1 X422.6096 Y-33.4345
G1 X422.5752 Y-33.4604
G1 X421.4743 Y-34.2877
G2 X417.1107 Y-37.5069 I-235.4272 J314.5544
G1 X416.5963 Y-37.8804
G2 X408.3523 Y-43.702 I-235.6092 J324.8967
G1 X407.441 Y-44.3267
G1 X406.9918 Y-44.6332
G1 X406.5456 Y-44.9366
G1 X406.1025 Y-45.2372
G1 X405.9925 Y-45.3116
G2 X398.9123 Y-49.9844 I-203.5315 J300.6879
G1 X398.1305 Y-50.4855
G1 X397.3595 Y-50.9767
G2 X395.8374 Y-51.9376 I-115.4828 J181.2581
G2 X395.4679 Y-52.169 I-18.559 J29.2181
G1 X395.2845 Y-52.2837
G2 X389.3949 Y-55.8683 I-157.7773 J252.5983
G1 X388.745 Y-56.252
G1 X388.1042 Y-56.6279
G1 X387.7884 Y-56.8123
G1 X387.4748 Y-56.9948
G2 X382.461 Y-59.8306 I-118.4471 J203.5705
G2 X380.244 Y-61.0325 I-86.2375 J156.4258
G1 X379.1996 Y-61.5869
G2 X379.0729 Y-61.6537 I-1.514 J2.7206
G1 X378.0616 Y-62.1822
G1 X377.0788 Y-62.6886
G2 X376.1237 Y-63.1738 I-40.7516 J79.0367
G1 X375.66 Y-63.4068
G2 X371.9842 Y-65.1929 I-74.6027 J148.8644
G2 X365.4358 Y-68.0749 I-57.9804 J122.8571
G2 X364.8133 Y-68.3266 I-16.7262 J40.4884
G2 X364.7378 Y-68.3568 I-0.4713 J1.0677
G2 X364.6625 Y-68.3869 I-0.4685 J1.0635
G2 X364.5875 Y-68.4168 I-0.4658 J1.0593
G2 X364.5128 Y-68.4465 I-0.4631 J1.0552
G2 X364.4384 Y-68.476 I-0.4604 J1.051
G2 X359.6505 Y-70.2401 I-36.1967 J90.8645
G2 X355.9959 Y-71.3826 I-24.8656 J73.1194
G2 X355.9526 Y-71.395 I-0.2082 J0.6484
G2 X355.2636 Y-71.5874 I-9.862 J33.9854
G2 X352.6617 Y-72.2419 I-17.1776 J62.7879
G2 X351.6786 Y-72.4573 I-16.7595 J74.1474
G1 X351.463 Y-72.502
G1 X351.254 Y-72.5445
G2 X347.9936 Y-73.0862 I-9.163 J45.0624
G2 X344.7005 Y-73.3668 I-4.7982 J36.8482
G2 X344.4679 Y-73.3468 I-0.0085 J1.2593
G1 X344.3531 Y-73.328
G2 X344.1249 Y-73.2839 I0.7 J4.2336
G2 X343.221 Y-73.0715 I5.2662 J24.4419
G2 X341.4352 Y-72.5914 I22.4065 J86.9015
G1 X340.5526 Y-72.3415
G2 X339.6748 Y-72.0883 I20.4399 J72.503
G2 X336.1847 Y-71.0528 I109.9166 J376.8527
G1 X334.4699 Y-70.5332
G1 X332.7698 Y-70.0134
G1 X331.0841 Y-69.4944
G1 X329.4123 Y-68.9767
G1 X326.0969 Y-67.9431
G1 X322.8353 Y-66.9192
G1 X322.0329 Y-66.6664
G1 X318.8367 Y-65.6565
G1 X315.6916 Y-64.6587
G1 X314.1439 Y-64.1665
G1 X313.76 Y-64.0443
G1 X310.6957 Y-63.0671
G1 X307.68 Y-62.103
G1 X301.7445 Y-60.1993
G1 X295.9964 Y-58.3494
G1 X295.6484 Y-58.2372
G1 X295.3011 Y-58.1252
G1 X289.756 Y-56.3351
G1 X284.3853 Y-54.5973
G1 X283.0847 Y-54.176
G1 X277.9236 Y-52.5022
G1 X277.2987 Y-52.2993
G1 X276.6761 Y-52.0972
G1 X271.7162 Y-50.4856
G1 X262.1082 Y-47.3577
G1 X257.6051 Y-45.8893
G2 X248.8815 Y-43.0408 I2542.9897 J7802.8164
G1 X247.8592 Y-42.7067
G1 X243.8025 Y-41.3803
G1 X212.3714 Y-31.0754
G1 X209.4254 Y-30.1074
G1 X198.0105 Y-26.3535
G1 X188.0236 Y-23.0655
G1 X179.2857 Y-20.1861
G2 X179.2259 Y-20.1664 I0.3893 J1.2815
G1 X177.3165 Y-19.5369
G1 X162.5194 Y-14.6547
G1 X151.4229 Y-10.9894
G1 X143.1012 Y-8.2384
G1 X130.6197 Y-4.1084
G1 X127.4995 Y-3.0752
G1 X122.8195 Y-1.5248
G1 X120.4796 Y-0.7493
G1 X119.8946 Y-0.5554
G1 X119.0172 Y-0.2645
G1 X118.1398 Y0.0265
G1 X107.4025 Y4.904
G1 X67.1335 Y23.1849
G1 X59.5823 Y26.611
G1 X45.4231 Y33.0334
G1 X20.642 Y44.2666
G1 X2.053 Y52.6847
G1 X-4.9189 Y55.8395
G1 X-11.0198 Y58.5987
G1 X-21.6979 Y63.4237
G1 X-29.7083 Y67.0383
G1 X-35.7177 Y69.7458
G1 X-36.8447 Y70.253
G1 X-41.0717 Y72.1533
G1 X-44.2429 Y73.5761
G1 X-46.6223 Y74.6412
G1 X-48.4075 Y75.4383
G1 X-51.0875 Y76.6296
G3 X-53.7734 Y77.807 I-149.37 J-337.0959
G0 Z5.0
G0 X-118.9016 Y-93.4903
G1 Z0.0
G2 X-121.8549 Y-95.7554 I-43.383 J53.5051
G1 X-122.516 Y-96.2312
G2 X-127.776 Y-99.7195 I-56.4511 J79.4141
G2 X-129.8073 Y-100.9395 I-51.1904 J82.9281
G2 X-131.6104 Y-101.9642 I-45.4797 J77.9263
G2 X-133.2088 Y-102.825 I-37.5025 J67.7297
G2 X-133.2968 Y-102.871 I-0.7628 J1.351
G2 X-136.1229 Y-104.2688 I-32.7982 J62.7572
G1 X-136.3914 Y-104.3929
G2 X-136.6521 Y-104.512 I-8.8007 J18.9295
G2 X-138.6926 Y-105.388 I-22.2786 J49.0762
G2 X-139.0795 Y-105.5422 I-13.5826 J33.5256
G2 X-139.125 Y-105.5601 I-0.2157 J0.4826
G2 X-139.1701 Y-105.5777 I-0.2135 J0.4792
G2 X-139.2149 Y-105.5952 I-0.2114 J0.4758
G2 X-140.6465 Y-106.1227 I-14.1537 J36.2049
G2 X-142.8337 Y-106.7964 I-10.5309 J30.3034
G1 X-143.1106 Y-106.8683
G2 X-144.0865 Y-107.0941 I-6.1255 J24.2521
G2 X-145.0722 Y-107.2726 I-4.202 J20.4021
G3 X-143.1343 Y-108.5261 I14.1765 J19.7913
G3 X-141.2054 Y-109.5185 I10.1188 J17.2964
G3 X-140.7384 Y-109.7195 I7.4934 J16.7705
G3 X-138.8476 Y-110.3717 I6.2619 J15.0873
G3 X-137.0173 Y-110.7478 I3.6979 J13.3553
G3 X-135.2782 Y-110.8602 I1.6939 J12.6985
G3 X-132.0716 Y-110.3897 I-0.0639 J11.5985
G3 X-129.486 Y-109.2935 I-3.53 J11.9237
G1 X-129.2211 Y-109.1409
G3 X-128.2126 Y-108.4848 I-6.9891 J11.8477
G3 X-127.7598 Y-108.15 I-10.134 J14.1783
G3 X-126.9182 Y-107.457 I-9.2398 J12.0781
G1 X-126.7278 Y-107.2868
G3 X-126.0025 Y-106.5911 I-11.7744 J12.9996
G3 X-125.3575 Y-105.9052 I-12.9338 J12.8086
G3 X-124.2346 Y-104.5445 I-17.3099 J15.4292
G3 X-122.5181 Y-101.9817 I-20.8882 J15.8467
G3 X-121.4158 Y-99.9483 I-26.7595 J15.8207
G3 X-120.0215 Y-96.7727 I-34.0762 J16.8557
G1 X-119.9826 Y-96.6715
G1 X-119.945 Y-96.5733
G3 X-118.9016 Y-93.4903 I-42.3117 J16.038
G0 Z5.0
G0 X-260.1445 Y170.2931
G1 Z0.0
G3 X-260.0729 Y170.1696 I1.4579 J0.7623
G1 X-259.9952 Y170.0502
G1 X-259.8336 Y169.816
G1 X-259.6683 Y169.5852
G1 X-259.3326 Y169.1287
G3 X-258.6524 Y168.2277 I75.6037 J56.3673
G3 X-258.3119 Y167.783 I64.5454 J49.0656
G1 X-257.9715 Y167.3411
G3 X-256.607 Y165.5867 I254.3513 J196.4261
G1 X-255.9321 Y164.7258
G1 X-254.5888 Y163.0206
G1 X-253.2627 Y161.3451
G1 X-252.609 Y160.5213
G1 X-252.4467 Y160.317
G1 X-252.1227 Y159.9093
G1 X-251.4769 Y159.0974
G1 X-250.1941 Y157.4874
G1 X-247.6644 Y154.3211
G1 X-245.2098 Y151.2569
G1 X-242.8291 Y148.2907
G1 X-240.5206 Y145.419
G1 X-236.0432 Y139.8589
G1 X-231.8411 Y134.6499
G1 X-227.8985 Y129.769
G1 X-224.2 Y125.195
G1 X-217.2605 Y116.6227
G1 X-211.1841 Y109.1254
G1 X-205.8644 Y102.5676
G1 X-196.5499 Y91.0956
G1 X-189.5601 Y82.4948
G1 X-188.2492 Y80.8824
G1 X-183.3323 Y74.8367
G1 X-175.9543 Y65.7703
G1 X-172.2641 Y61.2381
G1 X-168.5728 Y56.7069
G0 Z5.0
G0 X180.6549 Y238.0285
G1 Z0.0
G1 X139.3491 Y265.8129
G1 X139.1292 Y265.9606
G3 X138.6929 Y266.2467 I-10.1842 J-15.0568
G1 X138.2661 Y266.5186
G1 X138.058 Y266.6488
G1 X137.8524 Y266.776
G1 X137.6494 Y266.9005
G1 X137.4489 Y267.0224
G1 X137.2511 Y267.1418
G1 X136.4693 Y267.6079
G1 X136.2852 Y267.7168
G1 X136.1038 Y267.824
G1 X135.9252 Y267.9297
G1 X135.7493 Y268.0338
G1 X135.4032 Y268.2395
G1 X135.0683 Y268.4401
G2 X133.7821 Y269.2392 I23.0822 J38.5835
G1 X133.6427 Y269.33
G2 X133.0992 Y269.6954 I23.3511 J35.3268
G2 X132.1088 Y270.4239 I10.978 J15.9616
G2 X132.0559 Y270.4658 I0.4167 J0.5806
G2 X131.2431 Y271.1611 I8.1152 J10.3085
G2 X129.978 Y272.5412 I7.32 J7.98
G2 X128.6351 Y275.0004 I7.2707 J5.5667
G2 X128.2522 Y276.351 I9.8907 J3.5335
G1 X128.2432 Y276.394
G1 X128.2346 Y276.4357
G2 X128.0444 Y277.7394 I12.0026 J2.4171
G1 X128.6717 Y278.3514
G2 X131.1965 Y280.7042 I62.4674 J-64.5033
G1 X131.8013 Y281.2413
G2 X134.2334 Y283.2969 I53.5045 J-60.838
G2 X135.402 Y284.225 I45.4815 J-56.0675
G1 X135.5448 Y284.3357
G2 X137.8583 Y286.05 I44.0164 J-56.983
G1 X138.4108 Y286.4372
G2 X142.8998 Y289.2743 I35.0745 J-50.5275
G2 X147.0162 Y291.4193 I28.9986 J-50.6286
G1 X147.4759 Y291.6338
G2 X147.5326 Y291.66 I0.4179 J-0.832
G2 X147.5892 Y291.686 I0.4178 J-0.8343
G2 X151.2569 Y293.2278 I25.6721 J-55.9373
G2 X154.5352 Y294.3933 I25.2331 J-65.7825
G2 X154.6256 Y294.423 I0.8642 J-2.4788
G2 X156.0704 Y294.8818 I24.1682 J-73.606
G1 X156.7503 Y295.088
G1 X157.4105 Y295.2829
G1 X157.7307 Y295.3756
G1 X158.362 Y295.5551
G1 X158.9746 Y295.7254
G1 X159.2717 Y295.8066
G1 X159.5643 Y295.8859
G2 X160.7182 Y296.1912 I27.7669 J-102.5962
G1 X161.26 Y296.331
G2 X162.3111 Y296.5966 I46.5003 J-181.8178
G1 X162.8043 Y296.719
G1 X163.7606 Y296.9527
G1 X164.2092 Y297.061
G1 X164.644 Y297.1652
G1 X166.3297 Y297.5643
G1 X167.8057 Y297.9099
G1 X167.9672 Y297.9476
G1 X168.1262 Y297.9848
G1 X170.6287 Y298.5718
G1 X171.0977 Y298.6829
G1 X171.9767 Y298.8927
G1 X172.7454 Y299.0782
G1 X173.4176 Y299.2421
G1 X174.5928 Y299.5332
G1 X175.4733 Y299.7556
G1 X175.6383 Y299.7977
G1 X176.2567 Y299.9569
G1 X177.1831 Y300.1995
G1 X178.1083 Y300.447
G1 X225.5621 Y285.386
G0 Z5.0
M5
M30
