( Made using CamBam - http://www.cambam.co.uk )
( Plane_3Mx3M(A3) 1/20/2014 2:54:09 PM )
( T0 : 0.0 )
G21 G90 G64 G40
G0 Z5.0
( T0 : 0.0 )
T0 M6
( 51-58 )
G17
M3 S1000
G0 X-23.9288 Y6.1058
G1 F2000.0 Z0.0
G3 X-24.1475 Y6.064 I0.0926 J-1.0773
G3 X-24.3573 Y5.9897 I0.8479 J-2.7282
G3 X-24.7539 Y5.79 I1.2659 J-3.0081
G3 X-25.459 Y5.2577 I1.951 J-3.3171
G3 X-25.8385 Y4.8065 I1.7579 J-1.8637
G3 X-25.9944 Y4.5061 I1.3172 J-0.8745
G3 X-26.0716 Y4.1223 I1.0298 J-0.4067
G3 X-25.9506 Y3.6743 I0.8661 J-0.0063
G3 X-25.7973 Y3.4699 I0.906 J0.5197
G3 X-25.59 Y3.286 I1.1617 J1.1009
G3 X-25.3401 Y3.1251 I1.1968 J1.5841
G3 X-25.0571 Y2.9858 I1.3475 J2.3805
G3 X-24.4062 Y2.7591 I1.8937 J4.3894
G3 X-23.6702 Y2.5907 I2.3955 J8.7784
G1 X-23.4802 Y2.5571
G3 X-22.6692 Y2.446 I2.2072 J13.0952
G1 X-22.4644 Y2.4248
G3 X-21.6325 Y2.3604 I2.0998 J21.7259
G3 X-20.7781 Y2.3238 I1.3844 J22.3143
G3 X-19.0074 Y2.9663 I-7.7596 J24.1437
G1 X-18.7582 Y3.0679
G1 X-18.4745 Y3.1867
G3 X-17.7235 Y3.5164 I-11.0993 J26.3057
G1 X-17.2979 Y3.7125
G3 X-16.8143 Y3.9428 I-17.2589 J36.8501
G3 X-15.5386 Y4.5847 I-26.3647 J53.9848
G1 X-15.3753 Y4.6701
G1 X-15.2069 Y4.7587
G1 X-15.0334 Y4.8506
G1 X-14.8547 Y4.9461
G1 X-14.4742 Y5.1513
G3 X-12.4593 Y6.271 I-73.9606 J135.4612
G1 X-11.3117 Y6.9171
G1 X-10.6984 Y7.2593
G1 X-10.042 Y7.6201
G2 X-8.5271 Y8.4173 I27.426 J-50.2829
G1 X-8.1316 Y8.6141
G2 X-6.2895 Y9.4431 I12.2436 J-24.7457
G3 X-6.1474 Y9.5692 I-1.6097 J1.9557
G3 X-6.0113 Y9.7017 I-2.2086 J2.4045
G3 X-5.765 Y9.9907 I-2.0835 J2.025
G3 X-5.6313 Y10.2062 I-1.6919 J1.1994
G3 X-5.5235 Y10.5278 I-0.9189 J0.4869
G3 X-5.6038 Y10.9816 I-0.7115 J0.1081
G3 X-5.7666 Y11.1977 I-0.8793 J-0.493
G3 X-6.0061 Y11.3928 I-1.1061 J-1.1132
G3 X-6.3092 Y11.5634 I-1.2586 J-1.8821
G3 X-7.1284 Y11.852 I-1.9459 J-4.2171
G3 X-8.1384 Y12.048 I-2.1457 J-8.354
G3 X-8.6919 Y12.1114 I-1.3217 J-9.0965
G3 X-8.762 Y12.1176 I-0.127 J-1.0325
G1 X-9.0545 Y12.1395
G1 X-9.3604 Y12.1556
G3 X-10.8661 Y12.1302 I-0.5427 J-12.467
G3 X-11.6971 Y12.0109 I0.4447 J-6.0556
G3 X-11.9059 Y11.9556 I1.0983 J-4.5602
G1 X-12.0095 Y11.9201
G3 X-13.8406 Y11.1371 I15.8452 J-39.5852
G1 X-14.4437 Y10.8598
G3 X-16.8332 Y9.7025 I39.1207 J-83.819
G3 X-17.5112 Y9.3621 I28.0548 J-56.7285
G1 X-18.2842 Y8.9698
G1 X-19.1661 Y8.5184
G1 X-20.1728 Y8.0003
G1 X-20.3007 Y7.9344
G1 X-21.4697 Y7.3333
G1 X-21.6183 Y7.2572
G2 X-22.9802 Y6.5686 I-67.9994 J132.7922
G1 X-23.3333 Y6.394
G1 X-23.3777 Y6.3722
G1 X-23.5582 Y6.2841
G1 X-23.7419 Y6.1952
G1 X-23.9288 Y6.1058
G0 Z5.0
G0 X-26.9247 Y-0.4147
G1 Z0.0
G1 X-50.4048 Y10.3737
G3 X-50.8501 Y10.0924 I7.2869 J-12.03
G1 X-50.904 Y10.0565
G3 X-52.5263 Y8.7798 I8.1217 J-11.9903
G3 X-53.888 Y7.4157 I13.1783 J-14.5165
G3 X-54.1878 Y7.079 I13.1626 J-12.0203
G3 X-54.2606 Y6.9952 I2.3527 J-2.1179
G3 X-54.8269 Y6.3166 I17.3389 J-15.0439
G1 X-54.8939 Y6.2331
G3 X-55.9186 Y4.8711 I23.5911 J-18.8158
G3 X-56.8131 Y3.5481 I26.9626 J-19.1931
G1 X-57.0143 Y3.2326
G3 X-58.5015 Y0.69 I39.9258 J-25.0584
G3 X-59.6775 Y-1.6025 I51.5971 J-27.9151
G1 X-59.9209 Y-2.1108
G3 X-60.8218 Y-4.0999 I54.199 J-25.7439
G1 X-60.8692 Y-4.2096
G1 X-60.9161 Y-4.3185
G1 X-61.1002 Y-4.7512
G3 X-62.4343 Y-8.1418 I71.786 J-30.2048
G1 X-62.6672 Y-8.7842
G3 X-63.4945 Y-11.2089 I83.8565 J-29.9655
G1 X-63.5684 Y-11.4374
G3 X-65.5661 Y-18.6084 I90.3628 J-29.0358
G2 X-65.4285 Y-18.593 I0.3636 J-2.6218
G2 X-63.2283 Y-18.4725 I2.2651 J-21.2149
G2 X-61.1704 Y-18.5593 I0.0605 J-23.0084
G1 X-60.9304 Y-18.5811
G1 X-60.6925 Y-18.605
G1 X-60.4568 Y-18.6308
G2 X-56.7582 Y-19.3104 I-3.3623 J-28.7043
G2 X-55.9638 Y-19.5188 I-7.5422 J-30.3694
G1 X-55.5809 Y-19.6266
G1 X-55.2054 Y-19.7368
G1 X-54.8369 Y-19.8492
G1 X-54.4754 Y-19.9636
G1 X-54.1207 Y-20.0797
G2 X-51.3667 Y-21.1042 I-14.1472 J-42.243
G2 X-51.2924 Y-21.1347 I-0.7751 J-1.9922
G2 X-51.2185 Y-21.1652 I-0.7602 J-1.9462
G2 X-51.1449 Y-21.1958 I-0.746 J-1.9027
G2 X-48.8247 Y-22.2283 I-19.568 J-47.0929
G2 X-46.8345 Y-23.2151 I-25.3033 J-53.533
G2 X-43.4304 Y-25.0908 I-35.8775 J-69.1379
G1 X-43.1158 Y-25.2747
G1 X-42.5083 Y-25.6341
G1 X-41.9409 Y-25.9748
G1 X-41.4108 Y-26.2971
G2 X-41.1628 Y-26.4491 I-15.8092 J-26.0682
G2 X-40.9229 Y-26.5969 I-4.9291 J-8.2709
G1 X-39.996 Y-27.1738
G1 X-39.5916 Y-27.428
G1 X-39.213 Y-27.6672
G1 X-38.5042 Y-28.1174
G1 X-37.8847 Y-28.5124
G3 X-35.7116 Y-29.8873 I96.6339 J150.3253
G1 X-35.4379 Y-30.0562
G1 X-34.957 Y-30.3481
G3 X-34.5939 Y-30.5631 I12.3464 J20.4368
G1 X-34.3198 Y-30.7214
G3 X-33.905 Y-30.9524 I7.7336 J13.3967
G1 X-33.6956 Y-31.0642
G1 X-33.6429 Y-31.0916
G1 X-33.6033 Y-31.1121
G1 X-33.4844 Y-31.1727
G3 X-32.9628 Y-31.2576 I12.6805 J76.2063
G3 X-30.9306 Y-31.509 I4.839 J30.7797
G3 X-29.1406 Y-31.6141 I2.4287 J26.0821
G3 X-26.0057 Y-31.4893 I0.6425 J23.3086
G3 X-21.4223 Y-30.4513 I-2.2293 J20.4815
G1 X-21.1453 Y-30.3524
G3 X-19.1114 Y-29.501 I-8.4563 J23.0565
G3 X-17.1505 Y-28.4925 I-13.8667 J29.3704
G1 X-16.4804 Y-13.4152
G1 X-19.9151 Y-11.5726
G2 X-20.297 Y-11.373 I1.1842 J2.7319
G2 X-20.8465 Y-10.8636 I1.033 J1.6651
G2 X-21.1031 Y-10.3685 I1.6167 J1.1523
G2 X-21.2151 Y-9.9669 I2.6152 J0.9455
G1 X-21.244 Y-9.8133
G1 X-21.2648 Y-9.6781
G2 X-21.293 Y-9.4405 I3.4707 J0.5321
G2 X-21.3388 Y-8.7244 I13.6183 J1.2312
G1 X-21.2876 Y-8.5201
G2 X-20.8447 Y-7.0044 I23.4534 J-6.0313
G2 X-20.5767 Y-6.2611 I14.5505 J-4.8252
G2 X-20.4236 Y-5.8968 I12.4394 J-5.0138
G2 X-20.25 Y-5.5417 I4.7757 J-2.1151
G3 X-19.8226 Y-4.7083 I-23.8556 J12.7596
G1 X-19.6159 Y-4.2881
G3 X-19.5902 Y-4.2354 I-1.1739 J0.6044
G1 X-19.5454 Y-4.1433
G1 X-19.4121 Y-3.8665
G1 X-26.9247 Y-0.4147
G0 Z5.0
G0 X-0.2722 Y28.8016
G1 Z0.0
G1 X11.4964 Y24.6134
G1 X28.4586 Y24.6972
G1 X19.2865 Y28.0892
G1 X13.4582 Y28.3086
G1 X7.6297 Y28.5252
G1 X3.744 Y28.6666
G1 X1.5235 Y28.7448
G1 X0.3392 Y28.7841
G1 X-0.2722 Y28.8016
G0 Z5.0
G0 X16.5641 Y23.0218
G1 Z0.0
G3 X17.1784 Y22.633 I2.8143 J3.7671
G3 X17.8448 Y22.3424 I2.5498 J4.9375
G1 X18.3005 Y22.1777
G2 X18.9066 Y21.9564 I-8.3503 J-23.8146
G1 X19.2503 Y21.8233
G2 X20.1549 Y21.4424 I-9.5198 J-23.8674
G2 X21.3386 Y20.8859 I-12.0244 J-27.1178
G1 X21.743 Y20.6853
G1 X22.1457 Y20.4813
G1 X22.2605 Y20.4223
G1 X22.5656 Y20.2635
G2 X23.7726 Y19.603 I-19.2431 J-36.5981
G2 X24.5615 Y19.135 I-19.0007 J-32.9247
G1 X24.7692 Y19.0055
G2 X25.8484 Y18.2722 I-9.3328 J-14.897
G2 X26.4341 Y17.8099 I-6.0543 J-8.2717
G2 X27.0528 Y17.2215 I-4.4885 J-5.3398
G2 X27.3433 Y16.8692 I-2.7772 J-2.5855
G2 X27.595 Y16.4487 I-1.998 J-1.4817
G2 X27.6836 Y16.2094 I-1.4193 J-0.6617
G2 X27.7261 Y15.9451 I-1.1322 J-0.3174
G2 X27.5376 Y15.3576 I-0.8889 J-0.0387
G2 X27.2871 Y15.119 I-0.9102 J0.7046
G2 X26.9506 Y14.9386 I-0.8418 J1.1662
G1 X28.0543 Y14.389
G1 X29.1601 Y13.8435
G1 X29.3077 Y13.771
G1 X30.0953 Y13.3858
G1 X31.147 Y12.8753
G3 X32.5524 Y12.2011 I88.4947 J182.6688
G1 X33.3574 Y11.8198
G3 X35.5134 Y10.8229 I70.0843 J148.7428
G1 X35.6509 Y10.7609
G1 X36.2387 Y10.499
G1 X36.5429 Y10.3656
G1 X36.8576 Y10.2296
G3 X38.311 Y9.6426 I11.6998 J26.8768
G3 X38.4986 Y9.5757 I2.435 J6.5309
G1 X38.6904 Y9.5115
G3 X38.8873 Y9.4523 I1.0032 J2.9772
G1 X38.9719 Y9.6247
G1 X39.0583 Y9.7962
G1 X39.2352 Y10.1372
G1 X39.5953 Y10.8157
G3 X39.8319 Y11.2699 I-54.8802 J28.8812
G1 X39.9632 Y11.5315
G1 X40.1078 Y11.8331
G3 X40.4518 Y12.6563 I-8.5941 J4.0744
G3 X40.7578 Y13.8077 I-5.8863 J2.1807
G3 X40.8167 Y14.4885 I-4.9634 J0.7725
G3 X40.4522 Y16.2868 I-4.3926 J0.0459
G3 X39.9436 Y17.2156 I-5.2902 J-2.2936
G3 X39.1916 Y18.1636 I-6.3949 J-4.3004
G3 X39.0868 Y18.2761 I-5.1 J-4.6483
G3 X38.6226 Y18.7372 I-8.4023 J-7.9943
G3 X38.1025 Y19.1991 I-9.4752 J-10.1451
G1 X37.9669 Y19.3121
G3 X36.6892 Y20.2695 I-11.3988 J-13.8826
G3 X35.9834 Y20.7365 I-11.7001 J-16.9139
G1 X35.6145 Y20.9676
G3 X35.2317 Y21.1995 I-11.8114 J-19.0702
G3 X35.1347 Y21.257 I-0.9012 J-1.4085
G3 X33.3687 Y22.235 I-20.2357 J-34.4596
G3 X31.3482 Y23.2313 I-22.8262 J-43.7411
G3 X31.1281 Y23.3063 I-0.4964 J-1.0967
G1 X31.0526 Y23.3245
G1 X30.9513 Y23.3455
G3 X30.5429 Y23.4059 I-1.0351 J-5.5872
G3 X29.7213 Y23.4701 I-1.4392 J-13.1344
G3 X29.1727 Y23.4916 I-0.8841 J-15.5613
G3 X28.4414 Y23.5049 I-0.9342 J-31.2224
G3 X28.4183 Y23.5051 I-0.013 J-0.1628
G3 X28.395 Y23.5053 I-0.013 J-0.1643
G3 X28.3716 Y23.5055 I-0.013 J-0.1659
G1 X27.9438 Y23.5068
G1 X27.4551 Y23.5044
G3 X27.4242 Y23.5041 I-0.0133 J-0.2359
G1 X26.8615 Y23.4968
G1 X26.5614 Y23.4913
G1 X26.2413 Y23.4844
G3 X24.5361 Y23.4321 I2.4572 J-108.0076
G1 X23.5621 Y23.3931
G1 X23.0428 Y23.3702
G3 X21.8564 Y23.3132 I12.5267 J-272.7826
G1 X20.501 Y23.2413
G1 X20.3289 Y23.2317
G1 X19.5947 Y23.19
G1 X18.8117 Y23.1442
G1 X17.0225 Y23.0389
G2 X16.7952 Y23.0272 I-0.4229 J6.0289
G2 X16.5641 Y23.0218 I-0.1878 J3.0628
G0 Z5.0
G0 X2.5491 Y-46.0837
G1 Z0.0
G1 X2.722 Y-45.8818
G2 X3.4124 Y-45.1115 I20.5493 J-17.7255
G2 X4.0566 Y-44.4519 I12.7164 J-11.7747
G2 X4.075 Y-44.434 I0.1348 J-0.12
G2 X4.0934 Y-44.4162 I0.1341 J-0.1197
G2 X4.1117 Y-44.3984 I0.1333 J-0.1194
G2 X4.7113 Y-43.8493 I10.9468 J-11.351
G2 X5.2735 Y-43.3948 I8.2484 J-9.6281
G2 X5.8008 Y-43.0294 I4.2105 J-5.5131
G2 X6.2938 Y-42.7487 I3.2966 J-5.2162
G2 X6.752 Y-42.5479 I1.9871 J-3.9109
G2 X7.1732 Y-42.4212 I1.1853 J-3.1784
G2 X7.9398 Y-42.3581 I0.5905 J-2.4848
G2 X9.0189 Y-42.7368 I-0.1754 J-2.2269
G2 X9.4633 Y-43.0996 I-1.7086 J-2.546
G2 X9.6603 Y-43.3084 I-2.3288 J-2.3955
G2 X9.7531 Y-43.4179 I-2.1129 J-1.8834
G2 X9.8422 Y-43.5304 I-1.6035 J-1.363
G0 Z5.0
G0 X-77.39 Y-59.5343
G1 Z0.0
G3 X-77.4793 Y-59.1059 I-8.8954 J-1.632
G3 X-77.9261 Y-57.692 I-10.4669 J-2.5296
G3 X-78.4607 Y-56.5083 I-12.3664 J-4.8726
G3 X-79.0184 Y-55.5156 I-13.3627 J-6.8536
G3 X-80.1704 Y-53.8863 I-12.8836 J-7.8878
G3 X-80.6591 Y-53.3145 I-10.2514 J-8.2673
G1 X-80.8828 Y-53.0723
G3 X-81.0981 Y-52.8502 I-5.4497 J-5.0654
G3 X-81.9543 Y-52.067 I-7.7592 J-7.6243
G3 X-82.653 Y-51.5435 I-5.5488 J-6.6767
G3 X-82.9288 Y-51.3656 I-2.8174 J-4.0646
G3 X-83.4305 Y-51.0853 I-3.2162 J-5.1679
G3 X-84.2304 Y-50.7634 I-2.2399 J-4.4108
G3 X-84.6508 Y-50.6634 I-1.0083 J-3.3041
G3 X-85.0804 Y-50.6183 I-0.54 J-3.0747
G1 X-85.1148 Y-50.6261
G3 X-85.6532 Y-50.7897 I0.9623 J-4.1349
G1 X-85.7797 Y-50.8386
G1 X-85.9038 Y-50.8901
G3 X-86.8457 Y-51.3871 I2.8923 J-6.6227
G3 X-87.6636 Y-51.9538 I5.2307 J-8.4224
G3 X-89.062 Y-53.1832 I8.805 J-11.4266
G3 X-90.1652 Y-54.3814 I13.543 J-13.5752
G3 X-93.2423 Y-59.1645 I17.0369 J-14.3418
G3 X-93.2803 Y-59.2454 I1.2047 J-0.6144
G3 X-93.3173 Y-59.3253 I1.1559 J-0.5845
G3 X-94.2856 Y-61.9184 I16.2229 J-7.5349
G3 X-94.4588 Y-62.5897 I11.6047 J-3.3521
G3 X-94.5153 Y-62.8435 I6.037 J-1.4783
G3 X-94.6735 Y-63.7395 I12.3504 J-2.643
G1 X-94.7027 Y-63.9651
G3 X-94.7077 Y-64.0075 I0.4376 J-0.0729
G3 X-94.7628 Y-64.6449 I9.5426 J-1.1465
G1 X-94.2423 Y-64.7536
G3 X-90.1769 Y-65.4432 I11.7644 J57.0227
G1 X-89.7904 Y-65.4922
G3 X-86.7809 Y-65.7485 I4.7596 J38.1002
G3 X-84.5 Y-65.7525 I1.1872 J26.5729
G3 X-82.7864 Y-65.5975 I-0.7546 J17.8954
G3 X-81.5133 Y-65.3536 I-1.6383 J11.9932
G3 X-80.5794 Y-65.073 I-2.4521 J9.8569
G3 X-79.9022 Y-64.7928 I-2.6676 J7.4055
G3 X-78.9553 Y-64.2349 I-2.4984 J5.3233
G3 X-78.1503 Y-63.4867 I-2.6797 J3.6905
G3 X-77.5979 Y-62.5749 I-2.7284 J2.2761
G3 X-77.3329 Y-61.6331 I-3.7387 J1.56
G3 X-77.2684 Y-60.728 I-5.2563 J0.8298
G3 X-77.3329 Y-59.8841 I-6.3542 J-0.0613
G3 X-77.39 Y-59.5343 I-8.9525 J-1.2822
G0 Z5.0
G0 X-79.4258 Y-64.8092
G1 Z0.0
G3 X-78.83 Y-65.0217 I7.3214 J19.5849
G3 X-77.6004 Y-65.4087 I7.2643 J20.934
G3 X-76.3179 Y-65.7209 I4.569 J15.9777
G1 X-76.0088 Y-65.7788
G1 X-75.8564 Y-65.8044
G3 X-74.6379 Y-65.9256 I1.5246 J9.1391
G3 X-74.0704 Y-65.916 I0.1875 J5.6646
G3 X-73.8013 Y-65.8911 I-0.1962 J3.5857
G3 X-73.2855 Y-65.7944 I-0.4033 J3.5768
G3 X-72.8225 Y-65.6295 I-0.7104 J2.726
G3 X-72.4317 Y-65.3926 I-0.9227 J1.9632
G3 X-71.9248 Y-64.7225 I-0.9706 J1.2609
G3 X-71.796 Y-63.9955 I-1.7866 J0.6915
G3 X-71.8804 Y-63.3257 I-3.0706 J-0.0468
G3 X-72.0697 Y-62.7279 I-4.0188 J-0.9438
G3 X-72.5994 Y-61.6846 I-6.1321 J-2.4571
G3 X-72.7363 Y-61.4691 I-17.5172 J-10.9803
G3 X-73.0182 Y-61.0628 I-10.0843 J-6.6957
G3 X-73.5956 Y-60.338 I-9.601 J-7.0552
G3 X-73.8647 Y-60.035 I-12.5406 J-10.8701
G3 X-73.9291 Y-59.9652 I-0.883 J-0.7493
G3 X-74.4515 Y-59.4302 I-9.6017 J-8.8528
G3 X-74.9288 Y-58.9829 I-12.3958 J-12.7512
G3 X-75.8031 Y-58.2442 I-12.1303 J-13.4695
G3 X-76.487 Y-57.7252 I-15.0629 J-19.1367
G3 X-78.6558 Y-56.3392 I-12.9586 J-17.888
G0 Z5.0
G0 X-90.9415 Y-54.5875
G1 Z0.0
G2 X-91.5783 Y-53.5354 I3.9734 J3.1235
G2 X-91.9237 Y-52.4818 I4.515 J2.0636
G2 X-91.995 Y-51.9844 I4.0262 J0.8313
G2 X-91.9986 Y-51.5121 I2.9926 J0.2586
G2 X-91.9302 Y-51.078 I2.5466 J-0.1787
G2 X-91.7882 Y-50.6984 I1.8671 J-0.4821
G2 X-91.2972 Y-50.1496 I1.2481 J-0.6226
G2 X-90.7198 Y-49.9263 I0.8648 J-1.3779
G2 X-90.1876 Y-49.8883 I0.4338 J-2.328
G2 X-89.7252 Y-49.9345 I-0.1374 J-3.7107
G2 X-88.9376 Y-50.1291 I-0.993 J-5.71
G1 X-88.7933 Y-50.1772
G2 X-88.726 Y-50.2007 I-0.354 J-1.1189
G2 X-87.7096 Y-50.632 I-3.545 J-9.7667
G2 X-87.4626 Y-50.7553 I-3.1692 J-6.6597
G2 X-87.3706 Y-50.8028 I-1.1247 J-2.2906
G1 X-87.3305 Y-50.8238
G1 X-87.0315 Y-50.985
G2 X-86.7359 Y-51.1523 I-4.1301 J-7.6415
G0 Z5.0
M5
M30
