( Made using CamBam - http://www.cambam.co.uk )
( Plane_3Mx3M(A3) 1/20/2014 2:53:43 PM )
( T0 : 0.0 )
G21 G90 G64 G40
G0 Z5.0
( T0 : 0.0 )
T0 M6
( 11-20 )
G17
M3 S1000
G0 X-95.6895 Y22.1793
G1 F2000.0 Z0.0
G1 X-65.4058 Y-16.6602
G0 Z5.0
G0 X-20.6558 Y-11.1933
G1 Z0.0
G2 X-21.0154 Y-10.6708 I1.6175 J1.4982
G2 X-21.2116 Y-10.1222 I2.4802 J1.1963
G2 X-21.2934 Y-9.5881 I3.4535 J0.8022
G2 X-21.2569 Y-8.5823 I4.8203 J0.3284
G2 X-21.0867 Y-7.7215 I6.9454 J-0.9258
G2 X-20.9831 Y-7.3522 I6.9368 J-1.747
G2 X-20.4766 Y-6.0075 I11.0445 J-3.392
G2 X-19.4535 Y-4.1117 I13.5337 J-6.0797
G2 X-18.8394 Y-3.2255 I12.0549 J-7.6982
G2 X-18.1478 Y-2.3983 I7.8792 J-5.8851
G1 X-17.8729 Y-2.5061
G1 X-17.3281 Y-2.7284
G1 X-16.7898 Y-2.9542
G1 X-16.2572 Y-3.1814
G1 X-15.2027 Y-3.6381
G1 X-14.6846 Y-3.8648
G2 X-14.6203 Y-3.893 I-0.3059 J-0.7843
G1 X-13.5944 Y-4.3455
G2 X-13.0899 Y-4.5692 I-20.5291 J-46.9773
G1 X-11.0899 Y-5.4619
G1 X-9.1548 Y-6.3321
G1 X-8.6864 Y-6.5435
G1 X-6.8283 Y-7.3842
G2 X-6.7158 Y-7.4352 I-0.7466 J-1.7962
G2 X0.4609 Y-10.7066 I-784.0684 J-1729.5769
G1 X3.5976 Y-12.1443
G1 X3.7814 Y-12.2287
G1 X6.7094 Y-13.5741
G1 X8.0816 Y-14.2054
G1 X10.7397 Y-15.4299
G1 X11.3626 Y-15.717
G1 X11.9758 Y-15.9998
G1 X13.1828 Y-16.5567
G1 X13.7674 Y-16.8265
G1 X14.0552 Y-16.9594
G1 X18.6219 Y-19.0697
G1 X22.6167 Y-20.9186
G1 X29.6055 Y-24.1589
G1 X34.8455 Y-26.5924
G1 X36.8103 Y-27.5057
G1 X40.2481 Y-29.1048
G1 X45.4039 Y-31.5054
G1 X46.0483 Y-31.8057
G2 X50.5583 Y-33.9088 I-1033.4296 J-2221.9989
G1 X146.9844 Y-68.0249
G0 Z5.0
G0 X143.6675 Y-72.0528
G1 Z0.0
G2 X143.6443 Y-71.471 I1.9392 J0.3688
G2 X143.7622 Y-70.9285 I2.5972 J-0.2807
G2 X143.8562 Y-70.6764 I2.7511 J-0.8827
G2 X144.093 Y-70.2014 I4.0591 J-1.726
G2 X144.6859 Y-69.3501 I5.7673 J-3.3852
G2 X145.3536 Y-68.6067 I7.8532 J-6.3814
G2 X146.0525 Y-67.9405 I10.6992 J-10.525
G2 X147.496 Y-66.7548 I14.9982 J-16.7883
G2 X147.8459 Y-66.4925 I18.5886 J-24.4317
G2 X148.5447 Y-65.9896 I21.5543 J-29.2119
G1 X148.7157 Y-65.8702
G1 X149.0567 Y-65.6361
G2 X150.4191 Y-64.7441 I28.5554 J-42.1268
G2 X151.0667 Y-64.3403 I19.7233 J-30.9135
G1 X151.3822 Y-64.1476
G2 X153.8994 Y-62.6862 I43.435 J-71.9179
G1 X154.4565 Y-62.378
G1 X154.7271 Y-62.2301
G2 X156.8721 Y-61.0918 I54.1317 J-99.414
G2 X157.1082 Y-60.9699 I5.9111 J-11.1601
G2 X157.2245 Y-60.9101 I2.1101 J-3.9598
G1 X158.1492 Y-60.4396
G1 X159.0194 Y-60.0046
G2 X165.6225 Y-56.904 I80.5297 J-162.9158
G2 X168.9655 Y-55.4448 I85.4438 J-191.1945
G1 X169.3851 Y-55.2665
G1 X170.1204 Y-54.9565
G1 X171.2257 Y-54.4973
G1 X171.3641 Y-54.4405
G1 X171.6065 Y-54.3413
G1 X171.6974 Y-54.3042
G1 X172.0158 Y-54.175
G1 X172.3346 Y-54.047
G0 Z5.0
G0 X99.5318 Y46.9782
G1 Z0.0
G2 X99.6318 Y47.4085 I1.5287 J-0.1287
G2 X99.8183 Y47.7908 I2.1238 J-0.799
G2 X99.8451 Y47.8352 I0.4567 J-0.2455
G2 X100.0815 Y48.1744 I3.278 J-2.0327
G2 X100.1444 Y48.2539 I1.8565 J-1.4064
G2 X100.6924 Y48.8453 I5.2056 J-4.274
G2 X101.2733 Y49.3637 I7.1043 J-7.3745
G1 X101.3095 Y49.3938
G2 X102.5104 Y50.2969 I11.4951 J-14.0359
G2 X103.6869 Y51.0689 I18.0325 J-26.1991
G2 X104.8172 Y51.748 I21.6476 J-34.7479
G1 X105.085 Y51.9022
G1 X105.1511 Y51.9399
G1 X105.217 Y51.9774
G1 X105.7435 Y52.2725
G2 X106.772 Y52.8289 I39.7587 J-72.2623
G1 X107.0144 Y52.9567
G1 X107.493 Y53.2056
G1 X107.9583 Y53.4436
G1 X108.4104 Y53.6715
G2 X111.9513 Y55.361 I48.7538 J-97.6249
G1 X112.6211 Y55.6651
G1 X113.2505 Y55.9471
G1 X113.8417 Y56.2089
G1 X114.3969 Y56.4521
G1 X114.9182 Y56.6783
G1 X115.8977 Y57.0978
G2 X117.6175 Y57.8182 I109.0109 J-257.8225
G1 X117.7791 Y57.8849
G2 X120.2911 Y58.9001 I84.521 J-205.5224
G1 X120.4486 Y58.9624
G2 X122.8179 Y59.8779 I65.8129 J-166.813
G0 Z5.0
G0 X116.7868 Y57.5324
G1 Z0.0
G1 X163.1918 Y39.272
G0 Z5.0
G0 X126.6713 Y116.6693
G1 Z0.0
G1 X126.4342 Y115.7883
G1 X125.5128 Y112.3159
G1 X124.6513 Y109.06
G1 X123.0379 Y102.9546
G1 X117.3974 Y81.5843
G1 X114.5789 Y70.8987
G1 X111.7611 Y60.2129
G0 Z5.0
G0 X64.8536 Y78.9759
G1 Z0.0
G3 X64.8791 Y78.9598 I0.2076 J0.3007
G1 X64.9837 Y78.901
G1 X65.196 Y78.7911
G3 X66.907 Y77.9719 I33.0956 J66.9268
G1 X66.9322 Y77.9601
G1 X67.3347 Y77.7723
G1 X67.7312 Y77.588
G3 X69.2943 Y76.8667 I99.9404 J214.5111
G1 X70.0277 Y76.5301
G1 X70.7386 Y76.2048
G1 X72.1166 Y75.5761
G1 X72.7629 Y75.2819
G3 X82.7905 Y70.7492 I1211.062 J2665.8337
G1 X85.2996 Y69.6208
G1 X86.2407 Y69.1981
G1 X87.8878 Y68.4586
G1 X92.8305 Y66.2438
G0 Z5.0
G0 X60.3306 Y43.9627
G1 Z0.0
G3 X60.2363 Y43.9389 I0.0466 J-0.3843
G3 X60.0605 Y43.8607 I0.8166 J-2.0722
G1 X59.891 Y43.7732
G3 X59.5606 Y43.5888 I4.5961 J-8.6225
G1 X59.3996 Y43.4952
G3 X58.7666 Y43.114 I38.908 J-65.3183
G1 X58.1588 Y42.7362
G3 X58.012 Y42.6438 I2.0564 J-3.4308
G1 X57.8666 Y42.552
G1 X57.2909 Y42.1854
G1 X57.0126 Y42.0069
G1 X55.92 Y41.2993
G1 X55.7922 Y41.2159
G1 X54.7794 Y40.5523
G3 X50.9976 Y38.0396 I307.3067 J-466.6259
G3 X48.1715 Y36.1395 I347.087 J-519.2888
G3 X39.7247 Y30.3934 I849.4535 J-1257.7843
G3 X39.2404 Y30.0537 I2.0217 J-3.3978
G3 X38.8572 Y29.6681 I1.7479 J-2.1196
G3 X38.598 Y29.2348 I1.3315 J-1.0906
G3 X38.5385 Y29.0234 I0.8599 J-0.3562
G3 X38.5853 Y28.6297 I0.6421 J-0.1233
G3 X38.8029 Y28.3923 I0.5229 J0.2608
G3 X39.0543 Y28.2861 I0.4799 J0.7851
G3 X39.5245 Y28.2397 I0.3986 J1.6339
G3 X40.223 Y28.3419 I-0.1438 J3.4209
G3 X40.3939 Y28.3865 I-1.935 J7.7682
G3 X40.8973 Y28.5506 I-1.4833 J5.4057
G1 X124.8284 Y65.5739
G0 Z5.0
G0 X113.4364 Y112.9839
G1 Z0.0
G3 X113.7897 Y112.8507 I1.0483 J2.2456
G3 X114.5125 Y112.7165 I1.0408 J3.5929
G3 X114.6884 Y112.7038 I0.3564 J3.7114
G3 X115.3871 Y112.7081 I0.3074 J6.7768
G3 X116.0579 Y112.7759 I-0.4276 J7.5878
G3 X116.3801 Y112.8256 I-1.7313 J12.2779
G3 X116.538 Y112.8535 I-0.4466 J2.9884
G3 X117.7774 Y113.1392 I-2.9917 J15.8132
G1 X117.9209 Y113.1788
G3 X119.0495 Y113.5284 I-7.1294 J25.0132
G1 X119.3113 Y113.618
G3 X121.3446 Y114.4017 I-11.8688 J33.825
G1 X121.7832 Y114.588
G3 X123.4656 Y115.3489 I-19.5698 J45.5131
G3 X126.3545 Y116.7949 I-31.892 J67.3262
G3 X127.4228 Y117.3663 I-33.373 J63.6706
G3 X134.7125 Y121.6952 I-53.7677 J98.8447
G0 Z5.0
G0 X31.8512 Y-35.4453
G1 Z0.0
G1 X-10.0306 Y-50.6901
G0 Z5.0
M5
M30
