( Made using CamBam - http://www.cambam.co.uk )
( Plane_3Mx3M(A3) 1/20/2014 2:53:39 PM )
( T0 : 0.0 )
G21 G90 G64 G40
G0 Z5.0
( T0 : 0.0 )
T0 M6
( 1-10 )
G17
M3 S1000
G0 X23.9282 Y-72.8718
G1 F2000.0 Z0.0
G3 X24.6925 Y-73.4679 I6.6877 J7.7867
G3 X24.7159 Y-73.4844 I0.1256 J0.1537
G3 X24.7392 Y-73.5007 I0.125 J0.1539
G3 X24.7626 Y-73.5169 I0.1243 J0.1541
G3 X25.5331 Y-73.9932 I4.6232 J6.6175
G3 X26.3012 Y-74.354 I3.3542 J6.1437
G3 X27.8379 Y-74.7303 I2.0844 J5.1861
G3 X29.205 Y-74.666 I0.4542 J4.909
G3 X30.3362 Y-74.3108 I-0.9897 J5.1314
G3 X31.24 Y-73.8136 I-2.4785 J5.5743
G3 X31.9574 Y-73.2701 I-3.9729 J5.9899
G1 X32.1053 Y-73.1404
G1 X32.2454 Y-73.0116
G3 X32.7619 Y-72.4848 I-5.9532 J6.3538
G3 X33.5695 Y-71.4791 I-7.9289 J7.1941
G3 X34.5802 Y-69.8312 I-11.6912 J8.3038
G3 X35.3867 Y-68.0743 I-16.5755 J8.6729
G1 X35.2244 Y-68.1833
G2 X33.9204 Y-69.0003 I-17.5204 J26.5179
G2 X31.5581 Y-70.2941 I-20.6142 J34.8335
G2 X31.1056 Y-70.5194 I-8.8508 J17.2104
G2 X29.383 Y-71.3118 I-15.7312 J31.9309
G1 X29.0553 Y-71.4503
G2 X27.8123 Y-71.9357 I-10.039 J23.8692
G2 X26.8643 Y-72.2582 I-8.6286 J23.8084
G2 X25.4142 Y-72.6506 I-4.9162 J15.2957
G1 X25.2303 Y-72.6896
G2 X23.9282 Y-72.8718 I-1.9538 J9.2166
G0 Z5.0
G0 X36.3743 Y-37.2881
G1 Z0.0
G1 X-10.0306 Y-53.7057
G1 X-17.7367 Y-58.0612
G0 Z5.0
G0 X-17.5459 Y-58.2169
G1 Z0.0
G2 X-20.0965 Y-59.3348 I-189.3387 J428.5217
G2 X-24.8989 Y-61.3848 I-152.9248 J351.6064
G1 X-25.9535 Y-61.8238
G2 X-26.4649 Y-62.0351 I-23.8183 J56.9208
G2 X-26.9687 Y-62.2423 I-12.9773 J30.8495
G1 X-27.2169 Y-62.3439
G1 X-27.4631 Y-62.4445
G1 X-27.7075 Y-62.5441
G1 X-27.9501 Y-62.6427
G1 X-28.1909 Y-62.7403
G2 X-35.8848 Y-65.7155 I-93.7539 J231.0075
G1 X-36.6113 Y-65.9809
G2 X-39.4356 Y-66.9842 I-60.7992 J166.6712
G1 X-40.0553 Y-67.1982
G2 X-42.4635 Y-68.008 I-76.0325 J222.1201
G1 X-42.7275 Y-68.0946
G2 X-51.1107 Y-70.611 I-53.6811 J163.6143
G1 X-51.3747 Y-70.6825
G2 X-59.6188 Y-72.6653 I-38.9418 J143.7856
G1 X-60.0279 Y-72.6786
G1 X-60.4241 Y-72.6942
G1 X-60.808 Y-72.7116
G1 X-60.994 Y-72.7207
G1 X-61.177 Y-72.7302
G1 X-61.8974 Y-72.7706
G1 X-63.2479 Y-72.8548
G1 X-64.4302 Y-72.9275
G2 X-64.689 Y-72.9421 I-0.6012 J8.3253
G1 X-65.1906 Y-72.9684
G1 X-65.661 Y-72.9899
G2 X-65.7714 Y-72.9944 I-0.117 J1.5106
G2 X-65.88 Y-72.9986 I-0.1138 J1.5267
G2 X-65.987 Y-73.0026 I-0.1105 J1.5441
G2 X-66.0922 Y-73.0063 I-0.1072 J1.5631
G2 X-66.5067 Y-73.0184 I-0.8311 J21.2111
G1 X-66.8953 Y-73.0263
G2 X-68.3532 Y-73.0176 I-0.5411 J31.6209
G2 X-70.534 Y-72.8567 I0.6601 J23.8074
G2 X-72.686 Y-72.4687 I2.2935 J18.8828
G2 X-72.7442 Y-72.4532 I0.1105 J0.5322
G2 X-73.6681 Y-72.196 I11.9483 J44.7027
G2 X-73.7221 Y-72.1803 I0.1265 J0.5355
G2 X-73.7759 Y-72.1646 I0.1275 J0.5359
G2 X-77.1504 Y-71.0093 I11.0808 J37.8741
G1 X-77.4609 Y-70.8849
G2 X-79.8261 Y-69.8263 I13.35 J32.9983
G2 X-83.2306 Y-67.9537 I19.0524 J38.6708
G1 X-83.6446 Y-67.6995
G1 X-84.0048 Y-67.474
G2 X-86.4826 Y-65.827 I35.7332 J56.4444
G0 Z5.0
G0 X-92.6877 Y-57.4996
G1 Z0.0
G2 X-93.6567 Y-55.7498 I10.8437 J7.1485
G2 X-94.7412 Y-52.4252 I14.1903 J6.468
G2 X-95.0578 Y-49.8125 I15.1866 J3.166
G2 X-94.9915 Y-47.8353 I13.9236 J0.523
G2 X-94.8933 Y-47.0987 I11.6642 J-1.1809
G2 X-94.2053 Y-44.5947 I11.7322 J-1.8768
G2 X-92.9516 Y-42.3206 I9.6355 J-3.8296
G2 X-92.5749 Y-41.9006 I29.4189 J-26.0064
G2 X-89.5541 Y-38.6435 I107.5988 J-96.7626
G2 X-86.8273 Y-35.8734 I99.4359 J-95.1556
G1 X-86.5241 Y-35.5753
G2 X-76.4863 Y-26.719 I89.2882 J-91.0839
G2 X-71.1493 Y-22.6775 I93.5815 J-118.0346
G1 X-70.9797 Y-22.555
G1 X-70.8152 Y-22.4365
G2 X-65.6499 Y-18.8599 I104.1094 J-144.8347
G2 X-64.7827 Y-15.7535 I533.1966 J-147.1679
G1 X-64.7347 Y-15.5837
G1 X-64.6869 Y-15.4152
G1 X-64.4962 Y-14.747
G1 X-64.3096 Y-14.1001
G1 X-64.2641 Y-13.9435
G1 X-64.082 Y-13.3225
G1 X-63.9032 Y-12.7215
G1 X-63.7275 Y-12.14
G1 X-63.6414 Y-11.8586
G1 X-63.556 Y-11.5818
G1 X-63.4713 Y-11.3095
G1 X-63.3024 Y-10.7742
G2 X-62.6184 Y-8.7092 I87.6471 J-27.8882
G2 X-62.5794 Y-8.5967 I1.7001 J-0.5257
G1 X-62.4232 Y-8.1511
G1 X-62.2692 Y-7.7203
G2 X-60.9762 Y-4.4195 I58.1841 J-20.8888
G1 X-60.7125 Y-3.8092
G2 X-58.5093 Y0.6618 I50.8672 J-22.2874
G2 X-57.8979 Y1.7478 I58.8713 J-32.4297
G2 X-55.9331 Y4.9287 I56.9182 J-32.961
G1 X-117.6811 Y32.4438
G1 X-182.5189 Y69.5298
G2 X-182.7962 Y69.682 I2.9194 J5.6485
G2 X-184.7214 Y71.1921 I4.6457 J7.9052
G2 X-185.0345 Y71.5347 I4.5354 J4.4596
G2 X-186.0011 Y72.9788 I5.2127 J4.5343
G2 X-186.5955 Y75.5041 I5.0723 J2.5266
G2 X-186.4555 Y76.7996 I6.222 J-0.017
G2 X-186.0726 Y78.0451 I7.6805 J-1.6797
G2 X-185.6415 Y78.9467 I7.1226 J-2.8521
G2 X-185.3959 Y79.3603 I9.0949 J-5.1195
G2 X-184.8545 Y80.1341 I7.9754 J-5.0045
G2 X-183.6396 Y81.4918 I10.1931 J-7.8984
G2 X-182.3655 Y82.6194 I12.7293 J-13.1004
G2 X-182.0533 Y82.8663 I12.2776 J-15.2001
G1 X-181.898 Y82.9857
G1 X-181.5869 Y83.2186
G1 X-181.277 Y83.4428
G2 X-180.0268 Y84.2811 I15.0249 J-21.0562
G1 X-179.9522 Y84.3282
G2 X-177.5164 Y85.7273 I19.1551 J-30.5274
G1 X-177.3804 Y85.7987
G1 X-177.2452 Y85.8691
G1 X-176.7066 Y86.1438
G1 X-176.4444 Y86.2743
G1 X-176.3151 Y86.338
G2 X-175.2824 Y86.8302 I23.875 J-48.7647
G2 X-171.3303 Y88.4958 I26.8332 J-58.144
G1 X-170.9547 Y88.6393
G2 X-169.4925 Y89.1769 I31.1846 J-82.5544
G2 X-164.3052 Y90.8558 I31.786 J-89.3568
G1 X-163.6504 Y91.0453
G2 X-162.5015 Y91.3662 I31.5608 J-110.7508
G2 X-160.7711 Y91.8216 I26.8108 J-98.3654
G1 X-160.6627 Y91.849
G2 X-159.0313 Y92.2392 I16.3292 J-64.6607
G2 X-158.8758 Y92.1822 I-2.3549 J-6.6643
G2 X-158.7204 Y92.1252 I-2.3578 J-6.671
G2 X-158.5651 Y92.0683 I-2.3607 J-6.6777
G2 X-158.4101 Y92.0114 I-2.3637 J-6.6844
G2 X-158.2551 Y91.9546 I-2.3666 J-6.6912
G2 X-158.1004 Y91.8978 I-2.3696 J-6.698
G2 X-157.9458 Y91.841 I-2.3726 J-6.7048
G2 X-157.7913 Y91.7844 I-2.3756 J-6.7117
G2 X-157.637 Y91.7277 I-2.3786 J-6.7187
G2 X-157.4828 Y91.6711 I-2.3817 J-6.7257
G2 X-137.7981 Y84.3683 I-1105.5457 J-3010.1717
G2 X-137.5293 Y84.2675 I-4.1864 J-11.5727
G2 X-137.261 Y84.1669 I-4.2046 J-11.6172
G2 X-136.9933 Y84.0664 I-4.2231 J-11.6622
G1 X-132.7196 Y82.4589
G1 X-130.6505 Y81.6778
G1 X-126.5786 Y80.1354
G2 X-126.3321 Y80.0418 I-5.3232 J-14.3907
G2 X-126.0861 Y79.9484 I-5.3617 J-14.4874
G2 X-125.8406 Y79.8551 I-5.401 J-14.5862
G2 X-94.5534 Y67.75 I-970.9298 J-2555.9712
G1 X-93.0905 Y67.1731
G2 X-1.6542 Y29.0528 I-954.5131 J-2418.2428
G0 Z5.0
G0 X-2.9946 Y29.0526
G1 Z0.0
G1 X19.4537 Y28.0476
G1 X60.3306 Y44.1301
G3 X76.4068 Y54.4411 I-741.1897 J1173.309
G1 X76.6568 Y54.6042
G1 X78.6232 Y55.8916
G1 X80.3407 Y57.0229
G3 X80.5284 Y57.147 I-4.1179 J6.4338
G1 X82.0046 Y58.1261
G1 X83.2937 Y58.9868
G1 X84.4195 Y59.7433
G1 X84.9113 Y60.0755
G3 X86.7501 Y61.3287 I-312.9684 J461.1904
G1 X87.0938 Y61.5653
G1 X87.4157 Y61.7876
G1 X87.7171 Y61.9966
G1 X87.9994 Y62.1929
G1 X88.2637 Y62.3775
G1 X88.5112 Y62.5509
G3 X90.3552 Y63.8683 I-67.2594 J96.0968
G3 X90.8117 Y64.204 I-21.2836 J29.4219
G1 X90.9822 Y64.3308
G1 X91.0567 Y64.3864
G1 X91.3352 Y64.5962
G3 X91.75 Y64.9144 I-14.6947 J19.5843
G1 X91.9559 Y65.0756
G1 X92.1603 Y65.2385
G1 X92.2211 Y65.3256
G3 X92.6644 Y66.0472 I-9.0505 J6.0579
G1 X92.716 Y66.1377
G1 X92.9178 Y66.5012
G1 X93.016 Y66.6826
G3 X93.7701 Y68.1426 I-51.4851 J27.5177
G3 X95.1567 Y71.0079 I-133.9001 J66.568
G3 X96.4137 Y73.7143 I-221.3608 J104.4566
G3 X98.7136 Y78.8148 I-439.1887 J201.1039
G3 X100.6895 Y83.2939 I-846.2736 J376.0084
G1 X100.9042 Y83.7845
G1 X101.1153 Y84.2675
G3 X107.6717 Y99.5213 I-1495.1197 J651.6726
G1 X108.4818 Y101.4321
G1 X108.6588 Y101.8502
G1 X110.0277 Y105.0913
G1 X110.1559 Y105.3953
G1 X111.1473 Y107.7516
G1 X111.5185 Y108.6355
G3 X111.8431 Y109.409 I-103.453 J43.8594
G1 X112.9768 Y112.1171
G1 X113.0122 Y112.2018
G1 X114.1066 Y114.8267
G2 X115.2164 Y115.7437 I22.7021 J-26.3468
G2 X117.3927 Y117.3386 I21.8528 J-27.5361
G2 X119.3994 Y118.58 I17.4118 J-25.904
G2 X119.8505 Y118.8303 I31.317 J-55.9065
G2 X123.4794 Y120.4995 I14.3052 J-26.3217
G2 X126.3176 Y121.4509 I13.1697 J-34.5764
G2 X127.3983 Y121.7532 I16.94 J-58.4773
G1 X127.8732 Y121.878
G2 X127.9846 Y121.9067 I0.6945 J-2.4687
G2 X129.7457 Y122.3343 I19.1203 J-74.9109
G1 X130.4081 Y122.4859
G1 X130.6982 Y122.5513
G1 X132.8748 Y123.0354
G3 X135.0473 Y123.5381 I-22.555 J102.4242
G1 X125.3309 Y65.9089
G2 X125.8322 Y65.6203 I-1.8742 J-3.8352
G2 X126.2442 Y65.2779 I-1.4069 J-2.112
G2 X126.5378 Y64.8856 I-1.2638 J-1.2521
G2 X126.7155 Y64.024 I-1.2953 J-0.7162
G2 X126.6456 Y63.6595 I-1.9069 J0.1767
G2 X126.367 Y63.0293 I-2.7715 J0.8484
G2 X126.0284 Y62.5345 I-4.1238 J2.4587
G2 X125.6885 Y62.136 I-4.7358 J3.695
G2 X125.5307 Y61.9701 I-5.0606 J4.6574
G2 X124.9024 Y61.3852 I-6.7228 J6.5908
G2 X123.8875 Y60.5938 I-10.0543 J11.8485
G2 X123.3581 Y60.2279 I-9.4249 J13.0687
G1 X123.0892 Y60.0511
G1 X122.8179 Y59.878
G1 X134.3771 Y63.2287
G2 X138.8533 Y61.1904 I-206.729 J-459.9262
G1 X140.8066 Y60.2861
G1 X141.2641 Y60.0731
G1 X142.1642 Y59.6526
G1 X143.0356 Y59.2438
G1 X144.7221 Y58.4476
G1 X146.301 Y57.6958
G1 X147.7793 Y56.986
G1 X149.1632 Y56.3158
G1 X150.4588 Y55.6829
G1 X151.0656 Y55.3847
G1 X151.6529 Y55.0947
G1 X152.2215 Y54.8128
G2 X152.3592 Y54.7443 I-3.1402 J-6.4882
G1 X153.4506 Y54.1989
G2 X153.5145 Y54.1668 I-0.6905 J-1.4549
G1 X154.5321 Y53.6535
G1 X155.0086 Y53.4114
G1 X155.9306 Y52.9398
G1 X156.7935 Y52.4942
G2 X160.0121 Y50.7878 I-90.2644 J-174.1439
G1 X160.6128 Y50.4597
G1 X161.1747 Y50.1494
G1 X161.7003 Y49.8558
G1 X162.1919 Y49.578
G1 X162.422 Y49.4469
G1 X162.6446 Y49.3192
G1 X163.075 Y49.07
G1 X163.4775 Y48.8341
G1 X163.6659 Y48.7226
G1 X163.848 Y48.6141
G2 X165.2479 Y47.7526 I-26.4881 J-44.6083
G2 X165.7674 Y47.4169 I-12.8503 J-20.4553
G2 X166.6638 Y46.8071 I-16.1155 J-24.6532
G2 X167.3214 Y46.3227 I-12.4433 J-17.5818
G2 X167.5633 Y46.1323 I-4.1013 J-5.4603
G1 X167.6681 Y46.0471
G1 X167.7655 Y45.9661
G1 X167.8561 Y45.889
G1 X167.9402 Y45.8157
G1 X168.0184 Y45.7459
G1 X168.0909 Y45.6795
G2 X168.3542 Y45.4212 I-3.7741 J-4.109
G2 X168.7061 Y44.9911 I-2.2567 J-2.2056
G2 X168.8386 Y44.7428 I-1.2543 J-0.8289
G2 X168.8876 Y44.4657 I-0.5819 J-0.2456
G2 X168.7223 Y44.1425 I-5.0301 J2.3684
G2 X168.6347 Y43.9873 I-3.9513 J2.1277
G2 X167.8298 Y42.8268 I-8.2349 J4.8525
G2 X167.7781 Y42.7625 I-1.1576 J0.8775
G2 X166.9055 Y41.7797 I-11.4017 J9.2444
G1 X166.6902 Y41.56
G1 X166.5829 Y41.4531
G2 X164.7878 Y39.8565 I-16.9817 J17.2851
G2 X163.1113 Y38.5899 I-20.9751 J26.0213
G2 X160.0112 Y36.6149 I-22.936 J32.5815
G2 X157.5752 Y35.3217 I-20.4508 J35.5808
G1 X157.1091 Y35.0974
G2 X153.5242 Y33.6174 I-16.1413 J34.0139
G2 X151.6749 Y33.0303 I-10.7022 J30.509
G2 X149.7897 Y32.5709 I-7.183 J25.3757
G1 X149.7387 Y32.5757
G1 X149.3323 Y32.6186
G2 X148.5283 Y32.723 I3.6848 J31.5199
G1 X148.1338 Y32.7821
G1 X147.7432 Y32.845
G1 X147.3562 Y32.911
G2 X147.2602 Y32.9279 I0.155 J1.1605
G1 X147.0689 Y32.9622
G1 X146.6882 Y33.0327
G1 X146.311 Y33.1053
G1 X145.9372 Y33.1797
G2 X142.9845 Y33.8358 I18.5004 J90.2298
G1 X142.2956 Y34.0026
G1 X142.2109 Y34.0235
G1 X141.5351 Y34.1915
G1 X140.8708 Y34.3602
G1 X140.2176 Y34.5292
G1 X139.8963 Y34.6133
G2 X137.3517 Y35.3005 I63.1291 J238.7945
G1 X136.7566 Y35.466
G1 X135.586 Y35.7959
G1 X134.4533 Y36.1201
G1 X133.3572 Y36.4382
G1 X132.2963 Y36.7495
G1 X132.1678 Y36.7875
G1 X131.145 Y37.091
G1 X130.1548 Y37.3874
G1 X128.238 Y37.9674
G1 X127.789 Y38.1043
G1 X126.9055 Y38.3748
G1 X125.1946 Y38.9021
G1 X124.7937 Y39.0262
G1 X123.2161 Y39.5168
G1 X121.7377 Y39.979
G1 X118.9671 Y40.8498
G1 X118.3612 Y41.0408
G1 X116.0136 Y41.7819
G1 X111.905 Y43.0779
G1 X111.5196 Y43.1991
G3 X105.5408 Y45.055 I-205.0452 J-650.017
G1 X105.1664 Y45.1688
G3 X105.1224 Y45.1822 I-0.153 J-0.4249
G3 X102.3325 Y46.0153 I-94.6103 J-311.7411
G1 X101.9831 Y46.1173
G3 X99.5318 Y46.811 I-37.9337 J-129.3591
G0 Z5.0
G0 X106.4002 Y44.4652
G1 Z0.0
G1 X59.828 Y0.7407
G0 Z5.0
G0 X26.7844 Y14.9025
G1 Z0.0
G1 X181.6438 Y-56.386
G1 X181.4003 Y-56.5786
G1 X180.9148 Y-56.9578
G1 X180.4347 Y-57.3282
G2 X172.6888 Y-62.9144 I-101.0913 J132.0129
G2 X172.503 Y-63.0402 I-9.7822 J14.2378
G1 X172.3186 Y-63.1648
G2 X166.3672 Y-66.9736 I-78.8756 J116.6915
G2 X166.0828 Y-67.1447 I-20.2285 J33.3114
G1 X165.5215 Y-67.4791
G1 X164.9758 Y-67.8
G1 X164.7108 Y-67.9544
G1 X164.1878 Y-68.2562
G1 X163.6794 Y-68.5456
G2 X159.679 Y-70.6799 I-42.1449 J74.1766
G1 X159.2975 Y-70.8689
G1 X158.9269 Y-71.0498
G2 X157.4802 Y-71.7294 I-32.2492 J66.7704
G2 X157.4404 Y-71.7475 I-0.2953 J0.5973
G2 X154.874 Y-72.8349 I-22.9069 J50.4919
G2 X154.8131 Y-72.8587 I-0.2708 J0.603
G2 X152.8612 Y-73.5652 I-14.0929 J35.8835
G1 X152.4909 Y-73.686
G2 X151.7931 Y-73.9009 I-11.3277 J35.5461
G2 X149.3116 Y-74.5108 I-7.4421 J24.9237
G2 X148.0485 Y-74.7099 I-3.6302 J18.9279
G2 X146.7742 Y-74.8141 I-1.8467 J14.7424
G1 X146.7253 Y-74.8118
G1 X146.6284 Y-74.7978
G2 X146.2472 Y-74.7136 I1.4969 J7.6835
G2 X145.8708 Y-74.6166 I3.1722 J13.0841
G2 X145.4972 Y-74.5147 I3.702 J14.3121
G1 X145.126 Y-74.4102
G2 X143.6514 Y-73.9784 I27.7337 J97.4306
G1 X143.606 Y-73.9648
G1 X143.244 Y-73.8562
G2 X137.4902 Y-72.0744 I146.2522 J482.4688
G1 X134.7983 Y-71.2227
G1 X132.1922 Y-70.3924
G1 X129.6687 Y-69.5843
G1 X127.225 Y-68.7988
G1 X122.4922 Y-67.2709
G2 X113.623 Y-64.3912 I1496.8015 J4624.9984
G1 X111.6835 Y-63.7592
G1 X107.9262 Y-62.5332
G1 X107.0456 Y-62.2456
G1 X103.5789 Y-61.1121
G1 X97.0801 Y-58.9832
G1 X91.3948 Y-57.117
G1 X88.9077 Y-56.2996
G1 X79.5827 Y-53.2305
G1 X76.0863 Y-52.078
G1 X73.0271 Y-51.0689
G1 X67.6741 Y-49.3016
G1 X59.6457 Y-46.6475
G1 X57.6388 Y-45.9833
G1 X54.6286 Y-44.9865
G1 X54.4404 Y-44.9241
G1 X53.0295 Y-44.4566
G1 X51.6187 Y-43.9889
G1 X49.3639 Y-42.9645
G1 X31.8875 Y-35.0298
G1 X25.3331 Y-32.056
G1 X13.8617 Y-26.8545
G1 X5.2567 Y-22.9564
G1 X-1.1981 Y-20.0353
G1 X-3.6191 Y-18.9406
G1 X-4.1488 Y-18.7012
G1 X-8.2537 Y-16.8471
G1 X-11.3331 Y-15.4582
G1 X-12.4882 Y-14.9378
G1 X-13.499 Y-14.4828
G1 X-15.2683 Y-13.6874
G1 X-16.5957 Y-13.0919
G1 X-18.588 Y-12.2014
G3 X-19.5853 Y-11.7587 I-54.7682 J-122.0212
G1 X-20.0845 Y-11.5388
G1 X-20.5848 Y-11.3211
G0 Z5.0
G0 X-47.9387 Y-83.2659
G1 Z0.0
G2 X-48.5524 Y-83.7501 I-19.7143 J24.3565
G2 X-49.7363 Y-84.6144 I-20.7603 J27.1943
G2 X-50.7996 Y-85.3322 I-23.2251 J33.2573
G2 X-52.7135 Y-86.5073 I-22.1477 J33.9259
G2 X-53.4489 Y-86.9197 I-15.1212 J26.1021
G2 X-54.76 Y-87.597 I-15.5785 J28.5502
G2 X-56.7938 Y-88.4724 I-9.8049 J19.9787
G2 X-57.8479 Y-88.8156 I-4.9279 J13.3438
G1 X-58.1158 Y-88.8871
G2 X-58.1411 Y-88.8934 I-0.0575 J0.1753
G2 X-58.9303 Y-89.0545 I-2.2195 J8.863
G3 X-58.1164 Y-89.5809 I5.9591 J8.32
G3 X-58.0917 Y-89.5953 I0.1116 J0.1642
G3 X-58.067 Y-89.6095 I0.111 J0.1643
G3 X-58.0423 Y-89.6236 I0.1103 J0.1644
G3 X-57.2328 Y-90.0302 I4.0098 J6.9744
G3 X-56.4358 Y-90.3219 I2.794 J6.3994
G3 X-54.8719 Y-90.5613 I1.6186 J5.3438
G3 X-53.5158 Y-90.3768 I0.0203 J4.9272
G3 X-52.4202 Y-89.9233 I-1.4379 J5.0238
G3 X-51.5637 Y-89.3483 I-2.9605 J5.3349
G3 X-50.897 Y-88.7438 I-4.4863 J5.6176
G1 X-50.7611 Y-88.6015
G1 X-50.6328 Y-88.4608
G3 X-50.1648 Y-87.8906 I-6.4857 J5.801
G3 X-49.4489 Y-86.8176 I-8.5162 J6.457
G3 X-48.5874 Y-85.087 I-12.3362 J7.2213
G3 X-47.9387 Y-83.2659 I-17.1553 J7.1368
G0 Z5.0
G0 X-107.2607 Y27.5231
G1 Z0.0
G3 X-107.1979 Y27.421 I0.7327 J0.3799
G1 X-107.1301 Y27.3227
G3 X-106.8479 Y26.9381 I16.8283 J12.0513
G3 X-105.6915 Y25.4398 I95.4082 J72.4452
G1 X-105.1249 Y24.719
G1 X-104.0045 Y23.304
G1 X-102.9152 Y21.9363
G1 X-101.8577 Y20.6132
G1 X-100.8316 Y19.3327
G1 X-98.8404 Y16.8544
G1 X-97.9059 Y15.6935
G1 X-96.0937 Y13.4457
G1 X-94.3933 Y11.3395
G1 X-92.798 Y9.3658
G1 X-92.0499 Y8.4409
G1 X-90.6001 Y6.6494
G3 X-89.2402 Y4.9701 I660.7284 J533.689
G1 X-88.6026 Y4.1831
G1 X-86.131 Y1.1344
G1 X-81.8028 Y-4.1986
G1 X-78.5546 Y-8.1966
G1 X-73.6793 Y-14.1913
G1 X-68.8006 Y-20.1831
G0 Z5.0
G0 X77.8751 Y55.972
G1 Z0.0
G1 X60.5266 Y67.6414
G3 X59.7767 Y68.1202 I-9.6242 J-14.2482
G1 X59.4411 Y68.3217
G3 X59.1245 Y68.5092 I-17.0745 J-28.4718
G1 X58.9756 Y68.5974
G1 X58.8315 Y68.6832
G1 X58.6921 Y68.7669
G2 X58.157 Y69.1009 I14.3993 J23.6616
G2 X57.2662 Y69.759 I4.4022 J6.8917
G2 X56.6809 Y70.3535 I2.9906 J3.5296
G2 X56.052 Y71.4322 I2.9824 J2.4613
G2 X55.8736 Y72.0321 I3.9563 J1.5035
G2 X55.7786 Y72.6505 I4.6879 J1.036
G1 X55.9101 Y72.7794
G1 X56.0411 Y72.9066
G2 X58.2007 Y74.8399 I24.4752 J-25.168
G2 X60.2243 Y76.367 I18.4942 J-22.4026
G2 X64.0776 Y78.5493 I14.1793 J-20.5434
G2 X64.1248 Y78.5707 I0.2549 J-0.4999
G2 X64.3134 Y78.655 I2.1063 J-4.46
G2 X65.8203 Y79.2661 I11.3095 J-25.7234
G1 X66.1544 Y79.3878
G2 X66.2356 Y79.4167 I0.422 J-1.0574
G2 X66.3162 Y79.4451 I0.4284 J-1.0863
G2 X66.9584 Y79.6628 I12.0807 J-34.5888
G2 X67.034 Y79.6874 I0.545 J-1.544
G2 X69.4568 Y80.3886 I12.9063 J-40.0562
G1 X69.9148 Y80.5063
G1 X70.0223 Y80.5334
G1 X70.1282 Y80.56
G1 X70.9626 Y80.7644
G1 X71.6939 Y80.9383
G1 X72.3344 Y81.0885
G1 X73.4552 Y81.3509
G1 X74.2952 Y81.5506
G1 X74.9243 Y81.7035
G3 X76.8055 Y82.1878 I-22.8238 J92.5607
G1 X96.7361 Y75.8621
G0 Z5.0
M5
M30
