( Made using CamBam - http://www.cambam.co.uk )
( Plane_3Mx3M 1/20/2014 12:44:43 PM )
( T0 : 0.0 )
G21 G90 G64 G40
G0 Z5.0
( T0 : 0.0 )
T0 M6
( 41-50 )
G17
M3 S1000
G0 X-96.4573 Y135.7363
G1 F2000.0 Z0.0
G3 X-96.9003 Y135.658 I0.2057 J-2.4562
G3 X-97.3281 Y135.5188 I1.2917 J-4.6955
G3 X-98.1424 Y135.1415 I2.3396 J-6.1173
G3 X-99.6233 Y134.1416 I4.3186 J-7.9929
G3 X-100.4838 Y133.318 I4.994 J-6.0789
G3 X-100.9077 Y132.7844 I4.2983 J-3.8504
G3 X-101.105 Y132.4787 I2.9914 J-2.1469
G3 X-101.4475 Y131.7174 I3.0312 J-1.8212
G3 X-101.5418 Y131.2785 I2.745 J-0.8197
G3 X-101.4109 Y130.2342 I2.0779 J-0.2699
G3 X-101.1282 Y129.7283 I2.0848 J0.8331
G3 X-100.7036 Y129.2614 I2.4766 J1.8262
G3 X-100.1623 Y128.8477 I2.8075 J3.1114
G3 X-99.5302 Y128.4877 I3.5066 J5.4227
G3 X-98.8282 Y128.1772 I3.5511 J7.0799
G1 X-98.6469 Y128.1078
G3 X-97.8795 Y127.8509 I4.9496 J13.5118
G1 X-97.6834 Y127.7933
G1 X-97.4846 Y127.7378
G1 X-97.3843 Y127.7109
G3 X-95.6071 Y127.3247 I5.5406 J21.2176
G3 X-93.6852 Y127.0482 I5.8207 J33.6406
G3 X-92.7078 Y126.9472 I4.6217 J39.934
G3 X-90.7221 Y126.8038 I4.6054 J49.949
G1 X-90.473 Y126.7908
G3 X-89.464 Y126.7478 I2.4289 J45.2262
G1 X-88.9551 Y126.7318
G3 X-84.5599 Y128.2553 I-32.8444 J101.856
G3 X-80.2287 Y129.9524 I-47.0759 J126.5136
G1 X-79.9513 Y130.0669
G1 X-79.6651 Y130.1857
G1 X-79.37 Y130.309
G1 X-79.0656 Y130.4368
G1 X-78.7516 Y130.5694
G1 X-78.4279 Y130.7069
G1 X-78.0939 Y130.8496
G1 X-77.3826 Y131.1563
G1 X-76.6253 Y131.4867
G3 X-75.819 Y131.8426 I-49.6796 J113.642
G1 X-75.6144 Y131.9335
G1 X-75.4067 Y132.0261
G1 X-75.1957 Y132.1204
G1 X-74.9815 Y132.2164
G1 X-74.7641 Y132.3142
G1 X-73.8375 Y132.7335
G1 X-72.8508 Y133.1846
G1 X-72.6005 Y133.2998
G1 X-71.5336 Y133.7934
G1 X-70.3972 Y134.3234
G1 X-69.1866 Y134.8918
G1 X-69.0341 Y134.9636
G1 X-68.8804 Y135.036
G1 X-67.57 Y135.6547
G1 X-64.5755 Y137.0698
G1 X-62.9766 Y137.8202
G1 X-62.1502 Y138.2052
G1 X-61.2961 Y138.6003
G1 X-60.8618 Y138.8
G1 X-60.6428 Y138.9003
G1 X-60.422 Y139.0012
G2 X-56.3632 Y140.7985 I74.4881 J-162.7314
G2 X-54.1769 Y141.7072 I57.2748 J-134.7224
G3 X-53.3914 Y142.4467 I-6.6465 J7.8463
G3 X-52.7182 Y143.2897 I-4.1935 J4.0389
G3 X-52.3926 Y143.9331 I-2.7729 J1.8077
G3 X-52.2865 Y144.3335 I-2.0357 J0.7535
G3 X-52.4794 Y145.4403 I-1.6298 J0.2861
G3 X-52.8915 Y145.9588 I-1.9427 J-1.1211
G3 X-53.4951 Y146.4154 I-2.4314 J-2.5875
G3 X-54.252 Y146.8034 I-2.982 J-4.8833
G3 X-55.1432 Y147.1312 I-3.4799 J-8.0869
G3 X-56.1563 Y147.4038 I-3.9656 J-12.7197
G1 X-56.2857 Y147.433
G3 X-57.4151 Y147.6452 I-4.2431 J-19.4725
G3 X-60.0822 Y147.9179 I-3.9837 J-25.7747
G3 X-63.3073 Y147.917 I-1.6035 J-30.239
G3 X-65.0824 Y147.749 I1.2375 J-22.542
G3 X-65.5342 Y147.6789 I4.1346 J-28.1384
G3 X-66.4764 Y147.4748 I1.7051 J-10.1472
G3 X-66.9486 Y147.3236 I1.4766 J-5.4241
G2 X-70.8044 Y145.8295 I-126.9959 J322.0171
G1 X-72.0931 Y145.3403
G1 X-72.8301 Y145.062
G1 X-73.6725 Y144.7448
G1 X-75.9201 Y143.9019
G2 X-75.991 Y143.8754 I-0.4188 J1.0108
G2 X-76.0624 Y143.8487 I-0.424 J1.024
G1 X-76.6714 Y143.6207
G3 X-79.9191 Y142.4044 I578.6636 J-1550.0551
G1 X-81.7739 Y141.7065
G1 X-83.8917 Y140.9036
G1 X-84.4377 Y140.6951
G1 X-84.715 Y140.589
G3 X-87.2468 Y139.6104 I174.7707 J-455.9385
G1 X-87.8991 Y139.3549
G1 X-87.9809 Y139.3227
G1 X-88.6561 Y139.0562
G1 X-89.3523 Y138.7792
G3 X-89.5276 Y138.7091 I2.0732 J-5.4375
G1 X-89.8836 Y138.5662
G1 X-90.6179 Y138.2692
G1 X-90.9904 Y138.1173
G1 X-91.7584 Y137.8012
G1 X-92.148 Y137.6392
G1 X-92.9507 Y137.3014
G3 X-94.6554 Y136.5624 I46.4295 J-109.4289
G3 X-96.4573 Y135.7363 I29.7729 J-67.3196
G0 Z5.0
G0 X-31.6125 Y67.4614
G1 Z0.0
G2 X-31.6066 Y67.2905 I-4.159 J-0.2282
G1 X-31.5883 Y66.6124
G1 X-31.5753 Y65.9554
G1 X-31.557 Y64.6824
G1 X-31.5447 Y63.4888
G1 X-31.5286 Y61.2508
G1 X-31.5104 Y57.3343
G1 X-31.4988 Y54.3969
G1 X-31.4886 Y52.1938
G1 X-31.4863 Y51.7807
G1 X-31.4762 Y50.2317
G3 X-31.4759 Y50.1953 I0.2761 J-0.0161
G3 X-31.4757 Y50.1592 I0.2736 J-0.016
G1 X-31.4657 Y49.0157
G1 X-31.4562 Y48.158
G1 X-31.4542 Y47.9971
G1 X-31.4455 Y47.394
G1 X-31.4284 Y46.4895
G3 X-31.401 Y45.5853 I50.9015 J1.0874
G1 X-31.39 Y45.406
G3 X-31.3552 Y45.0582 I9.2798 J0.754
G3 X-31.2226 Y44.4115 I3.8598 J0.4543
G3 X-30.9923 Y43.8779 I2.2335 J0.6476
G3 X-30.6656 Y43.4973 I1.2658 J0.7559
G3 X-30.2935 Y43.2815 I0.8711 J1.0737
G3 X-29.9345 Y43.1844 I0.6768 J1.7893
G3 X-29.612 Y43.1525 I0.4101 J2.5007
G3 X-29.0468 Y43.1738 I0.1324 J3.9983
G1 X-29.0204 Y43.1765
G1 X-28.9944 Y43.1793
G1 X-28.7906 Y43.2048
G1 X-28.613 Y43.2317
G1 X-28.5741 Y43.238
G3 X-27.9759 Y43.3535 I-2.2581 J13.3074
G1 X-27.8271 Y43.3859
G1 X-27.3818 Y43.488
G1 X-27.1841 Y43.5535
G1 X-26.9884 Y43.6199
G3 X-25.4504 Y44.189 I-11.3961 J33.156
G1 X-25.2718 Y44.2597
G1 X-24.9182 Y44.4021
G3 X-22.1648 Y45.5975 I-28.113 J68.5248
G1 X-21.8664 Y45.7343
G1 X-21.2803 Y46.0065
G1 X-20.7139 Y46.2732
G3 X-18.5302 Y47.33 I-76.5258 J160.9058
G3 X-14.7368 Y49.2364 I-160.2247 J323.5595
G1 X-13.3188 Y49.9605
G1 X-12.6986 Y50.2777
G1 X-11.5356 Y50.8721
G1 X-11.0264 Y51.1317
G1 X-10.0709 Y51.6166
G1 X-9.2335 Y52.0385
G1 X-9.0501 Y52.1304
G1 X-8.3385 Y52.4845
G1 X-8.0266 Y52.6385
G1 X-7.7339 Y52.7821
G1 X-7.4592 Y52.9161
G1 X-7.2013 Y53.0411
G2 X-5.2544 Y53.9512 I31.5824 J-65.0267
G1 X-4.7626 Y54.1679
G2 X-4.0193 Y54.48 I10.6029 J-24.2139
G2 X-3.2669 Y54.7692 I7.6498 J-18.7744
G0 Z5.0
G0 X10.324 Y3.7768
G1 Z0.0
G2 X10.4934 Y5.4659 I9.2193 J-0.0714
G2 X11.6412 Y8.381 I8.6277 J-1.7136
G2 X12.0152 Y8.9444 I7.1575 J-4.3454
G2 X12.839 Y9.958 I8.3782 J-5.9677
G2 X13.7074 Y10.8153 I8.919 J-8.1666
G1 X13.9218 Y11.0036
G1 X14.1364 Y11.1846
G2 X15.9325 Y12.4703 I10.5946 J-12.9029
G2 X16.7631 Y12.9614 I10.3748 J-16.5983
G2 X18.3733 Y13.7833 I11.6735 J-20.8809
G1 X18.7329 Y13.9476
G1 X19.0835 Y14.1018
G2 X21.858 Y15.1517 I13.1847 J-30.6517
G2 X21.9241 Y15.1736 I0.2737 J-0.7176
G1 X22.4493 Y15.3426
G2 X24.4373 Y15.9161 I12.8078 J-40.6598
G2 X25.9433 Y16.2903 I13.665 J-51.7763
G1 X26.2269 Y16.3557
G1 X26.7593 Y16.4744
G2 X27.2261 Y16.5743 I4.8015 J-21.296
G2 X28.8651 Y16.8974 I14.9971 J-71.7427
G1 X28.9678 Y16.9164
G1 X29.0642 Y16.9341
G2 X30.5101 Y17.1893 I50.8719 J-284.0
G0 Z5.0
G0 X38.1939 Y0.4757
G1 Z0.0
G3 X38.2956 Y0.2522 I2.1299 J0.8345
G1 X38.3506 Y0.1435
G3 X38.3645 Y0.1165 I0.2451 J0.1094
G1 X38.4778 Y-0.0975
G3 X39.4289 Y-1.7683 I50.7469 J27.7829
G1 X39.8865 Y-2.5446
G1 X40.1095 Y-2.9198
G1 X40.3297 Y-3.2888
G1 X40.384 Y-3.3796
G3 X40.8174 Y-4.1021 I99.6983 J59.3228
G1 X41.6616 Y-5.4994
G1 X42.4567 Y-6.8071
G1 X43.2046 Y-8.0316
G1 X43.5559 Y-8.6052
G1 X44.2375 Y-9.7159
G3 X49.3785 Y-18.0274 I1748.3761 J1075.6974
G1 X49.701 Y-18.5461
G1 X52.1238 Y-22.434
G1 X52.7305 Y-23.4055
G1 X54.5528 Y-26.3181
G0 Z5.0
G0 X54.7082 Y-26.5426
G1 Z0.0
G1 X54.2162 Y-26.8832
G1 X53.5229 Y-27.3655
G1 X53.3928 Y-27.4559
G1 X52.9045 Y-27.7939
G1 X52.1693 Y-28.2969
G1 X51.9848 Y-28.4216
G1 X51.8462 Y-28.5148
G2 X51.4291 Y-28.7924 I-17.9863 J26.5754
G3 X50.2109 Y-29.4805 I4.1347 J-8.7423
G3 X49.1273 Y-30.2823 I7.0606 J-10.6743
G3 X48.1568 Y-31.1508 I9.885 J-12.0227
G3 X46.4616 Y-33.0146 I14.5294 J-14.9187
G1 X46.2768 Y-33.2452
G3 X44.9012 Y-35.1441 I22.9378 J-18.0654
G1 X44.7495 Y-35.3739
G3 X44.1666 Y-36.2985 I23.1934 J-15.2699
G3 X42.1676 Y-40.0359 I34.0818 J-20.6324
G3 X39.5629 Y-47.0216 I41.359 J-19.3997
G3 X39.5388 Y-47.1071 I1.8768 J-0.5745
G1 X39.4446 Y-47.448
G3 X38.8003 Y-50.1592 I42.5465 J-11.543
G3 X38.3883 Y-52.5774 I37.9771 J-7.7161
G1 X38.3526 Y-52.8449
G3 X38.2885 Y-53.3724 I19.2043 J-2.6022
G1 X38.2341 Y-53.8851
G1 X38.189 Y-54.383
G3 X38.0907 Y-56.3197 I27.8854 J-2.3865
G3 X38.0879 Y-56.5328 I5.3535 J-0.1777
G3 X38.0867 Y-56.7427 I4.9721 J-0.132
G3 X38.0873 Y-56.9494 I4.6766 J-0.0919
G3 X38.1514 Y-58.5761 I25.8393 J0.2042
G3 X38.1654 Y-58.7543 I3.5596 J0.1895
G3 X38.3287 Y-60.1524 I19.2191 J1.5375
G3 X38.3528 Y-60.305 I4.2419 J0.5903
G3 X38.9155 Y-62.6694 I15.5633 J2.4544
G3 X39.6058 Y-64.3648 I11.5875 J3.7301
G3 X40.3026 Y-65.5511 I9.2046 J4.6082
G3 X41.6571 Y-67.1059 I7.2318 J4.9333
G3 X43.3516 Y-68.281 I5.4547 J6.0562
G3 X45.2561 Y-68.5551 I3.1181 J14.9121
G3 X46.1821 Y-68.6087 I1.489 J17.6975
G3 X46.6378 Y-68.6192 I0.5921 J15.794
G1 X46.8638 Y-68.6209
G3 X47.7637 Y-68.6054 I-0.0327 J28.1068
G3 X47.9848 Y-68.5965 I-0.0928 J5.0812
G1 X48.425 Y-68.5733
G1 X48.8611 Y-68.5434
G1 X48.9692 Y-68.5349
G3 X50.6896 Y-68.3487 I-2.5516 J31.6179
G3 X53.9864 Y-67.7607 I-5.6193 J41.044
G1 X54.3691 Y-67.6755
G3 X57.3823 Y-66.8981 I-12.0016 J52.7474
G1 X57.4699 Y-66.8728
G1 X57.5573 Y-66.8475
G3 X63.0612 Y-64.9903 I-20.0081 J68.3768
G1 X63.2096 Y-64.9335
G3 X64.3881 Y-64.471 I-34.9132 J90.6988
G3 X68.8891 Y-62.5197 I-33.4824 J83.3982
G3 X76.5086 Y-58.5615 I-42.2939 J90.7293
G3 X76.5959 Y-58.5112 I-1.444 J2.6082
G3 X76.6829 Y-58.461 I-1.4108 J2.5444
G3 X82.1127 Y-55.0799 I-47.1586 J81.784
G3 X86.0234 Y-52.2944 I-47.7423 J71.1652
G1 X86.2028 Y-52.1581
G1 X86.3789 Y-52.0234
G3 X87.7516 Y-50.9446 I-41.2746 J53.9334
G3 X90.0862 Y-48.9731 I-42.1994 J52.3378
G3 X90.1398 Y-48.9255 I-0.4794 J0.5937
G3 X90.1929 Y-48.8782 I-0.4769 J0.589
G3 X90.2455 Y-48.8312 I-0.4744 J0.5844
G3 X91.8848 Y-47.3058 I-37.1695 J41.5856
G3 X94.2073 Y-44.8794 I-30.54 J31.5572
G3 X94.242 Y-44.84 I-0.3712 J0.3623
G3 X94.2762 Y-44.8012 I-0.3681 J0.3582
G3 X94.3098 Y-44.7629 I-0.3651 J0.354
G3 X94.3428 Y-44.7251 I-0.3621 J0.3499
G3 X94.3752 Y-44.6879 I-0.3591 J0.3459
G3 X94.6286 Y-44.3938 I-13.4349 J11.8329
G3 X94.6562 Y-44.3615 I-0.3322 J0.3107
G3 X94.6832 Y-44.3296 I-0.3295 J0.3072
G3 X94.7099 Y-44.2982 I-0.3268 J0.3038
G3 X96.3026 Y-42.2545 I-23.4403 J19.9112
G3 X99.9526 Y-36.0132 I-33.2409 J23.6272
G3 X101.0561 Y-33.4183 I-33.1858 J15.6447
G3 X101.8626 Y-31.0411 I-30.9265 J11.8178
G3 X101.9409 Y-30.773 I-13.0873 J3.9706
G3 X102.4695 Y-28.6342 I-26.6728 J7.7262
G3 X102.7874 Y-26.7016 I-23.147 J4.8005
G3 X102.8745 Y-25.8368 I-19.3529 J2.3863
G1 X102.8897 Y-25.6325
G3 X102.9282 Y-24.0175 I-17.7402 J1.2315
G3 X102.8236 Y-22.5932 I-13.3637 J-0.2657
G3 X102.5982 Y-21.3541 I-10.8083 J-1.3263
G1 X102.5292 Y-21.0858
G3 X102.1864 Y-20.0678 I-8.5116 J-2.2996
G3 X101.995 Y-19.6369 I-6.5349 J-2.6448
G3 X101.7909 Y-19.2445 I-6.4159 J-3.0874
G3 X100.8024 Y-17.9177 I-5.3767 J-2.9744
G3 X98.7287 Y-16.58 I-4.0453 J-3.9947
G3 X97.5342 Y-16.2545 I-2.4208 J-6.5293
G3 X96.3026 Y-16.1286 I-1.4781 J-8.3718
G1 X95.8495 Y-16.2616
G1 X94.9571 Y-16.5224
G1 X94.092 Y-16.7732
G2 X93.8824 Y-16.8337 I-3.6127 J12.1303
G2 X92.2172 Y-17.309 I-76.1772 J263.7376
G1 X91.4357 Y-17.5285
G2 X89.9194 Y-17.9471 I-47.3565 J168.6133
G1 X89.2075 Y-18.1398
G2 X86.4423 Y-18.8614 I-42.5981 J157.5707
G2 X84.0124 Y-19.4538 I-32.1755 J126.6997
G2 X83.9458 Y-19.4694 I-0.3541 J1.3609
G2 X83.8794 Y-19.4849 I-0.3516 J1.3541
G2 X83.8133 Y-19.5004 I-0.3492 J1.3473
G2 X79.5827 Y-20.4061 I-26.5611 J113.7315
G2 X79.483 Y-20.4253 I-0.3212 J1.3981
G2 X79.3841 Y-20.4443 I-0.3174 J1.3884
G2 X76.2355 Y-20.9885 I-17.0268 J89.1265
G2 X75.0494 Y-21.1608 I-12.5285 J82.0699
G2 X70.878 Y-21.5976 I-8.5057 J61.0883
G2 X66.6854 Y-21.7127 I-3.3994 J47.4105
G3 X64.5356 Y-21.8503 I-0.2436 J-13.063
G3 X62.7009 Y-22.2515 I2.0386 J-13.7165
G3 X62.6026 Y-22.2803 I0.4482 J-1.7101
G3 X61.0695 Y-22.8235 I4.6424 J-15.5392
G3 X59.7755 Y-23.4114 I6.949 J-17.0113
G3 X59.2228 Y-23.6956 I13.2693 J-26.4936
G1 X58.9663 Y-23.8336
G3 X57.9867 Y-24.3938 I14.0968 J-25.7861
G1 X57.5646 Y-24.6498
G1 X57.172 Y-24.8949
G3 X56.443 Y-25.3653 I37.399 J-58.7531
G1 X56.2846 Y-25.4699
G1 X55.6737 Y-25.8793
G1 X55.1422 Y-26.2422
G1 X54.7082 Y-26.5426
G0 Z5.0
G0 X21.9766 Y-5.1647
G1 Z0.0
G3 X22.1463 Y-5.4018 I3.2647 J2.1574
G1 X22.2334 Y-5.5172
G3 X22.9405 Y-6.4271 I53.8012 J41.0776
G3 X24.3279 Y-8.1763 I246.6757 J194.2397
G1 X24.6544 Y-8.5852
G1 X25.9422 Y-10.1934
G3 X28.3633 Y-13.2038 I1873.5366 J1504.3464
G3 X30.4857 Y-15.8346 I805.8162 J647.9037
G1 X30.7181 Y-16.1223
G3 X31.633 Y-17.2547 I372.5599 J300.0867
G1 X35.0667 Y-21.4985
G1 X40.2233 Y-27.8594
G1 X42.8038 Y-31.0381
G1 X43.1265 Y-31.4354
G1 X45.3856 Y-34.2157
G0 Z5.0
G0 X47.8954 Y30.7676
G1 Z0.0
G2 X46.9816 Y29.5775 I-15.6335 J11.0587
G1 X46.7544 Y29.3098
G2 X44.8272 Y27.33 I-18.6056 J16.1831
G1 X44.7161 Y27.2278
G1 X44.6053 Y27.1269
G1 X44.4949 Y27.0274
G2 X42.6883 Y25.5116 I-24.2262 J27.0409
G2 X41.0436 Y24.2664 I-32.5874 J41.3339
G2 X40.3108 Y23.7394 I-27.2893 J37.1665
G2 X40.2245 Y23.6781 I-1.628 J2.2041
G2 X37.4553 Y21.7775 I-81.7865 J116.1931
G1 X36.9324 Y21.4258
G1 X35.9522 Y20.7656
G1 X35.097 Y20.1839
G3 X34.7242 Y19.9273 I84.6194 J-123.3239
G3 X34.6805 Y19.8971 I0.2863 J-0.4604
G3 X34.6372 Y19.8671 I0.284 J-0.4562
G3 X34.5943 Y19.8373 I0.2818 J-0.4521
G3 X34.5517 Y19.8077 I0.2796 J-0.4481
G3 X34.5094 Y19.7783 I0.2775 J-0.4441
G3 X34.4675 Y19.7492 I0.2754 J-0.4402
G3 X34.426 Y19.7202 I0.2733 J-0.4363
G3 X34.3847 Y19.6914 I0.2712 J-0.4325
G3 X34.3439 Y19.6628 I0.2692 J-0.4287
G3 X33.0587 Y18.7406 I30.0993 J-43.2998
G1 X32.8208 Y18.5633
G3 X32.378 Y18.2263 I15.9164 J-21.3695
G3 X31.6166 Y17.6194 I15.668 J-20.4366
G3 X31.476 Y17.5027 I3.9846 J-4.9421
G1 X31.2148 Y17.2812
G1 X31.1016 Y17.1831
G1 X30.8911 Y16.9971
G3 X30.1764 Y16.3221 I12.8573 J-14.3293
G3 X29.5067 Y15.6022 I8.8216 J-8.8779
G3 X29.9588 Y14.5605 I73.99 J31.494
G3 X30.775 Y12.7483 I94.5157 J41.4787
G1 X31.09 Y12.0727
G3 X31.6545 Y10.8968 I64.3536 J30.1646
G3 X31.7083 Y10.7869 I2.2175 J1.0192
G3 X31.7607 Y10.6806 I2.1552 J0.9948
G3 X31.8115 Y10.5777 I2.097 J0.972
G3 X32.6208 Y8.9936 I54.4851 J26.8383
G1 X32.8305 Y8.6014
G1 X32.9901 Y8.3086
G1 X33.2342 Y7.8718
G3 X33.4866 Y7.4398 I11.1858 J6.2457
G0 Z5.0
G0 X-96.3804 Y-65.4322
G1 Z0.0
G1 X-96.7931 Y-65.8321
G1 X-97.2036 Y-66.228
G2 X-103.8429 Y-72.3845 I-169.0683 J175.6678
G2 X-109.8633 Y-77.5714 I-145.3293 J162.5997
G1 X-110.1991 Y-77.8494
G1 X-110.5329 Y-78.1247
G2 X-113.2036 Y-80.2836 I-119.6613 J145.2964
G1 X-113.836 Y-80.7833
G1 X-114.4607 Y-81.2727
G1 X-114.7691 Y-81.5127
G2 X-115.9984 Y-82.4585 I-123.9784 J159.8613
G2 X-118.4058 Y-84.2604 I-114.6543 J150.6765
G2 X-118.477 Y-84.3126 I-1.612 J2.1219
G2 X-118.548 Y-84.3647 I-1.5951 J2.1014
G2 X-118.6189 Y-84.4166 I-1.5785 J2.0813
G2 X-118.6897 Y-84.4684 I-1.5624 J2.0619
G2 X-118.7604 Y-84.52 I-1.5467 J2.043
G2 X-123.337 Y-87.7325 I-89.0172 J121.951
G2 X-123.4007 Y-87.7753 I-0.9505 J1.3446
G2 X-123.4642 Y-87.818 I-0.9454 J1.3389
G2 X-125.5058 Y-89.1607 I-83.5036 J124.741
G2 X-125.5661 Y-89.1995 I-0.8002 J1.1772
G2 X-129.4649 Y-91.5992 I-58.5415 J90.7457
G2 X-132.9687 Y-93.5603 I-46.5488 J79.0554
G2 X-134.5318 Y-94.3705 I-45.9714 J86.7833
G1 X-134.9009 Y-94.5557
G1 X-135.2653 Y-94.7361
G2 X-138.169 Y-96.0869 I-33.056 J67.2597
G2 X-140.7649 Y-97.1546 I-24.8942 J56.8345
G1 X-141.0522 Y-97.2641
G2 X-143.3359 Y-98.0687 I-19.4018 J51.4305
G1 X-143.841 Y-98.2302
G1 X-144.3321 Y-98.3812
G2 X-148.1942 Y-99.3491 I-11.6708 J38.3788
G2 X-148.9296 Y-99.4856 I-6.4755 J32.8503
G1 X-149.2755 Y-99.544
G2 X-151.9738 Y-99.8657 I-4.9271 J29.8531
G1 X-152.2281 Y-99.883
G2 X-152.7215 Y-99.9097 I-1.0343 J14.5337
G2 X-154.574 Y-99.9253 I-1.1486 J26.3453
G2 X-157.3407 Y-99.6709 I0.5946 J21.6374
G1 X-157.6835 Y-99.6135
G2 X-160.0466 Y-99.0401 I3.2642 J18.6076
G0 Z5.0
G0 X-143.2743 Y-68.1002
G1 Z0.0
G3 X-144.6261 Y-68.7267 I7.0763 J-17.04
G3 X-147.083 Y-70.2366 I9.3043 J-17.8939
G3 X-149.1893 Y-71.9399 I14.2639 J-19.7925
G3 X-150.9973 Y-73.7378 I18.0493 J-19.9594
G3 X-151.7928 Y-74.6386 I20.8365 J-19.2024
G3 X-152.532 Y-75.5421 I21.6528 J-18.4685
G3 X-153.8765 Y-77.3689 I26.3536 J-20.8037
G3 X-155.0368 Y-79.1675 I30.0513 J-20.6604
G3 X-156.9468 Y-82.7264 I34.1607 J-20.6258
G1 X-157.1364 Y-83.1331
G3 X-158.4691 Y-86.4106 I35.6902 J-16.4229
G3 X-159.3984 Y-89.4135 I34.9763 J-12.4684
G3 X-159.4205 Y-89.4979 I0.9348 J-0.2901
G3 X-159.4423 Y-89.5822 I0.9285 J-0.2858
G3 X-159.7619 Y-90.931 I36.3719 J-9.3296
G3 X-160.2075 Y-93.5083 I30.1271 J-6.5355
G3 X-160.3315 Y-94.6609 I27.7348 J-3.568
G3 X-160.4231 Y-96.8438 I24.6139 J-2.1253
G3 X-160.3228 Y-98.7718 I20.2657 J0.0876
G1 X-160.2998 Y-98.9835
G1 X-160.2746 Y-99.1917
G3 X-159.9821 Y-100.8174 I15.3363 J1.9198
G3 X-159.5692 Y-102.2103 I12.6691 J2.9979
G3 X-159.0675 Y-103.3827 I10.3119 J3.7193
G3 X-158.5088 Y-104.3507 I8.66 J4.3537
G3 X-157.9232 Y-105.1347 I7.3241 J4.8596
G3 X-155.2187 Y-107.1926 I5.893 J4.9385
G3 X-153.6041 Y-107.7441 I3.581 J7.8442
G3 X-151.9173 Y-107.9996 I2.4037 J10.176
G3 X-145.1256 Y-107.1351 I-1.5697 J39.4459
G3 X-139.3907 Y-105.4819 I-9.4077 J43.4089
G3 X-139.2375 Y-105.4264 I-1.0784 J3.2144
G3 X-134.4573 Y-103.4038 I-17.9429 J49.0655
G3 X-130.4462 Y-101.285 I-27.3632 J56.6592
G3 X-128.7405 Y-100.2725 I-37.9921 J65.9419
G1 X-128.345 Y-100.0285
G1 X-127.9571 Y-99.7859
G1 X-127.5767 Y-99.5449
G1 X-127.2036 Y-99.3054
G3 X-124.3114 Y-97.3511 I-47.2437 J73.0326
G1 X-123.6892 Y-96.9087
G1 X-123.0898 Y-96.4756
G3 X-120.7962 Y-94.7577 I-71.9155 J98.4058
G3 X-118.8239 Y-93.2098 I-88.0557 J114.2312
G1 X-118.3962 Y-92.8664
G3 X-115.1202 Y-90.1587 I-121.7763 J150.6724
G1 X-114.512 Y-89.6437
G1 X-113.9431 Y-89.1594
G1 X-113.4107 Y-88.7043
G1 X-111.4189 Y-86.992
G1 X-109.925 Y-85.708
G1 X-109.3633 Y-85.228
G1 X-108.8708 Y-84.8093
G1 X-108.6549 Y-84.6266
G1 X-107.8427 Y-83.9446
G1 X-107.6898 Y-83.8173
G1 X-107.5463 Y-83.6982
G1 X-107.2768 Y-83.4756
G1 X-106.8034 Y-83.0883
G2 X-105.3659 Y-81.9478 I45.2039 J-55.5015
G3 X-103.8957 Y-80.7357 I-16.8479 J21.9336
G3 X-102.596 Y-79.5081 I-18.3193 J20.6968
G3 X-100.4115 Y-76.9661 I-16.9284 J16.7567
G3 X-98.8288 Y-74.4968 I-17.145 J12.7309
G3 X-96.9466 Y-69.7352 I-18.095 J9.9057
G3 X-96.3295 Y-65.9462 I-20.8466 J5.3396
G3 X-96.2979 Y-63.0671 I-23.607 J1.6995
G3 X-96.8819 Y-58.791 I-25.5427 J-1.3108
G3 X-97.1391 Y-57.7416 I-25.9098 J-5.7938
G3 X-97.6083 Y-56.1904 I-25.4375 J-6.8475
G1 X-97.7422 Y-55.8079
G3 X-97.9571 Y-55.2392 I-15.1448 J-5.3994
G3 X-98.194 Y-54.6794 I-9.9778 J-3.8929
G0 Z5.0
M5
M30
