( Made using CamBam - http://www.cambam.co.uk )
( Plane_3Mx3M 1/20/2014 12:44:49 PM )
( T0 : 0.0 )
G21 G90 G64 G40
G0 Z5.0
( T0 : 0.0 )
T0 M6
( 51-58 )
G17
M3 S1000
G0 X-61.7353 Y119.2994
G1 F2000.0 Z0.0
G3 X-62.2591 Y119.199 I0.2143 J-2.534
G1 X-62.429 Y119.1457
G3 X-63.0863 Y118.8754 I1.9995 J-5.7948
G3 X-63.5069 Y118.6579 I3.4867 J-7.2584
G3 X-65.0515 Y117.5786 I4.5846 J-8.2061
G3 X-65.9322 Y116.6826 I4.9293 J-5.7261
G3 X-66.3503 Y116.0975 I4.2152 J-3.4539
G3 X-66.7033 Y115.3517 I3.0489 J-1.8995
G1 X-66.7347 Y115.2513
G3 X-66.824 Y114.809 I2.3459 J-0.7037
G3 X-66.6739 Y113.7607 I2.0678 J-0.2389
G3 X-66.3804 Y113.2567 I2.1386 J0.9081
G3 X-65.9465 Y112.7934 I2.4373 J1.8478
G3 X-65.398 Y112.3836 I2.9549 J3.3825
G3 X-64.7602 Y112.0273 I3.4502 J5.4269
G3 X-64.0541 Y111.7201 I3.6535 J7.4345
G3 X-62.4539 Y111.2201 I4.9338 J12.9776
G3 X-60.6533 Y110.848 I5.581 J22.4647
G1 X-60.1901 Y110.7741
G3 X-59.9561 Y110.7396 I5.626 J37.2926
G3 X-58.9937 Y110.6148 I4.9364 J34.3095
G3 X-58.9635 Y110.6113 I0.0413 J0.2249
G3 X-57.9861 Y110.5103 I4.7039 J40.7143
G3 X-56.0005 Y110.3668 I4.6471 J50.5016
G1 X-55.7514 Y110.3538
G3 X-54.7423 Y110.3108 I2.4282 J45.1775
G1 X-54.2335 Y110.2947
G3 X-49.8888 Y111.8766 I-19.3176 J59.8139
G3 X-45.6562 Y113.738 I-30.0797 J74.1398
G1 X-45.0995 Y114.0032
G1 X-44.5076 Y114.2898
G1 X-44.2028 Y114.4392
G1 X-43.8886 Y114.5944
G3 X-40.5665 Y116.3054 I-55.2566 J111.3739
G3 X-36.1978 Y118.698 I-110.482 J206.9091
G1 X-35.6371 Y119.0122
G1 X-35.0587 Y119.3372
G1 X-32.417 Y120.8256
G1 X-31.0065 Y121.6163
G1 X-30.6477 Y121.8163
G1 X-30.283 Y122.019
G1 X-29.5293 Y122.4355
G1 X-29.1459 Y122.6461
G2 X-25.615 Y124.5232 I67.7037 J-123.088
G1 X-25.1625 Y124.7535
G2 X-23.2178 Y125.7088 I37.9567 J-74.8157
G1 X-22.971 Y125.8256
G2 X-21.9476 Y126.298 I23.7762 J-50.164
G2 X-19.7368 Y127.2454 I23.4579 J-51.6849
G1 X-19.5874 Y127.3751
G1 X-19.4402 Y127.5074
G3 X-19.1542 Y127.7807 I-5.1902 J5.7186
G3 X-18.9706 Y127.97 I-4.0357 J4.0964
G3 X-18.3194 Y128.7994 I-3.9364 J3.7609
G1 X-18.247 Y128.9202
G3 X-17.956 Y129.6143 I-2.3705 J1.402
G3 X-17.8944 Y130.0432 I-1.8848 J0.4896
G3 X-17.9547 Y130.5406 I-1.64 J0.0534
G3 X-18.2004 Y131.068 I-1.7942 J-0.5149
G3 X-18.6468 Y131.57 I-2.1498 J-1.4624
G3 X-19.2658 Y132.0167 I-2.7244 J-3.1223
G3 X-20.0293 Y132.406 I-3.3819 J-5.6898
G1 X-20.1292 Y132.4488
G3 X-20.2309 Y132.491 I-1.3418 J-3.0967
G1 X-20.4414 Y132.5737
G3 X-20.8905 Y132.7327 I-3.3688 J-8.7981
G3 X-21.123 Y132.8071 I-4.0187 J-12.1697
G1 X-21.3627 Y132.8787
G3 X-22.4239 Y133.1457 I-4.5537 J-15.8552
G3 X-22.9817 Y133.2591 I-6.3781 J-29.9421
G3 X-25.6393 Y133.6147 I-4.8654 J-26.2568
G3 X-25.8081 Y133.6287 I-0.4359 J-4.2389
G3 X-29.0932 Y133.7232 I-2.5552 J-31.6629
G3 X-30.9118 Y133.6182 I0.551 J-25.3384
G3 X-31.8644 Y133.5001 I1.8889 J-19.1395
G3 X-32.8579 Y133.2993 I1.5479 J-10.2161
G3 X-33.356 Y133.1431 I1.1071 J-4.4049
G3 X-33.8177 Y132.9584 I15.676 J-39.846
G3 X-33.8485 Y132.946 I0.1155 J-0.3298
G1 X-34.0124 Y132.8794
G1 X-34.6663 Y132.6098
G1 X-35.101 Y132.4271
G3 X-36.831 Y131.6759 I43.4992 J-102.5432
G3 X-40.2575 Y130.0987 I58.1818 J-130.9122
G1 X-41.23 Y129.6343
G1 X-42.3387 Y129.0977
G3 X-45.2828 Y127.6422 I139.7832 J-286.4525
G1 X-46.0655 Y127.2492
G1 X-46.8995 Y126.8281
G1 X-47.7881 Y126.3772
G1 X-48.735 Y125.8945
G1 X-50.8968 Y124.7862
G1 X-51.4543 Y124.4993
G1 X-52.6434 Y123.8869
G1 X-55.3614 Y122.4881
G1 X-56.0635 Y122.1283
G1 X-56.4202 Y121.9458
G1 X-57.9441 Y121.1707
G1 X-58.7321 Y120.7736
G1 X-58.9308 Y120.6739
G2 X-60.631 Y119.8321 I-66.9943 J133.1713
G1 X-60.8459 Y119.7274
G2 X-61.7353 Y119.2994 I-28.3404 J57.7533
G0 Z5.0
G0 X-68.8684 Y103.7746
G1 Z0.0
G1 X-124.7733 Y129.4611
G3 X-126.864 Y128.0761 I15.2262 J-25.2547
G3 X-128.7715 Y126.5838 I19.2848 J-26.617
G1 X-128.9949 Y126.3948
G1 X-129.2159 Y126.2048
G1 X-129.4345 Y126.0139
G3 X-131.1271 Y124.4385 I27.9832 J-31.7603
G1 X-131.5237 Y124.0441
G3 X-134.511 Y120.7632 I37.6853 J-37.3132
G3 X-137.0777 Y117.4976 I50.0426 J-41.9738
G3 X-139.3098 Y114.3108 I64.0833 J-47.2598
G3 X-141.2695 Y111.2364 I82.3196 J-54.6338
G3 X-141.4914 Y110.8714 I27.0351 J-16.6894
G3 X-141.6009 Y110.69 I9.2366 J-5.7007
G1 X-141.7096 Y110.5091
G1 X-141.8176 Y110.3287
G1 X-142.244 Y109.6077
G1 X-142.6582 Y108.8949
G1 X-142.7593 Y108.7189
G1 X-142.8597 Y108.5435
G1 X-142.9594 Y108.3686
G3 X-145.9815 Y102.709 I108.1402 J-61.382
G1 X-146.2948 Y102.0812
G1 X-146.6001 Y101.4617
G1 X-146.8976 Y100.8504
G3 X-147.475 Y99.6429 I85.1136 J-41.4363
G1 X-147.5442 Y99.4963
G1 X-147.6129 Y99.3502
G3 X-149.7238 Y94.6574 I149.9067 J-70.2511
G1 X-150.1656 Y93.6221
G3 X-151.8142 Y89.5843 I155.3138 J-65.7685
G1 X-151.9016 Y89.3623
G1 X-152.2453 Y88.4803
G1 X-152.5741 Y87.6243
G1 X-152.6531 Y87.4167
G1 X-152.7313 Y87.2106
G1 X-152.8086 Y87.0061
G3 X-155.1448 Y80.4697 I185.1278 J-69.8541
G3 X-158.2414 Y70.5296 I209.6051 J-70.749
G1 X-158.4193 Y69.9036
G3 X-160.8715 Y60.4561 I221.7518 J-62.6009
G2 X-155.6134 Y60.7779 I5.6246 J-48.7922
G2 X-150.6926 Y60.5969 I0.4168 J-55.6683
G2 X-146.1182 Y60.0516 I-5.1468 J-62.6273
G1 X-145.5858 Y59.966
G1 X-145.0584 Y59.8769
G1 X-144.5359 Y59.7844
G2 X-142.4699 Y59.3779 I-12.7125 J-70.0625
G2 X-140.4814 Y58.9271 I-13.6815 J-64.9691
G2 X-136.6671 Y57.907 I-18.4866 J-76.7633
G1 X-136.2237 Y57.7756
G2 X-129.2813 Y55.3953 I-27.6623 J-91.9905
G2 X-129.0942 Y55.323 I-2.5762 J-6.9549
G2 X-128.9079 Y55.2508 I-2.4807 J-6.6694
G2 X-128.7225 Y55.1784 I-2.3952 J-6.4129
G2 X-128.5379 Y55.106 I-2.3181 J-6.1808
G1 X-127.804 Y54.8143
G1 X-127.0837 Y54.5221
G1 X-126.3766 Y54.2296
G1 X-125.6825 Y53.9372
G1 X-125.001 Y53.6451
G2 X-124.8336 Y53.5725 I-1.5185 J-3.7345
G2 X-119.5534 Y51.1371 I-51.8449 J-119.3426
G2 X-118.4127 Y50.5749 I-80.9676 J-165.7371
G2 X-118.3438 Y50.5405 I-0.7315 J-1.5538
G2 X-113.9776 Y48.2771 I-73.0689 J-146.2884
G2 X-113.9184 Y48.2452 I-0.591 J-1.1703
G2 X-113.8592 Y48.2134 I-0.5893 J-1.1661
G2 X-110.1093 Y46.1382 I-83.4746 J-155.2658
G1 X-109.2951 Y45.6734
G1 X-108.5084 Y45.2197
G2 X-105.4769 Y43.4322 I-109.3871 J-188.9865
G1 X-104.8171 Y43.0355
G1 X-103.542 Y42.2616
G1 X-102.3502 Y41.5304
G2 X-97.9057 Y38.7479 I-226.1809 J-366.2259
G1 X-96.246 Y37.6931
G1 X-94.7952 Y36.7679
G1 X-94.1604 Y36.3629
G1 X-92.9699 Y35.6044
G3 X-90.8822 Y34.2837 I239.7863 J376.7213
G3 X-89.3089 Y33.3047 I80.5119 J127.6338
G1 X-88.7163 Y32.9418
G3 X-88.1961 Y32.6267 I125.7207 J206.9747
G1 X-87.7397 Y32.3534
G3 X-86.1287 Y31.4194 I35.383 J59.1757
G3 X-84.4865 Y30.5412 I21.3892 J38.0219
G1 X-84.3314 Y30.515
G3 X-84.2541 Y30.502 I0.1674 J0.7594
G3 X-81.7811 Y30.1252 I14.0223 J83.7457
G3 X-79.452 Y29.843 I9.896 J71.9038
G1 X-78.9047 Y29.7874
G3 X-74.5824 Y29.503 I6.4301 J64.748
G3 X-74.3455 Y29.4958 I0.4298 J10.1714
G3 X-73.8752 Y29.4841 I0.7518 J20.7773
G3 X-72.0233 Y29.4738 I1.27 J61.7268
G3 X-70.2875 Y29.5179 I-0.5379 J55.3538
G3 X-63.8142 Y30.185 I-2.0419 J51.5517
G3 X-62.6131 Y30.4029 I-7.3294 J43.8186
G3 X-58.1678 Y31.4866 I-9.3684 J48.0901
G3 X-56.5303 Y31.999 I-15.4246 J52.1643
G1 X-56.1745 Y32.1185
G3 X-53.4479 Y33.1306 I-17.0456 J50.0987
G3 X-49.4636 Y34.9052 I-22.704 J56.3368
G1 X-48.9742 Y35.1457
G3 X-45.5965 Y36.9227 I-36.9383 J74.3115
G1 X-44.001 Y72.821
G1 X-52.1789 Y77.2082
G2 X-53.0882 Y77.6833 I2.5529 J5.9941
G2 X-53.8015 Y78.2259 I2.7464 J4.3503
G2 X-54.7427 Y79.4643 I2.9433 J3.2139
G2 X-54.978 Y79.9953 I4.5839 J2.3486
G2 X-55.2609 Y80.9692 I6.3677 J2.3778
G2 X-55.2805 Y81.0622 I1.1255 J0.2859
G2 X-55.4019 Y81.7884 I9.5616 J1.972
G1 X-55.4358 Y82.0624
G1 X-55.4613 Y82.3025
G2 X-55.4808 Y82.513 I4.6551 J0.5381
G1 X-55.496 Y82.6973
G2 X-55.5081 Y82.8587 I3.1993 J0.32
G2 X-55.5267 Y83.1413 I29.0224 J2.0525
G1 X-55.5498 Y83.5653
G2 X-55.5596 Y83.7775 I12.5328 J0.6887
G1 X-55.5686 Y83.9896
G2 X-55.0533 Y85.9275 I51.4148 J-12.6343
G1 X-54.9493 Y86.2889
G1 X-54.9246 Y86.3736
G2 X-54.0705 Y89.0155 I44.6669 J-12.9807
G2 X-53.8276 Y89.6664 I48.4059 J-17.6898
G2 X-53.4306 Y90.6298 I18.6757 J-7.1342
G2 X-52.9761 Y91.5674 I12.7743 J-5.6125
G3 X-52.7153 Y92.0602 I-36.5732 J19.6717
G3 X-51.8348 Y93.8014 I-80.2246 J41.6616
G1 X-51.7808 Y93.9108
G1 X-51.5791 Y94.3212
G1 X-51.4286 Y94.6295
G1 X-51.4005 Y94.6873
G1 X-51.2951 Y94.9043
G1 X-50.9812 Y95.556
G1 X-68.8684 Y103.7746
G0 Z5.0
G0 X-5.41 Y173.3371
G1 Z0.0
G1 X22.6104 Y163.3652
G1 X62.9967 Y163.5646
G1 X41.1583 Y171.6411
G1 X35.5804 Y171.8518
G1 X30.0026 Y172.0615
G1 X18.8467 Y172.4778
G1 X11.4093 Y172.7522
G1 X7.1593 Y172.9073
G1 X2.302 Y173.0817
G3 X-3.2494 Y173.2729 I-52.7599 J-1451.3826
G1 X-4.6822 Y173.3177
G1 X-5.41 Y173.3371
G0 Z5.0
G0 X34.6764 Y159.5756
G1 Z0.0
G3 X36.775 Y158.3426 I6.5628 J8.7675
G3 X36.924 Y158.2775 I1.4512 J3.1159
G3 X37.7294 Y157.9566 I7.8772 J18.6031
G1 X37.8343 Y157.9176
G1 X38.0584 Y157.8355
G1 X38.2978 Y157.7491
G1 X39.5738 Y157.2915
G1 X39.7381 Y157.2313
G1 X40.0878 Y157.1016
G2 X41.9355 Y156.3711 I-17.9645 J-48.136
G1 X42.4235 Y156.1651
G1 X42.9419 Y155.9405
G1 X43.4926 Y155.6959
G1 X44.0774 Y155.4297
G1 X44.2255 Y155.3612
G1 X44.3759 Y155.2913
G1 X45.0155 Y154.9896
G1 X45.6949 Y154.6617
G1 X46.0444 Y154.4903
G1 X46.9546 Y154.039
G1 X47.2573 Y153.8869
G2 X47.6602 Y153.6829 I-15.4482 J-31.0126
G1 X48.1962 Y153.4086
G1 X48.9085 Y153.0385
G1 X49.098 Y152.9389
G1 X49.5303 Y152.7097
G2 X50.6777 Y152.0881 I-69.6448 J-129.9106
G2 X52.1926 Y151.2325 I-34.5718 J-62.9783
G2 X52.3866 Y151.1196 I-10.1888 J-17.7374
G1 X52.7995 Y150.8766
G1 X53.2378 Y150.6143
G2 X53.3489 Y150.5471 I-1.1443 J-2.0158
G2 X55.678 Y149.0515 I-25.7566 J-42.6735
G1 X55.823 Y148.9519
G2 X55.8959 Y148.9014 I-0.5152 J-0.8222
G2 X56.5127 Y148.4643 I-15.6778 J-22.7754
G2 X57.8831 Y147.4111 I-17.117 J-23.6908
G2 X59.3483 Y146.0831 I-11.6925 J-14.3735
G1 X59.5225 Y145.9021
G1 X59.696 Y145.7146
G2 X60.3844 Y144.8667 I-7.2076 J-6.5553
G2 X60.6938 Y144.3936 I-6.336 J-4.4811
G2 X60.9641 Y143.8734 I-4.7278 J-2.7869
G2 X61.1669 Y143.2978 I-3.2611 J-1.473
G2 X61.2541 Y142.6631 I-2.6025 J-0.6806
G2 X61.1538 Y141.9866 I-2.1192 J-0.0314
G2 X60.8037 Y141.3276 I-2.0824 J0.6837
G2 X60.2074 Y140.7595 I-2.2563 J1.7713
G2 X59.4063 Y140.3301 I-2.007 J2.782
G3 X69.1517 Y135.5362 I356.2072 J711.828
G1 X69.8037 Y135.2213
G1 X71.2952 Y134.5041
G1 X72.0914 Y134.1232
G1 X73.9136 Y133.2569
G1 X74.3843 Y133.0345
G1 X74.6236 Y132.9217
G1 X74.8666 Y132.8072
G1 X75.9045 Y132.3205
G1 X77.0129 Y131.8044
G1 X77.2947 Y131.6739
G1 X77.5811 Y131.5416
G1 X78.8043 Y130.9801
G1 X78.8811 Y130.945
G1 X78.9583 Y130.9098
G3 X81.7879 Y129.6418 I111.1178 J244.1785
G3 X85.0518 Y128.2611 I46.3103 J104.9233
G1 X85.1551 Y128.2198
G1 X85.5752 Y128.0537
G3 X86.0036 Y127.8887 I14.4697 J36.9128
G3 X86.8939 Y127.5638 I9.6192 J24.9739
G3 X87.8269 Y127.2673 I4.9736 J14.0372
G2 X88.7142 Y129.0101 I48.1142 J-23.4012
G1 X89.6309 Y130.7377
G3 X89.8897 Y131.2329 I-24.0571 J12.8897
G3 X90.5574 Y132.565 I-44.5748 J23.1767
G1 X90.6402 Y132.7386
G1 X90.7247 Y132.9182
G3 X91.543 Y134.8714 I-22.2075 J10.4519
G3 X91.6347 Y135.1289 I-5.9371 J2.2608
G3 X92.0018 Y136.3242 I-15.6078 J5.447
G3 X92.1569 Y136.9735 I-11.773 J3.1561
G1 X92.1913 Y137.1395
G3 X92.3127 Y137.8534 I-11.304 J2.2901
G3 X92.4208 Y139.509 I-10.9098 J1.5441
G3 X92.2218 Y141.4039 I-10.0394 J-0.0968
G3 X92.1974 Y141.5217 I-1.7464 J-0.2999
G3 X91.5173 Y143.6227 I-10.5863 J-2.2662
G3 X90.9941 Y144.6826 I-11.3873 J-4.9626
G3 X90.336 Y145.7603 I-12.5467 J-6.9218
G3 X90.3139 Y145.7931 I-0.2543 J-0.147
G3 X89.5154 Y146.8818 I-14.254 J-9.6178
G3 X88.5812 Y147.9761 I-17.0305 J-13.5925
G3 X88.3326 Y148.2438 I-12.5989 J-11.4486
G3 X87.2313 Y149.3417 I-19.7336 J-18.6942
G3 X85.9969 Y150.4415 I-21.1086 J-22.4507
G1 X85.6751 Y150.7105
G1 X85.3452 Y150.9798
G1 X85.0074 Y151.2493
G1 X84.6617 Y151.5189
G3 X83.164 Y152.6243 I-26.9902 J-34.9993
G1 X83.0686 Y152.6917
G3 X81.4286 Y153.802 I-29.2352 J-41.4162
G1 X81.0067 Y154.0746
G3 X79.1977 Y155.1924 I-37.0598 J-57.949
G3 X75.0392 Y157.518 I-44.8639 J-75.342
G3 X74.7737 Y157.6573 I-16.8701 J-31.8458
G3 X73.6791 Y158.2215 I-35.7587 J-68.0281
G3 X72.5491 Y158.7885 I-70.2189 J-138.5258
G3 X71.383 Y159.3587 I-102.8184 J-208.8168
G3 X70.1802 Y159.9321 I-51.1528 J-105.739
G1 X69.8767 Y160.0746
G3 X69.4832 Y160.2175 I-1.0873 J-2.3821
G3 X69.3485 Y160.2542 I-0.6588 J-2.1494
G1 X69.1676 Y160.2976
G3 X68.4359 Y160.4288 I-2.0462 J-9.3074
G1 X68.2255 Y160.4577
G3 X66.5375 Y160.6126 I-3.2123 J-25.7255
G1 X66.0541 Y160.6404
G3 X65.5014 Y160.6662 I-1.5483 J-27.2894
G1 X65.2066 Y160.6776
G1 X64.5329 Y160.6988
G1 X64.3589 Y160.7032
G1 X63.5642 Y160.7187
G1 X62.6562 Y160.7282
G1 X62.5409 Y160.7289
G3 X62.3028 Y160.7299 I-0.1658 J-10.9754
G1 X62.0571 Y160.7304
G3 X59.4381 Y160.7106 I0.0776 J-182.7529
G1 X59.1002 Y160.7051
G3 X58.3796 Y160.6915 I1.3846 J-92.8979
G1 X58.0076 Y160.6836
G1 X57.8187 Y160.6794
G1 X57.0129 Y160.6596
G1 X56.1535 Y160.6357
G1 X55.237 Y160.6075
G3 X50.3532 Y160.4166 I11.1383 J-347.6533
G1 X50.1994 Y160.4097
G1 X48.8873 Y160.3487
G1 X47.4881 Y160.2801
G1 X46.7659 Y160.2433
G1 X45.2257 Y160.1623
G1 X44.4309 Y160.1192
G3 X42.7355 Y160.0245 I14.3516 J-272.248
G1 X41.8606 Y159.9744
G1 X40.9575 Y159.9219
G1 X36.8303 Y159.6769
G1 X35.7652 Y159.6162
G1 X35.4967 Y159.6019
G1 X35.3619 Y159.5951
G2 X34.8141 Y159.5732 I-1.1844 J22.7306
G2 X34.6764 Y159.5756 I-0.0431 J1.4477
G0 Z5.0
G0 X1.3075 Y-4.9613
G1 Z0.0
G1 X1.5128 Y-4.7204
G1 X1.7163 Y-4.4836
G2 X3.3603 Y-2.6492 I50.269 J-43.4008
G2 X3.5482 Y-2.4491 I9.7537 J-8.9691
G2 X5.0698 Y-0.9081 I32.3749 J-30.4462
G2 X6.4946 Y0.3926 I23.0673 J-23.838
G2 X6.822 Y0.6698 I19.7667 J-23.0081
G2 X7.4709 Y1.1935 I13.2396 J-15.74
G1 X7.6266 Y1.3139
G1 X7.781 Y1.4312
G1 X7.9343 Y1.5455
G1 X8.0864 Y1.6568
G1 X8.2373 Y1.7652
G1 X8.387 Y1.8706
G2 X9.6045 Y2.6456 I9.1214 J-12.9846
G2 X9.8829 Y2.801 I4.3296 J-7.4274
G2 X10.9989 Y3.3345 I5.7467 J-10.5887
G2 X11.5084 Y3.5266 I3.7676 J-9.2171
G2 X12.494 Y3.7972 I2.5235 J-7.2638
G2 X12.9359 Y3.8715 I1.2629 J-6.1533
G2 X14.6108 Y3.8522 I0.7735 J-5.5562
G2 X15.8139 Y3.4963 I-0.8806 J-5.1875
G2 X16.2372 Y3.2916 I-2.2617 J-5.2181
G2 X16.9332 Y2.8541 I-3.1307 J-5.7529
G2 X17.8651 Y2.0487 I-4.5831 J-6.2447
G2 X18.672 Y1.1181 I-6.8978 J-6.7964
G0 Z5.0
G0 X-189.0227 Y-36.9829
G1 Z0.0
G3 X-189.2798 Y-35.7868 I-19.8585 J-3.643
G3 X-189.5055 Y-34.9387 I-21.1929 J-5.1858
G3 X-189.565 Y-34.7346 I-4.5739 J-1.2214
G3 X-190.7268 Y-31.5691 I-26.4175 J-7.8997
G1 X-190.8011 Y-31.3999
G3 X-192.1087 Y-28.7758 I-30.025 J-13.3241
G3 X-194.9133 Y-24.4711 I-31.8036 J-17.6544
G3 X-197.4185 Y-21.5182 I-27.2952 J-20.6175
G3 X-199.5324 Y-19.5084 I-20.418 J-19.3596
G3 X-201.2646 Y-18.1604 I-15.2681 J-17.832
G3 X-202.6558 Y-17.273 I-10.4839 J-14.9021
G3 X-203.7554 Y-16.7007 I-7.7785 J-13.6038
G1 X-203.9672 Y-16.6043
G3 X-205.6101 Y-16.0192 I-4.4049 J-9.7696
G3 X-206.4648 Y-15.8398 I-2.1245 J-7.9972
G3 X-207.3342 Y-15.7577 I-1.0872 J-6.871
G3 X-208.6221 Y-16.1379 I2.2378 J-9.9526
G1 X-208.7738 Y-16.1943
G1 X-208.924 Y-16.2524
G3 X-210.0941 Y-16.7775 I5.0365 J-12.7869
G3 X-210.2323 Y-16.8477 I1.5569 J-3.2387
G3 X-211.3096 Y-17.4492 I8.1494 J-15.8611
G1 X-211.5641 Y-17.6049
G3 X-213.508 Y-18.9555 I13.262 J-21.1629
G3 X-215.2173 Y-20.3657 I18.374 J-24.0124
G3 X-216.7335 Y-21.7845 I26.5523 J-29.893
G3 X-219.3765 Y-24.6415 I32.0479 J-32.298
G3 X-220.4567 Y-25.9588 I40.5801 J-34.3815
G3 X-220.9477 Y-26.5887 I24.9952 J-19.9894
G3 X-221.8714 Y-27.8304 I42.6357 J-32.6782
G3 X-222.7042 Y-29.0188 I46.7588 J-33.653
G1 X-222.7997 Y-29.1596
G3 X-225.5939 Y-33.7788 I44.121 J-29.8444
G3 X-225.7132 Y-34.0023 I10.7551 J-5.8853
G3 X-227.4406 Y-37.5989 I43.2587 J-22.9884
G3 X-228.0092 Y-38.9842 I44.5106 J-19.0823
G1 X-228.1274 Y-39.2897
G3 X-228.961 Y-41.6878 I39.124 J-14.9448
G3 X-229.903 Y-45.3775 I33.3857 J-10.4885
G3 X-229.991 Y-45.8457 I15.8259 J-3.2154
G1 X-230.0272 Y-46.051
G1 X-230.0598 Y-46.2437
G3 X-230.3877 Y-49.1546 I26.8873 J-4.5028
G1 X-230.3103 Y-49.171
G1 X-230.233 Y-49.1874
G3 X-228.9981 Y-49.444 I23.9898 J112.3605
G1 X-228.3987 Y-49.5649
G1 X-227.8081 Y-49.6816
G3 X-223.1396 Y-50.5172 I28.6467 J146.5894
G1 X-222.6256 Y-50.5992
G3 X-218.5658 Y-51.1699 I18.2134 J114.8526
G3 X-214.987 Y-51.5461 I11.9421 J96.3833
G1 X-214.2 Y-51.6108
G1 X-213.4366 Y-51.6668
G1 X-213.0664 Y-51.6915
G1 X-212.7017 Y-51.7141
G3 X-209.8264 Y-51.8321 I4.3094 J69.9432
G3 X-209.7475 Y-51.8337 I0.0622 J1.1152
G1 X-209.1187 Y-51.8432
G3 X-206.6807 Y-51.8193 I0.6399 J59.1256
G1 X-206.4135 Y-51.8103
G1 X-206.1504 Y-51.8002
G1 X-205.8914 Y-51.7889
G1 X-205.3816 Y-51.7627
G3 X-204.8878 Y-51.7322 I-3.4317 J59.6579
G3 X-203.9318 Y-51.6581 I-2.1689 J34.1808
G1 X-203.4839 Y-51.6161
G3 X-200.034 Y-51.1089 I-3.3914 J35.0536
G1 X-199.7125 Y-51.0423
G3 X-197.2539 Y-50.3909 I-5.1676 J24.4701
G3 X-195.4651 Y-49.7161 I-6.0791 J18.8227
G1 X-195.1377 Y-49.5687
G3 X-193.9415 Y-48.9508 I-6.2886 J13.6402
G3 X-192.2747 Y-47.8114 I-6.1381 J10.769
G3 X-190.834 Y-46.3969 I-6.4711 J8.0319
G3 X-189.5187 Y-44.2257 I-6.4968 J5.4196
G3 X-189.1371 Y-43.1232 I-8.7945 J3.6615
G3 X-188.895 Y-42.0268 I-9.6553 J2.7065
G3 X-188.7338 Y-39.8696 I-12.346 J2.0075
G1 X-188.7381 Y-39.6173
G3 X-188.9158 Y-37.6238 I-16.3501 J-0.4531
G3 X-189.0227 Y-36.9829 I-19.9654 J-3.002
G0 Z5.0
G0 X-193.8709 Y-49.5457
G1 Z0.0
G3 X-191.0223 Y-50.5239 I22.4053 J60.6055
G1 X-190.6491 Y-50.6404
G3 X-189.8981 Y-50.8657 I10.7862 J34.5856
G3 X-186.8498 Y-51.6386 I11.788 J40.0932
G1 X-186.6649 Y-51.6772
G1 X-186.4805 Y-51.7146
G1 X-186.1129 Y-51.7858
G1 X-185.7476 Y-51.8521
G3 X-184.2916 Y-52.0672 I4.6661 J26.5442
G3 X-182.8762 Y-52.1883 I2.6051 J22.1145
G1 X-182.5343 Y-52.2021
G1 X-182.1958 Y-52.2091
G3 X-180.8573 Y-52.1609 I0.1699 J13.9071
G3 X-179.5994 Y-51.9749 I-0.8832 J10.3207
G3 X-178.4559 Y-51.6314 I-1.5005 J7.0696
G3 X-177.4698 Y-51.1172 I-1.9153 J4.8754
G3 X-176.6907 Y-50.4413 I-2.2228 J3.3495
G3 X-176.1507 Y-49.6481 I-2.7847 J2.476
G3 X-175.8399 Y-48.8023 I-3.5349 J1.7793
G3 X-175.7143 Y-47.9561 I-4.7457 J1.1366
G3 X-175.7249 Y-47.1375 I-5.8467 J0.3333
G3 X-175.8322 Y-46.3576 I-7.5778 J-0.6453
G3 X-176.2409 Y-44.8965 I-9.4202 J-1.8473
G3 X-176.7957 Y-43.5943 I-13.0844 J-4.8048
G3 X-177.4236 Y-42.4286 I-15.7294 J-7.7213
G3 X-178.8041 Y-40.3703 I-19.3254 J-11.4691
G3 X-180.1717 Y-38.6904 I-22.5944 J-16.9964
G3 X-182.8226 Y-35.9846 I-27.1035 J-23.9037
G3 X-184.9751 Y-34.131 I-29.5364 J-32.1224
G3 X-186.6638 Y-32.8323 I-28.1605 J-34.8674
G3 X-189.2983 Y-31.0242 I-31.1354 J-42.5424
G1 X-189.6353 Y-30.8097
G3 X-192.0376 Y-29.379 I-30.1069 J-47.8212
G0 Z5.0
G0 X-221.2894 Y-25.2083
G1 Z0.0
G2 X-221.513 Y-24.9174 I15.5395 J12.175
G2 X-222.2997 Y-23.7021 I9.6813 J7.1292
G2 X-223.3782 Y-21.1783 I10.8387 J6.1244
G2 X-223.6722 Y-19.9656 I10.635 J3.2201
G2 X-223.8121 Y-18.7907 I9.4332 J1.7185
G2 X-223.7885 Y-17.6807 I6.9671 J0.4076
G2 X-223.5922 Y-16.6685 I5.4718 J-0.5362
G2 X-223.2216 Y-15.7944 I3.9229 J-1.1478
G2 X-222.6985 Y-15.0998 I2.9294 J-1.6616
G2 X-221.3528 Y-14.2657 I2.416 J-2.3953
G2 X-220.6961 Y-14.0982 I1.4031 J-4.1292
G2 X-219.4367 Y-14.0217 I0.9874 J-5.8482
G1 X-219.2994 Y-14.0283
G2 X-218.2255 Y-14.1584 I-0.5764 J-9.2521
G2 X-217.7622 Y-14.2519 I-1.8493 J-10.3655
G1 X-217.5465 Y-14.302
G2 X-216.7193 Y-14.5298 I-3.2913 J-13.5676
G2 X-216.0071 Y-14.7662 I-5.5626 J-17.9504
G2 X-214.7849 Y-15.2461 I-7.9606 J-22.0721
G2 X-213.8871 Y-15.6503 I-8.7884 J-20.7174
G1 X-213.7204 Y-15.7297
G2 X-213.5646 Y-15.8051 I-4.8049 J-10.1314
G2 X-212.4094 Y-16.397 I-12.9619 J-26.7209
G1 X-212.2666 Y-16.474
G1 X-212.0174 Y-16.6102
G1 X-211.6456 Y-16.8179
G2 X-211.4605 Y-16.9232 I-10.8854 J-19.3525
G2 X-211.2759 Y-17.0294 I-2.5075 J-4.571
G0 Z5.0
M5
M30
