( Made using CamBam - http://www.cambam.co.uk )
( Plane_3Mx3M(A3) 1/20/2014 2:53:39 PM )
( T0 : 0.0 )
G21 G90 G64 G40
G0 Z5.0
( T0 : 0.0 )
T0 M6
( 1-10 )
G17
M3 S1000
G0 X23.9282 Y-72.8718
G1 F2000.0 Z0.0
G3 X24.6925 Y-73.4679 I6.6877 J7.7867
G3 X24.7159 Y-73.4844 I0.1256 J0.1537
G3 X24.7392 Y-73.5007 I0.125 J0.1539
G3 X24.7626 Y-73.5169 I0.1243 J0.1541
G3 X25.5331 Y-73.9932 I4.6232 J6.6175
G3 X26.3012 Y-74.354 I3.3542 J6.1437
G3 X27.8379 Y-74.7303 I2.0844 J5.1861
G3 X29.205 Y-74.666 I0.4542 J4.909
G3 X30.3362 Y-74.3108 I-0.9897 J5.1314
G3 X31.24 Y-73.8136 I-2.4785 J5.5743
G3 X31.9574 Y-73.2701 I-3.9729 J5.9899
G1 X32.1053 Y-73.1404
G1 X32.2454 Y-73.0116
G3 X32.7619 Y-72.4848 I-5.9532 J6.3538
G3 X33.5695 Y-71.4791 I-7.9289 J7.1941
G3 X34.5802 Y-69.8312 I-11.6912 J8.3038
G3 X35.3867 Y-68.0743 I-16.5755 J8.6729
G1 X35.2244 Y-68.1833
G2 X33.9204 Y-69.0003 I-17.5204 J26.5179
G2 X31.5581 Y-70.2941 I-20.6142 J34.8335
G2 X31.1056 Y-70.5194 I-8.8508 J17.2104
G2 X29.383 Y-71.3118 I-15.7312 J31.9309
G1 X29.0553 Y-71.4503
G2 X27.8123 Y-71.9357 I-10.039 J23.8692
G2 X26.8643 Y-72.2582 I-8.6286 J23.8084
G2 X25.4142 Y-72.6506 I-4.9162 J15.2957
G1 X25.2303 Y-72.6896
G2 X23.9282 Y-72.8718 I-1.9538 J9.2166
G0 Z5.0
G0 X36.3743 Y-37.2881
G1 Z0.0
G1 X-10.0306 Y-53.7057
G1 X-17.7367 Y-58.0612
G0 Z5.0
G0 X-17.5459 Y-58.2169
G1 Z0.0
G2 X-20.0965 Y-59.3348 I-189.3387 J428.5217
G2 X-24.8989 Y-61.3848 I-152.9248 J351.6064
G1 X-25.9535 Y-61.8238
G2 X-26.4649 Y-62.0351 I-23.8183 J56.9208
G2 X-26.9687 Y-62.2423 I-12.9773 J30.8495
G1 X-27.2169 Y-62.3439
G1 X-27.4631 Y-62.4445
G1 X-27.7075 Y-62.5441
G1 X-27.9501 Y-62.6427
G1 X-28.1909 Y-62.7403
G2 X-35.8848 Y-65.7155 I-93.7539 J231.0075
G1 X-36.6113 Y-65.9809
G2 X-39.4356 Y-66.9842 I-60.7992 J166.6712
G1 X-40.0553 Y-67.1982
G2 X-42.4635 Y-68.008 I-76.0325 J222.1201
G1 X-42.7275 Y-68.0946
G2 X-51.1107 Y-70.611 I-53.6811 J163.6143
G1 X-51.3747 Y-70.6825
G2 X-59.6188 Y-72.6653 I-38.9418 J143.7856
G1 X-60.0279 Y-72.6786
G1 X-60.4241 Y-72.6942
G1 X-60.808 Y-72.7116
G1 X-60.994 Y-72.7207
G1 X-61.177 Y-72.7302
G1 X-61.8974 Y-72.7706
G1 X-63.2479 Y-72.8548
G1 X-64.4302 Y-72.9275
G2 X-64.689 Y-72.9421 I-0.6012 J8.3253
G1 X-65.1906 Y-72.9684
G1 X-65.661 Y-72.9899
G2 X-65.7714 Y-72.9944 I-0.117 J1.5106
G2 X-65.88 Y-72.9986 I-0.1138 J1.5267
G2 X-65.987 Y-73.0026 I-0.1105 J1.5441
G2 X-66.0922 Y-73.0063 I-0.1072 J1.5631
G2 X-66.5067 Y-73.0184 I-0.8311 J21.2111
G1 X-66.8953 Y-73.0263
G2 X-68.3532 Y-73.0176 I-0.5411 J31.6209
G2 X-70.534 Y-72.8567 I0.6601 J23.8074
G2 X-72.686 Y-72.4687 I2.2935 J18.8828
G2 X-72.7442 Y-72.4532 I0.1105 J0.5322
G2 X-73.6681 Y-72.196 I11.9483 J44.7027
G2 X-73.7221 Y-72.1803 I0.1265 J0.5355
G2 X-73.7759 Y-72.1646 I0.1275 J0.5359
G2 X-77.1504 Y-71.0093 I11.0808 J37.8741
G1 X-77.4609 Y-70.8849
G2 X-79.8261 Y-69.8263 I13.35 J32.9983
G2 X-83.2306 Y-67.9537 I19.0524 J38.6708
G1 X-83.6446 Y-67.6995
G1 X-84.0048 Y-67.474
G2 X-86.4826 Y-65.827 I35.7332 J56.4444
G0 Z5.0
G0 X-92.6877 Y-57.4996
G1 Z0.0
G2 X-93.6567 Y-55.7498 I10.8437 J7.1485
G2 X-94.7412 Y-52.4252 I14.1903 J6.468
G2 X-95.0578 Y-49.8125 I15.1866 J3.166
G2 X-94.9915 Y-47.8353 I13.9236 J0.523
G2 X-94.8933 Y-47.0987 I11.6642 J-1.1809
G2 X-94.2053 Y-44.5947 I11.7322 J-1.8768
G2 X-92.9516 Y-42.3206 I9.6355 J-3.8296
G2 X-92.5749 Y-41.9006 I29.4189 J-26.0064
G2 X-89.5541 Y-38.6435 I107.5988 J-96.7626
G2 X-86.8273 Y-35.8734 I99.4359 J-95.1556
G1 X-86.5241 Y-35.5753
G2 X-76.4863 Y-26.719 I89.2882 J-91.0839
G2 X-71.1493 Y-22.6775 I93.5815 J-118.0346
G1 X-70.9797 Y-22.555
G1 X-70.8152 Y-22.4365
G2 X-65.6499 Y-18.8599 I104.1094 J-144.8347
G2 X-64.7827 Y-15.7535 I533.1966 J-147.1679
G1 X-64.7347 Y-15.5837
G1 X-64.6869 Y-15.4152
G1 X-64.4962 Y-14.747
G1 X-64.3096 Y-14.1001
G1 X-64.2641 Y-13.9435
G1 X-64.082 Y-13.3225
G1 X-63.9032 Y-12.7215
G1 X-63.7275 Y-12.14
G1 X-63.6414 Y-11.8586
G1 X-63.556 Y-11.5818
G1 X-63.4713 Y-11.3095
G1 X-63.3024 Y-10.7742
G2 X-62.6184 Y-8.7092 I87.6471 J-27.8882
G2 X-62.5794 Y-8.5967 I1.7001 J-0.5257
G1 X-62.4232 Y-8.1511
G1 X-62.2692 Y-7.7203
G2 X-60.9762 Y-4.4195 I58.1841 J-20.8888
G1 X-60.7125 Y-3.8092
G2 X-58.5093 Y0.6618 I50.8672 J-22.2874
G2 X-57.8979 Y1.7478 I58.8713 J-32.4297
G2 X-55.9331 Y4.9287 I56.9182 J-32.961
G1 X-117.6811 Y32.4438
G1 X-182.5189 Y69.5298
G2 X-182.7962 Y69.682 I2.9194 J5.6485
G2 X-184.7214 Y71.1921 I4.6457 J7.9052
G2 X-185.0345 Y71.5347 I4.5354 J4.4596
G2 X-186.0011 Y72.9788 I5.2127 J4.5343
G2 X-186.5955 Y75.5041 I5.0723 J2.5266
G2 X-186.4555 Y76.7996 I6.222 J-0.017
G2 X-186.0726 Y78.0451 I7.6805 J-1.6797
G2 X-185.6415 Y78.9467 I7.1226 J-2.8521
G2 X-185.3959 Y79.3603 I9.0949 J-5.1195
G2 X-184.8545 Y80.1341 I7.9754 J-5.0045
G2 X-183.6396 Y81.4918 I10.1931 J-7.8984
G2 X-182.3655 Y82.6194 I12.7293 J-13.1004
G2 X-182.0533 Y82.8663 I12.2776 J-15.2001
G1 X-181.898 Y82.9857
G1 X-181.5869 Y83.2186
G1 X-181.277 Y83.4428
G2 X-180.0268 Y84.2811 I15.0249 J-21.0562
G1 X-179.9522 Y84.3282
G2 X-177.5164 Y85.7273 I19.1551 J-30.5274
G1 X-177.3804 Y85.7987
G1 X-177.2452 Y85.8691
G1 X-176.7066 Y86.1438
G1 X-176.4444 Y86.2743
G1 X-176.3151 Y86.338
G2 X-175.2824 Y86.8302 I23.875 J-48.7647
G2 X-171.3303 Y88.4958 I26.8332 J-58.144
G1 X-170.9547 Y88.6393
G2 X-169.4925 Y89.1769 I31.1846 J-82.5544
G2 X-164.3052 Y90.8558 I31.786 J-89.3568
G1 X-163.6504 Y91.0453
G2 X-162.5015 Y91.3662 I31.5608 J-110.7508
G2 X-160.7711 Y91.8216 I26.8108 J-98.3654
G1 X-160.6627 Y91.849
G2 X-159.0313 Y92.2392 I16.3292 J-64.6607
G2 X-158.8758 Y92.1822 I-2.3549 J-6.6643
G2 X-158.7204 Y92.1252 I-2.3578 J-6.671
G2 X-158.5651 Y92.0683 I-2.3607 J-6.6777
G2 X-158.4101 Y92.0114 I-2.3637 J-6.6844
G2 X-158.2551 Y91.9546 I-2.3666 J-6.6912
G2 X-158.1004 Y91.8978 I-2.3696 J-6.698
G2 X-157.9458 Y91.841 I-2.3726 J-6.7048
G2 X-157.7913 Y91.7844 I-2.3756 J-6.7117
G2 X-157.637 Y91.7277 I-2.3786 J-6.7187
G2 X-157.4828 Y91.6711 I-2.3817 J-6.7257
G2 X-137.7981 Y84.3683 I-1105.5457 J-3010.1717
G2 X-137.5293 Y84.2675 I-4.1864 J-11.5727
G2 X-137.261 Y84.1669 I-4.2046 J-11.6172
G2 X-136.9933 Y84.0664 I-4.2231 J-11.6622
G1 X-132.7196 Y82.4589
G1 X-130.6505 Y81.6778
G1 X-126.5786 Y80.1354
G2 X-126.3321 Y80.0418 I-5.3232 J-14.3907
G2 X-126.0861 Y79.9484 I-5.3617 J-14.4874
G2 X-125.8406 Y79.8551 I-5.401 J-14.5862
G2 X-94.5534 Y67.75 I-970.9298 J-2555.9712
G1 X-93.0905 Y67.1731
G2 X-1.6542 Y29.0528 I-954.5131 J-2418.2428
G0 Z5.0
G0 X-2.9946 Y29.0526
G1 Z0.0
G1 X19.4537 Y28.0476
G1 X60.3306 Y44.1301
G3 X76.4068 Y54.4411 I-741.1897 J1173.309
G1 X76.6568 Y54.6042
G1 X78.6232 Y55.8916
G1 X80.3407 Y57.0229
G3 X80.5284 Y57.147 I-4.1179 J6.4338
G1 X82.0046 Y58.1261
G1 X83.2937 Y58.9868
G1 X84.4195 Y59.7433
G1 X84.9113 Y60.0755
G3 X86.7501 Y61.3287 I-312.9684 J461.1904
G1 X87.0938 Y61.5653
G1 X87.4157 Y61.7876
G1 X87.7171 Y61.9966
G1 X87.9994 Y62.1929
G1 X88.2637 Y62.3775
G1 X88.5112 Y62.5509
G3 X90.3552 Y63.8683 I-67.2594 J96.0968
G3 X90.8117 Y64.204 I-21.2836 J29.4219
G1 X90.9822 Y64.3308
G1 X91.0567 Y64.3864
G1 X91.3352 Y64.5962
G3 X91.75 Y64.9144 I-14.6947 J19.5843
G1 X91.9559 Y65.0756
G1 X92.1603 Y65.2385
G1 X92.2211 Y65.3256
G3 X92.6644 Y66.0472 I-9.0505 J6.0579
G1 X92.716 Y66.1377
G1 X92.9178 Y66.5012
G1 X93.016 Y66.6826
G3 X93.7701 Y68.1426 I-51.4851 J27.5177
G3 X95.1567 Y71.0079 I-133.9001 J66.568
G3 X96.4137 Y73.7143 I-221.3608 J104.4566
G3 X98.7136 Y78.8148 I-439.1887 J201.1039
G3 X100.6895 Y83.2939 I-846.2736 J376.0084
G1 X100.9042 Y83.7845
G1 X101.1153 Y84.2675
G3 X107.6717 Y99.5213 I-1495.1197 J651.6726
G1 X108.4818 Y101.4321
G1 X108.6588 Y101.8502
G1 X110.0277 Y105.0913
G1 X110.1559 Y105.3953
G1 X111.1473 Y107.7516
G1 X111.5185 Y108.6355
G3 X111.8431 Y109.409 I-103.453 J43.8594
G1 X112.9768 Y112.1171
G1 X113.0122 Y112.2018
G1 X114.1066 Y114.8267
G2 X115.2164 Y115.7437 I22.7021 J-26.3468
G2 X117.3927 Y117.3386 I21.8528 J-27.5361
G2 X119.3994 Y118.58 I17.4118 J-25.904
G2 X119.8505 Y118.8303 I31.317 J-55.9065
G2 X123.4794 Y120.4995 I14.3052 J-26.3217
G2 X126.3176 Y121.4509 I13.1697 J-34.5764
G2 X127.3983 Y121.7532 I16.94 J-58.4773
G1 X127.8732 Y121.878
G2 X127.9846 Y121.9067 I0.6945 J-2.4687
G2 X129.7457 Y122.3343 I19.1203 J-74.9109
G1 X130.4081 Y122.4859
G1 X130.6982 Y122.5513
G1 X132.8748 Y123.0354
G3 X135.0473 Y123.5381 I-22.555 J102.4242
G1 X125.3309 Y65.9089
G2 X125.8322 Y65.6203 I-1.8742 J-3.8352
G2 X126.2442 Y65.2779 I-1.4069 J-2.112
G2 X126.5378 Y64.8856 I-1.2638 J-1.2521
G2 X126.7155 Y64.024 I-1.2953 J-0.7162
G2 X126.6456 Y63.6595 I-1.9069 J0.1767
G2 X126.367 Y63.0293 I-2.7715 J0.8484
G2 X126.0284 Y62.5345 I-4.1238 J2.4587
G2 X125.6885 Y62.136 I-4.7358 J3.695
G2 X125.5307 Y61.9701 I-5.0606 J4.6574
G2 X124.9024 Y61.3852 I-6.7228 J6.5908
G2 X123.8875 Y60.5938 I-10.0543 J11.8485
G2 X123.3581 Y60.2279 I-9.4249 J13.0687
G1 X123.0892 Y60.0511
G1 X122.8179 Y59.878
G1 X134.3771 Y63.2287
G2 X138.8533 Y61.1904 I-206.729 J-459.9262
G1 X140.8066 Y60.2861
G1 X141.2641 Y60.0731
G1 X142.1642 Y59.6526
G1 X143.0356 Y59.2438
G1 X144.7221 Y58.4476
G1 X146.301 Y57.6958
G1 X147.7793 Y56.986
G1 X149.1632 Y56.3158
G1 X150.4588 Y55.6829
G1 X151.0656 Y55.3847
G1 X151.6529 Y55.0947
G1 X152.2215 Y54.8128
G2 X152.3592 Y54.7443 I-3.1402 J-6.4882
G1 X153.4506 Y54.1989
G2 X153.5145 Y54.1668 I-0.6905 J-1.4549
G1 X154.5321 Y53.6535
G1 X155.0086 Y53.4114
G1 X155.9306 Y52.9398
G1 X156.7935 Y52.4942
G2 X160.0121 Y50.7878 I-90.2644 J-174.1439
G1 X160.6128 Y50.4597
G1 X161.1747 Y50.1494
G1 X161.7003 Y49.8558
G1 X162.1919 Y49.578
G1 X162.422 Y49.4469
G1 X162.6446 Y49.3192
G1 X163.075 Y49.07
G1 X163.4775 Y48.8341
G1 X163.6659 Y48.7226
G1 X163.848 Y48.6141
G2 X165.2479 Y47.7526 I-26.4881 J-44.6083
G2 X165.7674 Y47.4169 I-12.8503 J-20.4553
G2 X166.6638 Y46.8071 I-16.1155 J-24.6532
G2 X167.3214 Y46.3227 I-12.4433 J-17.5818
G2 X167.5633 Y46.1323 I-4.1013 J-5.4603
G1 X167.6681 Y46.0471
G1 X167.7655 Y45.9661
G1 X167.8561 Y45.889
G1 X167.9402 Y45.8157
G1 X168.0184 Y45.7459
G1 X168.0909 Y45.6795
G2 X168.3542 Y45.4212 I-3.7741 J-4.109
G2 X168.7061 Y44.9911 I-2.2567 J-2.2056
G2 X168.8386 Y44.7428 I-1.2543 J-0.8289
G2 X168.8876 Y44.4657 I-0.5819 J-0.2456
G2 X168.7223 Y44.1425 I-5.0301 J2.3684
G2 X168.6347 Y43.9873 I-3.9513 J2.1277
G2 X167.8298 Y42.8268 I-8.2349 J4.8525
G2 X167.7781 Y42.7625 I-1.1576 J0.8775
G2 X166.9055 Y41.7797 I-11.4017 J9.2444
G1 X166.6902 Y41.56
G1 X166.5829 Y41.4531
G2 X164.7878 Y39.8565 I-16.9817 J17.2851
G2 X163.1113 Y38.5899 I-20.9751 J26.0213
G2 X160.0112 Y36.6149 I-22.936 J32.5815
G2 X157.5752 Y35.3217 I-20.4508 J35.5808
G1 X157.1091 Y35.0974
G2 X153.5242 Y33.6174 I-16.1413 J34.0139
G2 X151.6749 Y33.0303 I-10.7022 J30.509
G2 X149.7897 Y32.5709 I-7.183 J25.3757
G1 X149.7387 Y32.5757
G1 X149.3323 Y32.6186
G2 X148.5283 Y32.723 I3.6848 J31.5199
G1 X148.1338 Y32.7821
G1 X147.7432 Y32.845
G1 X147.3562 Y32.911
G2 X147.2602 Y32.9279 I0.155 J1.1605
G1 X147.0689 Y32.9622
G1 X146.6882 Y33.0327
G1 X146.311 Y33.1053
G1 X145.9372 Y33.1797
G2 X142.9845 Y33.8358 I18.5004 J90.2298
G1 X142.2956 Y34.0026
G1 X142.2109 Y34.0235
G1 X141.5351 Y34.1915
G1 X140.8708 Y34.3602
G1 X140.2176 Y34.5292
G1 X139.8963 Y34.6133
G2 X137.3517 Y35.3005 I63.1291 J238.7945
G1 X136.7566 Y35.466
G1 X135.586 Y35.7959
G1 X134.4533 Y36.1201
G1 X133.3572 Y36.4382
G1 X132.2963 Y36.7495
G1 X132.1678 Y36.7875
G1 X131.145 Y37.091
G1 X130.1548 Y37.3874
G1 X128.238 Y37.9674
G1 X127.789 Y38.1043
G1 X126.9055 Y38.3748
G1 X125.1946 Y38.9021
G1 X124.7937 Y39.0262
G1 X123.2161 Y39.5168
G1 X121.7377 Y39.979
G1 X118.9671 Y40.8498
G1 X118.3612 Y41.0408
G1 X116.0136 Y41.7819
G1 X111.905 Y43.0779
G1 X111.5196 Y43.1991
G3 X105.5408 Y45.055 I-205.0452 J-650.017
G1 X105.1664 Y45.1688
G3 X105.1224 Y45.1822 I-0.153 J-0.4249
G3 X102.3325 Y46.0153 I-94.6103 J-311.7411
G1 X101.9831 Y46.1173
G3 X99.5318 Y46.811 I-37.9337 J-129.3591
G0 Z5.0
G0 X106.4002 Y44.4652
G1 Z0.0
G1 X59.828 Y0.7407
G0 Z5.0
G0 X26.7844 Y14.9025
G1 Z0.0
G1 X181.6438 Y-56.386
G1 X181.4003 Y-56.5786
G1 X180.9148 Y-56.9578
G1 X180.4347 Y-57.3282
G2 X172.6888 Y-62.9144 I-101.0913 J132.0129
G2 X172.503 Y-63.0402 I-9.7822 J14.2378
G1 X172.3186 Y-63.1648
G2 X166.3672 Y-66.9736 I-78.8756 J116.6915
G2 X166.0828 Y-67.1447 I-20.2285 J33.3114
G1 X165.5215 Y-67.4791
G1 X164.9758 Y-67.8
G1 X164.7108 Y-67.9544
G1 X164.1878 Y-68.2562
G1 X163.6794 Y-68.5456
G2 X159.679 Y-70.6799 I-42.1449 J74.1766
G1 X159.2975 Y-70.8689
G1 X158.9269 Y-71.0498
G2 X157.4802 Y-71.7294 I-32.2492 J66.7704
G2 X157.4404 Y-71.7475 I-0.2953 J0.5973
G2 X154.874 Y-72.8349 I-22.9069 J50.4919
G2 X154.8131 Y-72.8587 I-0.2708 J0.603
G2 X152.8612 Y-73.5652 I-14.0929 J35.8835
G1 X152.4909 Y-73.686
G2 X151.7931 Y-73.9009 I-11.3277 J35.5461
G2 X149.3116 Y-74.5108 I-7.4421 J24.9237
G2 X148.0485 Y-74.7099 I-3.6302 J18.9279
G2 X146.7742 Y-74.8141 I-1.8467 J14.7424
G1 X146.7253 Y-74.8118
G1 X146.6284 Y-74.7978
G2 X146.2472 Y-74.7136 I1.4969 J7.6835
G2 X145.8708 Y-74.6166 I3.1722 J13.0841
G2 X145.4972 Y-74.5147 I3.702 J14.3121
G1 X145.126 Y-74.4102
G2 X143.6514 Y-73.9784 I27.7337 J97.4306
G1 X143.606 Y-73.9648
G1 X143.244 Y-73.8562
G2 X137.4902 Y-72.0744 I146.2522 J482.4688
G1 X134.7983 Y-71.2227
G1 X132.1922 Y-70.3924
G1 X129.6687 Y-69.5843
G1 X127.225 Y-68.7988
G1 X122.4922 Y-67.2709
G2 X113.623 Y-64.3912 I1496.8015 J4624.9984
G1 X111.6835 Y-63.7592
G1 X107.9262 Y-62.5332
G1 X107.0456 Y-62.2456
G1 X103.5789 Y-61.1121
G1 X97.0801 Y-58.9832
G1 X91.3948 Y-57.117
G1 X88.9077 Y-56.2996
G1 X79.5827 Y-53.2305
G1 X76.0863 Y-52.078
G1 X73.0271 Y-51.0689
G1 X67.6741 Y-49.3016
G1 X59.6457 Y-46.6475
G1 X57.6388 Y-45.9833
G1 X54.6286 Y-44.9865
G1 X54.4404 Y-44.9241
G1 X53.0295 Y-44.4566
G1 X51.6187 Y-43.9889
G1 X49.3639 Y-42.9645
G1 X31.8875 Y-35.0298
G1 X25.3331 Y-32.056
G1 X13.8617 Y-26.8545
G1 X5.2567 Y-22.9564
G1 X-1.1981 Y-20.0353
G1 X-3.6191 Y-18.9406
G1 X-4.1488 Y-18.7012
G1 X-8.2537 Y-16.8471
G1 X-11.3331 Y-15.4582
G1 X-12.4882 Y-14.9378
G1 X-13.499 Y-14.4828
G1 X-15.2683 Y-13.6874
G1 X-16.5957 Y-13.0919
G1 X-18.588 Y-12.2014
G3 X-19.5853 Y-11.7587 I-54.7682 J-122.0212
G1 X-20.0845 Y-11.5388
G1 X-20.5848 Y-11.3211
G0 Z5.0
G0 X-47.9387 Y-83.2659
G1 Z0.0
G2 X-48.5524 Y-83.7501 I-19.7143 J24.3565
G2 X-49.7363 Y-84.6144 I-20.7603 J27.1943
G2 X-50.7996 Y-85.3322 I-23.2251 J33.2573
G2 X-52.7135 Y-86.5073 I-22.1477 J33.9259
G2 X-53.4489 Y-86.9197 I-15.1212 J26.1021
G2 X-54.76 Y-87.597 I-15.5785 J28.5502
G2 X-56.7938 Y-88.4724 I-9.8049 J19.9787
G2 X-57.8479 Y-88.8156 I-4.9279 J13.3438
G1 X-58.1158 Y-88.8871
G2 X-58.1411 Y-88.8934 I-0.0575 J0.1753
G2 X-58.9303 Y-89.0545 I-2.2195 J8.863
G3 X-58.1164 Y-89.5809 I5.9591 J8.32
G3 X-58.0917 Y-89.5953 I0.1116 J0.1642
G3 X-58.067 Y-89.6095 I0.111 J0.1643
G3 X-58.0423 Y-89.6236 I0.1103 J0.1644
G3 X-57.2328 Y-90.0302 I4.0098 J6.9744
G3 X-56.4358 Y-90.3219 I2.794 J6.3994
G3 X-54.8719 Y-90.5613 I1.6186 J5.3438
G3 X-53.5158 Y-90.3768 I0.0203 J4.9272
G3 X-52.4202 Y-89.9233 I-1.4379 J5.0238
G3 X-51.5637 Y-89.3483 I-2.9605 J5.3349
G3 X-50.897 Y-88.7438 I-4.4863 J5.6176
G1 X-50.7611 Y-88.6015
G1 X-50.6328 Y-88.4608
G3 X-50.1648 Y-87.8906 I-6.4857 J5.801
G3 X-49.4489 Y-86.8176 I-8.5162 J6.457
G3 X-48.5874 Y-85.087 I-12.3362 J7.2213
G3 X-47.9387 Y-83.2659 I-17.1553 J7.1368
G0 Z5.0
G0 X-107.2607 Y27.5231
G1 Z0.0
G3 X-107.1979 Y27.421 I0.7327 J0.3799
G1 X-107.1301 Y27.3227
G3 X-106.8479 Y26.9381 I16.8283 J12.0513
G3 X-105.6915 Y25.4398 I95.4082 J72.4452
G1 X-105.1249 Y24.719
G1 X-104.0045 Y23.304
G1 X-102.9152 Y21.9363
G1 X-101.8577 Y20.6132
G1 X-100.8316 Y19.3327
G1 X-98.8404 Y16.8544
G1 X-97.9059 Y15.6935
G1 X-96.0937 Y13.4457
G1 X-94.3933 Y11.3395
G1 X-92.798 Y9.3658
G1 X-92.0499 Y8.4409
G1 X-90.6001 Y6.6494
G3 X-89.2402 Y4.9701 I660.7284 J533.689
G1 X-88.6026 Y4.1831
G1 X-86.131 Y1.1344
G1 X-81.8028 Y-4.1986
G1 X-78.5546 Y-8.1966
G1 X-73.6793 Y-14.1913
G1 X-68.8006 Y-20.1831
G0 Z5.0
G0 X77.8751 Y55.972
G1 Z0.0
G1 X60.5266 Y67.6414
G3 X59.7767 Y68.1202 I-9.6242 J-14.2482
G1 X59.4411 Y68.3217
G3 X59.1245 Y68.5092 I-17.0745 J-28.4718
G1 X58.9756 Y68.5974
G1 X58.8315 Y68.6832
G1 X58.6921 Y68.7669
G2 X58.157 Y69.1009 I14.3993 J23.6616
G2 X57.2662 Y69.759 I4.4022 J6.8917
G2 X56.6809 Y70.3535 I2.9906 J3.5296
G2 X56.052 Y71.4322 I2.9824 J2.4613
G2 X55.8736 Y72.0321 I3.9563 J1.5035
G2 X55.7786 Y72.6505 I4.6879 J1.036
G1 X55.9101 Y72.7794
G1 X56.0411 Y72.9066
G2 X58.2007 Y74.8399 I24.4752 J-25.168
G2 X60.2243 Y76.367 I18.4942 J-22.4026
G2 X64.0776 Y78.5493 I14.1793 J-20.5434
G2 X64.1248 Y78.5707 I0.2549 J-0.4999
G2 X64.3134 Y78.655 I2.1063 J-4.46
G2 X65.8203 Y79.2661 I11.3095 J-25.7234
G1 X66.1544 Y79.3878
G2 X66.2356 Y79.4167 I0.422 J-1.0574
G2 X66.3162 Y79.4451 I0.4284 J-1.0863
G2 X66.9584 Y79.6628 I12.0807 J-34.5888
G2 X67.034 Y79.6874 I0.545 J-1.544
G2 X69.4568 Y80.3886 I12.9063 J-40.0562
G1 X69.9148 Y80.5063
G1 X70.0223 Y80.5334
G1 X70.1282 Y80.56
G1 X70.9626 Y80.7644
G1 X71.6939 Y80.9383
G1 X72.3344 Y81.0885
G1 X73.4552 Y81.3509
G1 X74.2952 Y81.5506
G1 X74.9243 Y81.7035
G3 X76.8055 Y82.1878 I-22.8238 J92.5607
G1 X96.7361 Y75.8621
G0 Z5.0
M5
M30
G0 X-95.6895 Y22.1793
G1 F2000.0 Z0.0
G1 X-65.4058 Y-16.6602
G0 Z5.0
G0 X-20.6558 Y-11.1933
G1 Z0.0
G2 X-21.0154 Y-10.6708 I1.6175 J1.4982
G2 X-21.2116 Y-10.1222 I2.4802 J1.1963
G2 X-21.2934 Y-9.5881 I3.4535 J0.8022
G2 X-21.2569 Y-8.5823 I4.8203 J0.3284
G2 X-21.0867 Y-7.7215 I6.9454 J-0.9258
G2 X-20.9831 Y-7.3522 I6.9368 J-1.747
G2 X-20.4766 Y-6.0075 I11.0445 J-3.392
G2 X-19.4535 Y-4.1117 I13.5337 J-6.0797
G2 X-18.8394 Y-3.2255 I12.0549 J-7.6982
G2 X-18.1478 Y-2.3983 I7.8792 J-5.8851
G1 X-17.8729 Y-2.5061
G1 X-17.3281 Y-2.7284
G1 X-16.7898 Y-2.9542
G1 X-16.2572 Y-3.1814
G1 X-15.2027 Y-3.6381
G1 X-14.6846 Y-3.8648
G2 X-14.6203 Y-3.893 I-0.3059 J-0.7843
G1 X-13.5944 Y-4.3455
G2 X-13.0899 Y-4.5692 I-20.5291 J-46.9773
G1 X-11.0899 Y-5.4619
G1 X-9.1548 Y-6.3321
G1 X-8.6864 Y-6.5435
G1 X-6.8283 Y-7.3842
G2 X-6.7158 Y-7.4352 I-0.7466 J-1.7962
G2 X0.4609 Y-10.7066 I-784.0684 J-1729.5769
G1 X3.5976 Y-12.1443
G1 X3.7814 Y-12.2287
G1 X6.7094 Y-13.5741
G1 X8.0816 Y-14.2054
G1 X10.7397 Y-15.4299
G1 X11.3626 Y-15.717
G1 X11.9758 Y-15.9998
G1 X13.1828 Y-16.5567
G1 X13.7674 Y-16.8265
G1 X14.0552 Y-16.9594
G1 X18.6219 Y-19.0697
G1 X22.6167 Y-20.9186
G1 X29.6055 Y-24.1589
G1 X34.8455 Y-26.5924
G1 X36.8103 Y-27.5057
G1 X40.2481 Y-29.1048
G1 X45.4039 Y-31.5054
G1 X46.0483 Y-31.8057
G2 X50.5583 Y-33.9088 I-1033.4296 J-2221.9989
G1 X146.9844 Y-68.0249
G0 Z5.0
G0 X143.6675 Y-72.0528
G1 Z0.0
G2 X143.6443 Y-71.471 I1.9392 J0.3688
G2 X143.7622 Y-70.9285 I2.5972 J-0.2807
G2 X143.8562 Y-70.6764 I2.7511 J-0.8827
G2 X144.093 Y-70.2014 I4.0591 J-1.726
G2 X144.6859 Y-69.3501 I5.7673 J-3.3852
G2 X145.3536 Y-68.6067 I7.8532 J-6.3814
G2 X146.0525 Y-67.9405 I10.6992 J-10.525
G2 X147.496 Y-66.7548 I14.9982 J-16.7883
G2 X147.8459 Y-66.4925 I18.5886 J-24.4317
G2 X148.5447 Y-65.9896 I21.5543 J-29.2119
G1 X148.7157 Y-65.8702
G1 X149.0567 Y-65.6361
G2 X150.4191 Y-64.7441 I28.5554 J-42.1268
G2 X151.0667 Y-64.3403 I19.7233 J-30.9135
G1 X151.3822 Y-64.1476
G2 X153.8994 Y-62.6862 I43.435 J-71.9179
G1 X154.4565 Y-62.378
G1 X154.7271 Y-62.2301
G2 X156.8721 Y-61.0918 I54.1317 J-99.414
G2 X157.1082 Y-60.9699 I5.9111 J-11.1601
G2 X157.2245 Y-60.9101 I2.1101 J-3.9598
G1 X158.1492 Y-60.4396
G1 X159.0194 Y-60.0046
G2 X165.6225 Y-56.904 I80.5297 J-162.9158
G2 X168.9655 Y-55.4448 I85.4438 J-191.1945
G1 X169.3851 Y-55.2665
G1 X170.1204 Y-54.9565
G1 X171.2257 Y-54.4973
G1 X171.3641 Y-54.4405
G1 X171.6065 Y-54.3413
G1 X171.6974 Y-54.3042
G1 X172.0158 Y-54.175
G1 X172.3346 Y-54.047
G0 Z5.0
G0 X99.5318 Y46.9782
G1 Z0.0
G2 X99.6318 Y47.4085 I1.5287 J-0.1287
G2 X99.8183 Y47.7908 I2.1238 J-0.799
G2 X99.8451 Y47.8352 I0.4567 J-0.2455
G2 X100.0815 Y48.1744 I3.278 J-2.0327
G2 X100.1444 Y48.2539 I1.8565 J-1.4064
G2 X100.6924 Y48.8453 I5.2056 J-4.274
G2 X101.2733 Y49.3637 I7.1043 J-7.3745
G1 X101.3095 Y49.3938
G2 X102.5104 Y50.2969 I11.4951 J-14.0359
G2 X103.6869 Y51.0689 I18.0325 J-26.1991
G2 X104.8172 Y51.748 I21.6476 J-34.7479
G1 X105.085 Y51.9022
G1 X105.1511 Y51.9399
G1 X105.217 Y51.9774
G1 X105.7435 Y52.2725
G2 X106.772 Y52.8289 I39.7587 J-72.2623
G1 X107.0144 Y52.9567
G1 X107.493 Y53.2056
G1 X107.9583 Y53.4436
G1 X108.4104 Y53.6715
G2 X111.9513 Y55.361 I48.7538 J-97.6249
G1 X112.6211 Y55.6651
G1 X113.2505 Y55.9471
G1 X113.8417 Y56.2089
G1 X114.3969 Y56.4521
G1 X114.9182 Y56.6783
G1 X115.8977 Y57.0978
G2 X117.6175 Y57.8182 I109.0109 J-257.8225
G1 X117.7791 Y57.8849
G2 X120.2911 Y58.9001 I84.521 J-205.5224
G1 X120.4486 Y58.9624
G2 X122.8179 Y59.8779 I65.8129 J-166.813
G0 Z5.0
G0 X116.7868 Y57.5324
G1 Z0.0
G1 X163.1918 Y39.272
G0 Z5.0
G0 X126.6713 Y116.6693
G1 Z0.0
G1 X126.4342 Y115.7883
G1 X125.5128 Y112.3159
G1 X124.6513 Y109.06
G1 X123.0379 Y102.9546
G1 X117.3974 Y81.5843
G1 X114.5789 Y70.8987
G1 X111.7611 Y60.2129
G0 Z5.0
G0 X64.8536 Y78.9759
G1 Z0.0
G3 X64.8791 Y78.9598 I0.2076 J0.3007
G1 X64.9837 Y78.901
G1 X65.196 Y78.7911
G3 X66.907 Y77.9719 I33.0956 J66.9268
G1 X66.9322 Y77.9601
G1 X67.3347 Y77.7723
G1 X67.7312 Y77.588
G3 X69.2943 Y76.8667 I99.9404 J214.5111
G1 X70.0277 Y76.5301
G1 X70.7386 Y76.2048
G1 X72.1166 Y75.5761
G1 X72.7629 Y75.2819
G3 X82.7905 Y70.7492 I1211.062 J2665.8337
G1 X85.2996 Y69.6208
G1 X86.2407 Y69.1981
G1 X87.8878 Y68.4586
G1 X92.8305 Y66.2438
G0 Z5.0
G0 X60.3306 Y43.9627
G1 Z0.0
G3 X60.2363 Y43.9389 I0.0466 J-0.3843
G3 X60.0605 Y43.8607 I0.8166 J-2.0722
G1 X59.891 Y43.7732
G3 X59.5606 Y43.5888 I4.5961 J-8.6225
G1 X59.3996 Y43.4952
G3 X58.7666 Y43.114 I38.908 J-65.3183
G1 X58.1588 Y42.7362
G3 X58.012 Y42.6438 I2.0564 J-3.4308
G1 X57.8666 Y42.552
G1 X57.2909 Y42.1854
G1 X57.0126 Y42.0069
G1 X55.92 Y41.2993
G1 X55.7922 Y41.2159
G1 X54.7794 Y40.5523
G3 X50.9976 Y38.0396 I307.3067 J-466.6259
G3 X48.1715 Y36.1395 I347.087 J-519.2888
G3 X39.7247 Y30.3934 I849.4535 J-1257.7843
G3 X39.2404 Y30.0537 I2.0217 J-3.3978
G3 X38.8572 Y29.6681 I1.7479 J-2.1196
G3 X38.598 Y29.2348 I1.3315 J-1.0906
G3 X38.5385 Y29.0234 I0.8599 J-0.3562
G3 X38.5853 Y28.6297 I0.6421 J-0.1233
G3 X38.8029 Y28.3923 I0.5229 J0.2608
G3 X39.0543 Y28.2861 I0.4799 J0.7851
G3 X39.5245 Y28.2397 I0.3986 J1.6339
G3 X40.223 Y28.3419 I-0.1438 J3.4209
G3 X40.3939 Y28.3865 I-1.935 J7.7682
G3 X40.8973 Y28.5506 I-1.4833 J5.4057
G1 X124.8284 Y65.5739
G0 Z5.0
G0 X113.4364 Y112.9839
G1 Z0.0
G3 X113.7897 Y112.8507 I1.0483 J2.2456
G3 X114.5125 Y112.7165 I1.0408 J3.5929
G3 X114.6884 Y112.7038 I0.3564 J3.7114
G3 X115.3871 Y112.7081 I0.3074 J6.7768
G3 X116.0579 Y112.7759 I-0.4276 J7.5878
G3 X116.3801 Y112.8256 I-1.7313 J12.2779
G3 X116.538 Y112.8535 I-0.4466 J2.9884
G3 X117.7774 Y113.1392 I-2.9917 J15.8132
G1 X117.9209 Y113.1788
G3 X119.0495 Y113.5284 I-7.1294 J25.0132
G1 X119.3113 Y113.618
G3 X121.3446 Y114.4017 I-11.8688 J33.825
G1 X121.7832 Y114.588
G3 X123.4656 Y115.3489 I-19.5698 J45.5131
G3 X126.3545 Y116.7949 I-31.892 J67.3262
G3 X127.4228 Y117.3663 I-33.373 J63.6706
G3 X134.7125 Y121.6952 I-53.7677 J98.8447
G0 Z5.0
G0 X31.8512 Y-35.4453
G1 Z0.0
G1 X-10.0306 Y-50.6901
G0 Z5.0
M5
M30
G0 X166.8857 Y-55.9421
G1 F2000.0 Z0.0
G1 X83.4903 Y-16.8506
G0 Z5.0
G0 X88.9395 Y-13.5338
G1 Z0.0
G2 X84.276 Y-16.2991 I-57.6798 J91.9594
G1 X83.6782 Y-16.6272
G2 X83.4152 Y-16.7689 I-4.7943 J8.5866
G1 X82.9197 Y-17.0306
G2 X82.043 Y-17.4733 I-14.7181 J28.0589
G1 X81.7094 Y-17.633
G1 X81.4149 Y-17.7688
G1 X81.2851 Y-17.8269
G2 X80.7933 Y-18.0347 I-4.8241 J10.7333
G1 X80.6055 Y-18.1076
G2 X79.9315 Y-18.322 I-2.0858 J5.3907
G2 X79.573 Y-18.3778 I-0.4675 J1.8244
G2 X79.3873 Y-18.365 I-0.0437 J0.7206
G2 X79.2983 Y-18.3331 I0.057 J0.2993
G2 X79.2259 Y-18.2722 I0.0988 J0.1909
G3 X79.1154 Y-18.1873 I-0.3567 J-0.3498
G3 X78.6322 Y-17.9158 I-3.5802 J-5.8069
G1 X78.3883 Y-17.7891
G1 X77.8994 Y-17.5425
G1 X77.4122 Y-17.3023
G1 X76.9274 Y-17.0667
G1 X75.9629 Y-16.6044
G1 X75.0114 Y-16.1538
G1 X74.0733 Y-15.7132
G1 X72.2238 Y-14.8518
G1 X71.327 Y-14.4366
G1 X71.2717 Y-14.411
G1 X69.5064 Y-13.5974
G1 X69.0786 Y-13.4008
G3 X68.9724 Y-13.3521 I-1.7059 J-3.5746
G1 X67.2774 Y-12.5751
G1 X63.9906 Y-11.0753
G1 X60.907 Y-9.6742
G1 X58.0147 Y-8.3639
G1 X56.6584 Y-7.7506
G1 X54.0301 Y-6.5639
G1 X52.7978 Y-6.0081
G1 X50.4098 Y-4.9324
G1 X45.9311 Y-2.9183
G1 X43.9711 Y-2.0383
G1 X42.1334 Y-1.2137
G1 X40.4103 Y-0.4411
G1 X38.7948 Y0.2828
G3 X38.7001 Y0.3252 I-0.6114 J-1.238
G1 X37.1913 Y1.0009
G1 X35.7767 Y1.6341
G1 X30.4712 Y4.0066
G1 X26.4912 Y5.7839
G1 X23.5057 Y7.1159
G1 X22.9459 Y7.3655
G1 X21.8961 Y7.8335
G1 X18.2218 Y9.4706
G1 X14.5467 Y11.1059
G1 X14.9405 Y11.193
G3 X16.4612 Y11.5529 I-16.1896 J71.7991
G1 X17.1244 Y11.7188
G1 X17.7452 Y11.8787
G1 X17.8905 Y11.9168
G3 X22.4331 Y13.2421 I-21.5016 J82.1453
G3 X24.6697 Y14.0159 I-18.5254 J57.1599
G3 X25.7744 Y14.4404 I-13.039 J35.5835
G1 X26.0487 Y14.5512
G3 X26.1001 Y14.5723 I-0.1904 J0.5388
G3 X26.4842 Y14.7322 I-5.1019 J12.7946
G3 X26.8663 Y14.8965 I-11.4021 J27.0384
G3 X27.2118 Y15.3198 I-2.7825 J2.6236
G3 X27.4487 Y15.7631 I-1.6759 J1.1803
G3 X27.5333 Y16.208 I-1.2234 J0.4631
G3 X27.461 Y16.6081 I-1.1468 J-0.0006
G3 X27.2901 Y16.9383 I-1.5503 J-0.5931
G3 X27.0764 Y17.2094 I-1.9274 J-1.2993
G3 X26.6051 Y17.6487 I-3.2171 J-2.9797
G1 X26.495 Y17.7364
G3 X26.4411 Y17.7781 I-0.475 J-0.5584
G1 X26.3339 Y17.8589
G3 X25.4748 Y18.4438 I-9.2782 J-12.7046
G1 X25.3104 Y18.5485
G1 X25.2331 Y18.5973
G1 X24.0307 Y19.3447
G2 X22.8389 Y20.1088 I23.0478 J37.2567
G3 X22.7526 Y20.1646 I-2.1006 J-3.1561
G1 X22.6653 Y20.2183
G1 X22.5776 Y20.2702
G3 X21.8592 Y20.6485 I-6.1304 J-10.7696
G1 X21.5046 Y20.8178
G1 X21.4168 Y20.8585
G3 X21.0661 Y21.0179 I-6.6476 J-14.1679
G3 X19.6707 Y21.6129 I-19.8182 J-44.537
G1 X19.0118 Y21.8797
G1 X18.6918 Y22.007
G3 X18.0605 Y22.2542 I-57.1867 J-145.0647
G1 X17.4477 Y22.4902
G1 X17.3734 Y22.5186
G1 X16.7809 Y22.7432
G1 X16.206 Y22.9585
G1 X15.9272 Y23.0622
G1 X14.8282 Y23.466
G1 X14.5703 Y23.5598
G1 X14.4433 Y23.6059
G1 X13.9391 Y23.788
G1 X13.4504 Y23.9635
G1 X12.9766 Y24.1326
G3 X12.5173 Y24.2957 I-13.131 J-36.2452
G1 X11.6269 Y24.6098
G1 X9.9552 Y25.1924
G1 X9.223 Y25.4451
G3 X-1.8009 Y29.1117 I-199.3521 J-580.9676
G0 Z5.0
G0 X-21.4648 Y25.084
G1 Z0.0
G3 X-25.1647 Y23.9733 I19.8393 J-72.8078
G3 X-25.5657 Y23.8405 I8.8508 J-27.3912
G1 X-25.9598 Y23.7077
G1 X-26.7337 Y23.4405
G1 X-27.1076 Y23.3084
G3 X-28.5738 Y22.7718 I23.3178 J-65.9882
G3 X-33.989 Y20.5488 I35.6343 J-94.5129
G3 X-37.9665 Y18.6903 I49.2092 J-110.5013
G3 X-40.9036 Y17.2018 I59.7346 J-121.5112
G3 X-49.4785 Y12.3022 I62.5732 J-119.4643
G0 Z5.0
G0 X-68.0731 Y-20.8086
G1 Z0.0
G2 X-65.1866 Y-20.747 I2.0036 J-26.2042
G2 X-62.4882 Y-20.9567 I-1.0064 J-30.4059
G2 X-59.9819 Y-21.3626 I-4.1466 J-33.5457
G1 X-59.8359 Y-21.3923
G2 X-58.6773 Y-21.6505 I-6.8166 J-33.317
G2 X-56.4577 Y-22.2577 I-8.5772 J-35.7118
G2 X-52.4041 Y-23.7491 I-11.7741 J-38.2571
G2 X-45.7503 Y-27.3718 I-16.1023 J-37.4967
G1 X-45.454 Y-27.573
G2 X-44.3052 Y-28.3918 I-20.773 J-30.3597
G2 X-44.2387 Y-28.4412 I-0.7196 J-1.0387
G2 X-43.1946 Y-29.2471 I-22.5458 J-30.2888
G2 X-43.1343 Y-29.2955 I-0.6762 J-0.9045
G2 X-41.2673 Y-30.9065 I-22.3351 J-27.7706
G1 X-41.0699 Y-31.0911
G2 X-39.5697 Y-32.6016 I-22.3751 J-23.7222
G2 X-38.3451 Y-34.0094 I-21.373 J-19.8275
G2 X-37.8388 Y-34.6514 I-28.8642 J-23.2846
G2 X-36.1334 Y-37.1985 I-18.7436 J-14.3945
G2 X-36.0974 Y-37.261 I-0.664 J-0.4234
G2 X-35.074 Y-39.3047 I-17.0023 J-9.7926
G2 X-34.7542 Y-40.1012 I-17.3387 J-7.4236
G1 X-34.6894 Y-40.2775
G2 X-33.9503 Y-43.089 I-14.7055 J-5.3684
G2 X-33.7844 Y-45.9914 I-13.3981 J-2.222
G1 X-33.8183 Y-46.6344
G2 X-34.1858 Y-51.6123 I-127.1855 J6.8872
G1 X-34.2313 Y-52.079
G2 X-34.4292 Y-53.8854 I-76.8753 J7.5099
G1 X-34.4775 Y-54.2804
G2 X-34.9242 Y-57.3314 I-65.8088 J8.0749
G2 X-35.1315 Y-58.4711 I-44.4161 J7.4907
G1 X-35.1557 Y-58.5956
G2 X-35.5858 Y-60.5455 I-41.7988 J8.1958
G1 X-35.678 Y-60.9089
G2 X-35.8626 Y-61.5874 I-32.3466 J8.4383
G1 X-35.9487 Y-61.8828
G2 X-35.959 Y-61.9175 I-0.2651 J0.0602
G2 X-36.3133 Y-63.0063 I-19.3569 J5.697
G2 X-36.3495 Y-63.1075 I-3.0721 J1.0426
G2 X-36.9937 Y-64.6424 I-13.9327 J4.9448
G2 X-37.3908 Y-65.375 I-9.6761 J4.7713
G2 X-37.8576 Y-66.0652 I-6.0602 J3.5954
G0 Z5.0
G0 X-34.1027 Y-48.6789
G1 Z0.0
G2 X-36.2349 Y-50.084 I-37.8915 J55.1781
G1 X-36.2982 Y-50.1241
G1 X-36.8044 Y-50.4417
G1 X-37.0545 Y-50.5968
G1 X-37.5522 Y-50.9021
G1 X-38.044 Y-51.1996
G1 X-38.5299 Y-51.4898
G2 X-46.3636 Y-55.7412 I-61.2868 J103.5854
G1 X-47.1164 Y-56.1118
G2 X-50.059 Y-57.4979 I-48.1451 J98.3947
G2 X-50.2214 Y-57.5714 I-3.847 J8.2799
G1 X-50.8669 Y-57.8605
G1 X-51.4943 Y-58.1367
G2 X-52.7156 Y-58.6599 I-56.5451 J130.2952
G1 X-53.291 Y-58.8997
G1 X-53.8501 Y-59.1284
G2 X-58.2387 Y-60.7627 I-29.3198 J72.0247
G1 X-58.6571 Y-60.9019
G1 X-59.0634 Y-61.0339
G1 X-59.4581 Y-61.1591
G1 X-59.8415 Y-61.2777
G2 X-62.8432 Y-62.0933 I-13.9888 J45.5541
G2 X-62.8789 Y-62.1016 I-0.1075 J0.3795
G2 X-62.9144 Y-62.1099 I-0.1067 J0.378
G2 X-64.0499 Y-62.3547 I-9.879 J43.0609
G2 X-66.0585 Y-62.6816 I-5.3467 J26.5259
G2 X-67.5828 Y-62.815 I-2.5038 J19.8309
G2 X-68.7323 Y-62.8293 I-0.7556 J14.5515
G2 X-69.5941 Y-62.7771 I0.3327 J12.6438
G2 X-70.8719 Y-62.5663 I0.8975 J9.4175
G2 X-72.0956 Y-62.1427 I1.4768 J6.2459
G0 Z5.0
G0 X-94.5915 Y-45.3095
G1 Z0.0
G2 X-93.2791 Y-44.8243 I3.5483 J-7.5801
G2 X-91.9602 Y-44.5606 I2.5265 J-9.2067
G2 X-91.3136 Y-44.4975 I1.2478 J-9.4387
G1 X-91.154 Y-44.4879
G1 X-90.9949 Y-44.4805
G1 X-90.8364 Y-44.4753
G2 X-89.5734 Y-44.5057 I0.3115 J-13.2978
G2 X-87.1508 Y-44.8722 I-1.2431 J-16.409
G2 X-84.9239 Y-45.5063 I-4.9319 J-21.5477
G1 X-84.7943 Y-45.551
G2 X-82.7609 Y-46.3565 I-9.1884 J-26.1618
G2 X-80.8926 Y-47.2621 I-13.1472 J-29.5054
G2 X-77.5111 Y-49.2936 I-16.3998 J-31.128
G2 X-76.0599 Y-50.3268 I-21.3719 J-31.5552
G2 X-75.3862 Y-50.8421 I-33.1395 J-44.0194
G2 X-72.8702 Y-52.9943 I-23.8144 J-30.3874
G2 X-71.7984 Y-54.0398 I-25.7017 J-27.4191
G2 X-70.8221 Y-55.0771 I-22.9345 J-22.565
G2 X-69.103 Y-57.1679 I-21.6917 J-19.5869
G2 X-67.7531 Y-59.1868 I-18.3098 J-13.7035
G2 X-67.4836 Y-59.6566 I-11.6038 J-6.9695
G2 X-67.4201 Y-59.7719 I-2.2857 J-1.334
G2 X-66.5333 Y-61.6641 I-14.1078 J-7.7653
G2 X-65.9933 Y-63.4323 I-10.9398 J-4.3076
G2 X-65.7864 Y-65.0455 I-8.7223 J-1.9387
G2 X-65.8797 Y-66.4655 I-6.9402 J-0.2568
G2 X-66.7781 Y-68.7647 I-5.9353 J0.994
G2 X-67.9913 Y-70.1484 I-5.6526 J3.7322
G2 X-69.0983 Y-70.9674 I-5.7975 J6.6788
G2 X-69.3187 Y-71.1017 I-3.3366 J5.227
G2 X-70.1726 Y-71.5571 I-5.6319 J9.5315
G2 X-71.5125 Y-72.1132 I-5.9754 J12.5051
G2 X-72.8981 Y-72.5431 I-5.7488 J16.0818
G0 Z5.0
G0 X-74.5344 Y53.5144
G1 Z0.0
G1 X-159.8252 Y88.1046
G0 Z5.0
G0 X-182.5695 Y77.9171
G1 Z0.0
G1 X-110.7833 Y38.1144
G1 X-110.2898 Y37.9168
G1 X-109.3107 Y37.5241
G1 X-107.384 Y36.7489
G1 X-103.6531 Y35.2416
G1 X-103.2161 Y35.0646
G1 X-99.7483 Y33.6561
G2 X-93.252 Y31.0008 I-732.5586 J-1801.4719
G2 X-91.8319 Y30.4173 I-158.7648 J-388.4176
G1 X-89.0818 Y29.284
G1 X-87.7932 Y28.7514
G1 X-85.2976 Y27.7171
G1 X-82.9592 Y26.7441
G1 X-80.7683 Y25.829
G1 X-78.7155 Y24.9682
G1 X-78.2345 Y24.766
G1 X-76.3414 Y23.9683
G1 X-74.5676 Y23.2179
G2 X-71.245 Y21.8036 I-686.8393 J-1618.2733
G1 X-70.5188 Y21.4929
G1 X-69.1124 Y20.8893
G1 X-68.4534 Y20.6055
G2 X-68.3736 Y20.5711 I-0.4567 J-1.1695
G2 X-68.294 Y20.5369 I-0.4535 J-1.1612
G1 X-67.028 Y19.9898
G1 X-66.4348 Y19.7327
G1 X-65.8603 Y19.4832
G1 X-63.6362 Y18.5121
G1 X-61.6927 Y17.656
G1 X-59.9947 Y16.9013
G1 X-59.2526 Y16.5693
G1 X-57.8628 Y15.9433
G1 X-56.6486 Y15.3914
G1 X-56.3832 Y15.2701
G1 X-56.1262 Y15.1524
G2 X-55.1314 Y14.6943 I-46.0686 J-101.3463
G1 X-54.9139 Y14.5936
G1 X-54.7034 Y14.4959
G1 X-53.8883 Y14.1157
G1 X-53.1762 Y13.7806
G1 X-52.5541 Y13.4855
G1 X-51.4678 Y12.9638
G1 X-50.6555 Y12.5676
G2 X-48.2365 Y11.343 I-41.4317 J-84.8423
G1 X-48.804 Y11.0748
G1 X-48.9366 Y11.0109
G3 X-49.4559 Y10.7536 I9.6955 J-20.222
G1 X-49.6973 Y10.6289
G1 X-49.9295 Y10.505
G3 X-51.649 Y9.4117 I6.65 J-12.3568
G1 X-51.8012 Y9.2964
G3 X-52.9285 Y8.3391 I9.6197 J-12.4711
G1 X-53.1305 Y8.1492
G3 X-53.8665 Y7.415 I18.8109 J-19.5955
G1 X-53.934 Y7.3446
G1 X-54.1932 Y7.07
G3 X-54.6392 Y6.5824 I20.3839 J-19.0932
G3 X-55.2932 Y5.8374 I30.8034 J-27.6967
G1 X-55.6145 Y5.46
G1 X-55.9326 Y5.0799
G0 Z5.0
G0 X-64.1103 Y55.6465
G1 Z0.0
G3 X-64.549 Y55.5508 I3.6776 J-17.9058
G3 X-64.5755 Y55.5448 I0.0091 J-0.1022
G1 X-64.9987 Y55.448
G1 X-65.4084 Y55.3532
G3 X-65.4581 Y55.3416 I0.0933 J-0.5136
G1 X-67.0382 Y54.9708
G1 X-69.8017 Y54.3149
G1 X-71.8739 Y53.8203
G1 X-73.4278 Y53.4485
G1 X-75.7583 Y52.8896
G1 X-76.0496 Y52.8197
G1 X-76.5594 Y52.6972
G1 X-78.0884 Y52.3296
G1 X-74.3373 Y50.6151
G3 X-60.2575 Y44.2146 I2034.9022 J4457.7563
G1 X-57.6152 Y43.0194
G1 X-55.1373 Y41.9005
G1 X-53.9755 Y41.3766
G1 X-49.4719 Y39.3501
G1 X-48.9791 Y39.1288
G1 X-45.0971 Y37.3894
G3 X-38.2965 Y34.361 I693.2617 J1547.6669
G1 X-35.7431 Y33.232
G1 X-33.5071 Y32.248
G1 X-31.5489 Y31.3906
G3 X-31.4952 Y31.3672 I0.2609 J0.5245
G1 X-30.6412 Y30.9949
G1 X-29.0389 Y30.2991
G1 X-27.6354 Y29.6934
G3 X-22.708 Y27.6084 I160.1702 J371.6539
G3 X-22.3985 Y27.4808 I9.9744 J23.752
G3 X-20.0691 Y26.5461 I50.1661 J121.6547
G1 X-19.9225 Y26.4895
G1 X-19.3714 Y26.2811
G1 X-19.1638 Y26.2047
G1 X-18.7993 Y26.0744
G3 X-18.247 Y25.8931 I5.6985 J16.4185
G3 X-17.9653 Y25.8163 I1.099 J3.4796
G3 X-17.821 Y25.7881 I0.6925 J3.1597
G3 X-17.747 Y25.7814 I0.0724 J0.3845
G3 X-17.6741 Y25.7949 I0.0129 J0.1333
G2 X-17.5638 Y25.8583 I0.3486 J-0.4789
G2 X-17.0926 Y26.0323 I1.5525 J-3.4806
G2 X-16.156 Y26.2919 I5.9212 J-19.5413
G2 X-14.382 Y26.7069 I13.3333 J-52.9941
G1 X-13.6031 Y26.8756
G1 X-12.8719 Y27.0294
G2 X-7.3729 Y28.1078 I59.1383 J-287.0117
G1 X-6.6844 Y28.2365
G1 X-6.0818 Y28.3483
G1 X-5.0269 Y28.5424
G1 X-3.4439 Y28.8295
G1 X-1.8599 Y29.1117
G0 Z5.0
G0 X-184.7017 Y73.6523
G1 Z0.0
G2 X-184.7045 Y74.193 I1.6077 J0.2787
G2 X-184.5671 Y74.6882 I2.2867 J-0.3677
G2 X-184.3475 Y75.1345 I3.3179 J-1.356
G2 X-183.777 Y75.9192 I4.6656 J-2.792
G2 X-183.1305 Y76.5925 I6.836 J-5.9175
G2 X-181.7463 Y77.7479 I10.9194 J-11.6743
G1 X-181.4068 Y77.9984
G1 X-181.2381 Y78.1194
G2 X-179.8701 Y79.037 I18.8683 J-26.653
G2 X-179.2149 Y79.4449 I16.6147 J-25.9549
G1 X-178.895 Y79.6383
G2 X-177.6219 Y80.3766 I26.4551 J-44.1533
G2 X-175.1908 Y81.6809 I37.5057 J-66.9901
G2 X-174.9222 Y81.8183 I6.5182 J-12.4059
G2 X-173.8603 Y82.3511 I28.9587 J-56.3915
G1 X-173.6106 Y82.4741
G1 X-173.1179 Y82.7144
G2 X-171.1983 Y83.6237 I44.5704 J-91.6133
G2 X-167.8064 Y85.1437 I68.7009 J-148.7655
G1 X-167.1666 Y85.42
G1 X-166.5658 Y85.6767
G1 X-165.4368 Y86.1525
G1 X-164.942 Y86.3583
G1 X-164.0127 Y86.7408
G1 X-163.6055 Y86.9067
G1 X-163.4145 Y86.9842
G1 X-163.2294 Y87.0591
G1 X-162.5115 Y87.3475
G1 X-161.8826 Y87.5977
G1 X-161.3315 Y87.815
G1 X-160.3658 Y88.1916
G1 X-159.6403 Y88.4708
G1 X-159.3679 Y88.5748
G1 X-159.1294 Y88.6654
G1 X-158.2938 Y88.9799
G1 X-157.4562 Y89.2889
G0 Z5.0
M5
M30
G0 X-14.3572 Y-47.4131
G1 F2000.0 Z0.0
G1 X-14.3511 Y-46.9056
G1 X-14.3174 Y-44.9076
G1 X-14.1785 Y-37.4152
G1 X-14.0714 Y-31.7959
G1 X-13.7447 Y-14.9383
G0 Z5.0
G0 X-37.3512 Y-8.7118
G1 Z0.0
G1 X-47.3674 Y-12.8699
G0 Z5.0
G0 X-54.2391 Y-4.8099
G1 Z0.0
G1 X-54.3376 Y-11.4145
G0 Z5.0
G0 X-62.0657 Y-16.359
G1 Z0.0
G1 X-61.9708 Y-16.195
G1 X-61.875 Y-16.0333
G2 X-61.0446 Y-14.7952 I11.947 J-7.1148
G2 X-60.6086 Y-14.2524 I8.4183 J-6.3161
G1 X-60.5537 Y-14.1888
G2 X-59.6051 Y-13.2461 I6.8256 J-5.9195
G2 X-58.5957 Y-12.5235 I4.7324 J-5.5444
G2 X-56.4515 Y-11.7071 I3.4695 J-5.888
G2 X-55.9624 Y-11.6248 I1.6319 J-8.2007
G2 X-55.0069 Y-11.5477 I1.1524 J-8.3305
G2 X-54.1108 Y-11.5593 I0.2978 J-11.6744
G1 X-54.0584 Y-11.5621
G2 X-52.3985 Y-11.7507 I-0.9607 J-15.8536
G1 X-52.2184 Y-11.781
G1 X-52.0415 Y-11.8124
G1 X-51.6939 Y-11.8782
G2 X-51.0234 Y-12.0196 I-9.5816 J-47.1225
G2 X-50.7103 Y-12.0912 I-2.6176 J-12.1532
G2 X-49.5036 Y-12.3949 I-10.7578 J-45.2981
G1 X-48.9785 Y-12.538
G1 X-48.917 Y-12.5552
G1 X-48.856 Y-12.5722
G2 X-46.9278 Y-13.1381 I-22.4859 J-80.1908
G1 X-46.2072 Y-13.3585
G1 X-46.1284 Y-13.3828
G1 X-45.5082 Y-13.5745
G1 X-43.3383 Y-14.2465
G1 X-42.2519 Y-14.5776
G3 X-42.1159 Y-14.6186 I1.8787 J5.987
G1 X-42.0564 Y-14.6365
G1 X-41.1634 Y-14.9022
G2 X-38.4909 Y-15.8007 I-9.9772 J-34.0989
G1 X-38.3462 Y-15.8561
G1 X-38.2028 Y-15.9116
G2 X-33.7976 Y-18.0077 I-12.0057 J-30.9083
G2 X-33.5974 Y-18.1234 I-2.891 J-5.2368
G2 X-33.4011 Y-18.2387 I-2.8934 J-5.1479
G1 X-33.2087 Y-18.3538
G1 X-33.02 Y-18.4685
G1 X-32.8351 Y-18.5829
G1 X-32.6538 Y-18.6969
G1 X-32.4761 Y-18.8104
G1 X-32.3019 Y-18.9236
G1 X-32.1312 Y-19.0362
G1 X-31.9639 Y-19.1484
G1 X-31.8 Y-19.26
G1 X-31.6393 Y-19.3712
G1 X-31.4819 Y-19.4817
G1 X-31.3276 Y-19.5917
G2 X-29.0145 Y-21.4749 I-13.7006 J-19.191
G2 X-28.6063 Y-21.8642 I-9.8819 J-10.7687
G2 X-27.1815 Y-23.4308 I-12.2599 J-12.5819
G2 X-26.9354 Y-23.7461 I-11.737 J-9.412
G2 X-26.0966 Y-24.9901 I-9.993 J-7.6435
G2 X-25.8226 Y-25.4847 I-8.1697 J-4.8486
G2 X-25.8083 Y-25.5123 I-0.1892 J-0.1152
G2 X-25.6986 Y-25.7323 I-3.9072 J-2.0859
G2 X-25.3428 Y-26.5831 I-7.1499 J-3.4897
G2 X-25.1461 Y-27.2479 I-5.9323 J-2.1172
G2 X-25.0034 Y-28.278 I-5.1084 J-1.2325
G2 X-25.1084 Y-29.3126 I-3.7954 J-0.1375
G0 Z5.0
G0 X-17.4657 Y-57.8138
G1 Z0.0
G2 X-17.6552 Y-57.086 I2.5739 J1.0587
G2 X-17.6577 Y-56.3934 I3.0041 J0.3573
G2 X-17.5361 Y-55.762 I3.8442 J-0.4132
G2 X-17.3375 Y-55.1959 I4.6105 J-1.2992
G2 X-16.8014 Y-54.2109 I5.5244 J-2.3682
G2 X-16.2026 Y-53.434 I6.068 J-4.0581
G2 X-13.4742 Y-51.3809 I6.3672 J-5.6219
G2 X-11.8317 Y-50.8469 I2.8867 J-6.0863
G2 X-10.9689 Y-50.761 I0.9398 J-5.0642
G2 X-10.1046 Y-50.8283 I0.0857 J-4.488
G0 Z5.0
G0 X-65.6362 Y-18.5636
G1 Z0.0
G2 X-63.4187 Y-18.4113 I2.3285 J-17.689
G1 X-63.2888 Y-18.4106
G2 X-61.2235 Y-18.5073 I-0.0201 J-22.5178
G2 X-60.2624 Y-18.6165 I-2.2525 J-24.1286
G2 X-58.416 Y-18.9278 I-3.5004 J-26.3919
G2 X-56.7079 Y-19.3236 I-6.9717 J-33.9636
G2 X-53.5679 Y-20.2877 I-10.1885 J-38.7806
G2 X-50.8883 Y-21.3208 I-17.1867 J-48.568
G2 X-48.5923 Y-22.3398 I-24.5687 J-58.4535
G2 X-48.0957 Y-22.575 I-17.4247 J-37.4306
G2 X-44.3105 Y-24.5231 I-32.8995 J-68.579
G1 X-44.1356 Y-24.6192
G2 X-41.408 Y-26.1802 I-50.3777 J-91.1907
G1 X-40.9017 Y-26.4817
G1 X-40.4284 Y-26.7665
G1 X-39.9858 Y-27.0354
G2 X-38.3343 Y-28.0572 I-106.7306 J-174.3413
G1 X-38.0259 Y-28.2508
G1 X-37.4485 Y-28.6152
G1 X-35.4317 Y-29.8966
G1 X-34.9266 Y-30.2155
G1 X-34.7368 Y-30.3345
G1 X-34.5704 Y-30.4382
G3 X-34.4246 Y-30.5287 I2.1695 J3.3341
G1 X-33.9123 Y-30.8416
G3 X-33.6543 Y-30.9951 I9.847 J16.2601
G3 X-33.6381 Y-31.0046 I0.0558 J0.0764
G3 X-33.3946 Y-31.1454 I4.295 J7.1449
G2 X-33.3287 Y-31.1512 I-0.0752 J-1.2374
G2 X-33.263 Y-31.1569 I-0.0759 J-1.2439
G1 X-32.2172 Y-31.2475
G1 X-31.7264 Y-31.2879
G3 X-29.8215 Y-31.4154 I5.4762 J67.5539
G1 X-29.4036 Y-31.4341
G1 X-28.9987 Y-31.448
G1 X-28.6061 Y-31.4572
G1 X-28.4158 Y-31.46
G1 X-28.2286 Y-31.4616
G1 X-28.0442 Y-31.4622
G3 X-26.593 Y-31.4238 I0.0295 J26.3302
G1 X-26.4344 Y-31.4146
G3 X-23.9511 Y-31.1191 I-1.2691 J21.2471
G3 X-20.3467 Y-30.093 I-3.3947 J18.7684
G3 X-19.4822 Y-29.7287 I-6.2436 J16.0266
G3 X-16.9971 Y-28.4123 I-9.3397 J20.6342
G1 X-16.9301 Y-27.4643
G1 X-16.8994 Y-27.0198
G1 X-16.8423 Y-26.1586
G1 X-16.7925 Y-25.3509
G3 X-16.7506 Y-24.5934 I-53.65 J3.3489
G1 X-16.7165 Y-23.883
G3 X-16.7129 Y-23.7997 I-0.9252 J0.082
G1 X-16.6993 Y-23.4692
G3 X-16.657 Y-22.1882 I-124.3626 J4.7424
G1 X-16.6304 Y-21.0671
G1 X-16.6116 Y-20.086
G1 X-16.5552 Y-16.6521
G1 X-16.5517 Y-16.4374
G1 X-16.4966 Y-13.2182
G0 Z5.0
G0 X11.5151 Y9.8119
G1 Z0.0
G3 X7.8152 Y8.7013 I19.9484 J-73.1747
G3 X7.4141 Y8.5684 I8.8892 J-27.5083
G1 X7.02 Y8.4356
G1 X6.2462 Y8.1684
G1 X5.8723 Y8.0363
G3 X4.4061 Y7.4997 I23.4352 J-66.3108
G3 X-1.0092 Y5.2768 I35.6805 J-94.6273
G3 X-4.9867 Y3.4183 I49.0649 J-110.1944
G3 X-7.9237 Y1.9299 I59.0323 J-120.128
G3 X-8.0605 Y1.8582 I2.2741 J-4.5061
G3 X-8.195 Y1.7875 I2.1638 J-4.2807
G3 X-8.3273 Y1.7178 I2.067 J-4.0825
G3 X-10.4006 Y0.5996 I52.3407 J-99.5292
G3 X-16.4987 Y-2.9696 I66.0367 J-119.8205
G0 Z5.0
G0 X-49.3541 Y5.4823
G1 Z0.0
G1 X-22.7188 Y-6.5829
G0 Z5.0
G0 X-50.8686 Y2.4074
G1 Z0.0
G1 X-51.4015 Y-11.69
G0 Z5.0
G0 X-50.4017 Y10.2933
G1 Z0.0
G1 X-19.4834 Y-3.8452
G0 Z5.0
M5
M30
G0 X-38.5121 Y13.0092
G1 F2000.0 Z0.0
G3 X-38.7307 Y12.9673 I0.0929 J-1.0764
G3 X-38.9405 Y12.893 I0.8598 J-2.7595
G3 X-39.3371 Y12.6932 I1.2764 J-3.0276
G3 X-40.0421 Y12.1609 I1.9566 J-3.3241
G3 X-40.4215 Y11.7098 I1.7599 J-1.8653
G3 X-40.5775 Y11.4094 I1.3214 J-0.8769
G3 X-40.6547 Y11.0256 I1.0316 J-0.4072
G3 X-40.5337 Y10.5777 I0.8665 J-0.0063
G3 X-40.3804 Y10.3732 I0.9046 J0.5186
G3 X-40.1732 Y10.1894 I1.159 J1.098
G3 X-39.9232 Y10.0285 I1.1934 J1.5789
G3 X-39.6403 Y9.8892 I1.3391 J2.3637
G3 X-38.9893 Y9.6625 I1.8882 J4.3747
G3 X-38.2533 Y9.4942 I2.3738 J8.6853
G1 X-38.0633 Y9.4606
G3 X-37.2523 Y9.3495 I2.1974 J13.0276
G1 X-37.0475 Y9.3283
G3 X-36.2156 Y9.2639 I2.079 J21.4662
G3 X-35.3611 Y9.2273 I1.373 J22.0651
G1 X-34.963 Y9.3576
G1 X-34.5661 Y9.4917
G1 X-34.3023 Y9.5833
G1 X-34.1517 Y9.6363
G3 X-32.9542 Y10.079 I-14.0074 J39.739
G1 X-32.7954 Y10.1403
G3 X-30.2791 Y11.1821 I-23.4892 J60.2897
G1 X-29.5676 Y11.4971
G3 X-27.6817 Y12.3621 I-46.157 J103.1249
G1 X-26.6089 Y12.8665
G1 X-26.0372 Y13.1368
G2 X-22.981 Y14.5602 I80.1292 J-168.05
G2 X-21.2143 Y15.3284 I24.2171 J-53.2802
G1 X-20.7543 Y15.517
G3 X-20.39 Y15.8646 I-3.0382 J3.5495
G3 X-20.0895 Y16.2687 I-1.5832 J1.4909
G3 X-19.9672 Y16.583 I-0.9299 J0.5427
G3 X-20.0171 Y17.0381 I-0.6824 J0.1555
G3 X-20.1715 Y17.2595 I-0.7847 J-0.3826
G3 X-20.4099 Y17.4572 I-1.0259 J-0.9943
G3 X-20.7154 Y17.626 I-1.4086 J-2.1895
G3 X-21.0784 Y17.7686 I-1.5622 J-3.4429
G3 X-21.9996 Y17.9921 I-1.9618 J-6.0764
G3 X-24.7675 Y18.1137 I-1.9058 J-11.8188
G3 X-25.5309 Y18.024 I0.5748 J-8.1901
G3 X-25.6267 Y18.0066 I0.2459 J-1.6236
G3 X-25.822 Y17.9646 I0.3958 J-2.3174
G3 X-25.9201 Y17.9394 I0.2368 J-1.1248
G3 X-26.1184 Y17.8759 I0.6144 J-2.2599
G1 X-26.3086 Y17.8008
G2 X-26.3359 Y17.7901 I-0.0899 J0.1884
G1 X-26.5535 Y17.7048
G2 X-26.5826 Y17.6934 I-0.0966 J0.2044
G1 X-27.0477 Y17.5129
G2 X-27.0777 Y17.5013 I-0.1056 J0.2289
G1 X-28.0397 Y17.1336
G1 X-28.1681 Y17.085
G1 X-28.3052 Y17.0331
G1 X-29.0362 Y16.7576
G1 X-31.9622 Y15.661
G1 X-32.1509 Y15.5899
G1 X-32.5533 Y15.438
G1 X-33.4723 Y15.0887
G3 X-35.9131 Y14.1325 I50.1055 J-131.4848
G3 X-36.2264 Y14.005 I4.7 J-12.0034
G1 X-36.893 Y13.7285
G3 X-37.2358 Y13.5828 I7.7466 J-18.7012
G3 X-37.5885 Y13.4298 I7.8465 J-18.5745
G1 X-37.7672 Y13.3509
G1 X-38.1348 Y13.1852
G1 X-38.5121 Y13.0092
G0 Z5.0
G0 X-11.2772 Y-15.6662
G1 Z0.0
G2 X-11.2687 Y-15.9532 I-11.6719 J-0.4893
G1 X-11.2582 Y-16.5094
G2 X-11.2564 Y-16.6399 I-2.2336 J-0.0968
G1 X-11.2505 Y-17.1533
G1 X-11.2463 Y-17.6346
G1 X-11.2363 Y-19.4396
G1 X-11.2336 Y-20.1165
G1 X-11.2229 Y-22.4854
G1 X-11.2129 Y-23.6699
G1 X-11.2043 Y-24.2621
G3 X-11.1884 Y-24.8542 I19.9789 J0.2383
G3 X-11.1575 Y-25.1543 I2.8372 J0.1407
G3 X-11.0912 Y-25.4142 I1.383 J0.2141
G3 X-10.9826 Y-25.6223 I0.8484 J0.3107
G3 X-10.653 Y-25.845 I0.4737 J0.3459
G3 X-10.3622 Y-25.8768 I0.2621 J1.0514
G3 X-10.144 Y-25.8608 I-0.0218 J1.7967
G1 X-9.9817 Y-25.8367
G3 X-9.7403 Y-25.7895 I-1.2543 J7.0466
G3 X-9.5004 Y-25.735 I-2.6005 J12.0151
G3 X-8.8414 Y-25.4997 I-5.5676 J16.6359
G1 X-8.5363 Y-25.3797
G1 X-8.2426 Y-25.259
G3 X-7.6778 Y-25.0151 I-15.6513 J37.0174
G1 X-7.4146 Y-24.897
G1 X-7.1606 Y-24.7808
G3 X-5.2118 Y-23.8377 I-31.4116 J67.3915
G3 X-3.7636 Y-23.1033 I-73.9115 J147.5533
G1 X-2.6791 Y-22.5491
G2 X-1.0446 Y-21.7324 I42.1911 J-82.3928
G1 X-0.8387 Y-21.6335
G1 X-0.658 Y-21.5479
G1 X-0.4995 Y-21.4739
G2 X-0.221 Y-21.3469 I3.6427 J-7.6167
G1 X-0.011 Y-21.2541
G2 X0.6279 Y-20.9969 I4.3217 J-9.8131
G0 Z5.0
G0 X6.3361 Y-42.4138
G1 Z0.0
G2 X6.6128 Y-41.0217 I3.725 J-0.0169
G2 X7.2466 Y-39.9844 I3.7264 J-1.5645
G2 X8.0011 Y-39.2504 I4.0631 J-3.4224
G2 X8.3686 Y-38.9755 I3.6926 J-4.5526
G2 X9.0992 Y-38.5236 I5.0411 J-7.3334
G1 X9.1816 Y-38.4787
G2 X10.5274 Y-37.8689 I5.4346 J-10.2027
G2 X10.5922 Y-37.8442 I0.2972 J-0.6845
G1 X10.8481 Y-37.7504
G2 X12.8098 Y-37.1784 I6.1644 J-17.4896
G1 X12.9342 Y-37.1492
G2 X13.051 Y-37.1225 I2.0663 J-8.7618
G2 X13.9303 Y-36.9395 I4.9907 J-21.7717
G1 X14.3719 Y-36.8579
G1 X14.8142 Y-36.7805
G0 Z5.0
G0 X18.0414 Y-43.8002
G1 Z0.0
G3 X18.0618 Y-43.8475 I0.2343 J0.0728
G3 X18.1551 Y-44.0305 I2.8887 J1.3567
G1 X18.2524 Y-44.2076
G1 X18.3504 Y-44.3807
G1 X18.3992 Y-44.4657
G3 X19.1912 Y-45.8025 I82.7188 J48.1086
G1 X19.5431 Y-46.3843
G1 X20.2067 Y-47.4726
G1 X20.7903 Y-48.4231
G1 X21.3025 Y-49.2538
G1 X21.7516 Y-49.9801
G1 X22.5392 Y-51.2501
G1 X22.6871 Y-51.4881
G1 X22.7565 Y-51.5997
G1 X23.8328 Y-53.3275
G1 X24.1024 Y-53.7593
G1 X24.9122 Y-55.0536
G0 Z5.0
G0 X24.9777 Y-55.1481
G1 Z0.0
G1 X24.3988 Y-55.5497
G2 X23.6002 Y-56.0928 I-23.3073 J33.41
G3 X23.0885 Y-56.3818 I1.9542 J-4.0571
G3 X22.8565 Y-56.5442 I1.823 J-2.8515
G3 X22.0263 Y-57.2838 I4.0403 J-5.3712
G3 X21.9369 Y-57.3784 I1.4345 J-1.4462
G3 X21.596 Y-57.7661 I6.1927 J-5.7881
G3 X20.9922 Y-58.5637 I8.6368 J-7.1667
G3 X20.4845 Y-59.354 I11.9695 J-8.2466
G1 X20.3727 Y-59.5444
G3 X20.1604 Y-59.9238 I16.6226 J-9.55
G3 X18.8374 Y-63.0225 I16.4493 J-8.8547
G3 X18.2124 Y-65.5104 I17.502 J-5.7199
G3 X18.1722 Y-65.7511 I9.5252 J-1.7146
G3 X17.9984 Y-67.6356 I13.7054 J-2.2136
G3 X18.0706 Y-69.069 I9.6439 J-0.2328
G3 X18.2866 Y-70.1323 I6.7942 J0.8264
G3 X18.57 Y-70.8993 I4.9881 J1.407
G3 X19.2384 Y-71.9272 I3.7284 J1.6933
G3 X20.2077 Y-72.678 I2.5495 J2.2902
G3 X21.0076 Y-72.7932 I1.3715 J6.693
G3 X21.2019 Y-72.8068 I0.3057 J2.9678
G1 X21.2983 Y-72.8118
G3 X22.8342 Y-72.7603 I0.4191 J10.4456
G1 X23.0127 Y-72.741
G3 X24.4187 Y-72.5136 I-1.775 J15.4306
G1 X24.7449 Y-72.4439
G3 X26.0173 Y-72.121 I-4.8273 J21.6862
G3 X27.1929 Y-71.758 I-7.0668 J24.9761
G3 X29.3537 Y-70.9515 I-10.2265 J30.6957
G3 X33.0013 Y-69.2242 I-15.46 J37.3632
G1 X33.3346 Y-69.044
G3 X34.6104 Y-68.3174 I-23.9567 J43.5472
G1 X34.8861 Y-68.1524
G3 X34.9527 Y-68.1121 I-0.5908 J1.0519
G3 X37.0244 Y-66.7664 I-19.337 J32.0357
G3 X38.5168 Y-65.6658 I-18.5399 J26.7016
G1 X38.7895 Y-65.4499
G3 X39.7885 Y-64.6109 I-15.6829 J19.6878
G3 X40.1522 Y-64.2834 I-20.2804 J22.8855
G3 X40.4647 Y-63.9906 I-7.7869 J8.6253
G1 X40.7334 Y-63.7295
G3 X41.1917 Y-63.2603 I-12.337 J12.5114
G1 X41.2758 Y-63.1706
G3 X42.4471 Y-61.7469 I-10.305 J9.672
G3 X42.4746 Y-61.7081 I-0.5951 J0.4507
G3 X43.9958 Y-59.092 I-14.0888 J9.9426
G3 X44.4552 Y-58.0049 I-14.2197 J6.6503
G3 X45.0447 Y-55.9896 I-12.0781 J4.6265
G3 X45.1747 Y-55.1817 I-8.7772 J1.8267
G3 X45.2097 Y-54.8202 I-7.2312 J0.8838
G3 X45.2309 Y-54.1358 I-8.0506 J0.5911
G3 X45.0831 Y-52.9359 I-5.3518 J-0.0498
G3 X44.7496 Y-52.0781 I-3.4021 J-0.8291
G3 X44.3343 Y-51.5227 I-2.2458 J-1.2463
G3 X43.4643 Y-50.9629 I-1.6987 J-1.6843
G3 X42.9635 Y-50.8267 I-1.0559 J-2.8936
G3 X42.4471 Y-50.774 I-0.6445 J-3.7577
G1 X42.0665 Y-50.8856
G1 X41.3283 Y-51.0996
G2 X41.1551 Y-51.1493 I-1.4194 J4.6233
G1 X40.4725 Y-51.3426
G2 X40.3923 Y-51.365 I-0.5514 J1.8173
G2 X40.3128 Y-51.3871 I-0.532 J1.7539
G2 X40.2339 Y-51.4091 I-0.5142 J1.6965
G1 X39.6073 Y-51.5809
G1 X39.0188 Y-51.738
G2 X38.4659 Y-51.8812 I-13.1386 J49.5842
G2 X38.2063 Y-51.9468 I-2.0976 J7.7486
G2 X36.1849 Y-52.4165 I-12.6679 J49.9356
G1 X35.8037 Y-52.4955
G1 X35.4458 Y-52.5665
G1 X35.1096 Y-52.6302
G2 X32.5708 Y-53.0017 I-5.8816 J31.3295
G1 X32.2514 Y-53.0325
G2 X30.0079 Y-53.1193 I-1.9173 J20.5031
G3 X28.2229 Y-53.379 I-0.0925 J-5.6282
G3 X26.98 Y-53.8965 I2.32 J-7.3245
G1 X26.7573 Y-54.0148
G1 X26.5511 Y-54.1303
G3 X25.7961 Y-54.5945 I8.4976 J-14.6658
G1 X25.7266 Y-54.64
G3 X25.1923 Y-54.9993 I14.532 J-22.1809
G1 X24.9777 Y-55.1481
G0 Z5.0
G0 X11.2302 Y-46.1692
G1 Z0.0
G3 X11.5255 Y-46.5598 I6.5669 J4.6586
G3 X11.819 Y-46.9325 I39.2529 J30.604
G1 X12.1048 Y-47.2923
G1 X13.2179 Y-48.6824
G1 X14.1951 Y-49.8961
G1 X14.4092 Y-50.1614
G1 X16.0695 Y-52.216
G1 X16.3812 Y-52.601
G1 X17.5503 Y-54.0443
G3 X21.062 Y-58.3706 I1551.4199 J1255.7055
G0 Z5.0
G0 X22.1161 Y-31.0776
G1 Z0.0
G2 X21.3117 Y-32.0468 I-6.6462 J4.6976
G2 X21.2159 Y-32.1454 I-2.1195 J1.9626
G2 X21.1204 Y-32.2413 I-1.6899 J1.5889
G2 X20.7335 Y-32.6074 I-8.2283 J8.3085
G2 X20.3575 Y-32.9358 I-11.4354 J12.7129
G2 X19.6263 Y-33.5195 I-10.5299 J12.4397
G2 X19.2982 Y-33.7643 I-8.6673 J11.2756
G1 X19.1431 Y-33.8772
G2 X19.0676 Y-33.9316 I-1.9932 J2.6872
G1 X18.7692 Y-34.1434
G1 X18.4875 Y-34.3393
G1 X17.956 Y-34.7019
G1 X17.0219 Y-35.3312
G1 X16.9344 Y-35.3906
G1 X16.8498 Y-35.4482
G3 X16.1984 Y-35.9012 I16.5476 J-24.4886
G3 X15.7184 Y-36.2534 I22.3059 J-30.9039
G3 X15.0249 Y-36.8162 I7.0786 J-9.4308
G3 X14.3928 Y-37.4471 I4.396 J-5.0367
G3 X14.5827 Y-37.8846 I27.8118 J11.8108
G3 X15.2834 Y-39.3999 I35.6813 J15.5801
G1 X15.469 Y-39.7737
G1 X15.6116 Y-40.0525
G3 X16.0644 Y-40.8753 I14.0561 J7.1992
G0 Z5.0
G0 X-38.4798 Y-71.4815
G1 Z0.0
G1 X-38.8269 Y-71.8171
G2 X-44.5026 Y-76.8771 I-67.2383 J69.7067
G1 X-45.0596 Y-77.3303
G1 X-45.6033 Y-77.765
G1 X-46.134 Y-78.1817
G2 X-46.3926 Y-78.382 I-7.3744 J9.2514
G1 X-46.9043 Y-78.7731
G1 X-47.4037 Y-79.1479
G2 X-49.3727 Y-80.5562 I-36.4693 J48.9082
G2 X-49.592 Y-80.706 I-5.9563 J8.4882
G2 X-51.3443 Y-81.8478 I-28.3246 J41.5529
G2 X-54.5377 Y-83.6529 I-21.4868 J34.2842
G1 X-54.8472 Y-83.8067
G2 X-56.063 Y-84.3705 I-13.3958 J27.2962
G2 X-57.1498 Y-84.8159 I-10.6436 J24.4224
G2 X-58.119 Y-85.1619 I-6.9783 J18.0171
G2 X-58.9812 Y-85.4253 I-6.052 J18.2698
G2 X-60.5198 Y-85.7786 I-4.5092 J16.1102
G2 X-61.6954 Y-85.9331 I-2.393 J13.6541
G2 X-63.4738 Y-85.9365 I-0.9085 J10.2427
G2 X-64.3558 Y-85.8139 I0.8317 J9.2203
G2 X-64.7908 Y-85.7176 I1.4035 J7.3683
G2 X-65.2196 Y-85.5968 I1.4026 J5.8018
G0 Z5.0
G0 X-58.1752 Y-72.6021
G1 Z0.0
G3 X-59.2872 Y-73.174 I2.855 J-6.9187
G3 X-60.2415 Y-73.8559 I4.7579 J-7.6666
G3 X-61.0598 Y-74.5955 I6.3813 J-7.8833
G3 X-62.4042 Y-76.1779 I9.4053 J-9.3525
G3 X-63.3945 Y-77.7296 I12.3805 J-8.9932
G3 X-64.7027 Y-80.7211 I14.7721 J-8.2419
G3 X-65.0444 Y-81.9438 I13.6419 J-4.4717
G3 X-65.3669 Y-84.1725 I12.0609 J-2.8831
G3 X-65.3683 Y-85.0419 I9.2115 J-0.4495
G3 X-65.2953 Y-85.806 I7.5821 J0.3391
G3 X-65.1612 Y-86.4688 I6.7032 J1.0111
G3 X-64.7278 Y-87.5733 I4.5899 J1.164
G3 X-64.2025 Y-88.2971 I3.1821 J1.7569
G3 X-63.106 Y-89.0588 I2.3494 J2.2117
G3 X-62.4681 Y-89.2631 I1.446 J3.4171
G3 X-61.8053 Y-89.3598 I1.0109 J4.6097
G3 X-60.3712 Y-89.2403 I-0.6787 J16.8025
G3 X-57.7374 Y-88.6902 I-2.2264 J17.2398
G3 X-55.5254 Y-87.9045 I-5.7749 J19.7663
G3 X-55.4073 Y-87.8545 I-0.7534 J1.9416
G3 X-55.2905 Y-87.8042 I-0.764 J1.9346
G3 X-53.4751 Y-86.9219 I-10.1313 J23.1573
G3 X-53.088 Y-86.71 I-6.133 J11.6585
G3 X-51.6206 Y-85.8333 I-14.7919 J26.4249
G3 X-49.1661 Y-84.1264 I-20.2978 J31.8066
G3 X-48.72 Y-83.7872 I-26.2643 J34.9982
G3 X-47.0786 Y-82.4751 I-39.3745 J50.9389
G3 X-47.0406 Y-82.4436 I-0.2925 J0.3926
G3 X-47.0029 Y-82.4124 I-0.2902 J0.3889
G3 X-46.9656 Y-82.3815 I-0.2878 J0.3854
G3 X-46.9285 Y-82.3507 I-0.2855 J0.3818
G3 X-46.8917 Y-82.3202 I-0.2833 J0.3784
G3 X-46.8553 Y-82.2898 I-0.281 J0.375
G3 X-44.5667 Y-80.3393 I-113.5913 J135.5933
G1 X-44.4955 Y-80.278
G2 X-43.3863 Y-79.3339 I100.4034 J-116.8286
G2 X-42.2537 Y-78.4181 I25.3878 J-30.2404
G3 X-41.0557 Y-77.3582 I-6.9299 J9.0399
G3 X-40.1472 Y-76.291 I-6.8892 J6.7847
G3 X-38.4622 Y-71.7478 I-7.0326 J5.1923
G3 X-38.5709 Y-69.3108 I-10.1737 J0.7672
G3 X-38.6863 Y-68.7105 I-10.7713 J-1.7597
G3 X-38.7382 Y-68.4873 I-5.2197 J-1.0952
G1 X-38.7502 Y-68.4385
G1 X-38.762 Y-68.3914
G3 X-38.9725 Y-67.6685 I-9.708 J-2.4344
G3 X-39.2415 Y-66.9653 I-7.1697 J-2.3399
G0 Z5.0
M5
M30
G0 X-23.9288 Y6.1058
G1 F2000.0 Z0.0
G3 X-24.1475 Y6.064 I0.0926 J-1.0773
G3 X-24.3573 Y5.9897 I0.8479 J-2.7282
G3 X-24.7539 Y5.79 I1.2659 J-3.0081
G3 X-25.459 Y5.2577 I1.951 J-3.3171
G3 X-25.8385 Y4.8065 I1.7579 J-1.8637
G3 X-25.9944 Y4.5061 I1.3172 J-0.8745
G3 X-26.0716 Y4.1223 I1.0298 J-0.4067
G3 X-25.9506 Y3.6743 I0.8661 J-0.0063
G3 X-25.7973 Y3.4699 I0.906 J0.5197
G3 X-25.59 Y3.286 I1.1617 J1.1009
G3 X-25.3401 Y3.1251 I1.1968 J1.5841
G3 X-25.0571 Y2.9858 I1.3475 J2.3805
G3 X-24.4062 Y2.7591 I1.8937 J4.3894
G3 X-23.6702 Y2.5907 I2.3955 J8.7784
G1 X-23.4802 Y2.5571
G3 X-22.6692 Y2.446 I2.2072 J13.0952
G1 X-22.4644 Y2.4248
G3 X-21.6325 Y2.3604 I2.0998 J21.7259
G3 X-20.7781 Y2.3238 I1.3844 J22.3143
G3 X-19.0074 Y2.9663 I-7.7596 J24.1437
G1 X-18.7582 Y3.0679
G1 X-18.4745 Y3.1867
G3 X-17.7235 Y3.5164 I-11.0993 J26.3057
G1 X-17.2979 Y3.7125
G3 X-16.8143 Y3.9428 I-17.2589 J36.8501
G3 X-15.5386 Y4.5847 I-26.3647 J53.9848
G1 X-15.3753 Y4.6701
G1 X-15.2069 Y4.7587
G1 X-15.0334 Y4.8506
G1 X-14.8547 Y4.9461
G1 X-14.4742 Y5.1513
G3 X-12.4593 Y6.271 I-73.9606 J135.4612
G1 X-11.3117 Y6.9171
G1 X-10.6984 Y7.2593
G1 X-10.042 Y7.6201
G2 X-8.5271 Y8.4173 I27.426 J-50.2829
G1 X-8.1316 Y8.6141
G2 X-6.2895 Y9.4431 I12.2436 J-24.7457
G3 X-6.1474 Y9.5692 I-1.6097 J1.9557
G3 X-6.0113 Y9.7017 I-2.2086 J2.4045
G3 X-5.765 Y9.9907 I-2.0835 J2.025
G3 X-5.6313 Y10.2062 I-1.6919 J1.1994
G3 X-5.5235 Y10.5278 I-0.9189 J0.4869
G3 X-5.6038 Y10.9816 I-0.7115 J0.1081
G3 X-5.7666 Y11.1977 I-0.8793 J-0.493
G3 X-6.0061 Y11.3928 I-1.1061 J-1.1132
G3 X-6.3092 Y11.5634 I-1.2586 J-1.8821
G3 X-7.1284 Y11.852 I-1.9459 J-4.2171
G3 X-8.1384 Y12.048 I-2.1457 J-8.354
G3 X-8.6919 Y12.1114 I-1.3217 J-9.0965
G3 X-8.762 Y12.1176 I-0.127 J-1.0325
G1 X-9.0545 Y12.1395
G1 X-9.3604 Y12.1556
G3 X-10.8661 Y12.1302 I-0.5427 J-12.467
G3 X-11.6971 Y12.0109 I0.4447 J-6.0556
G3 X-11.9059 Y11.9556 I1.0983 J-4.5602
G1 X-12.0095 Y11.9201
G3 X-13.8406 Y11.1371 I15.8452 J-39.5852
G1 X-14.4437 Y10.8598
G3 X-16.8332 Y9.7025 I39.1207 J-83.819
G3 X-17.5112 Y9.3621 I28.0548 J-56.7285
G1 X-18.2842 Y8.9698
G1 X-19.1661 Y8.5184
G1 X-20.1728 Y8.0003
G1 X-20.3007 Y7.9344
G1 X-21.4697 Y7.3333
G1 X-21.6183 Y7.2572
G2 X-22.9802 Y6.5686 I-67.9994 J132.7922
G1 X-23.3333 Y6.394
G1 X-23.3777 Y6.3722
G1 X-23.5582 Y6.2841
G1 X-23.7419 Y6.1952
G1 X-23.9288 Y6.1058
G0 Z5.0
G0 X-26.9247 Y-0.4147
G1 Z0.0
G1 X-50.4048 Y10.3737
G3 X-50.8501 Y10.0924 I7.2869 J-12.03
G1 X-50.904 Y10.0565
G3 X-52.5263 Y8.7798 I8.1217 J-11.9903
G3 X-53.888 Y7.4157 I13.1783 J-14.5165
G3 X-54.1878 Y7.079 I13.1626 J-12.0203
G3 X-54.2606 Y6.9952 I2.3527 J-2.1179
G3 X-54.8269 Y6.3166 I17.3389 J-15.0439
G1 X-54.8939 Y6.2331
G3 X-55.9186 Y4.8711 I23.5911 J-18.8158
G3 X-56.8131 Y3.5481 I26.9626 J-19.1931
G1 X-57.0143 Y3.2326
G3 X-58.5015 Y0.69 I39.9258 J-25.0584
G3 X-59.6775 Y-1.6025 I51.5971 J-27.9151
G1 X-59.9209 Y-2.1108
G3 X-60.8218 Y-4.0999 I54.199 J-25.7439
G1 X-60.8692 Y-4.2096
G1 X-60.9161 Y-4.3185
G1 X-61.1002 Y-4.7512
G3 X-62.4343 Y-8.1418 I71.786 J-30.2048
G1 X-62.6672 Y-8.7842
G3 X-63.4945 Y-11.2089 I83.8565 J-29.9655
G1 X-63.5684 Y-11.4374
G3 X-65.5661 Y-18.6084 I90.3628 J-29.0358
G2 X-65.4285 Y-18.593 I0.3636 J-2.6218
G2 X-63.2283 Y-18.4725 I2.2651 J-21.2149
G2 X-61.1704 Y-18.5593 I0.0605 J-23.0084
G1 X-60.9304 Y-18.5811
G1 X-60.6925 Y-18.605
G1 X-60.4568 Y-18.6308
G2 X-56.7582 Y-19.3104 I-3.3623 J-28.7043
G2 X-55.9638 Y-19.5188 I-7.5422 J-30.3694
G1 X-55.5809 Y-19.6266
G1 X-55.2054 Y-19.7368
G1 X-54.8369 Y-19.8492
G1 X-54.4754 Y-19.9636
G1 X-54.1207 Y-20.0797
G2 X-51.3667 Y-21.1042 I-14.1472 J-42.243
G2 X-51.2924 Y-21.1347 I-0.7751 J-1.9922
G2 X-51.2185 Y-21.1652 I-0.7602 J-1.9462
G2 X-51.1449 Y-21.1958 I-0.746 J-1.9027
G2 X-48.8247 Y-22.2283 I-19.568 J-47.0929
G2 X-46.8345 Y-23.2151 I-25.3033 J-53.533
G2 X-43.4304 Y-25.0908 I-35.8775 J-69.1379
G1 X-43.1158 Y-25.2747
G1 X-42.5083 Y-25.6341
G1 X-41.9409 Y-25.9748
G1 X-41.4108 Y-26.2971
G2 X-41.1628 Y-26.4491 I-15.8092 J-26.0682
G2 X-40.9229 Y-26.5969 I-4.9291 J-8.2709
G1 X-39.996 Y-27.1738
G1 X-39.5916 Y-27.428
G1 X-39.213 Y-27.6672
G1 X-38.5042 Y-28.1174
G1 X-37.8847 Y-28.5124
G3 X-35.7116 Y-29.8873 I96.6339 J150.3253
G1 X-35.4379 Y-30.0562
G1 X-34.957 Y-30.3481
G3 X-34.5939 Y-30.5631 I12.3464 J20.4368
G1 X-34.3198 Y-30.7214
G3 X-33.905 Y-30.9524 I7.7336 J13.3967
G1 X-33.6956 Y-31.0642
G1 X-33.6429 Y-31.0916
G1 X-33.6033 Y-31.1121
G1 X-33.4844 Y-31.1727
G3 X-32.9628 Y-31.2576 I12.6805 J76.2063
G3 X-30.9306 Y-31.509 I4.839 J30.7797
G3 X-29.1406 Y-31.6141 I2.4287 J26.0821
G3 X-26.0057 Y-31.4893 I0.6425 J23.3086
G3 X-21.4223 Y-30.4513 I-2.2293 J20.4815
G1 X-21.1453 Y-30.3524
G3 X-19.1114 Y-29.501 I-8.4563 J23.0565
G3 X-17.1505 Y-28.4925 I-13.8667 J29.3704
G1 X-16.4804 Y-13.4152
G1 X-19.9151 Y-11.5726
G2 X-20.297 Y-11.373 I1.1842 J2.7319
G2 X-20.8465 Y-10.8636 I1.033 J1.6651
G2 X-21.1031 Y-10.3685 I1.6167 J1.1523
G2 X-21.2151 Y-9.9669 I2.6152 J0.9455
G1 X-21.244 Y-9.8133
G1 X-21.2648 Y-9.6781
G2 X-21.293 Y-9.4405 I3.4707 J0.5321
G2 X-21.3388 Y-8.7244 I13.6183 J1.2312
G1 X-21.2876 Y-8.5201
G2 X-20.8447 Y-7.0044 I23.4534 J-6.0313
G2 X-20.5767 Y-6.2611 I14.5505 J-4.8252
G2 X-20.4236 Y-5.8968 I12.4394 J-5.0138
G2 X-20.25 Y-5.5417 I4.7757 J-2.1151
G3 X-19.8226 Y-4.7083 I-23.8556 J12.7596
G1 X-19.6159 Y-4.2881
G3 X-19.5902 Y-4.2354 I-1.1739 J0.6044
G1 X-19.5454 Y-4.1433
G1 X-19.4121 Y-3.8665
G1 X-26.9247 Y-0.4147
G0 Z5.0
G0 X-0.2722 Y28.8016
G1 Z0.0
G1 X11.4964 Y24.6134
G1 X28.4586 Y24.6972
G1 X19.2865 Y28.0892
G1 X13.4582 Y28.3086
G1 X7.6297 Y28.5252
G1 X3.744 Y28.6666
G1 X1.5235 Y28.7448
G1 X0.3392 Y28.7841
G1 X-0.2722 Y28.8016
G0 Z5.0
G0 X16.5641 Y23.0218
G1 Z0.0
G3 X17.1784 Y22.633 I2.8143 J3.7671
G3 X17.8448 Y22.3424 I2.5498 J4.9375
G1 X18.3005 Y22.1777
G2 X18.9066 Y21.9564 I-8.3503 J-23.8146
G1 X19.2503 Y21.8233
G2 X20.1549 Y21.4424 I-9.5198 J-23.8674
G2 X21.3386 Y20.8859 I-12.0244 J-27.1178
G1 X21.743 Y20.6853
G1 X22.1457 Y20.4813
G1 X22.2605 Y20.4223
G1 X22.5656 Y20.2635
G2 X23.7726 Y19.603 I-19.2431 J-36.5981
G2 X24.5615 Y19.135 I-19.0007 J-32.9247
G1 X24.7692 Y19.0055
G2 X25.8484 Y18.2722 I-9.3328 J-14.897
G2 X26.4341 Y17.8099 I-6.0543 J-8.2717
G2 X27.0528 Y17.2215 I-4.4885 J-5.3398
G2 X27.3433 Y16.8692 I-2.7772 J-2.5855
G2 X27.595 Y16.4487 I-1.998 J-1.4817
G2 X27.6836 Y16.2094 I-1.4193 J-0.6617
G2 X27.7261 Y15.9451 I-1.1322 J-0.3174
G2 X27.5376 Y15.3576 I-0.8889 J-0.0387
G2 X27.2871 Y15.119 I-0.9102 J0.7046
G2 X26.9506 Y14.9386 I-0.8418 J1.1662
G1 X28.0543 Y14.389
G1 X29.1601 Y13.8435
G1 X29.3077 Y13.771
G1 X30.0953 Y13.3858
G1 X31.147 Y12.8753
G3 X32.5524 Y12.2011 I88.4947 J182.6688
G1 X33.3574 Y11.8198
G3 X35.5134 Y10.8229 I70.0843 J148.7428
G1 X35.6509 Y10.7609
G1 X36.2387 Y10.499
G1 X36.5429 Y10.3656
G1 X36.8576 Y10.2296
G3 X38.311 Y9.6426 I11.6998 J26.8768
G3 X38.4986 Y9.5757 I2.435 J6.5309
G1 X38.6904 Y9.5115
G3 X38.8873 Y9.4523 I1.0032 J2.9772
G1 X38.9719 Y9.6247
G1 X39.0583 Y9.7962
G1 X39.2352 Y10.1372
G1 X39.5953 Y10.8157
G3 X39.8319 Y11.2699 I-54.8802 J28.8812
G1 X39.9632 Y11.5315
G1 X40.1078 Y11.8331
G3 X40.4518 Y12.6563 I-8.5941 J4.0744
G3 X40.7578 Y13.8077 I-5.8863 J2.1807
G3 X40.8167 Y14.4885 I-4.9634 J0.7725
G3 X40.4522 Y16.2868 I-4.3926 J0.0459
G3 X39.9436 Y17.2156 I-5.2902 J-2.2936
G3 X39.1916 Y18.1636 I-6.3949 J-4.3004
G3 X39.0868 Y18.2761 I-5.1 J-4.6483
G3 X38.6226 Y18.7372 I-8.4023 J-7.9943
G3 X38.1025 Y19.1991 I-9.4752 J-10.1451
G1 X37.9669 Y19.3121
G3 X36.6892 Y20.2695 I-11.3988 J-13.8826
G3 X35.9834 Y20.7365 I-11.7001 J-16.9139
G1 X35.6145 Y20.9676
G3 X35.2317 Y21.1995 I-11.8114 J-19.0702
G3 X35.1347 Y21.257 I-0.9012 J-1.4085
G3 X33.3687 Y22.235 I-20.2357 J-34.4596
G3 X31.3482 Y23.2313 I-22.8262 J-43.7411
G3 X31.1281 Y23.3063 I-0.4964 J-1.0967
G1 X31.0526 Y23.3245
G1 X30.9513 Y23.3455
G3 X30.5429 Y23.4059 I-1.0351 J-5.5872
G3 X29.7213 Y23.4701 I-1.4392 J-13.1344
G3 X29.1727 Y23.4916 I-0.8841 J-15.5613
G3 X28.4414 Y23.5049 I-0.9342 J-31.2224
G3 X28.4183 Y23.5051 I-0.013 J-0.1628
G3 X28.395 Y23.5053 I-0.013 J-0.1643
G3 X28.3716 Y23.5055 I-0.013 J-0.1659
G1 X27.9438 Y23.5068
G1 X27.4551 Y23.5044
G3 X27.4242 Y23.5041 I-0.0133 J-0.2359
G1 X26.8615 Y23.4968
G1 X26.5614 Y23.4913
G1 X26.2413 Y23.4844
G3 X24.5361 Y23.4321 I2.4572 J-108.0076
G1 X23.5621 Y23.3931
G1 X23.0428 Y23.3702
G3 X21.8564 Y23.3132 I12.5267 J-272.7826
G1 X20.501 Y23.2413
G1 X20.3289 Y23.2317
G1 X19.5947 Y23.19
G1 X18.8117 Y23.1442
G1 X17.0225 Y23.0389
G2 X16.7952 Y23.0272 I-0.4229 J6.0289
G2 X16.5641 Y23.0218 I-0.1878 J3.0628
G0 Z5.0
G0 X2.5491 Y-46.0837
G1 Z0.0
G1 X2.722 Y-45.8818
G2 X3.4124 Y-45.1115 I20.5493 J-17.7255
G2 X4.0566 Y-44.4519 I12.7164 J-11.7747
G2 X4.075 Y-44.434 I0.1348 J-0.12
G2 X4.0934 Y-44.4162 I0.1341 J-0.1197
G2 X4.1117 Y-44.3984 I0.1333 J-0.1194
G2 X4.7113 Y-43.8493 I10.9468 J-11.351
G2 X5.2735 Y-43.3948 I8.2484 J-9.6281
G2 X5.8008 Y-43.0294 I4.2105 J-5.5131
G2 X6.2938 Y-42.7487 I3.2966 J-5.2162
G2 X6.752 Y-42.5479 I1.9871 J-3.9109
G2 X7.1732 Y-42.4212 I1.1853 J-3.1784
G2 X7.9398 Y-42.3581 I0.5905 J-2.4848
G2 X9.0189 Y-42.7368 I-0.1754 J-2.2269
G2 X9.4633 Y-43.0996 I-1.7086 J-2.546
G2 X9.6603 Y-43.3084 I-2.3288 J-2.3955
G2 X9.7531 Y-43.4179 I-2.1129 J-1.8834
G2 X9.8422 Y-43.5304 I-1.6035 J-1.363
G0 Z5.0
G0 X-77.39 Y-59.5343
G1 Z0.0
G3 X-77.4793 Y-59.1059 I-8.8954 J-1.632
G3 X-77.9261 Y-57.692 I-10.4669 J-2.5296
G3 X-78.4607 Y-56.5083 I-12.3664 J-4.8726
G3 X-79.0184 Y-55.5156 I-13.3627 J-6.8536
G3 X-80.1704 Y-53.8863 I-12.8836 J-7.8878
G3 X-80.6591 Y-53.3145 I-10.2514 J-8.2673
G1 X-80.8828 Y-53.0723
G3 X-81.0981 Y-52.8502 I-5.4497 J-5.0654
G3 X-81.9543 Y-52.067 I-7.7592 J-7.6243
G3 X-82.653 Y-51.5435 I-5.5488 J-6.6767
G3 X-82.9288 Y-51.3656 I-2.8174 J-4.0646
G3 X-83.4305 Y-51.0853 I-3.2162 J-5.1679
G3 X-84.2304 Y-50.7634 I-2.2399 J-4.4108
G3 X-84.6508 Y-50.6634 I-1.0083 J-3.3041
G3 X-85.0804 Y-50.6183 I-0.54 J-3.0747
G1 X-85.1148 Y-50.6261
G3 X-85.6532 Y-50.7897 I0.9623 J-4.1349
G1 X-85.7797 Y-50.8386
G1 X-85.9038 Y-50.8901
G3 X-86.8457 Y-51.3871 I2.8923 J-6.6227
G3 X-87.6636 Y-51.9538 I5.2307 J-8.4224
G3 X-89.062 Y-53.1832 I8.805 J-11.4266
G3 X-90.1652 Y-54.3814 I13.543 J-13.5752
G3 X-93.2423 Y-59.1645 I17.0369 J-14.3418
G3 X-93.2803 Y-59.2454 I1.2047 J-0.6144
G3 X-93.3173 Y-59.3253 I1.1559 J-0.5845
G3 X-94.2856 Y-61.9184 I16.2229 J-7.5349
G3 X-94.4588 Y-62.5897 I11.6047 J-3.3521
G3 X-94.5153 Y-62.8435 I6.037 J-1.4783
G3 X-94.6735 Y-63.7395 I12.3504 J-2.643
G1 X-94.7027 Y-63.9651
G3 X-94.7077 Y-64.0075 I0.4376 J-0.0729
G3 X-94.7628 Y-64.6449 I9.5426 J-1.1465
G1 X-94.2423 Y-64.7536
G3 X-90.1769 Y-65.4432 I11.7644 J57.0227
G1 X-89.7904 Y-65.4922
G3 X-86.7809 Y-65.7485 I4.7596 J38.1002
G3 X-84.5 Y-65.7525 I1.1872 J26.5729
G3 X-82.7864 Y-65.5975 I-0.7546 J17.8954
G3 X-81.5133 Y-65.3536 I-1.6383 J11.9932
G3 X-80.5794 Y-65.073 I-2.4521 J9.8569
G3 X-79.9022 Y-64.7928 I-2.6676 J7.4055
G3 X-78.9553 Y-64.2349 I-2.4984 J5.3233
G3 X-78.1503 Y-63.4867 I-2.6797 J3.6905
G3 X-77.5979 Y-62.5749 I-2.7284 J2.2761
G3 X-77.3329 Y-61.6331 I-3.7387 J1.56
G3 X-77.2684 Y-60.728 I-5.2563 J0.8298
G3 X-77.3329 Y-59.8841 I-6.3542 J-0.0613
G3 X-77.39 Y-59.5343 I-8.9525 J-1.2822
G0 Z5.0
G0 X-79.4258 Y-64.8092
G1 Z0.0
G3 X-78.83 Y-65.0217 I7.3214 J19.5849
G3 X-77.6004 Y-65.4087 I7.2643 J20.934
G3 X-76.3179 Y-65.7209 I4.569 J15.9777
G1 X-76.0088 Y-65.7788
G1 X-75.8564 Y-65.8044
G3 X-74.6379 Y-65.9256 I1.5246 J9.1391
G3 X-74.0704 Y-65.916 I0.1875 J5.6646
G3 X-73.8013 Y-65.8911 I-0.1962 J3.5857
G3 X-73.2855 Y-65.7944 I-0.4033 J3.5768
G3 X-72.8225 Y-65.6295 I-0.7104 J2.726
G3 X-72.4317 Y-65.3926 I-0.9227 J1.9632
G3 X-71.9248 Y-64.7225 I-0.9706 J1.2609
G3 X-71.796 Y-63.9955 I-1.7866 J0.6915
G3 X-71.8804 Y-63.3257 I-3.0706 J-0.0468
G3 X-72.0697 Y-62.7279 I-4.0188 J-0.9438
G3 X-72.5994 Y-61.6846 I-6.1321 J-2.4571
G3 X-72.7363 Y-61.4691 I-17.5172 J-10.9803
G3 X-73.0182 Y-61.0628 I-10.0843 J-6.6957
G3 X-73.5956 Y-60.338 I-9.601 J-7.0552
G3 X-73.8647 Y-60.035 I-12.5406 J-10.8701
G3 X-73.9291 Y-59.9652 I-0.883 J-0.7493
G3 X-74.4515 Y-59.4302 I-9.6017 J-8.8528
G3 X-74.9288 Y-58.9829 I-12.3958 J-12.7512
G3 X-75.8031 Y-58.2442 I-12.1303 J-13.4695
G3 X-76.487 Y-57.7252 I-15.0629 J-19.1367
G3 X-78.6558 Y-56.3392 I-12.9586 J-17.888
G0 Z5.0
G0 X-90.9415 Y-54.5875
G1 Z0.0
G2 X-91.5783 Y-53.5354 I3.9734 J3.1235
G2 X-91.9237 Y-52.4818 I4.515 J2.0636
G2 X-91.995 Y-51.9844 I4.0262 J0.8313
G2 X-91.9986 Y-51.5121 I2.9926 J0.2586
G2 X-91.9302 Y-51.078 I2.5466 J-0.1787
G2 X-91.7882 Y-50.6984 I1.8671 J-0.4821
G2 X-91.2972 Y-50.1496 I1.2481 J-0.6226
G2 X-90.7198 Y-49.9263 I0.8648 J-1.3779
G2 X-90.1876 Y-49.8883 I0.4338 J-2.328
G2 X-89.7252 Y-49.9345 I-0.1374 J-3.7107
G2 X-88.9376 Y-50.1291 I-0.993 J-5.71
G1 X-88.7933 Y-50.1772
G2 X-88.726 Y-50.2007 I-0.354 J-1.1189
G2 X-87.7096 Y-50.632 I-3.545 J-9.7667
G2 X-87.4626 Y-50.7553 I-3.1692 J-6.6597
G2 X-87.3706 Y-50.8028 I-1.1247 J-2.2906
G1 X-87.3305 Y-50.8238
G1 X-87.0315 Y-50.985
G2 X-86.7359 Y-51.1523 I-4.1301 J-7.6415
G0 Z5.0
M5
M30



