( Made using CamBam - http://www.cambam.co.uk )
( Plane_3Mx3M(A3) 1/20/2014 2:53:55 PM )
( T0 : 0.0 )
G21 G90 G64 G40
G0 Z5.0
( T0 : 0.0 )
T0 M6
( 21-30 )
G17
M3 S1000
G0 X166.8857 Y-55.9421
G1 F2000.0 Z0.0
G1 X83.4903 Y-16.8506
G0 Z5.0
G0 X88.9395 Y-13.5338
G1 Z0.0
G2 X84.276 Y-16.2991 I-57.6798 J91.9594
G1 X83.6782 Y-16.6272
G2 X83.4152 Y-16.7689 I-4.7943 J8.5866
G1 X82.9197 Y-17.0306
G2 X82.043 Y-17.4733 I-14.7181 J28.0589
G1 X81.7094 Y-17.633
G1 X81.4149 Y-17.7688
G1 X81.2851 Y-17.8269
G2 X80.7933 Y-18.0347 I-4.8241 J10.7333
G1 X80.6055 Y-18.1076
G2 X79.9315 Y-18.322 I-2.0858 J5.3907
G2 X79.573 Y-18.3778 I-0.4675 J1.8244
G2 X79.3873 Y-18.365 I-0.0437 J0.7206
G2 X79.2983 Y-18.3331 I0.057 J0.2993
G2 X79.2259 Y-18.2722 I0.0988 J0.1909
G3 X79.1154 Y-18.1873 I-0.3567 J-0.3498
G3 X78.6322 Y-17.9158 I-3.5802 J-5.8069
G1 X78.3883 Y-17.7891
G1 X77.8994 Y-17.5425
G1 X77.4122 Y-17.3023
G1 X76.9274 Y-17.0667
G1 X75.9629 Y-16.6044
G1 X75.0114 Y-16.1538
G1 X74.0733 Y-15.7132
G1 X72.2238 Y-14.8518
G1 X71.327 Y-14.4366
G1 X71.2717 Y-14.411
G1 X69.5064 Y-13.5974
G1 X69.0786 Y-13.4008
G3 X68.9724 Y-13.3521 I-1.7059 J-3.5746
G1 X67.2774 Y-12.5751
G1 X63.9906 Y-11.0753
G1 X60.907 Y-9.6742
G1 X58.0147 Y-8.3639
G1 X56.6584 Y-7.7506
G1 X54.0301 Y-6.5639
G1 X52.7978 Y-6.0081
G1 X50.4098 Y-4.9324
G1 X45.9311 Y-2.9183
G1 X43.9711 Y-2.0383
G1 X42.1334 Y-1.2137
G1 X40.4103 Y-0.4411
G1 X38.7948 Y0.2828
G3 X38.7001 Y0.3252 I-0.6114 J-1.238
G1 X37.1913 Y1.0009
G1 X35.7767 Y1.6341
G1 X30.4712 Y4.0066
G1 X26.4912 Y5.7839
G1 X23.5057 Y7.1159
G1 X22.9459 Y7.3655
G1 X21.8961 Y7.8335
G1 X18.2218 Y9.4706
G1 X14.5467 Y11.1059
G1 X14.9405 Y11.193
G3 X16.4612 Y11.5529 I-16.1896 J71.7991
G1 X17.1244 Y11.7188
G1 X17.7452 Y11.8787
G1 X17.8905 Y11.9168
G3 X22.4331 Y13.2421 I-21.5016 J82.1453
G3 X24.6697 Y14.0159 I-18.5254 J57.1599
G3 X25.7744 Y14.4404 I-13.039 J35.5835
G1 X26.0487 Y14.5512
G3 X26.1001 Y14.5723 I-0.1904 J0.5388
G3 X26.4842 Y14.7322 I-5.1019 J12.7946
G3 X26.8663 Y14.8965 I-11.4021 J27.0384
G3 X27.2118 Y15.3198 I-2.7825 J2.6236
G3 X27.4487 Y15.7631 I-1.6759 J1.1803
G3 X27.5333 Y16.208 I-1.2234 J0.4631
G3 X27.461 Y16.6081 I-1.1468 J-0.0006
G3 X27.2901 Y16.9383 I-1.5503 J-0.5931
G3 X27.0764 Y17.2094 I-1.9274 J-1.2993
G3 X26.6051 Y17.6487 I-3.2171 J-2.9797
G1 X26.495 Y17.7364
G3 X26.4411 Y17.7781 I-0.475 J-0.5584
G1 X26.3339 Y17.8589
G3 X25.4748 Y18.4438 I-9.2782 J-12.7046
G1 X25.3104 Y18.5485
G1 X25.2331 Y18.5973
G1 X24.0307 Y19.3447
G2 X22.8389 Y20.1088 I23.0478 J37.2567
G3 X22.7526 Y20.1646 I-2.1006 J-3.1561
G1 X22.6653 Y20.2183
G1 X22.5776 Y20.2702
G3 X21.8592 Y20.6485 I-6.1304 J-10.7696
G1 X21.5046 Y20.8178
G1 X21.4168 Y20.8585
G3 X21.0661 Y21.0179 I-6.6476 J-14.1679
G3 X19.6707 Y21.6129 I-19.8182 J-44.537
G1 X19.0118 Y21.8797
G1 X18.6918 Y22.007
G3 X18.0605 Y22.2542 I-57.1867 J-145.0647
G1 X17.4477 Y22.4902
G1 X17.3734 Y22.5186
G1 X16.7809 Y22.7432
G1 X16.206 Y22.9585
G1 X15.9272 Y23.0622
G1 X14.8282 Y23.466
G1 X14.5703 Y23.5598
G1 X14.4433 Y23.6059
G1 X13.9391 Y23.788
G1 X13.4504 Y23.9635
G1 X12.9766 Y24.1326
G3 X12.5173 Y24.2957 I-13.131 J-36.2452
G1 X11.6269 Y24.6098
G1 X9.9552 Y25.1924
G1 X9.223 Y25.4451
G3 X-1.8009 Y29.1117 I-199.3521 J-580.9676
G0 Z5.0
G0 X-21.4648 Y25.084
G1 Z0.0
G3 X-25.1647 Y23.9733 I19.8393 J-72.8078
G3 X-25.5657 Y23.8405 I8.8508 J-27.3912
G1 X-25.9598 Y23.7077
G1 X-26.7337 Y23.4405
G1 X-27.1076 Y23.3084
G3 X-28.5738 Y22.7718 I23.3178 J-65.9882
G3 X-33.989 Y20.5488 I35.6343 J-94.5129
G3 X-37.9665 Y18.6903 I49.2092 J-110.5013
G3 X-40.9036 Y17.2018 I59.7346 J-121.5112
G3 X-49.4785 Y12.3022 I62.5732 J-119.4643
G0 Z5.0
G0 X-68.0731 Y-20.8086
G1 Z0.0
G2 X-65.1866 Y-20.747 I2.0036 J-26.2042
G2 X-62.4882 Y-20.9567 I-1.0064 J-30.4059
G2 X-59.9819 Y-21.3626 I-4.1466 J-33.5457
G1 X-59.8359 Y-21.3923
G2 X-58.6773 Y-21.6505 I-6.8166 J-33.317
G2 X-56.4577 Y-22.2577 I-8.5772 J-35.7118
G2 X-52.4041 Y-23.7491 I-11.7741 J-38.2571
G2 X-45.7503 Y-27.3718 I-16.1023 J-37.4967
G1 X-45.454 Y-27.573
G2 X-44.3052 Y-28.3918 I-20.773 J-30.3597
G2 X-44.2387 Y-28.4412 I-0.7196 J-1.0387
G2 X-43.1946 Y-29.2471 I-22.5458 J-30.2888
G2 X-43.1343 Y-29.2955 I-0.6762 J-0.9045
G2 X-41.2673 Y-30.9065 I-22.3351 J-27.7706
G1 X-41.0699 Y-31.0911
G2 X-39.5697 Y-32.6016 I-22.3751 J-23.7222
G2 X-38.3451 Y-34.0094 I-21.373 J-19.8275
G2 X-37.8388 Y-34.6514 I-28.8642 J-23.2846
G2 X-36.1334 Y-37.1985 I-18.7436 J-14.3945
G2 X-36.0974 Y-37.261 I-0.664 J-0.4234
G2 X-35.074 Y-39.3047 I-17.0023 J-9.7926
G2 X-34.7542 Y-40.1012 I-17.3387 J-7.4236
G1 X-34.6894 Y-40.2775
G2 X-33.9503 Y-43.089 I-14.7055 J-5.3684
G2 X-33.7844 Y-45.9914 I-13.3981 J-2.222
G1 X-33.8183 Y-46.6344
G2 X-34.1858 Y-51.6123 I-127.1855 J6.8872
G1 X-34.2313 Y-52.079
G2 X-34.4292 Y-53.8854 I-76.8753 J7.5099
G1 X-34.4775 Y-54.2804
G2 X-34.9242 Y-57.3314 I-65.8088 J8.0749
G2 X-35.1315 Y-58.4711 I-44.4161 J7.4907
G1 X-35.1557 Y-58.5956
G2 X-35.5858 Y-60.5455 I-41.7988 J8.1958
G1 X-35.678 Y-60.9089
G2 X-35.8626 Y-61.5874 I-32.3466 J8.4383
G1 X-35.9487 Y-61.8828
G2 X-35.959 Y-61.9175 I-0.2651 J0.0602
G2 X-36.3133 Y-63.0063 I-19.3569 J5.697
G2 X-36.3495 Y-63.1075 I-3.0721 J1.0426
G2 X-36.9937 Y-64.6424 I-13.9327 J4.9448
G2 X-37.3908 Y-65.375 I-9.6761 J4.7713
G2 X-37.8576 Y-66.0652 I-6.0602 J3.5954
G0 Z5.0
G0 X-34.1027 Y-48.6789
G1 Z0.0
G2 X-36.2349 Y-50.084 I-37.8915 J55.1781
G1 X-36.2982 Y-50.1241
G1 X-36.8044 Y-50.4417
G1 X-37.0545 Y-50.5968
G1 X-37.5522 Y-50.9021
G1 X-38.044 Y-51.1996
G1 X-38.5299 Y-51.4898
G2 X-46.3636 Y-55.7412 I-61.2868 J103.5854
G1 X-47.1164 Y-56.1118
G2 X-50.059 Y-57.4979 I-48.1451 J98.3947
G2 X-50.2214 Y-57.5714 I-3.847 J8.2799
G1 X-50.8669 Y-57.8605
G1 X-51.4943 Y-58.1367
G2 X-52.7156 Y-58.6599 I-56.5451 J130.2952
G1 X-53.291 Y-58.8997
G1 X-53.8501 Y-59.1284
G2 X-58.2387 Y-60.7627 I-29.3198 J72.0247
G1 X-58.6571 Y-60.9019
G1 X-59.0634 Y-61.0339
G1 X-59.4581 Y-61.1591
G1 X-59.8415 Y-61.2777
G2 X-62.8432 Y-62.0933 I-13.9888 J45.5541
G2 X-62.8789 Y-62.1016 I-0.1075 J0.3795
G2 X-62.9144 Y-62.1099 I-0.1067 J0.378
G2 X-64.0499 Y-62.3547 I-9.879 J43.0609
G2 X-66.0585 Y-62.6816 I-5.3467 J26.5259
G2 X-67.5828 Y-62.815 I-2.5038 J19.8309
G2 X-68.7323 Y-62.8293 I-0.7556 J14.5515
G2 X-69.5941 Y-62.7771 I0.3327 J12.6438
G2 X-70.8719 Y-62.5663 I0.8975 J9.4175
G2 X-72.0956 Y-62.1427 I1.4768 J6.2459
G0 Z5.0
G0 X-94.5915 Y-45.3095
G1 Z0.0
G2 X-93.2791 Y-44.8243 I3.5483 J-7.5801
G2 X-91.9602 Y-44.5606 I2.5265 J-9.2067
G2 X-91.3136 Y-44.4975 I1.2478 J-9.4387
G1 X-91.154 Y-44.4879
G1 X-90.9949 Y-44.4805
G1 X-90.8364 Y-44.4753
G2 X-89.5734 Y-44.5057 I0.3115 J-13.2978
G2 X-87.1508 Y-44.8722 I-1.2431 J-16.409
G2 X-84.9239 Y-45.5063 I-4.9319 J-21.5477
G1 X-84.7943 Y-45.551
G2 X-82.7609 Y-46.3565 I-9.1884 J-26.1618
G2 X-80.8926 Y-47.2621 I-13.1472 J-29.5054
G2 X-77.5111 Y-49.2936 I-16.3998 J-31.128
G2 X-76.0599 Y-50.3268 I-21.3719 J-31.5552
G2 X-75.3862 Y-50.8421 I-33.1395 J-44.0194
G2 X-72.8702 Y-52.9943 I-23.8144 J-30.3874
G2 X-71.7984 Y-54.0398 I-25.7017 J-27.4191
G2 X-70.8221 Y-55.0771 I-22.9345 J-22.565
G2 X-69.103 Y-57.1679 I-21.6917 J-19.5869
G2 X-67.7531 Y-59.1868 I-18.3098 J-13.7035
G2 X-67.4836 Y-59.6566 I-11.6038 J-6.9695
G2 X-67.4201 Y-59.7719 I-2.2857 J-1.334
G2 X-66.5333 Y-61.6641 I-14.1078 J-7.7653
G2 X-65.9933 Y-63.4323 I-10.9398 J-4.3076
G2 X-65.7864 Y-65.0455 I-8.7223 J-1.9387
G2 X-65.8797 Y-66.4655 I-6.9402 J-0.2568
G2 X-66.7781 Y-68.7647 I-5.9353 J0.994
G2 X-67.9913 Y-70.1484 I-5.6526 J3.7322
G2 X-69.0983 Y-70.9674 I-5.7975 J6.6788
G2 X-69.3187 Y-71.1017 I-3.3366 J5.227
G2 X-70.1726 Y-71.5571 I-5.6319 J9.5315
G2 X-71.5125 Y-72.1132 I-5.9754 J12.5051
G2 X-72.8981 Y-72.5431 I-5.7488 J16.0818
G0 Z5.0
G0 X-74.5344 Y53.5144
G1 Z0.0
G1 X-159.8252 Y88.1046
G0 Z5.0
G0 X-182.5695 Y77.9171
G1 Z0.0
G1 X-110.7833 Y38.1144
G1 X-110.2898 Y37.9168
G1 X-109.3107 Y37.5241
G1 X-107.384 Y36.7489
G1 X-103.6531 Y35.2416
G1 X-103.2161 Y35.0646
G1 X-99.7483 Y33.6561
G2 X-93.252 Y31.0008 I-732.5586 J-1801.4719
G2 X-91.8319 Y30.4173 I-158.7648 J-388.4176
G1 X-89.0818 Y29.284
G1 X-87.7932 Y28.7514
G1 X-85.2976 Y27.7171
G1 X-82.9592 Y26.7441
G1 X-80.7683 Y25.829
G1 X-78.7155 Y24.9682
G1 X-78.2345 Y24.766
G1 X-76.3414 Y23.9683
G1 X-74.5676 Y23.2179
G2 X-71.245 Y21.8036 I-686.8393 J-1618.2733
G1 X-70.5188 Y21.4929
G1 X-69.1124 Y20.8893
G1 X-68.4534 Y20.6055
G2 X-68.3736 Y20.5711 I-0.4567 J-1.1695
G2 X-68.294 Y20.5369 I-0.4535 J-1.1612
G1 X-67.028 Y19.9898
G1 X-66.4348 Y19.7327
G1 X-65.8603 Y19.4832
G1 X-63.6362 Y18.5121
G1 X-61.6927 Y17.656
G1 X-59.9947 Y16.9013
G1 X-59.2526 Y16.5693
G1 X-57.8628 Y15.9433
G1 X-56.6486 Y15.3914
G1 X-56.3832 Y15.2701
G1 X-56.1262 Y15.1524
G2 X-55.1314 Y14.6943 I-46.0686 J-101.3463
G1 X-54.9139 Y14.5936
G1 X-54.7034 Y14.4959
G1 X-53.8883 Y14.1157
G1 X-53.1762 Y13.7806
G1 X-52.5541 Y13.4855
G1 X-51.4678 Y12.9638
G1 X-50.6555 Y12.5676
G2 X-48.2365 Y11.343 I-41.4317 J-84.8423
G1 X-48.804 Y11.0748
G1 X-48.9366 Y11.0109
G3 X-49.4559 Y10.7536 I9.6955 J-20.222
G1 X-49.6973 Y10.6289
G1 X-49.9295 Y10.505
G3 X-51.649 Y9.4117 I6.65 J-12.3568
G1 X-51.8012 Y9.2964
G3 X-52.9285 Y8.3391 I9.6197 J-12.4711
G1 X-53.1305 Y8.1492
G3 X-53.8665 Y7.415 I18.8109 J-19.5955
G1 X-53.934 Y7.3446
G1 X-54.1932 Y7.07
G3 X-54.6392 Y6.5824 I20.3839 J-19.0932
G3 X-55.2932 Y5.8374 I30.8034 J-27.6967
G1 X-55.6145 Y5.46
G1 X-55.9326 Y5.0799
G0 Z5.0
G0 X-64.1103 Y55.6465
G1 Z0.0
G3 X-64.549 Y55.5508 I3.6776 J-17.9058
G3 X-64.5755 Y55.5448 I0.0091 J-0.1022
G1 X-64.9987 Y55.448
G1 X-65.4084 Y55.3532
G3 X-65.4581 Y55.3416 I0.0933 J-0.5136
G1 X-67.0382 Y54.9708
G1 X-69.8017 Y54.3149
G1 X-71.8739 Y53.8203
G1 X-73.4278 Y53.4485
G1 X-75.7583 Y52.8896
G1 X-76.0496 Y52.8197
G1 X-76.5594 Y52.6972
G1 X-78.0884 Y52.3296
G1 X-74.3373 Y50.6151
G3 X-60.2575 Y44.2146 I2034.9022 J4457.7563
G1 X-57.6152 Y43.0194
G1 X-55.1373 Y41.9005
G1 X-53.9755 Y41.3766
G1 X-49.4719 Y39.3501
G1 X-48.9791 Y39.1288
G1 X-45.0971 Y37.3894
G3 X-38.2965 Y34.361 I693.2617 J1547.6669
G1 X-35.7431 Y33.232
G1 X-33.5071 Y32.248
G1 X-31.5489 Y31.3906
G3 X-31.4952 Y31.3672 I0.2609 J0.5245
G1 X-30.6412 Y30.9949
G1 X-29.0389 Y30.2991
G1 X-27.6354 Y29.6934
G3 X-22.708 Y27.6084 I160.1702 J371.6539
G3 X-22.3985 Y27.4808 I9.9744 J23.752
G3 X-20.0691 Y26.5461 I50.1661 J121.6547
G1 X-19.9225 Y26.4895
G1 X-19.3714 Y26.2811
G1 X-19.1638 Y26.2047
G1 X-18.7993 Y26.0744
G3 X-18.247 Y25.8931 I5.6985 J16.4185
G3 X-17.9653 Y25.8163 I1.099 J3.4796
G3 X-17.821 Y25.7881 I0.6925 J3.1597
G3 X-17.747 Y25.7814 I0.0724 J0.3845
G3 X-17.6741 Y25.7949 I0.0129 J0.1333
G2 X-17.5638 Y25.8583 I0.3486 J-0.4789
G2 X-17.0926 Y26.0323 I1.5525 J-3.4806
G2 X-16.156 Y26.2919 I5.9212 J-19.5413
G2 X-14.382 Y26.7069 I13.3333 J-52.9941
G1 X-13.6031 Y26.8756
G1 X-12.8719 Y27.0294
G2 X-7.3729 Y28.1078 I59.1383 J-287.0117
G1 X-6.6844 Y28.2365
G1 X-6.0818 Y28.3483
G1 X-5.0269 Y28.5424
G1 X-3.4439 Y28.8295
G1 X-1.8599 Y29.1117
G0 Z5.0
G0 X-184.7017 Y73.6523
G1 Z0.0
G2 X-184.7045 Y74.193 I1.6077 J0.2787
G2 X-184.5671 Y74.6882 I2.2867 J-0.3677
G2 X-184.3475 Y75.1345 I3.3179 J-1.356
G2 X-183.777 Y75.9192 I4.6656 J-2.792
G2 X-183.1305 Y76.5925 I6.836 J-5.9175
G2 X-181.7463 Y77.7479 I10.9194 J-11.6743
G1 X-181.4068 Y77.9984
G1 X-181.2381 Y78.1194
G2 X-179.8701 Y79.037 I18.8683 J-26.653
G2 X-179.2149 Y79.4449 I16.6147 J-25.9549
G1 X-178.895 Y79.6383
G2 X-177.6219 Y80.3766 I26.4551 J-44.1533
G2 X-175.1908 Y81.6809 I37.5057 J-66.9901
G2 X-174.9222 Y81.8183 I6.5182 J-12.4059
G2 X-173.8603 Y82.3511 I28.9587 J-56.3915
G1 X-173.6106 Y82.4741
G1 X-173.1179 Y82.7144
G2 X-171.1983 Y83.6237 I44.5704 J-91.6133
G2 X-167.8064 Y85.1437 I68.7009 J-148.7655
G1 X-167.1666 Y85.42
G1 X-166.5658 Y85.6767
G1 X-165.4368 Y86.1525
G1 X-164.942 Y86.3583
G1 X-164.0127 Y86.7408
G1 X-163.6055 Y86.9067
G1 X-163.4145 Y86.9842
G1 X-163.2294 Y87.0591
G1 X-162.5115 Y87.3475
G1 X-161.8826 Y87.5977
G1 X-161.3315 Y87.815
G1 X-160.3658 Y88.1916
G1 X-159.6403 Y88.4708
G1 X-159.3679 Y88.5748
G1 X-159.1294 Y88.6654
G1 X-158.2938 Y88.9799
G1 X-157.4562 Y89.2889
G0 Z5.0
M5
M30
