( Made using CamBam - http://www.cambam.co.uk )
( Plane_3Mx3M 1/20/2014 12:44:36 PM )
( T0 : 0.0 )
G21 G90 G64 G40
G0 Z5.0
( T0 : 0.0 )
T0 M6
( 31-40 )
G17
M3 S1000
G0 X-38.9458 Y-8.1264
G1 F2000.0 Z0.0
G1 X-38.945 Y-7.9753
G2 X-38.9447 Y-7.9376 I0.1904 J0.0172
G1 X-38.9285 Y-6.7322
G1 X-38.8894 Y-4.3594
G1 X-38.8079 Y0.2378
G1 X-38.6488 Y8.8575
G1 X-38.3632 Y23.9419
G1 X-37.9277 Y46.5683
G1 X-37.4875 Y69.1946
G0 Z5.0
G0 X-93.6934 Y84.0195
G1 Z0.0
G1 X-117.5415 Y74.1194
G0 Z5.0
G0 X-133.9027 Y93.3097
G1 Z0.0
G1 X-134.1371 Y77.5846
G0 Z5.0
G0 X-152.5374 Y65.8119
G1 Z0.0
G1 X-152.425 Y66.0074
G1 X-152.312 Y66.2016
G2 X-150.3567 Y69.1984 I30.3417 J-17.6607
G1 X-150.2326 Y69.3666
G2 X-149.9819 Y69.6989 I10.1465 J-7.3944
G2 X-149.4702 Y70.3466 I26.5215 J-20.4273
G1 X-149.2114 Y70.6589
G1 X-148.95 Y70.9644
G1 X-148.6859 Y71.2629
G1 X-148.5531 Y71.4092
G1 X-148.4198 Y71.5538
G2 X-147.3124 Y72.6608 I14.7865 J-13.6842
G2 X-146.1662 Y73.6436 I12.9566 J-13.9502
G2 X-144.9881 Y74.4975 I10.4737 J-13.2092
G2 X-139.872 Y76.7315 I8.894 J-13.3935
G2 X-137.4994 Y77.1463 I4.3359 J-17.809
G2 X-136.3786 Y77.2395 I2.2276 J-19.9923
G2 X-134.203 Y77.2648 I1.3841 J-25.489
G2 X-132.1712 Y77.1333 I-0.9299 J-30.1238
G2 X-131.2234 Y77.0291 I-3.0498 J-32.116
G2 X-129.3958 Y76.7635 I-5.2001 J-42.1953
G2 X-127.6938 Y76.4508 I-8.4924 J-51.0219
G2 X-124.529 Y75.7395 I-14.4838 J-71.8315
G1 X-123.8409 Y75.5669
G1 X-123.1755 Y75.3951
G1 X-122.8535 Y75.3103
G1 X-122.2205 Y75.1407
G1 X-122.1439 Y75.1199
G1 X-122.0676 Y75.0992
G1 X-121.9916 Y75.0785
G1 X-121.9159 Y75.0578
G2 X-119.51 Y74.3783 I-41.067 J-150.0026
G1 X-119.2475 Y74.3019
G1 X-118.2147 Y73.9977
G1 X-117.2477 Y73.7085
G1 X-117.1344 Y73.6743
G1 X-117.0221 Y73.6404
G2 X-113.4596 Y72.5486 I-121.6583 J-403.2859
G1 X-110.7907 Y71.7203
G1 X-108.7886 Y71.1004
G1 X-107.286 Y70.6385
G1 X-106.1584 Y70.2946
G1 X-104.4653 Y69.7839
G1 X-103.618 Y69.5312
G1 X-103.512 Y69.4998
G1 X-103.1411 Y69.39
G1 X-102.7701 Y69.2806
G1 X-102.3677 Y69.1612
G1 X-101.969 Y69.0408
G1 X-101.5738 Y68.9194
G1 X-101.1821 Y68.7972
G2 X-95.0476 Y66.6111 I-25.4736 J-81.181
G1 X-94.7157 Y66.4774
G1 X-94.3868 Y66.3434
G1 X-94.061 Y66.209
G2 X-88.9707 Y63.8868 I-30.4395 J-73.464
G2 X-84.6465 Y61.5473 I-34.0608 J-68.1217
G1 X-84.4136 Y61.4105
G1 X-84.1831 Y61.2738
G1 X-83.9548 Y61.1374
G1 X-83.7288 Y61.0011
G1 X-83.5049 Y60.8651
G1 X-83.2833 Y60.7292
G1 X-83.0639 Y60.5936
G1 X-82.8466 Y60.4582
G1 X-82.6315 Y60.323
G1 X-82.4186 Y60.1881
G1 X-82.2077 Y60.0534
G1 X-81.9989 Y59.9189
G1 X-81.7922 Y59.7848
G1 X-81.5876 Y59.6509
G1 X-81.3849 Y59.5173
G1 X-81.1844 Y59.3839
G1 X-80.9858 Y59.2509
G1 X-80.7892 Y59.1182
G1 X-80.5946 Y58.9857
G1 X-80.4019 Y58.8536
G1 X-80.2112 Y58.7218
G1 X-80.0224 Y58.5904
G1 X-79.8354 Y58.4592
G1 X-79.6504 Y58.3284
G1 X-79.4673 Y58.198
G2 X-76.625 Y56.0379 I-33.7402 J-47.3474
G1 X-76.4728 Y55.9144
G1 X-76.3222 Y55.7914
G1 X-76.1731 Y55.6687
G1 X-76.0256 Y55.5465
G1 X-75.8796 Y55.4247
G1 X-75.7352 Y55.3033
G1 X-75.5922 Y55.1824
G1 X-75.4508 Y55.0619
G2 X-73.2637 Y53.0838 I-32.2015 J-37.8022
G2 X-72.3413 Y52.1754 I-28.2413 J-29.5975
G2 X-70.681 Y50.4003 I-30.4637 J-30.157
G2 X-69.9856 Y49.5917 I-31.6878 J-27.9592
G2 X-68.7424 Y48.0225 I-27.241 J-22.8566
G1 X-68.4819 Y47.6691
G1 X-68.2338 Y47.3234
G2 X-66.4814 Y44.5296 I-23.0328 J-16.3938
G2 X-65.4124 Y42.2877 I-18.8376 J-10.3576
G2 X-65.0826 Y41.4135 I-14.5501 J-5.9879
G2 X-65.0166 Y41.2198 I-6.0465 J-2.1714
G2 X-64.5891 Y39.6935 I-14.6692 J-4.9315
G2 X-64.3816 Y38.5213 I-12.4497 J-2.8084
G2 X-64.2964 Y36.738 I-10.6526 J-1.4022
G2 X-64.3245 Y36.2919 I-9.6693 J0.3838
G2 X-64.5438 Y34.9699 I-8.5586 J0.7407
G0 Z5.0
G0 X-46.3469 Y-32.8899
G1 Z0.0
G2 X-46.798 Y-31.1569 I5.9652 J2.4783
G2 X-46.8041 Y-29.5082 I7.4352 J0.8516
G2 X-46.5145 Y-28.0048 I9.1541 J-0.984
G2 X-46.0416 Y-26.6568 I10.9726 J-3.0917
G2 X-45.4587 Y-25.4542 I12.3784 J-5.257
G2 X-44.0837 Y-23.3639 I14.03 J-7.7323
G2 X-42.6444 Y-21.7128 I15.165 J-11.7659
G2 X-39.717 Y-19.2371 I14.6412 J-14.3439
G2 X-37.2366 Y-17.7634 I11.1858 J-16.0028
G2 X-35.2396 Y-16.9171 I7.6566 J-15.2888
G2 X-33.6768 Y-16.4575 I5.2618 J-15.0057
G2 X-31.2588 Y-16.1097 I3.0913 J-12.9105
G2 X-28.8205 Y-16.2578 I0.5515 J-11.0678
G0 Z5.0
G0 X-161.0386 Y60.563
G1 Z0.0
G1 X-160.7103 Y60.6051
G1 X-160.3831 Y60.6443
G2 X-159.0768 Y60.7745 I5.2553 J-46.1277
G2 X-156.499 Y60.9131 I3.6898 J-44.5778
G2 X-154.0024 Y60.9087 I1.1623 J-49.0753
G2 X-152.7957 Y60.8611 I-1.8846 J-63.0669
G2 X-150.426 Y60.6868 I-2.6431 J-52.123
G2 X-148.1415 Y60.4233 I-5.0573 J-53.8837
G2 X-143.753 Y59.6766 I-8.8542 J-65.3039
G2 X-142.7332 Y59.4609 I-22.8061 J-110.3501
G1 X-142.4828 Y59.4056
G2 X-138.5182 Y58.4145 I-16.963 J-76.2818
G1 X-138.2876 Y58.3504
G1 X-138.0581 Y58.2859
G1 X-137.8296 Y58.221
G1 X-137.6022 Y58.1558
G2 X-134.0028 Y57.0383 I-25.3823 J-88.1116
G1 X-133.584 Y56.8983
G2 X-127.0182 Y54.4495 I-36.1778 J-107.0279
G2 X-121.3965 Y52.0077 I-50.8945 J-124.8692
G2 X-121.2443 Y51.9376 I-1.3735 J-3.1799
G2 X-116.4337 Y49.6178 I-66.1471 J-143.319
G2 X-115.3915 Y49.0901 I-109.4234 J-217.4305
G1 X-114.3851 Y48.5726
G2 X-106.6881 Y44.3704 I-98.1293 J-188.8892
G1 X-106.3314 Y44.1659
G2 X-103.5348 Y42.536 I-117.9397 J-205.5741
G1 X-102.3176 Y41.8124
G2 X-102.2463 Y41.7697 I-0.4383 J-0.8138
G2 X-102.1753 Y41.7273 I-0.4364 J-0.8098
G2 X-102.1046 Y41.6849 I-0.4345 J-0.8058
G1 X-100.9805 Y41.0082
G1 X-99.9292 Y40.3694
G1 X-99.4372 Y40.0687
G1 X-98.9611 Y39.7765
G2 X-98.5003 Y39.4927 I-39.6159 J-64.8516
G1 X-97.6087 Y38.9411
G1 X-96.7742 Y38.4218
G1 X-95.9929 Y37.9332
G1 X-94.5305 Y37.0132
G1 X-93.253 Y36.2047
G1 X-91.0203 Y34.7853
G1 X-90.1832 Y34.2527
G1 X-88.7171 Y33.3226
G3 X-88.1664 Y32.975 I30.5354 J47.7758
G3 X-86.2318 Y31.7707 I137.5444 J218.7833
G3 X-84.2728 Y30.6061 I37.343 J60.5886
G1 X-81.7637 Y30.3881
G1 X-80.5861 Y30.2899
G1 X-80.0153 Y30.244
G1 X-78.891 Y30.1583
G3 X-77.8008 Y30.0821 I8.9376 J120.0189
G3 X-77.6688 Y30.0734 I0.3804 J4.7713
G3 X-73.4543 Y29.8763 I6.8634 J101.6016
G3 X-72.5304 Y29.8586 I1.4591 J52.1046
G1 X-72.0829 Y29.854
G3 X-68.5586 Y29.9191 I0.5543 J65.3664
G3 X-65.4815 Y30.147 I-2.6396 J56.5363
G3 X-60.1503 Y30.9964 I-4.879 J47.7778
G3 X-58.182 Y31.4736 I-8.9945 J41.3969
G1 X-58.075 Y31.5022
G3 X-51.4507 Y33.8446 I-12.0028 J44.4826
G1 X-51.0493 Y34.0237
G1 X-50.6745 Y34.1949
G3 X-47.9106 Y35.5753 I-22.1449 J47.7961
G3 X-47.2328 Y35.9458 I-26.4486 J49.1936
G1 X-46.98 Y36.0872
G1 X-46.5394 Y36.3379
G3 X-45.8828 Y36.7214 I-25.7294 J44.8062
G1 X-45.5564 Y36.9164
G1 X-45.2313 Y37.1137
G1 X-45.0716 Y39.3709
G1 X-44.9274 Y41.4875
G1 X-44.8626 Y42.4798
G1 X-44.802 Y43.4412
G3 X-44.5965 Y47.1684 I-257.9433 J16.0882
G3 X-44.4663 Y50.4319 I-240.3392 J11.224
G1 X-44.4549 Y50.7891
G1 X-44.4144 Y52.195
G1 X-44.4059 Y52.5246
G1 X-44.375 Y53.8223
G3 X-44.3716 Y53.9744 I-3.6786 J0.1575
G3 X-44.3683 Y54.1253 I-3.73 J0.1569
G1 X-44.3436 Y55.323
G1 X-44.3223 Y56.446
G1 X-44.2855 Y58.5514
G1 X-44.2552 Y60.3938
G1 X-44.1507 Y66.842
G1 X-44.1373 Y67.648
G1 X-44.0396 Y73.2901
G0 Z5.0
G0 X22.655 Y128.1235
G1 Z0.0
G3 X18.233 Y126.8594 I42.5811 J-157.317
G1 X17.975 Y126.7816
G3 X13.8795 Y125.4903 I52.9009 J-174.9197
G1 X13.6404 Y125.4117
G3 X9.8453 Y124.1175 I65.1144 J-197.1523
G3 X2.8005 Y121.4941 I71.0276 J-201.5096
G1 X2.4179 Y121.3437
G1 X2.0385 Y121.1938
G1 X1.6623 Y121.0444
G3 X-4.2738 Y118.5879 I92.0284 J-230.7815
G3 X-9.4145 Y116.3143 I97.9274 J-228.3667
G1 X-10.5324 Y115.8024
G3 X-19.1181 Y111.6688 I119.9772 J-260.1827
G1 X-19.9159 Y111.2668
G3 X-32.1272 Y104.7403 I140.0482 J-276.721
G3 X-35.1345 Y103.0256 I182.2885 J-323.1976
G1 X-36.2574 Y102.3743
G1 X-37.2379 Y101.8008
G3 X-44.0446 Y97.6915 I159.9961 J-272.7062
G0 Z5.0
G0 X-122.2717 Y117.8149
G1 Z0.0
G1 X-58.8542 Y89.0884
G0 Z5.0
G0 X-125.8775 Y110.4938
G1 Z0.0
G1 X-127.1465 Y76.9285
G0 Z5.0
G0 X-124.7661 Y129.2697
G1 Z0.0
G1 X-51.1509 Y95.6066
G0 Z5.0
M5
M30
