( Made using CamBam - http://www.cambam.co.uk )
( Plane_3Mx3M(A3) 1/20/2014 2:54:03 PM )
( T0 : 0.0 )
G21 G90 G64 G40
G0 Z5.0
( T0 : 0.0 )
T0 M6
( 41-50 )
G17
M3 S1000
G0 X-38.5121 Y13.0092
G1 F2000.0 Z0.0
G3 X-38.7307 Y12.9673 I0.0929 J-1.0764
G3 X-38.9405 Y12.893 I0.8598 J-2.7595
G3 X-39.3371 Y12.6932 I1.2764 J-3.0276
G3 X-40.0421 Y12.1609 I1.9566 J-3.3241
G3 X-40.4215 Y11.7098 I1.7599 J-1.8653
G3 X-40.5775 Y11.4094 I1.3214 J-0.8769
G3 X-40.6547 Y11.0256 I1.0316 J-0.4072
G3 X-40.5337 Y10.5777 I0.8665 J-0.0063
G3 X-40.3804 Y10.3732 I0.9046 J0.5186
G3 X-40.1732 Y10.1894 I1.159 J1.098
G3 X-39.9232 Y10.0285 I1.1934 J1.5789
G3 X-39.6403 Y9.8892 I1.3391 J2.3637
G3 X-38.9893 Y9.6625 I1.8882 J4.3747
G3 X-38.2533 Y9.4942 I2.3738 J8.6853
G1 X-38.0633 Y9.4606
G3 X-37.2523 Y9.3495 I2.1974 J13.0276
G1 X-37.0475 Y9.3283
G3 X-36.2156 Y9.2639 I2.079 J21.4662
G3 X-35.3611 Y9.2273 I1.373 J22.0651
G1 X-34.963 Y9.3576
G1 X-34.5661 Y9.4917
G1 X-34.3023 Y9.5833
G1 X-34.1517 Y9.6363
G3 X-32.9542 Y10.079 I-14.0074 J39.739
G1 X-32.7954 Y10.1403
G3 X-30.2791 Y11.1821 I-23.4892 J60.2897
G1 X-29.5676 Y11.4971
G3 X-27.6817 Y12.3621 I-46.157 J103.1249
G1 X-26.6089 Y12.8665
G1 X-26.0372 Y13.1368
G2 X-22.981 Y14.5602 I80.1292 J-168.05
G2 X-21.2143 Y15.3284 I24.2171 J-53.2802
G1 X-20.7543 Y15.517
G3 X-20.39 Y15.8646 I-3.0382 J3.5495
G3 X-20.0895 Y16.2687 I-1.5832 J1.4909
G3 X-19.9672 Y16.583 I-0.9299 J0.5427
G3 X-20.0171 Y17.0381 I-0.6824 J0.1555
G3 X-20.1715 Y17.2595 I-0.7847 J-0.3826
G3 X-20.4099 Y17.4572 I-1.0259 J-0.9943
G3 X-20.7154 Y17.626 I-1.4086 J-2.1895
G3 X-21.0784 Y17.7686 I-1.5622 J-3.4429
G3 X-21.9996 Y17.9921 I-1.9618 J-6.0764
G3 X-24.7675 Y18.1137 I-1.9058 J-11.8188
G3 X-25.5309 Y18.024 I0.5748 J-8.1901
G3 X-25.6267 Y18.0066 I0.2459 J-1.6236
G3 X-25.822 Y17.9646 I0.3958 J-2.3174
G3 X-25.9201 Y17.9394 I0.2368 J-1.1248
G3 X-26.1184 Y17.8759 I0.6144 J-2.2599
G1 X-26.3086 Y17.8008
G2 X-26.3359 Y17.7901 I-0.0899 J0.1884
G1 X-26.5535 Y17.7048
G2 X-26.5826 Y17.6934 I-0.0966 J0.2044
G1 X-27.0477 Y17.5129
G2 X-27.0777 Y17.5013 I-0.1056 J0.2289
G1 X-28.0397 Y17.1336
G1 X-28.1681 Y17.085
G1 X-28.3052 Y17.0331
G1 X-29.0362 Y16.7576
G1 X-31.9622 Y15.661
G1 X-32.1509 Y15.5899
G1 X-32.5533 Y15.438
G1 X-33.4723 Y15.0887
G3 X-35.9131 Y14.1325 I50.1055 J-131.4848
G3 X-36.2264 Y14.005 I4.7 J-12.0034
G1 X-36.893 Y13.7285
G3 X-37.2358 Y13.5828 I7.7466 J-18.7012
G3 X-37.5885 Y13.4298 I7.8465 J-18.5745
G1 X-37.7672 Y13.3509
G1 X-38.1348 Y13.1852
G1 X-38.5121 Y13.0092
G0 Z5.0
G0 X-11.2772 Y-15.6662
G1 Z0.0
G2 X-11.2687 Y-15.9532 I-11.6719 J-0.4893
G1 X-11.2582 Y-16.5094
G2 X-11.2564 Y-16.6399 I-2.2336 J-0.0968
G1 X-11.2505 Y-17.1533
G1 X-11.2463 Y-17.6346
G1 X-11.2363 Y-19.4396
G1 X-11.2336 Y-20.1165
G1 X-11.2229 Y-22.4854
G1 X-11.2129 Y-23.6699
G1 X-11.2043 Y-24.2621
G3 X-11.1884 Y-24.8542 I19.9789 J0.2383
G3 X-11.1575 Y-25.1543 I2.8372 J0.1407
G3 X-11.0912 Y-25.4142 I1.383 J0.2141
G3 X-10.9826 Y-25.6223 I0.8484 J0.3107
G3 X-10.653 Y-25.845 I0.4737 J0.3459
G3 X-10.3622 Y-25.8768 I0.2621 J1.0514
G3 X-10.144 Y-25.8608 I-0.0218 J1.7967
G1 X-9.9817 Y-25.8367
G3 X-9.7403 Y-25.7895 I-1.2543 J7.0466
G3 X-9.5004 Y-25.735 I-2.6005 J12.0151
G3 X-8.8414 Y-25.4997 I-5.5676 J16.6359
G1 X-8.5363 Y-25.3797
G1 X-8.2426 Y-25.259
G3 X-7.6778 Y-25.0151 I-15.6513 J37.0174
G1 X-7.4146 Y-24.897
G1 X-7.1606 Y-24.7808
G3 X-5.2118 Y-23.8377 I-31.4116 J67.3915
G3 X-3.7636 Y-23.1033 I-73.9115 J147.5533
G1 X-2.6791 Y-22.5491
G2 X-1.0446 Y-21.7324 I42.1911 J-82.3928
G1 X-0.8387 Y-21.6335
G1 X-0.658 Y-21.5479
G1 X-0.4995 Y-21.4739
G2 X-0.221 Y-21.3469 I3.6427 J-7.6167
G1 X-0.011 Y-21.2541
G2 X0.6279 Y-20.9969 I4.3217 J-9.8131
G0 Z5.0
G0 X6.3361 Y-42.4138
G1 Z0.0
G2 X6.6128 Y-41.0217 I3.725 J-0.0169
G2 X7.2466 Y-39.9844 I3.7264 J-1.5645
G2 X8.0011 Y-39.2504 I4.0631 J-3.4224
G2 X8.3686 Y-38.9755 I3.6926 J-4.5526
G2 X9.0992 Y-38.5236 I5.0411 J-7.3334
G1 X9.1816 Y-38.4787
G2 X10.5274 Y-37.8689 I5.4346 J-10.2027
G2 X10.5922 Y-37.8442 I0.2972 J-0.6845
G1 X10.8481 Y-37.7504
G2 X12.8098 Y-37.1784 I6.1644 J-17.4896
G1 X12.9342 Y-37.1492
G2 X13.051 Y-37.1225 I2.0663 J-8.7618
G2 X13.9303 Y-36.9395 I4.9907 J-21.7717
G1 X14.3719 Y-36.8579
G1 X14.8142 Y-36.7805
G0 Z5.0
G0 X18.0414 Y-43.8002
G1 Z0.0
G3 X18.0618 Y-43.8475 I0.2343 J0.0728
G3 X18.1551 Y-44.0305 I2.8887 J1.3567
G1 X18.2524 Y-44.2076
G1 X18.3504 Y-44.3807
G1 X18.3992 Y-44.4657
G3 X19.1912 Y-45.8025 I82.7188 J48.1086
G1 X19.5431 Y-46.3843
G1 X20.2067 Y-47.4726
G1 X20.7903 Y-48.4231
G1 X21.3025 Y-49.2538
G1 X21.7516 Y-49.9801
G1 X22.5392 Y-51.2501
G1 X22.6871 Y-51.4881
G1 X22.7565 Y-51.5997
G1 X23.8328 Y-53.3275
G1 X24.1024 Y-53.7593
G1 X24.9122 Y-55.0536
G0 Z5.0
G0 X24.9777 Y-55.1481
G1 Z0.0
G1 X24.3988 Y-55.5497
G2 X23.6002 Y-56.0928 I-23.3073 J33.41
G3 X23.0885 Y-56.3818 I1.9542 J-4.0571
G3 X22.8565 Y-56.5442 I1.823 J-2.8515
G3 X22.0263 Y-57.2838 I4.0403 J-5.3712
G3 X21.9369 Y-57.3784 I1.4345 J-1.4462
G3 X21.596 Y-57.7661 I6.1927 J-5.7881
G3 X20.9922 Y-58.5637 I8.6368 J-7.1667
G3 X20.4845 Y-59.354 I11.9695 J-8.2466
G1 X20.3727 Y-59.5444
G3 X20.1604 Y-59.9238 I16.6226 J-9.55
G3 X18.8374 Y-63.0225 I16.4493 J-8.8547
G3 X18.2124 Y-65.5104 I17.502 J-5.7199
G3 X18.1722 Y-65.7511 I9.5252 J-1.7146
G3 X17.9984 Y-67.6356 I13.7054 J-2.2136
G3 X18.0706 Y-69.069 I9.6439 J-0.2328
G3 X18.2866 Y-70.1323 I6.7942 J0.8264
G3 X18.57 Y-70.8993 I4.9881 J1.407
G3 X19.2384 Y-71.9272 I3.7284 J1.6933
G3 X20.2077 Y-72.678 I2.5495 J2.2902
G3 X21.0076 Y-72.7932 I1.3715 J6.693
G3 X21.2019 Y-72.8068 I0.3057 J2.9678
G1 X21.2983 Y-72.8118
G3 X22.8342 Y-72.7603 I0.4191 J10.4456
G1 X23.0127 Y-72.741
G3 X24.4187 Y-72.5136 I-1.775 J15.4306
G1 X24.7449 Y-72.4439
G3 X26.0173 Y-72.121 I-4.8273 J21.6862
G3 X27.1929 Y-71.758 I-7.0668 J24.9761
G3 X29.3537 Y-70.9515 I-10.2265 J30.6957
G3 X33.0013 Y-69.2242 I-15.46 J37.3632
G1 X33.3346 Y-69.044
G3 X34.6104 Y-68.3174 I-23.9567 J43.5472
G1 X34.8861 Y-68.1524
G3 X34.9527 Y-68.1121 I-0.5908 J1.0519
G3 X37.0244 Y-66.7664 I-19.337 J32.0357
G3 X38.5168 Y-65.6658 I-18.5399 J26.7016
G1 X38.7895 Y-65.4499
G3 X39.7885 Y-64.6109 I-15.6829 J19.6878
G3 X40.1522 Y-64.2834 I-20.2804 J22.8855
G3 X40.4647 Y-63.9906 I-7.7869 J8.6253
G1 X40.7334 Y-63.7295
G3 X41.1917 Y-63.2603 I-12.337 J12.5114
G1 X41.2758 Y-63.1706
G3 X42.4471 Y-61.7469 I-10.305 J9.672
G3 X42.4746 Y-61.7081 I-0.5951 J0.4507
G3 X43.9958 Y-59.092 I-14.0888 J9.9426
G3 X44.4552 Y-58.0049 I-14.2197 J6.6503
G3 X45.0447 Y-55.9896 I-12.0781 J4.6265
G3 X45.1747 Y-55.1817 I-8.7772 J1.8267
G3 X45.2097 Y-54.8202 I-7.2312 J0.8838
G3 X45.2309 Y-54.1358 I-8.0506 J0.5911
G3 X45.0831 Y-52.9359 I-5.3518 J-0.0498
G3 X44.7496 Y-52.0781 I-3.4021 J-0.8291
G3 X44.3343 Y-51.5227 I-2.2458 J-1.2463
G3 X43.4643 Y-50.9629 I-1.6987 J-1.6843
G3 X42.9635 Y-50.8267 I-1.0559 J-2.8936
G3 X42.4471 Y-50.774 I-0.6445 J-3.7577
G1 X42.0665 Y-50.8856
G1 X41.3283 Y-51.0996
G2 X41.1551 Y-51.1493 I-1.4194 J4.6233
G1 X40.4725 Y-51.3426
G2 X40.3923 Y-51.365 I-0.5514 J1.8173
G2 X40.3128 Y-51.3871 I-0.532 J1.7539
G2 X40.2339 Y-51.4091 I-0.5142 J1.6965
G1 X39.6073 Y-51.5809
G1 X39.0188 Y-51.738
G2 X38.4659 Y-51.8812 I-13.1386 J49.5842
G2 X38.2063 Y-51.9468 I-2.0976 J7.7486
G2 X36.1849 Y-52.4165 I-12.6679 J49.9356
G1 X35.8037 Y-52.4955
G1 X35.4458 Y-52.5665
G1 X35.1096 Y-52.6302
G2 X32.5708 Y-53.0017 I-5.8816 J31.3295
G1 X32.2514 Y-53.0325
G2 X30.0079 Y-53.1193 I-1.9173 J20.5031
G3 X28.2229 Y-53.379 I-0.0925 J-5.6282
G3 X26.98 Y-53.8965 I2.32 J-7.3245
G1 X26.7573 Y-54.0148
G1 X26.5511 Y-54.1303
G3 X25.7961 Y-54.5945 I8.4976 J-14.6658
G1 X25.7266 Y-54.64
G3 X25.1923 Y-54.9993 I14.532 J-22.1809
G1 X24.9777 Y-55.1481
G0 Z5.0
G0 X11.2302 Y-46.1692
G1 Z0.0
G3 X11.5255 Y-46.5598 I6.5669 J4.6586
G3 X11.819 Y-46.9325 I39.2529 J30.604
G1 X12.1048 Y-47.2923
G1 X13.2179 Y-48.6824
G1 X14.1951 Y-49.8961
G1 X14.4092 Y-50.1614
G1 X16.0695 Y-52.216
G1 X16.3812 Y-52.601
G1 X17.5503 Y-54.0443
G3 X21.062 Y-58.3706 I1551.4199 J1255.7055
G0 Z5.0
G0 X22.1161 Y-31.0776
G1 Z0.0
G2 X21.3117 Y-32.0468 I-6.6462 J4.6976
G2 X21.2159 Y-32.1454 I-2.1195 J1.9626
G2 X21.1204 Y-32.2413 I-1.6899 J1.5889
G2 X20.7335 Y-32.6074 I-8.2283 J8.3085
G2 X20.3575 Y-32.9358 I-11.4354 J12.7129
G2 X19.6263 Y-33.5195 I-10.5299 J12.4397
G2 X19.2982 Y-33.7643 I-8.6673 J11.2756
G1 X19.1431 Y-33.8772
G2 X19.0676 Y-33.9316 I-1.9932 J2.6872
G1 X18.7692 Y-34.1434
G1 X18.4875 Y-34.3393
G1 X17.956 Y-34.7019
G1 X17.0219 Y-35.3312
G1 X16.9344 Y-35.3906
G1 X16.8498 Y-35.4482
G3 X16.1984 Y-35.9012 I16.5476 J-24.4886
G3 X15.7184 Y-36.2534 I22.3059 J-30.9039
G3 X15.0249 Y-36.8162 I7.0786 J-9.4308
G3 X14.3928 Y-37.4471 I4.396 J-5.0367
G3 X14.5827 Y-37.8846 I27.8118 J11.8108
G3 X15.2834 Y-39.3999 I35.6813 J15.5801
G1 X15.469 Y-39.7737
G1 X15.6116 Y-40.0525
G3 X16.0644 Y-40.8753 I14.0561 J7.1992
G0 Z5.0
G0 X-38.4798 Y-71.4815
G1 Z0.0
G1 X-38.8269 Y-71.8171
G2 X-44.5026 Y-76.8771 I-67.2383 J69.7067
G1 X-45.0596 Y-77.3303
G1 X-45.6033 Y-77.765
G1 X-46.134 Y-78.1817
G2 X-46.3926 Y-78.382 I-7.3744 J9.2514
G1 X-46.9043 Y-78.7731
G1 X-47.4037 Y-79.1479
G2 X-49.3727 Y-80.5562 I-36.4693 J48.9082
G2 X-49.592 Y-80.706 I-5.9563 J8.4882
G2 X-51.3443 Y-81.8478 I-28.3246 J41.5529
G2 X-54.5377 Y-83.6529 I-21.4868 J34.2842
G1 X-54.8472 Y-83.8067
G2 X-56.063 Y-84.3705 I-13.3958 J27.2962
G2 X-57.1498 Y-84.8159 I-10.6436 J24.4224
G2 X-58.119 Y-85.1619 I-6.9783 J18.0171
G2 X-58.9812 Y-85.4253 I-6.052 J18.2698
G2 X-60.5198 Y-85.7786 I-4.5092 J16.1102
G2 X-61.6954 Y-85.9331 I-2.393 J13.6541
G2 X-63.4738 Y-85.9365 I-0.9085 J10.2427
G2 X-64.3558 Y-85.8139 I0.8317 J9.2203
G2 X-64.7908 Y-85.7176 I1.4035 J7.3683
G2 X-65.2196 Y-85.5968 I1.4026 J5.8018
G0 Z5.0
G0 X-58.1752 Y-72.6021
G1 Z0.0
G3 X-59.2872 Y-73.174 I2.855 J-6.9187
G3 X-60.2415 Y-73.8559 I4.7579 J-7.6666
G3 X-61.0598 Y-74.5955 I6.3813 J-7.8833
G3 X-62.4042 Y-76.1779 I9.4053 J-9.3525
G3 X-63.3945 Y-77.7296 I12.3805 J-8.9932
G3 X-64.7027 Y-80.7211 I14.7721 J-8.2419
G3 X-65.0444 Y-81.9438 I13.6419 J-4.4717
G3 X-65.3669 Y-84.1725 I12.0609 J-2.8831
G3 X-65.3683 Y-85.0419 I9.2115 J-0.4495
G3 X-65.2953 Y-85.806 I7.5821 J0.3391
G3 X-65.1612 Y-86.4688 I6.7032 J1.0111
G3 X-64.7278 Y-87.5733 I4.5899 J1.164
G3 X-64.2025 Y-88.2971 I3.1821 J1.7569
G3 X-63.106 Y-89.0588 I2.3494 J2.2117
G3 X-62.4681 Y-89.2631 I1.446 J3.4171
G3 X-61.8053 Y-89.3598 I1.0109 J4.6097
G3 X-60.3712 Y-89.2403 I-0.6787 J16.8025
G3 X-57.7374 Y-88.6902 I-2.2264 J17.2398
G3 X-55.5254 Y-87.9045 I-5.7749 J19.7663
G3 X-55.4073 Y-87.8545 I-0.7534 J1.9416
G3 X-55.2905 Y-87.8042 I-0.764 J1.9346
G3 X-53.4751 Y-86.9219 I-10.1313 J23.1573
G3 X-53.088 Y-86.71 I-6.133 J11.6585
G3 X-51.6206 Y-85.8333 I-14.7919 J26.4249
G3 X-49.1661 Y-84.1264 I-20.2978 J31.8066
G3 X-48.72 Y-83.7872 I-26.2643 J34.9982
G3 X-47.0786 Y-82.4751 I-39.3745 J50.9389
G3 X-47.0406 Y-82.4436 I-0.2925 J0.3926
G3 X-47.0029 Y-82.4124 I-0.2902 J0.3889
G3 X-46.9656 Y-82.3815 I-0.2878 J0.3854
G3 X-46.9285 Y-82.3507 I-0.2855 J0.3818
G3 X-46.8917 Y-82.3202 I-0.2833 J0.3784
G3 X-46.8553 Y-82.2898 I-0.281 J0.375
G3 X-44.5667 Y-80.3393 I-113.5913 J135.5933
G1 X-44.4955 Y-80.278
G2 X-43.3863 Y-79.3339 I100.4034 J-116.8286
G2 X-42.2537 Y-78.4181 I25.3878 J-30.2404
G3 X-41.0557 Y-77.3582 I-6.9299 J9.0399
G3 X-40.1472 Y-76.291 I-6.8892 J6.7847
G3 X-38.4622 Y-71.7478 I-7.0326 J5.1923
G3 X-38.5709 Y-69.3108 I-10.1737 J0.7672
G3 X-38.6863 Y-68.7105 I-10.7713 J-1.7597
G3 X-38.7382 Y-68.4873 I-5.2197 J-1.0952
G1 X-38.7502 Y-68.4385
G1 X-38.762 Y-68.3914
G3 X-38.9725 Y-67.6685 I-9.708 J-2.4344
G3 X-39.2415 Y-66.9653 I-7.1697 J-2.3399
G0 Z5.0
M5
M30
