( Made using CamBam - http://www.cambam.co.uk )
( Plane_3Mx3M 1/20/2014 12:44:23 PM )
( T0 : 0.0 )
G21 G90 G64 G40
G0 Z5.0
( T0 : 0.0 )
T0 M6
( 11-20 )
G17
M3 S1000
G0 X337.3035 Y-66.7924
G1 F2000.0 Z0.0
G2 X337.2251 Y-66.1017 I4.8429 J0.8995
G2 X337.3533 Y-64.757 I5.376 J0.1658
G1 X337.3622 Y-64.7173
G2 X337.7662 Y-63.4838 I7.1314 J-1.6528
G2 X338.3332 Y-62.3553 I9.1783 J-3.9048
G2 X339.0012 Y-61.3162 I11.5742 J-6.7059
G2 X339.7334 Y-60.3512 I15.5373 J-11.0292
G2 X341.3235 Y-58.5818 I19.8507 J-16.24
G1 X341.5258 Y-58.3776
G2 X341.9341 Y-57.9763 I21.6362 J-21.6022
G2 X342.7624 Y-57.1998 I22.1848 J-22.8355
G1 X343.1779 Y-56.8266
G2 X344.0156 Y-56.1014 I25.391 J-28.4858
G2 X345.708 Y-54.7267 I37.5059 J-44.4438
G1 X345.76 Y-54.6861
G2 X347.4421 Y-53.4138 I48.034 J-61.7575
G2 X350.7895 Y-51.0733 I53.5912 J-73.0847
G2 X354.0051 Y-48.9968 I67.3893 J-100.83
G2 X357.0699 Y-47.1315 I78.8259 J-126.0621
G1 X357.2507 Y-47.0243
G2 X360.149 Y-45.3443 I109.3875 J-185.3687
G1 X360.8323 Y-44.9577
G2 X366.259 Y-41.9956 I120.6439 J-214.5708
G2 X366.8569 Y-41.6796 I23.7959 J-44.3048
G1 X368.0361 Y-41.0618
G1 X369.1811 Y-40.4684
G2 X369.4588 Y-40.3254 I5.683 J-10.6961
G1 X370.5623 Y-39.7607
G1 X371.0976 Y-39.4887
G1 X371.625 Y-39.222
G1 X372.6647 Y-38.6995
G1 X373.1689 Y-38.4477
G2 X377.1532 Y-36.492 I192.4545 J-387.0497
G2 X380.6573 Y-34.8179 I149.109 J-307.6107
G2 X383.7358 Y-33.3792 I158.3823 J-334.8899
G2 X383.778 Y-33.3597 I0.3278 J-0.6531
G1 X384.4516 Y-33.0487
G1 X385.1046 Y-32.7485
G2 X385.1442 Y-32.7304 I0.2962 J-0.5934
G1 X386.4082 Y-32.1528
G1 X387.0014 Y-31.8833
G1 X387.5762 Y-31.623
G1 X388.6911 Y-31.1208
G2 X388.7565 Y-31.0914 I0.3274 J-0.6417
G2 X392.9318 Y-29.2401 I207.726 J-462.8559
G2 X393.7164 Y-28.8972 I38.9902 J-88.1431
G1 X394.0845 Y-28.7368
G1 X394.7979 Y-28.4271
G2 X400.1634 Y-26.1387 I197.3758 J-455.3373
G2 X402.8565 Y-25.0191 I176.5814 J-420.9921
G1 X404.2062 Y-24.4667
G1 X404.2906 Y-24.4324
G1 X405.5586 Y-23.9214
G0 Z5.0
G0 X232.2185 Y216.6148
G1 Z0.0
G2 X232.2497 Y216.8767 I3.515 J-0.2861
G2 X232.5513 Y217.8721 I4.1052 J-0.7004
G2 X232.7725 Y218.324 I6.3687 J-2.8388
G2 X233.0249 Y218.752 I6.2282 J-3.3836
G2 X233.3003 Y219.1588 I7.5954 J-4.8452
G1 X233.4444 Y219.3545
G2 X234.0588 Y220.1018 I9.2148 J-6.9512
G2 X234.7103 Y220.7929 I12.796 J-11.4098
G2 X235.3842 Y221.4387 I15.4001 J-15.395
G2 X235.4689 Y221.5161 I1.0925 J-1.1106
G2 X236.1573 Y222.1201 I22.9753 J-25.4909
G1 X236.503 Y222.409
G2 X237.9105 Y223.5101 I22.7066 J-27.5741
G2 X240.7505 Y225.4855 I33.6089 J-45.2906
G1 X240.9203 Y225.5961
G1 X241.2593 Y225.8151
G1 X241.5968 Y226.0305
G1 X242.2697 Y226.4528
G1 X242.9358 Y226.8625
G1 X243.265 Y227.062
G1 X243.9204 Y227.454
G1 X244.0013 Y227.5019
G1 X244.3245 Y227.6924
G1 X244.6458 Y227.8802
G1 X245.2852 Y228.2498
G2 X247.8238 Y229.6679 I61.1932 J-106.5584
G2 X252.6531 Y232.1968 I86.9585 J-160.1879
G1 X253.719 Y232.7313
G1 X254.2363 Y232.9881
G1 X255.2567 Y233.4899
G1 X255.5042 Y233.6107
G1 X256.4878 Y234.0874
G1 X256.7263 Y234.2022
G1 X257.674 Y234.6554
G1 X258.5938 Y235.091
G2 X260.3801 Y235.9255 I109.9971 J-233.1193
G2 X260.7996 Y236.1194 I12.1754 J-25.7886
G1 X261.6263 Y236.4994
G2 X263.2309 Y237.2289 I195.1406 J-427.0987
G2 X263.3251 Y237.2714 I0.7152 J-1.4593
G2 X264.0758 Y237.6089 I183.6352 J-407.3682
G2 X264.8037 Y237.9343 I32.3107 J-71.3194
G1 X265.5096 Y238.2479
G2 X266.879 Y238.8514 I121.3913 J-273.6058
G2 X269.4528 Y239.9688 I157.692 J-359.7139
G2 X278.5171 Y243.7478 I185.6371 J-432.5033
G1 X279.0863 Y243.9776
G1 X280.1542 Y244.4065
G1 X280.6218 Y244.5933
G1 X281.499 Y244.9422
G1 X283.0358 Y245.5484
G1 X284.19 Y245.9993
G1 X284.2983 Y246.0414
G1 X284.4033 Y246.0822
G1 X285.2166 Y246.397
G2 X287.6617 Y247.3282 I110.1118 J-285.4483
G0 Z5.0
G0 X273.3018 Y241.7439
G1 Z0.0
G1 X383.79 Y198.2666
G0 Z5.0
G0 X296.8363 Y382.546
G1 Z0.0
G1 X296.7999 Y382.4152
G1 X296.5174 Y381.3675
G1 X295.9627 Y379.2869
G1 X294.8752 Y375.1896
G1 X292.7731 Y367.2496
G1 X288.8375 Y352.3607
G1 X287.1169 Y345.8464
G1 X274.2221 Y296.9874
G1 X267.7782 Y272.5568
G1 X264.5569 Y260.3414
G1 X262.9464 Y254.2337
G1 X261.3361 Y248.1259
G0 Z5.0
G0 X149.6515 Y292.7998
G1 Z0.0
G3 X149.7736 Y292.7252 I0.7563 J1.1017
G3 X150.277 Y292.4562 I7.4658 J13.3631
G1 X150.7829 Y292.2018
G1 X151.0349 Y292.0776
G1 X151.2863 Y291.9548
G3 X153.298 Y290.9932 I98.3919 J203.2407
G1 X154.2752 Y290.5335
G1 X156.2022 Y289.6348
G1 X158.0713 Y288.7694
G1 X158.5243 Y288.5604
G1 X159.4234 Y288.1462
G1 X161.1943 Y287.3325
G1 X162.9107 Y286.5462
G1 X163.7424 Y286.1658
G1 X165.3802 Y285.418
G1 X166.9672 Y284.6945
G1 X168.5051 Y283.9945
G1 X171.4854 Y282.6403
G1 X174.2805 Y281.3727
G1 X179.5232 Y279.0002
G1 X181.8175 Y277.9637
G1 X186.1202 Y276.0223
G1 X193.6523 Y272.6301
G1 X199.3031 Y270.0897
G1 X203.5421 Y268.1862
G1 X205.1319 Y267.4728
G1 X210.6968 Y264.9775
G1 X211.3925 Y264.6658
G1 X213.8276 Y263.5751
G1 X216.2631 Y262.4851
G0 Z5.0
G0 X138.8824 Y209.4349
G1 Z0.0
G3 X138.768 Y209.4149 I0.0132 J-0.4119
G1 X138.713 Y209.3979
G3 X138.2912 Y209.2175 I1.3574 J-3.7576
G3 X137.4872 Y208.7932 I7.1371 J-14.4986
G3 X136.7111 Y208.3485 I22.4295 J-40.0368
G1 X136.6162 Y208.2927
G1 X136.427 Y208.181
G1 X136.0512 Y207.9567
G3 X134.5696 Y207.0505 I51.1481 J-85.2957
G1 X133.8558 Y206.6053
G1 X133.155 Y206.1642
G1 X132.8107 Y205.9462
G1 X132.4692 Y205.7294
G1 X132.1308 Y205.5138
G1 X131.963 Y205.4067
G1 X130.6281 Y204.5502
G1 X129.9827 Y204.1335
G1 X128.7139 Y203.3103
G1 X128.1001 Y202.9104
G1 X126.893 Y202.1211
G1 X126.3088 Y201.7379
G1 X126.2369 Y201.6907
G1 X123.9442 Y200.1803
G1 X123.4075 Y199.8253
G3 X119.1871 Y197.0208 I624.5609 J-944.4499
G1 X119.0718 Y196.9439
G1 X117.2357 Y195.7171
G1 X116.3755 Y195.1413
G1 X114.7098 Y194.0243
G1 X111.5895 Y191.9258
G1 X110.2253 Y191.0062
G1 X107.6691 Y189.2797
G1 X105.4338 Y187.7668
G1 X104.945 Y187.4356
G1 X103.0515 Y186.1513
G1 X101.3955 Y185.0266
G1 X98.4988 Y183.056
G3 X89.8207 Y177.1272 I1830.912 J-2689.2419
G3 X88.6676 Y176.3185 I4.4031 J-7.5049
G3 X87.7553 Y175.4002 I4.1618 J-5.0471
G3 X87.4083 Y174.9075 I3.9677 J-3.1629
G3 X87.1512 Y174.4014 I2.7824 J-1.7313
G3 X87.002 Y173.8973 I2.4297 J-0.9936
G3 X86.9762 Y173.4173 I1.7647 J-0.3353
G3 X87.3104 Y172.6269 I1.3302 J0.0965
G3 X87.5797 Y172.3931 I1.1019 J0.997
G3 X88.179 Y172.1223 I1.1431 J1.7314
G3 X88.7394 Y172.0187 I0.8717 J3.1494
G1 X88.8633 Y172.0082
G3 X89.825 Y172.0321 I0.3419 J5.6034
G3 X91.2402 Y172.3016 I-1.0655 J9.4439
G1 X91.4141 Y172.3488
G3 X91.7167 Y172.4371 I-1.9941 J7.4017
G3 X92.6127 Y172.7395 I-4.6113 J15.1417
G1 X292.4486 Y260.8902
G0 Z5.0
G0 X265.3247 Y373.7711
G1 Z0.0
G1 X265.3758 Y373.7477
G3 X266.2185 Y373.4384 I2.6965 J6.0452
G3 X266.3238 Y373.4086 I0.5536 J1.7529
G3 X267.1765 Y373.2239 I2.1761 J7.9873
G3 X268.8775 Y373.0861 I1.7673 J11.2496
G1 X269.0829 Y373.0855
G1 X269.2874 Y373.0878
G3 X270.9126 Y373.1948 I-0.3272 J17.3649
G1 X271.1081 Y373.217
G1 X271.4969 Y373.2664
G1 X271.6894 Y373.2933
G1 X271.8808 Y373.3216
G3 X273.398 Y373.5955 I-4.184 J27.5134
G3 X276.2927 Y374.3177 I-8.0368 J38.3768
G3 X276.9628 Y374.5152 I-27.4531 J94.3775
G1 X277.2915 Y374.6157
G1 X277.617 Y374.7174
G1 X278.2611 Y374.9251
G1 X278.3402 Y374.9511
G1 X278.4191 Y374.9773
G1 X278.4978 Y375.0034
G1 X279.125 Y375.216
G1 X279.7401 Y375.4314
G1 X280.3436 Y375.6488
G3 X282.7021 Y376.5525 I-27.1638 J74.4282
G1 X283.251 Y376.774
G1 X283.7899 Y376.9953
G3 X287.9914 Y378.8368 I-47.3867 J113.8365
G1 X288.9013 Y379.2598
G1 X289.7799 Y379.6755
G3 X291.4747 Y380.4968 I-102.1045 J212.8614
G1 X291.8705 Y380.6921
G3 X292.0651 Y380.7886 I-4.7358 J9.7963
G1 X292.8364 Y381.174
G1 X293.5817 Y381.5508
G3 X296.4545 Y383.0414 I-94.0263 J184.727
G1 X297.0797 Y383.3734
G3 X301.8902 Y386.0117 I-120.2789 J225.0113
G3 X301.9463 Y386.0433 I-0.3228 J0.6386
G1 X302.8381 Y386.5481
G1 X303.6724 Y387.0244
G3 X305.2321 Y387.9253 I-81.7143 J143.2572
G3 X305.2747 Y387.9502 I-0.2274 J0.4396
G3 X305.3171 Y387.9749 I-0.2263 J0.4373
G3 X305.3594 Y387.9995 I-0.2252 J0.4351
G3 X305.4015 Y388.024 I-0.2241 J0.433
G3 X305.4434 Y388.0485 I-0.2231 J0.4308
G1 X306.1104 Y388.4387
G3 X306.1495 Y388.4616 I-0.2055 J0.3949
G3 X306.1885 Y388.4845 I-0.2046 J0.393
G1 X307.4263 Y389.2156
G1 X307.9667 Y389.5374
G3 X308.4728 Y389.8402 I-28.5018 J48.2093
G1 X308.7098 Y389.9825
G3 X308.9392 Y390.1205 I-4.6446 J7.9797
G3 X309.827 Y390.6574 I-49.2377 J82.4268
G1 X310.6023 Y391.1298
G1 X310.6871 Y391.1816
G1 X310.7705 Y391.2327
G1 X310.8525 Y391.283
G1 X311.498 Y391.6798
G1 X312.062 Y392.0284
G3 X315.982 Y394.5124 I-109.0741 J176.4705
G0 Z5.0
G0 X71.0742 Y20.3684
G1 Z0.0
G1 X-28.6444 Y-15.9289
G0 Z5.0
G0 X-53.9425 Y78.1113
G1 Z0.0
G2 X-54.7987 Y79.3554 I3.8514 J3.5672
G2 X-55.2657 Y80.6615 I5.654 J2.7584
G2 X-55.3886 Y81.2934 I8.5408 J1.9887
G2 X-55.4868 Y82.5322 I9.08 J1.3433
G2 X-55.4794 Y83.1125 I8.8398 J0.1766
G2 X-55.3859 Y84.2316 I12.4273 J-0.4748
G2 X-54.9893 Y86.2952 I17.0893 J-2.2146
G2 X-54.4642 Y88.0552 I21.6141 J-5.49
G1 X-54.3315 Y88.4342
G1 X-54.2985 Y88.5258
G2 X-53.093 Y91.3679 I28.6859 J-10.4902
G2 X-50.8071 Y95.3931 I32.2985 J-15.6806
G2 X-50.1536 Y96.3496 I24.6195 J-16.1196
G1 X-49.8998 Y96.7022
G1 X-49.6735 Y97.0078
G1 X-49.5734 Y97.1406
G2 X-49.1908 Y97.6332 I41.5055 J-31.834
G2 X-49.0445 Y97.8157 I7.1573 J-5.5903
G1 X-48.915 Y97.9743
G2 X-48.4518 Y98.5206 I28.1986 J-23.4416
G2 X-47.9709 Y99.0516 I13.2977 J-11.5594
G1 X-47.6432 Y98.9243
G1 X-46.9914 Y98.6644
G1 X-46.3443 Y98.4002
G1 X-46.0226 Y98.2672
G1 X-45.3813 Y97.9995
G2 X-42.8345 Y96.9139 I-132.3503 J-314.0212
G1 X-41.5842 Y96.3723
G1 X-40.345 Y95.8316
G1 X-39.1167 Y95.2926
G1 X-37.8988 Y94.7558
G1 X-36.6912 Y94.2214
G1 X-36.0923 Y93.9558
G1 X-33.7078 Y92.8943
G1 X-32.5348 Y92.3702
G1 X-30.2084 Y91.3277
G1 X-27.9196 Y90.2987
G1 X-25.6677 Y89.2834
G1 X-21.2367 Y87.2788
G1 X-16.9468 Y85.3312
G1 X-12.7929 Y83.4401
G1 X-10.7814 Y82.5228
G1 X-6.8224 Y80.7146
G1 X-4.9052 Y79.8378
G1 X-3.9616 Y79.406
G1 X-3.7276 Y79.2989
G1 X-1.8591 Y78.4433
G1 X1.8188 Y76.7575
G1 X5.381 Y75.1228
G1 X8.8312 Y73.5377
G1 X12.1731 Y72.001
G2 X15.4101 Y70.5113 I-625.9808 J-1364.4371
G2 X15.8021 Y70.3308 I-13.4789 J-29.791
G1 X17.3637 Y69.6117
G1 X23.5116 Y66.778
G1 X29.274 Y64.1188
G1 X30.6244 Y63.4952
G1 X41.2569 Y58.5803
G1 X43.5824 Y57.5043
G1 X44.1456 Y57.2437
G1 X45.2632 Y56.7264
G1 X49.6631 Y54.689
G1 X50.6943 Y54.2113
G1 X54.7543 Y52.33
G1 X62.3658 Y48.8005
G1 X64.0307 Y48.0281
G1 X76.9314 Y42.0378
G1 X86.6049 Y37.5406
G1 X90.232 Y35.8533
G1 X96.579 Y32.8992
G1 X106.098 Y28.4651
G1 X115.6149 Y24.0267
G1 X345.2009 Y-57.202
G0 Z5.0
G0 X-232.5941 Y157.5698
G1 Z0.0
G1 X-160.49 Y65.0948
G0 Z5.0
M5
M30
