( Made using CamBam - http://www.cambam.co.uk )
( Hanische_new 1/25/2014 4:30:52 PM )
( T0 : 0.0 )
G21 G90 G64 G40
G0 Z5.0
( T0 : 0.0 )
T0 M6
( Profile1 )
G17
M3 S1000
G0 Z5.0
G0 X-34.7161 Y331.0922
G1 Z0.0
G3 X-37.364 Y333.0563 I-2.6484 J-0.8036
G3 X-40.1311 Y330.2889 I0.0 J-2.7671
G3 X-37.364 Y327.5218 I2.7671 J0.0
G3 X-34.5969 Y330.2889 I0.0 J2.7671
G3 X-34.7161 Y331.0922 I-2.7677 J-0.0002
G0 Z5.0
G0 X-34.0999 Y325.0976
G1 Z0.0
G3 X-36.6102 Y322.3162 I0.2859 J-2.7815
G3 X-33.8141 Y319.5199 I2.7963 J-0.0001
G3 X-31.0174 Y322.3162 I0.0003 J2.7965
G3 X-33.8141 Y325.1123 I-2.7962 J-0.0002
G3 X-34.0999 Y325.0976 I0.0002 J-2.7962
G0 Z5.0
G0 X-40.6714 Y323.744
G1 Z0.0
G3 X-43.4673 Y326.0228 I-2.796 J-0.5759
G3 X-46.3212 Y323.1682 I0.0004 J-2.8543
G3 X-43.4673 Y320.314 I2.8541 J-0.0001
G3 X-40.6127 Y323.1682 I-0.0001 J2.8547
G3 X-40.6714 Y323.744 I-2.8547 J-0.0001
G0 Z5.0
G0 X-39.2303 Y317.7825
G1 Z0.0
G3 X-41.2362 Y315.2338 I0.6161 J-2.5486
G3 X-38.6145 Y312.6121 I2.6217 J0.0
G3 X-35.9928 Y315.2338 I0.0005 J2.6213
G3 X-38.6145 Y317.8559 I-2.6218 J0.0002
G3 X-39.2303 Y317.7825 I0.0003 J-2.622
G0 Z5.0
G0 X-45.1447 Y313.9344
G1 Z0.0
G3 X-47.4236 Y315.1704 I-2.2789 J-1.4827
G3 X-50.1425 Y312.4516 I0.0003 J-2.7191
G3 X-47.4236 Y309.7327 I2.7187 J-0.0002
G3 X-44.7048 Y312.4516 I0.0006 J2.7183
G3 X-45.1447 Y313.9344 I-2.7188 J0.0001
G0 Z5.0
G0 X-42.813 Y309.0604
G1 Z0.0
G3 X-44.2321 Y306.8088 I1.0773 J-2.2519
G3 X-41.7358 Y304.3129 I2.496 J0.0001
G3 X-39.2395 Y306.8088 I0.0 J2.4963
G3 X-41.7358 Y309.3048 I-2.496 J-0.0001
G3 X-42.813 Y309.0604 I0.0 J-2.4963
G0 Z5.0
G0 X-46.3682 Y302.2032
G1 Z0.0
G3 X-47.3348 Y302.4387 I-0.9661 J-1.8634
G3 X-49.4335 Y300.3396 I0.0 J-2.0988
G3 X-47.3348 Y298.2405 I2.0993 J0.0002
G3 X-45.2353 Y300.3396 I0.0 J2.0995
G3 X-46.3682 Y302.2032 I-2.0989 J0.0001
G0 Z5.0
G0 X-51.6526 Y304.2926
G1 Z0.0
G3 X-51.4702 Y305.2499 I-2.4201 J0.9569
G3 X-54.0727 Y307.8524 I-2.6024 J0.0
G3 X-56.6758 Y305.2499 I-0.0002 J-2.6029
G3 X-54.0727 Y302.6472 I2.6033 J0.0005
G3 X-51.6526 Y304.2926 I0.0001 J2.6024
G0 Z5.0
G0 X-54.9752 Y310.8445
G1 Z0.0
G3 X-53.4966 Y313.2522 I-1.2209 J2.4076
G3 X-56.1962 Y315.9518 I-2.6994 J0.0001
G3 X-58.8958 Y313.2522 I-0.0001 J-2.6994
G3 X-56.1962 Y310.5526 I2.6999 J0.0003
G3 X-54.9752 Y310.8445 I0.0001 J2.6995
G0 Z5.0
G0 X-61.7658 Y311.6578
G1 Z0.0
G3 X-61.7477 Y311.9613 I-2.5363 J0.3038
G3 X-64.3018 Y314.5155 I-2.5541 J0.0001
G3 X-66.856 Y311.9613 I-0.0005 J-2.5536
G3 X-64.3018 Y309.4071 I2.554 J-0.0002
G3 X-61.7658 Y311.6578 I-0.0002 J2.5544
G0 Z5.0
G0 X-61.8515 Y305.2187
G1 Z0.0
G3 X-61.8861 Y305.2189 I-0.035 J-2.6315
G3 X-64.5182 Y302.5872 I-0.0002 J-2.6318
G3 X-61.8861 Y299.9555 I2.6316 J-0.0001
G3 X-59.2548 Y302.5872 I-0.0001 J2.6315
G3 X-61.8515 Y305.2187 I-2.6317 J0.0
G0 Z5.0
G0 X-68.6949 Y306.4632
G1 Z0.0
G3 X-68.6516 Y306.9432 I-2.6365 J0.4795
G3 X-71.3319 Y309.6231 I-2.68 J-0.0001
G3 X-74.0115 Y306.9432 I-0.0001 J-2.6795
G3 X-71.3319 Y304.2629 I2.6798 J-0.0004
G3 X-68.6949 Y306.4632 I0.0005 J2.6798
G0 Z5.0
G0 X-69.1718 Y300.8936
G1 Z0.0
G3 X-69.3909 Y300.9029 I-0.2187 J-2.5541
G3 X-71.9548 Y298.3391 I0.0 J-2.5639
G3 X-69.3909 Y295.7752 I2.5639 J0.0
G3 X-66.8271 Y298.3391 I0.0004 J2.5635
G3 X-69.1718 Y300.8936 I-2.5634 J0.0004
G0 Z5.0
G0 X-75.2994 Y299.4397
G1 Z0.0
G3 X-77.8604 Y301.4638 I-2.5605 J-0.6075
G3 X-80.4917 Y298.8321 I0.0001 J-2.6315
G3 X-77.8604 Y296.2003 I2.6317 J0.0
G3 X-75.2283 Y298.8321 I0.0002 J2.6318
G3 X-75.2994 Y299.4397 I-2.6316 J0.0001
G0 Z5.0
G0 X-73.2864 Y292.6417
G1 Z0.0
G3 X-75.178 Y290.1091 I0.7501 J-2.533
G3 X-72.537 Y287.4677 I2.6416 J0.0002
G3 X-69.8953 Y290.1091 I0.0004 J2.6413
G3 X-72.537 Y292.7504 I-2.6415 J-0.0001
G3 X-73.2864 Y292.6417 I0.0007 J-2.6417
G0 Z5.0
G0 X-78.6454 Y291.4483
G1 Z0.0
G3 X-81.4412 Y293.6899 I-2.7956 J-0.6225
G3 X-84.3054 Y290.8257 I-0.0001 J-2.8641
G3 X-81.4412 Y287.9617 I2.864 J0.0001
G3 X-78.5769 Y290.8257 I0.0002 J2.8641
G3 X-78.6454 Y291.4483 I-2.8641 J0.0001
G0 Z5.0
G0 X-78.7569 Y284.1333
G1 Z0.0
G3 X-78.7967 Y284.1336 I-0.04 J-2.6216
G3 X-81.4185 Y281.5115 I-0.0005 J-2.6212
G3 X-78.7967 Y278.8898 I2.6216 J-0.0001
G3 X-76.175 Y281.5115 I-0.0004 J2.6221
G3 X-78.7569 Y284.1333 I-2.6219 J0.0002
G0 Z5.0
G0 X-84.325 Y283.7785
G1 Z0.0
G3 X-87.1539 Y286.4335 I-2.8296 J-0.1803
G3 X-89.9892 Y283.5985 I-0.0003 J-2.835
G3 X-87.1539 Y280.7632 I2.8355 J0.0002
G3 X-84.3192 Y283.5985 I-0.0005 J2.8351
G3 X-84.325 Y283.7785 I-2.8353 J-0.0003
G0 Z5.0
G0 X-89.996 Y279.0024
G1 Z0.0
G3 X-92.2016 Y280.0284 I-2.2054 J-1.8574
G3 X-95.0852 Y277.1448 I0.0003 J-2.8839
G3 X-92.2016 Y274.2613 I2.8838 J0.0003
G3 X-89.3181 Y277.1448 I-0.0003 J2.8838
G3 X-89.996 Y279.0024 I-2.8833 J0.0002
G0 Z5.0
G0 X-84.7577 Y275.2828
G1 Z0.0
G3 X-85.2329 Y273.7928 I2.0982 J-1.4899
G3 X-82.6594 Y271.2189 I2.5739 J0.0001
G3 X-80.0859 Y273.7928 I0.0002 J2.5733
G3 X-82.6594 Y276.3662 I-2.5737 J-0.0002
G3 X-84.7577 Y275.2828 I-0.0001 J-2.5733
G0 Z5.0
G0 X-87.4163 Y270.6465
G1 Z0.0
G3 X-88.8268 Y271.0222 I-1.4104 J-2.4596
G3 X-91.6614 Y268.1872 I0.0001 J-2.8347
G3 X-88.8268 Y265.3519 I2.835 J-0.0003
G3 X-85.9915 Y268.1872 I-0.0006 J2.8359
G3 X-87.4163 Y270.6465 I-2.8353 J-0.0003
G0 Z5.0
G0 X-94.948 Y271.1855
G1 Z0.0
G3 X-94.9405 Y271.3967 I-2.9533 J0.2113
G3 X-97.9012 Y274.3578 I-2.961 J0.0001
G3 X-100.8626 Y271.3967 I-0.0003 J-2.9611
G3 X-97.9012 Y268.436 I2.961 J0.0003
G3 X-94.948 Y271.1855 I-0.0001 J2.9609
G0 Z5.0
G0 X-94.6159 Y265.2375
G1 Z0.0
G3 X-97.3389 Y262.3585 I0.1608 J-2.8794
G3 X-94.4554 Y259.4749 I2.8838 J0.0003
G3 X-91.5718 Y262.3585 I-0.0003 J2.8838
G3 X-94.4554 Y265.242 I-2.8833 J0.0002
G3 X-94.6159 Y265.2375 I0.0003 J-2.8839
G0 Z5.0
G0 X-99.977 Y264.9363
G1 Z0.0
G3 X-102.8952 Y267.6949 I-2.918 J-0.164
G3 X-105.8173 Y264.7728 I0.0003 J-2.9224
G3 X-102.8952 Y261.8507 I2.9223 J0.0002
G3 X-99.9724 Y264.7728 I0.0001 J2.9227
G3 X-99.977 Y264.9363 I-2.9227 J-0.0005
G0 Z5.0
G0 X-98.3507 Y257.9646
G1 Z0.0
G3 X-100.4891 Y255.2699 I0.6286 J-2.6947
G3 X-97.722 Y252.5024 I2.7672 J-0.0002
G3 X-94.9549 Y255.2699 I0.0 J2.7671
G3 X-97.722 Y258.037 I-2.7671 J0.0
G3 X-98.3507 Y257.9646 I0.0 J-2.7671
G0 Z5.0
G0 X-104.2653 Y257.8061
G1 Z0.0
G3 X-107.1092 Y260.5746 I-2.8437 J-0.0762
G3 X-109.9535 Y257.73 I-0.0001 J-2.8441
G3 X-107.1092 Y254.885 I2.8444 J-0.0005
G3 X-104.2643 Y257.73 I-0.0004 J2.8453
G3 X-104.2653 Y257.8061 I-2.8447 J-0.0001
G0 Z5.0
G0 X-105.7478 Y252.1562
G1 Z0.0
G3 X-106.423 Y252.2433 I-0.6755 J-2.5742
G3 X-109.084 Y249.5824 I-0.0001 J-2.6609
G3 X-106.423 Y246.9217 I2.6608 J0.0001
G3 X-103.762 Y249.5824 I-0.0001 J2.6611
G3 X-105.7478 Y252.1562 I-2.6613 J-0.0003
G0 Z5.0
G0 X-99.6311 Y248.3399
G1 Z0.0
G3 X-100.033 Y246.9369 I2.2496 J-1.4035
G3 X-97.3817 Y244.2859 I2.6509 J-0.0001
G3 X-94.7303 Y246.9369 I-0.0002 J2.6515
G3 X-97.3817 Y249.5879 I-2.6509 J0.0001
G3 X-99.6311 Y248.3399 I0.0002 J-2.6515
G0 Z5.0
G0 X-97.6843 Y241.3044
G1 Z0.0
G3 X-99.4363 Y239.0014 I0.6371 J-2.3026
G3 X-97.0468 Y236.6119 I2.3893 J-0.0003
G3 X-94.6573 Y239.0014 I0.0005 J2.389
G3 X-97.0468 Y241.3909 I-2.3896 J-0.0001
G3 X-97.6843 Y241.3044 I-0.0004 J-2.3891
G0 Z5.0
G0 X-104.0282 Y240.9714
G1 Z0.0
G3 X-106.7041 Y243.5107 I-2.6762 J-0.1405
G3 X-109.3844 Y240.8304 I-0.0005 J-2.6798
G3 X-106.7041 Y238.1505 I2.68 J0.0001
G3 X-104.0245 Y240.8304 I0.0001 J2.6795
G3 X-104.0282 Y240.9714 I-2.6798 J0.0004
G0 Z5.0
G0 X-103.2411 Y234.3488
G1 Z0.0
G3 X-105.5024 Y231.8029 I0.3026 J-2.546
G3 X-102.9386 Y229.2391 I2.5639 J0.0
G3 X-100.3748 Y231.8029 I0.0 J2.5639
G3 X-102.9386 Y234.3667 I-2.5639 J0.0
G3 X-103.2411 Y234.3488 I0.0 J-2.5639
G0 Z5.0
G0 X-109.8449 Y232.6138
G1 Z0.0
G3 X-112.3713 Y234.5624 I-2.5267 J-0.6638
G3 X-114.9833 Y231.95 I-0.0003 J-2.6118
G3 X-112.3713 Y229.3379 I2.6122 J0.0001
G3 X-109.7592 Y231.95 I0.0002 J2.6119
G3 X-109.8449 Y232.6138 I-2.6124 J0.0
G0 Z5.0
G0 X-113.9069 Y238.2427
G1 Z0.0
G3 X-112.775 Y240.4553 I-1.5967 J2.2126
G3 X-115.5035 Y243.1838 I-2.7286 J0.0
G3 X-118.2321 Y240.4553 I0.0 J-2.7286
G3 X-115.5035 Y237.7267 I2.7286 J0.0
G3 X-113.9069 Y238.2427 I0.0 J2.7286
G0 Z5.0
G0 X-118.6534 Y235.6834
G1 Z0.0
G3 X-121.106 Y237.1473 I-2.4525 J-1.3224
G3 X-123.8924 Y234.3609 I-0.0005 J-2.7859
G3 X-121.106 Y231.5741 I2.7862 J-0.0006
G3 X-118.3196 Y234.3609 I-0.0004 J2.7868
G3 X-118.6534 Y235.6834 I-2.7863 J0.0001
G0 Z5.0
G0 X-122.9839 Y241.733
G1 Z0.0
G3 X-121.8515 Y243.9358 I-1.5773 J2.2034
G3 X-124.5607 Y246.6451 I-2.7093 J-0.0001
G3 X-127.2699 Y243.9358 I-0.0004 J-2.7089
G3 X-124.5607 Y241.2266 I2.7093 J0.0001
G3 X-122.9839 Y241.733 I-0.0005 J2.7097
G0 Z5.0
G0 X-127.6875 Y237.6004
G1 Z0.0
G3 X-129.7807 Y238.5477 I-2.0933 J-1.8392
G3 X-132.5671 Y235.761 I-0.0005 J-2.7859
G3 X-129.7807 Y232.9746 I2.7863 J0.0
G3 X-126.9943 Y235.761 I0.0005 J2.7859
G3 X-127.6875 Y237.6004 I-2.7865 J0.0003
G0 Z5.0
G0 X-132.135 Y242.8726
G1 Z0.0
G3 X-131.1691 Y244.9508 I-1.7533 J2.0784
G3 X-133.888 Y247.6696 I-2.7191 J-0.0003
G3 X-136.6068 Y244.9508 I0.0003 J-2.7191
G3 X-133.888 Y242.2319 I2.7187 J-0.0002
G3 X-132.135 Y242.8726 I-0.0003 J2.7191
G0 Z5.0
G0 X-136.7374 Y238.3475
G1 Z0.0
G3 X-138.5037 Y239.0879 I-1.7662 J-1.7365
G3 X-140.98 Y236.6109 I0.0005 J-2.4769
G3 X-138.5037 Y234.1342 I2.4768 J0.0002
G3 X-136.0267 Y236.6109 I0.0003 J2.4767
G3 X-136.7374 Y238.3475 I-2.4769 J0.0001
G0 Z5.0
G0 X-143.0416 Y238.3902
G1 Z0.0
G3 Y238.4096 I-2.7764 J0.0188
G3 X-145.8183 Y241.1863 I-2.7769 J-0.0002
G3 X-148.5958 Y238.4096 I-0.0002 J-2.7773
G3 X-145.8183 Y235.6325 I2.7771 J0.0
G3 X-143.0416 Y238.3902 I0.0003 J2.7765
G0 Z5.0
G0 X-143.6114 Y245.692
G1 Z0.0
G3 X-141.1488 Y248.3542 I-0.2078 J2.6623
G3 X-143.8195 Y251.0245 I-2.6702 J0.0001
G3 X-146.4894 Y248.3542 I0.0 J-2.6699
G3 X-143.8195 Y245.6839 I2.6694 J-0.0009
G3 X-143.6114 Y245.692 I0.0003 J2.6704
G0 Z5.0
G0 X-149.3741 Y252.2205
G1 Z0.0
G3 X-148.52 Y254.1137 I-1.6712 J1.8933
G3 X-151.0452 Y256.6386 I-2.5248 J0.0001
G3 X-153.5705 Y254.1137 I0.0001 J-2.5254
G3 X-151.0452 Y251.5884 I2.5254 J0.0001
G3 X-149.3741 Y252.2205 I-0.0001 J2.5254
G0 Z5.0
G0 X-150.0798 Y259.3535
G1 Z0.0
G3 X-147.8041 Y261.8662 I-0.2485 J2.5119
G3 X-150.3286 Y264.3914 I-2.5247 J0.0006
G3 X-152.8546 Y261.8662 I-0.0001 J-2.5259
G3 X-150.3286 Y259.3413 I2.5255 J0.0006
G3 X-150.0798 Y259.3535 I0.0004 J2.5242
G0 Z5.0
G0 X-142.9953 Y260.3328
G1 Z0.0
G3 X-140.4467 Y258.1121 I2.5488 J0.3523
G3 X-137.8725 Y260.6855 I0.0004 J2.5737
G3 X-140.4467 Y263.259 I-2.5732 J0.0003
G3 X-143.0195 Y260.6855 I0.0001 J-2.5729
G3 X-142.9953 Y260.3328 I2.5731 J-0.0004
G0 Z5.0
G0 X-137.5139 Y255.3635
G1 Z0.0
G3 X-138.1757 Y253.6479 I1.8923 J-1.7155
G3 X-135.6208 Y251.0937 I2.5547 J0.0005
G3 X-133.0673 Y253.6479 I-0.0004 J2.5539
G3 X-135.6208 Y256.2021 I-2.5534 J0.0008
G3 X-137.5139 Y255.3635 I-0.0008 J-2.5541
G0 Z5.0
G0 X-132.3283 Y260.0913
G1 Z0.0
G3 X-130.4194 Y259.2486 I1.9087 J1.7403
G3 X-127.8363 Y261.8321 I-0.0003 J2.5835
G3 X-130.4194 Y264.4152 I-2.5831 J0.0
G3 X-133.0026 Y261.8321 I-0.0004 J-2.5828
G3 X-132.3283 Y260.0913 I2.583 J-0.0005
G0 Z5.0
G0 X-127.4261 Y255.3965
G1 Z0.0
G3 X-128.1519 Y253.59 I1.8869 J-1.8071
G3 X-125.5398 Y250.9776 I2.6125 J0.0001
G3 X-122.9277 Y253.59 I0.0003 J2.6118
G3 X-125.5398 Y256.2021 I-2.6122 J-0.0001
G3 X-127.4261 Y255.3965 I0.0006 J-2.6127
G0 Z5.0
G0 X-123.0946 Y261.9897
G1 Z0.0
G3 X-121.7343 Y261.583 I1.3599 J2.0699
G3 X-119.258 Y264.0597 I0.0001 J2.4763
G3 X-121.7343 Y266.5364 I-2.4768 J-0.0002
G3 X-124.2114 Y264.0597 I-0.0003 J-2.4767
G3 X-123.0946 Y261.9897 I2.4767 J0.0
G0 Z5.0
G0 X-118.048 Y258.4817
G1 Z0.0
G3 X-118.5084 Y257.0127 I2.113 J-1.4688
G3 X-115.9349 Y254.4392 I2.5733 J-0.0002
G3 X-113.3614 Y257.0127 I0.0002 J2.5733
G3 X-115.9349 Y259.5862 I-2.5737 J-0.0002
G3 X-118.048 Y258.4817 I-0.0001 J-2.5733
G0 Z5.0
G0 X-113.7937 Y263.6842
G1 Z0.0
G3 X-112.097 Y263.0789 I1.6966 J2.0748
G3 X-109.4167 Y265.7591 I-0.0003 J2.6806
G3 X-112.097 Y268.4391 I-2.68 J-0.0001
G3 X-114.7773 Y265.7591 I0.0003 J-2.6806
G3 X-113.7937 Y263.6842 I2.6802 J-0.0001
G0 Z5.0
G0 X-115.6558 Y271.4598
G1 Z0.0
G3 X-113.5777 Y274.0942 I-0.6309 J2.6345
G3 X-116.287 Y276.8034 I-2.7093 J-0.0001
G3 X-118.9962 Y274.0942 I-0.0004 J-2.7089
G3 X-116.287 Y271.3853 I2.7087 J-0.0002
G3 X-115.6558 Y271.4598 I0.0002 J2.709
G0 Z5.0
G0 X-109.9428 Y272.8433
G1 Z0.0
G3 X-107.1878 Y270.6756 I2.7552 J0.6672
G3 X-104.3525 Y273.5106 I0.0003 J2.835
G3 X-107.1878 Y276.3456 I-2.8349 J0.0001
G3 X-110.0224 Y273.5106 I0.0001 J-2.8347
G3 X-109.9428 Y272.8433 I2.8348 J-0.0001
G0 Z5.0
G0 X-111.4403 Y280.1593
G1 Z0.0
G3 X-109.2824 Y282.8041 I-0.5413 J2.6443
G3 X-111.9813 Y285.5033 I-2.6993 J-0.0001
G3 X-114.6809 Y282.8041 I-0.0001 J-2.6995
G3 X-111.9813 Y280.1045 I2.6994 J-0.0001
G3 X-111.4403 Y280.1593 I-0.0002 J2.6991
G0 Z5.0
G0 X-104.7511 Y280.2592
G1 Z0.0
G3 X-101.9457 Y277.4949 I2.8058 J0.0419
G3 X-99.1393 Y280.3009 I0.0005 J2.8059
G3 X-101.9457 Y283.1069 I-2.8062 J-0.0002
G3 X-104.7514 Y280.3009 I0.0008 J-2.8065
G3 X-104.7511 Y280.2592 I2.8062 J0.0001
G0 Z5.0
G0 X-105.8153 Y286.9151
G1 Z0.0
G3 X-103.5746 Y289.5427 I-0.4201 J2.6275
G3 X-106.2355 Y292.2033 I-2.6608 J-0.0001
G3 X-108.8965 Y289.5427 I0.0 J-2.661
G3 X-106.2355 Y286.8817 I2.6609 J-0.0001
G3 X-105.8153 Y286.9151 I0.0001 J2.6609
G0 Z5.0
G0 X-99.0361 Y286.7822
G1 Z0.0
G3 X-99.0367 Y286.7267 I2.8542 J-0.056
G3 X-96.1821 Y283.8721 I2.8547 J0.0001
G3 X-93.3275 Y286.7267 I-0.0001 J2.8547
G3 X-96.1821 Y289.5809 I-2.8541 J0.0001
G3 X-99.0361 Y286.7822 I0.0001 J-2.8547
G0 Z5.0
G0 X-99.0922 Y292.8133
G1 Z0.0
G3 X-96.3509 Y295.5802 I-0.0257 J2.767
G3 X-99.118 Y298.3477 I-2.7677 J-0.0002
G3 X-101.8851 Y295.5802 I0.0 J-2.7671
G3 X-99.118 Y292.8131 I2.7671 J0.0
G3 X-99.0922 Y292.8133 I0.0 J2.7671
G0 Z5.0
G0 X-92.6697 Y293.1493
G1 Z0.0
G3 X-89.8576 Y290.4808 I2.8118 J0.1471
G3 X-87.0422 Y293.2965 I-0.0006 J2.8159
G3 X-89.8576 Y296.1118 I-2.8154 J-0.0001
G3 X-92.6736 Y293.2965 I-0.0008 J-2.8153
G3 X-92.6697 Y293.1493 I2.8156 J0.0
G0 Z5.0
G0 X-93.1106 Y301.1787
G1 Z0.0
G3 X-90.6045 Y303.8257 I-0.1454 J2.6475
G3 X-93.2558 Y306.4767 I-2.6509 J0.0001
G3 X-95.9065 Y303.8257 I0.0005 J-2.6512
G3 X-93.2558 Y301.1747 I2.651 J0.0
G3 X-93.1106 Y301.1787 I-0.0002 J2.6515
G0 Z5.0
G0 X-88.3996 Y301.4411
G1 Z0.0
G3 X-85.7234 Y298.9099 I2.6761 J0.149
G3 X-83.0432 Y301.5902 I-0.0003 J2.6806
G3 X-85.7234 Y304.2701 I-2.68 J-0.0001
G3 X-88.4037 Y301.5902 I0.0003 J-2.6806
G3 X-88.3996 Y301.4411 I2.6802 J-0.0001
G0 Z5.0
G0 X-82.6082 Y307.3453
G1 Z0.0
G3 X-80.6226 Y306.5343 I1.9851 J2.0238
G3 X-77.7873 Y309.3692 I0.0003 J2.835
G3 X-80.6226 Y312.2042 I-2.8349 J0.0001
G3 X-83.458 Y309.3692 I-0.0003 J-2.835
G3 X-82.6082 Y307.3453 I2.8349 J-0.0001
G0 Z5.0
G0 X-87.9327 Y312.3797
G1 Z0.0
G3 X-87.1869 Y314.2544 I-1.9823 J1.8743
G3 X-89.9154 Y316.9829 I-2.7282 J0.0003
G3 X-92.644 Y314.2544 I0.0005 J-2.7291
G3 X-89.9154 Y311.5259 I2.7289 J0.0004
G3 X-87.9327 Y312.3797 I0.0005 J2.7281
G0 Z5.0
G0 X-83.8797 Y316.1192
G1 Z0.0
G3 X-81.9807 Y315.2876 I1.899 J1.7521
G3 X-79.3983 Y317.8707 I-0.0006 J2.5831
G3 X-81.9807 Y320.4542 I-2.5827 J0.0008
G3 X-84.5645 Y317.8707 I0.0001 J-2.5839
G3 X-83.8797 Y316.1192 I2.5838 J0.0007
G0 Z5.0
G0 X-75.2276 Y316.1212
G1 Z0.0
G3 X-72.3441 Y313.2384 I2.8834 J0.0006
G3 X-69.4612 Y316.122 I-0.0002 J2.8831
G3 X-72.3441 Y319.0052 I-2.8832 J0.0
G3 X-75.2276 Y316.122 I-0.0007 J-2.8829
G3 Y316.1212 I2.8834 J-0.0001
G0 Z5.0
G0 X-75.512 Y322.8462
G1 Z0.0
G3 X-73.1399 Y325.3207 I-0.1046 J2.4745
G3 X-75.6169 Y327.7974 I-2.4763 J0.0004
G3 X-78.0933 Y325.3207 I-0.0002 J-2.4762
G3 X-75.6169 Y322.844 I2.4768 J0.0002
G3 X-75.512 Y322.8462 I0.0003 J2.4767
G0 Z5.0
G0 X-69.8558 Y324.0961
G1 Z0.0
G3 X-67.3625 Y322.0933 I2.4936 J0.551
G3 X-64.8076 Y324.6475 I0.0 J2.5549
G3 X-67.3625 Y327.2017 I-2.5547 J-0.0005
G3 X-69.916 Y324.6475 I0.0004 J-2.5539
G3 X-69.8558 Y324.0961 I2.5538 J-0.0004
G0 Z5.0
G0 X-63.0513 Y322.1529
G1 Z0.0
G3 X-63.1491 Y321.4539 I2.4464 J-0.6986
G3 X-60.6046 Y318.9094 I2.5446 J0.0
G3 X-58.0607 Y321.4539 I-0.0007 J2.5445
G3 X-60.6046 Y323.9985 I-2.544 J0.0006
G3 X-63.0513 Y322.1529 I-0.0003 J-2.5442
G0 Z5.0
G0 X-61.2898 Y329.4434
G1 Z0.0
G3 X-60.6742 Y329.3701 I0.6158 J2.5486
G3 X-58.0524 Y331.9921 I0.0005 J2.6212
G3 X-60.6742 Y334.6139 I-2.6216 J0.0001
G3 X-63.2959 Y331.9921 I0.0004 J-2.6221
G3 X-61.2898 Y329.4434 I2.6219 J-0.0002
G0 Z5.0
G0 X-55.5515 Y328.4759
G1 Z0.0
G3 X-55.5885 Y328.0334 I2.6235 J-0.4423
G3 X-52.9282 Y325.3727 I2.6603 J-0.0003
G3 X-50.2672 Y328.0334 I0.0001 J2.6609
G3 X-52.9282 Y330.694 I-2.6608 J-0.0001
G3 X-55.5515 Y328.4759 I0.0002 J-2.6605
G0 Z5.0
G0 X-52.5003 Y322.5411
G1 Z0.0
G3 X-53.9762 Y320.1231 I1.2433 J-2.4183
G3 X-51.2573 Y317.4046 I2.7186 J0.0
G3 X-48.5385 Y320.1231 I0.0006 J2.7183
G3 X-51.2573 Y322.842 I-2.7187 J0.0002
G3 X-52.5003 Y322.5411 I0.0003 J-2.7191
G0 Z5.0
G0 X-47.272 Y330.7329
G1 Z0.0
G3 X-45.8306 Y330.312 I1.4419 J2.2591
G3 X-43.1503 Y332.9919 I0.0005 J2.6798
G3 X-45.8306 Y335.6718 I-2.68 J-0.0001
G3 X-48.5102 Y332.9919 I-0.0001 J-2.6795
G3 X-47.272 Y330.7329 I2.68 J0.0001
G0 Z5.0
G0 X-51.6365 Y336.1573
G1 Z0.0
G3 X-50.6221 Y338.2756 I-1.7043 J2.1182
G3 X-53.3409 Y340.9945 I-2.7187 J0.0002
G3 X-56.0598 Y338.2756 I0.0003 J-2.7191
G3 X-53.3409 Y335.5568 I2.7191 J0.0003
G3 X-51.6365 Y336.1573 I0.0002 J2.7187
G0 Z5.0
G0 X-47.1684 Y341.7282
G1 Z0.0
G3 X-45.5461 Y341.1582 I1.622 J2.0223
G3 X-42.9533 Y343.7513 I-0.0002 J2.593
G3 X-45.5461 Y346.3441 I-2.593 J-0.0002
G3 X-48.1388 Y343.7513 I-0.0002 J-2.5926
G3 X-47.1684 Y341.7282 I2.5924 J-0.0007
G0 Z5.0
G0 X-41.6689 Y339.5607
G1 Z0.0
G3 X-41.8515 Y338.5991 I2.4393 J-0.9614
G3 X-39.2298 Y335.9771 I2.6215 J-0.0006
G3 X-36.6074 Y338.5991 I0.0 J2.6224
G3 X-39.2298 Y341.2212 I-2.6222 J-0.0002
G3 X-41.6689 Y339.5607 I0.0003 J-2.622
G0 Z5.0
G0 X-37.4953 Y344.8183
G1 Z0.0
G3 X-35.9074 Y344.2646 I1.5882 J2.0007
G3 X-33.3532 Y346.8188 I0.0001 J2.5541
G3 X-35.9074 Y349.373 I-2.554 J0.0002
G3 X-38.4616 Y346.8188 I0.0002 J-2.5544
G3 X-37.4953 Y344.8183 I2.5545 J0.0003
G0 Z5.0
G0 X-41.6388 Y350.8152
G1 Z0.0
G3 X-40.6161 Y352.765 I-1.3471 J1.9496
G3 X-42.9857 Y355.1353 I-2.3697 J0.0006
G3 X-45.3559 Y352.765 I-0.0001 J-2.3701
G3 X-42.9857 Y350.3951 I2.3698 J0.0
G3 X-41.6388 Y350.8152 I-0.0002 J2.3697
G0 Z5.0
G0 X-35.2107 Y354.4607
G1 Z0.0
G3 X-33.1747 Y353.2746 I2.0363 J1.1548
G3 X-30.8334 Y355.6158 I0.0002 J2.3411
G3 X-33.1747 Y357.9571 I-2.3413 J0.0
G3 X-35.5153 Y355.6158 I0.0006 J-2.3412
G3 X-35.2107 Y354.4607 I2.3409 J-0.0004
G0 Z5.0
G0 X-26.4458 Y355.8294
G1 Z0.0
G3 X-24.008 Y353.7431 I2.4374 J0.3806
G3 X-21.5413 Y356.2101 I-0.0001 J2.4668
G3 X-24.008 Y358.6768 I-2.4668 J-0.0002
G3 X-26.4754 Y356.2101 I-0.0001 J-2.4673
G3 X-26.4458 Y355.8294 I2.4669 J-0.0001
G0 Z5.0
G0 X-17.3672 Y356.3019
G1 Z0.0
G3 X-14.7779 Y353.844 I2.5891 J0.1347
G3 X-12.1844 Y356.4368 I0.0008 J2.5926
G3 X-14.7779 Y359.0296 I-2.5932 J-0.0004
G3 X-17.3707 Y356.4368 I0.0002 J-2.593
G3 X-17.3672 Y356.3019 I2.5926 J-0.0002
G0 Z5.0
G0 X-9.0595 Y355.5318
G1 Z0.0
G3 X-9.0715 Y355.2734 I2.7841 J-0.2581
G3 X-6.2754 Y352.4774 I2.7954 J-0.0006
G3 X-3.4794 Y355.2734 I0.0 J2.7961
G3 X-6.2754 Y358.0698 I-2.7956 J0.0008
G3 X-9.0595 Y355.5318 I0.0 J-2.7961
G0 Z5.0
G0 X-0.7276 Y354.1007
G1 Z0.0
G3 X-0.7667 Y353.6421 I2.6698 J-0.4586
G3 X1.9425 Y350.9329 I2.7093 J0.0001
G3 X4.6511 Y353.6421 I-0.0004 J2.7089
G3 X1.9425 Y356.351 I-2.7087 J0.0002
G3 X-0.7276 Y354.1007 I-0.0004 J-2.7089
G0 Z5.0
G0 X8.4675 Y351.1076
G1 Z0.0
G3 X8.3359 Y350.278 I2.5482 J-0.8295
G3 X11.0162 Y347.5977 I2.6802 J-0.0001
G3 X13.6958 Y350.278 I-0.0002 J2.6798
G3 X11.0162 Y352.958 I-2.68 J-0.0001
G3 X8.4675 Y351.1076 I-0.0005 J-2.6798
G0 Z5.0
G0 X16.6851 Y348.4195
G1 Z0.0
G3 X16.547 Y347.5533 I2.6489 J-0.8665
G3 X19.334 Y344.7665 I2.7869 J0.0002
G3 X22.1204 Y347.5533 I-0.0004 J2.7868
G3 X19.334 Y350.34 I-2.7869 J-0.0002
G3 X16.6851 Y348.4195 I0.0 J-2.7871
G0 Z5.0
G0 X25.371 Y349.1127
G1 Z0.0
G3 X28.1101 Y346.5835 I2.7391 J0.2186
G3 X30.8579 Y349.3313 I0.0004 J2.7474
G3 X28.1101 Y352.0791 I-2.7478 J0.0
G3 X25.3623 Y349.3313 I-0.0004 J-2.7474
G3 X25.371 Y349.1127 I2.7478 J0.0
G0 Z5.0
G0 X30.9357 Y345.4573
G1 Z0.0
G3 X30.4624 Y343.8739 I2.4096 J-1.5828
G3 X33.3459 Y340.9907 I2.8833 J0.0001
G3 X36.2288 Y343.8739 I0.0002 J2.8826
G3 X33.3459 Y346.7575 I-2.883 J0.0006
G3 X30.9357 Y345.4573 I-0.0006 J-2.8829
G0 Z5.0
G0 X36.8703 Y349.2566
G1 Z0.0
G3 X39.1027 Y348.0349 I2.2326 J1.4293
G3 X41.7534 Y350.6859 I0.0003 J2.6503
G3 X39.1027 Y353.3369 I-2.6506 J0.0004
G3 X36.452 Y350.6859 I0.0004 J-2.6511
G3 X36.8703 Y349.2566 I2.6509 J-0.0001
G0 Z5.0
G0 X39.4285 Y343.1792
G1 Z0.0
G3 X37.6992 Y340.5752 I1.0962 J-2.6043
G3 X40.5248 Y337.7499 I2.8255 J0.0001
G3 X43.3505 Y340.5752 I0.0001 J2.8256
G3 X40.5248 Y343.4006 I-2.825 J0.0003
G3 X39.4285 Y343.1792 I-0.0001 J-2.8256
G0 Z5.0
G0 X45.3502 Y345.5245
G1 Z0.0
G3 X47.896 Y343.7947 I2.5456 J1.0082
G3 X50.6341 Y346.5328 I0.0002 J2.738
G3 X47.896 Y349.271 I-2.7384 J-0.0002
G3 X45.1578 Y346.5328 I-0.0002 J-2.738
G3 X45.3502 Y345.5245 I2.738 J-0.0002
G0 Z5.0
G0 X47.0435 Y340.4992
G1 Z0.0
G3 X45.0606 Y337.7392 I0.9302 J-2.7605
G3 X47.9731 Y334.8268 I2.9124 J0.0
G3 X50.8856 Y337.7392 I0.0005 J2.912
G3 X47.9731 Y340.6517 I-2.9125 J0.0
G3 X47.0435 Y340.4992 I0.0005 J-2.913
G0 Z5.0
G0 X53.8862 Y341.0015
G1 Z0.0
G3 X56.6555 Y338.4283 I2.769 J0.2033
G3 X59.4322 Y341.205 I0.0003 J2.7765
G3 X56.6555 Y343.9821 I-2.7771 J0.0
G3 X53.8787 Y341.205 I-0.0003 J-2.7765
G3 X53.8862 Y341.0015 I2.7765 J-0.0003
G0 Z5.0
G0 X52.8214 Y334.3087
G1 Z0.0
G3 X52.3608 Y334.3451 I-0.4606 J-2.8953
G3 X49.429 Y331.4134 I0.0 J-2.9318
G3 X52.3608 Y328.4816 I2.9318 J0.0
G3 X55.2926 Y331.4134 I0.0 J2.9318
G3 X52.8214 Y334.3087 I-2.9318 J0.0
G0 Z5.0
G0 X58.4902 Y333.2683
G1 Z0.0
G3 X58.4428 Y332.748 I2.8365 J-0.5206
G3 X61.3263 Y329.8644 I2.8838 J0.0003
G3 X64.2099 Y332.748 I-0.0003 J2.8838
G3 X61.3263 Y335.6315 I-2.8833 J0.0002
G3 X58.4902 Y333.2683 I0.0003 J-2.8839
G0 Z5.0
G0 X58.2491 Y326.6831
G1 Z0.0
G3 X58.1637 Y326.6846 I-0.0849 J-2.32
G3 X55.8424 Y324.363 I-0.0003 J-2.321
G3 X58.1637 Y322.041 I2.3215 J-0.0005
G3 X60.4857 Y324.363 I-0.0002 J2.3222
G3 X58.2491 Y326.6831 I-2.3216 J0.0001
G0 Z5.0
G0 X65.049 Y323.2703
G1 Z0.0
G3 X64.79 Y322.1764 I2.1787 J-1.0934
G3 X67.2278 Y319.7386 I2.4377 J0.0
G3 X69.6655 Y322.1764 I0.0 J2.4377
G3 X67.2278 Y324.6145 I-2.438 J0.0001
G3 X65.049 Y323.2703 I-0.0001 J-2.4376
G0 Z5.0
G0 X68.8095 Y328.8601
G1 Z0.0
G3 X70.3325 Y328.3955 I1.523 J2.2639
G3 X73.061 Y331.124 I0.0 J2.7286
G3 X70.3325 Y333.8525 I-2.7286 J0.0
G3 X67.604 Y331.124 I0.0 J-2.7286
G3 X68.8095 Y328.8601 I2.7286 J0.0
G0 Z5.0
G0 X75.2458 Y327.2605
G1 Z0.0
G3 X75.1666 Y326.6147 I2.6015 J-0.6465
G3 X77.8469 Y323.9347 I2.6804 J0.0004
G3 X80.5272 Y326.6147 I0.0004 J2.6799
G3 X77.8469 Y329.2946 I-2.68 J-0.0001
G3 X75.2458 Y327.2605 I0.0003 J-2.6806
G0 Z5.0
G0 X75.8046 Y319.9863
G1 Z0.0
G3 X73.411 Y317.4011 I0.1986 J-2.5845
G3 X76.0038 Y314.808 I2.5924 J-0.0007
G3 X78.5966 Y317.4011 I-0.0001 J2.5929
G3 X76.0038 Y319.9939 I-2.5925 J0.0003
G3 X75.8046 Y319.9863 I-0.0006 J-2.5922
G0 Z5.0
G0 X84.0152 Y321.6327
G1 Z0.0
G3 X86.5864 Y319.5261 I2.571 J0.5156
G3 X89.2089 Y322.1481 I0.0 J2.6224
G3 X86.5864 Y324.7702 I-2.6222 J-0.0002
G3 X83.964 Y322.1481 I0.0 J-2.6224
G3 X84.0152 Y321.6327 I2.6222 J0.0002
G0 Z5.0
G0 X89.5557 Y328.2655
G1 Z0.0
G3 X91.3048 Y327.631 I1.7492 J2.0941
G3 X94.0334 Y330.3595 I0.0 J2.7286
G3 X91.3048 Y333.088 I-2.7286 J0.0
G3 X88.5763 Y330.3595 I0.0 J-2.7286
G3 X89.5557 Y328.2655 I2.7286 J0.0
G0 Z5.0
G0 X85.2725 Y332.1911
G1 Z0.0
G3 X85.9718 Y333.9889 I-1.962 J1.7982
G3 X83.3108 Y336.6496 I-2.6615 J-0.0009
G3 X80.6499 Y333.9889 I0.0 J-2.661
G3 X83.3108 Y331.3279 I2.6609 J-0.0001
G3 X85.2725 Y332.1911 I-0.0004 J2.6614
G0 Z5.0
G0 X89.4409 Y337.8185
G1 Z0.0
G3 X91.0478 Y337.2883 I1.6067 J2.169
G3 X93.7467 Y339.9875 I-0.0002 J2.6991
G3 X91.0478 Y342.6871 I-2.6995 J0.0001
G3 X88.3483 Y339.9875 I-0.0001 J-2.6994
G3 X89.4409 Y337.8185 I2.6993 J0.0001
G0 Z5.0
G0 X85.0812 Y343.1712
G1 Z0.0
G3 X86.0793 Y345.2716 I-1.7107 J2.1003
G3 X83.3701 Y347.9808 I-2.7093 J-0.0001
G3 X80.6609 Y345.2716 I0.0005 J-2.7097
G3 X83.3701 Y342.5627 I2.7095 J0.0006
G3 X85.0812 Y343.1712 I0.0004 J2.7089
G0 Z5.0
G0 X78.4884 Y339.9696
G1 Z0.0
G3 X75.99 Y341.5337 I-2.4983 J-1.2133
G3 X73.2133 Y338.7569 I0.0006 J-2.7774
G3 X75.99 Y335.9798 I2.7771 J0.0
G3 X78.7675 Y338.7569 I-0.0002 J2.7777
G3 X78.4884 Y339.9696 I-2.7773 J-0.0006
G0 Z5.0
G0 X75.6279 Y346.1276
G1 Z0.0
G3 X77.2123 Y348.6109 I-1.1535 J2.4831
G3 X74.4742 Y351.3491 I-2.738 J0.0002
G3 X71.736 Y348.6109 I-0.0002 J-2.738
G3 X74.4742 Y345.8728 I2.7384 J0.0002
G3 X75.6279 Y346.1276 I0.0002 J2.738
G0 Z5.0
G0 X69.2372 Y341.395
G1 Z0.0
G3 X67.0445 Y342.4997 I-2.1927 J-1.6238
G3 X64.316 Y339.7712 I0.0 J-2.7286
G3 X67.0445 Y337.0426 I2.7286 J0.0
G3 X69.773 Y339.7712 I0.0 J2.7286
G3 X69.2372 Y341.395 I-2.7286 J0.0
G0 Z5.0
G0 X66.2893 Y345.3603
G1 Z0.0
G3 X67.3235 Y347.4179 I-1.5296 J2.0576
G3 X64.7597 Y349.9817 I-2.5639 J0.0
G3 X62.1959 Y347.4179 I0.0 J-2.5639
G3 X64.7597 Y344.8541 I2.5639 J0.0
G3 X66.2893 Y345.3603 I0.0 J2.5639
G0 Z5.0
G0 X66.2199 Y353.8162
G1 Z0.0
G3 X68.8497 Y356.4671 I-0.0217 J2.6514
G3 X66.1984 Y359.1181 I-2.6509 J0.0001
G3 X63.547 Y356.4671 I0.0002 J-2.6515
G3 X66.1984 Y353.8161 I2.6509 J-0.0001
G3 X66.2199 Y353.8162 I-0.0002 J2.6515
G0 Z5.0
G0 X59.1448 Y352.0208
G1 Z0.0
G3 X56.5562 Y354.0342 I-2.5881 J-0.6568
G3 X53.8856 Y351.3639 I-0.0002 J-2.6705
G3 X56.5562 Y348.6936 I2.6709 J0.0006
G3 X59.2269 Y351.3639 I0.0003 J2.6704
G3 X59.1448 Y352.0208 I-2.6702 J0.0001
G0 Z5.0
G0 X58.557 Y358.7414
G1 Z0.0
G3 X60.8185 Y361.2086 I-0.2159 J2.468
G3 X58.3415 Y363.6856 I-2.4771 J0.0
G3 X55.8645 Y361.2086 I0.0003 J-2.4774
G3 X58.3415 Y358.7319 I2.4768 J0.0002
G3 X58.557 Y358.7414 I-0.0004 J2.4774
G0 Z5.0
G0 X51.1678 Y356.1696
G1 Z0.0
G3 X48.8199 Y357.8386 I-2.3481 J-0.8172
G3 X46.334 Y355.3523 I-0.0003 J-2.4857
G3 X48.8199 Y352.866 I2.4863 J-0.0001
G3 X51.3059 Y355.3523 I0.0003 J2.4857
G3 X51.1678 Y356.1696 I-2.4863 J0.0001
G0 Z5.0
G0 X66.8657 Y364.9211
G1 Z0.0
G3 X69.055 Y363.635 I2.1895 J1.2206
G3 X71.5603 Y366.141 I-0.0007 J2.506
G3 X69.055 Y368.6466 I-2.5056 J0.0
G3 X66.5484 Y366.141 I-0.0004 J-2.5062
G3 X66.8657 Y364.9211 I2.5067 J0.0008
G0 Z5.0
G0 X73.2813 Y359.6734
G1 Z0.0
G3 X72.702 Y358.0501 I1.9846 J-1.6233
G3 X75.2659 Y355.4863 I2.5639 J0.0
G3 X77.8297 Y358.0501 I0.0 J2.5639
G3 X75.2659 Y360.614 I-2.5639 J0.0
G3 X73.2813 Y359.6734 I0.0 J-2.5639
G0 Z5.0
G0 X78.7927 Y364.1357
G1 Z0.0
G3 X80.6499 Y363.2498 I1.8571 J1.5036
G3 X83.0394 Y365.6393 I0.0005 J2.389
G3 X80.6499 Y368.0289 I-2.3893 J0.0003
G3 X78.2603 Y365.6393 I0.0002 J-2.3897
G3 X78.7927 Y364.1357 I2.3895 J-0.0001
G0 Z5.0
G0 X83.4808 Y358.0376
G1 Z0.0
G3 X82.5137 Y356.074 I1.5095 J-1.9635
G3 X84.9907 Y353.5974 I2.4767 J0.0
G3 X87.467 Y356.074 I0.0001 J2.4763
G3 X84.9907 Y358.5507 I-2.4765 J0.0002
G3 X83.4808 Y358.0376 I-0.0004 J-2.4766
G0 Z5.0
G0 X90.529 Y352.6093
G1 Z0.0
G3 X89.9702 Y350.9681 I2.1312 J-1.6414
G3 X92.6602 Y348.2785 I2.6894 J-0.0001
G3 X95.3494 Y350.9681 I0.0004 J2.6889
G3 X92.6602 Y353.658 I-2.6893 J0.0006
G3 X90.529 Y352.6093 I0.0001 J-2.69
G0 Z5.0
G0 X97.8183 Y344.7168
G1 Z0.0
G3 X96.9879 Y342.819 I1.7523 J-1.8974
G3 X99.571 Y340.2356 I2.5833 J-0.0002
G3 X102.1541 Y342.819 I0.0004 J2.5827
G3 X99.571 Y345.4022 I-2.5831 J0.0
G3 X97.8183 Y344.7168 I-0.0004 J-2.5828
G0 Z5.0
G0 X99.6646 Y335.9393
G1 Z0.0
G3 X97.4978 Y333.2692 I0.5617 J-2.6701
G3 X100.2263 Y330.5407 I2.7286 J0.0
G3 X102.9548 Y333.2692 I0.0 J2.7286
G3 X100.2263 Y335.9977 I-2.7286 J0.0
G3 X99.6646 Y335.9393 I0.0 J-2.7286
G0 Z5.0
G0 X106.4735 Y335.7934
G1 Z0.0
G3 X106.4729 Y335.7407 I2.4667 J-0.0529
G3 X108.9403 Y333.2737 I2.4677 J0.0007
G3 X111.4077 Y335.7407 I0.0001 J2.4673
G3 X108.9403 Y338.2078 I-2.4677 J-0.0007
G3 X106.4735 Y335.7934 I-0.0001 J-2.4673
G0 Z5.0
G0 X108.0412 Y328.9869
G1 Z0.0
G3 X105.9851 Y326.4035 I0.595 J-2.5835
G3 X108.6357 Y323.7522 I2.6508 J-0.0006
G3 X111.2864 Y326.4035 I-0.0004 J2.6511
G3 X108.6357 Y329.0545 I-2.6506 J0.0004
G3 X108.0412 Y328.9869 I0.0004 J-2.6511
G0 Z5.0
G0 X100.3188 Y325.5578
G1 Z0.0
G3 X97.7458 Y327.2307 I-2.5733 J-1.1427
G3 X94.9305 Y324.415 I-0.0003 J-2.815
G3 X97.7458 Y321.5993 I2.8156 J-0.0001
G3 X100.5611 Y324.415 I0.0003 J2.815
G3 X100.3188 Y325.5578 I-2.8156 J0.0001
G0 Z5.0
G0 X116.4716 Y324.4481
G1 Z0.0
G3 X116.4658 Y324.2779 I2.481 J-0.1704
G3 X118.9524 Y321.7916 I2.4863 J-0.0001
G3 X121.4384 Y324.2779 I0.0003 J2.4857
G3 X118.9524 Y326.7645 I-2.4862 J0.0005
G3 X116.4716 Y324.4481 I0.0002 J-2.4868
G0 Z5.0
G0 X117.7588 Y330.7395
G1 Z0.0
G3 X118.2414 Y330.6906 I0.4829 J2.3603
G3 X120.6502 Y333.0997 I0.0002 J2.4086
G3 X118.2414 Y335.5085 I-2.409 J-0.0002
G3 X115.8326 Y333.0997 I-0.0001 J-2.4087
G3 X117.7588 Y330.7395 I2.4092 J0.0001
G0 Z5.0
G0 X126.0822 Y329.3812
G1 Z0.0
G3 X126.0507 Y328.9932 I2.3773 J-0.3879
G3 X128.4595 Y326.584 I2.4092 J0.0001
G3 X130.8683 Y328.9932 I0.0002 J2.4086
G3 X128.4595 Y331.402 I-2.409 J-0.0002
G3 X126.0822 Y329.3812 I-0.0001 J-2.4087
G0 Z5.0
G0 X128.3201 Y321.5204
G1 Z0.0
G3 X126.5847 Y319.2222 I0.6544 J-2.2985
G3 X128.9742 Y316.8323 I2.3901 J0.0002
G3 X131.3637 Y319.2222 I-0.0002 J2.3897
G3 X128.9742 Y321.6117 I-2.3898 J-0.0003
G3 X128.3201 Y321.5204 I0.0003 J-2.3898
G0 Z5.0
G0 X135.5063 Y323.328
G1 Z0.0
G3 X137.9459 Y321.426 I2.4396 J0.6136
G3 X140.4609 Y323.9416 I-0.0005 J2.5154
G3 X137.9459 Y326.4569 I-2.5154 J-0.0001
G3 X135.4303 Y323.9416 I0.0003 J-2.516
G3 X135.5063 Y323.328 I2.5156 J0.0
G0 Z5.0
G0 X135.4551 Y314.7094
G1 Z0.0
G3 X135.44 Y314.7095 I-0.0148 J-2.4862
G3 X132.9533 Y312.2231 I0.0002 J-2.4868
G3 X135.44 Y309.7368 I2.4863 J-0.0001
G3 X137.9266 Y312.2231 I-0.0002 J2.4868
G3 X135.4551 Y314.7094 I-2.4863 J0.0001
G0 Z5.0
G0 X142.8242 Y315.0496
G1 Z0.0
G3 X145.4046 Y312.5856 I2.5804 J0.1191
G3 X147.9877 Y315.1687 I0.0004 J2.5828
G3 X145.4046 Y317.7518 I-2.5831 J0.0
G3 X142.8214 Y315.1687 I-0.0004 J-2.5828
G3 X142.8242 Y315.0496 I2.5831 J0.0
G0 Z5.0
G0 X141.1421 Y306.7602
G1 Z0.0
G3 X140.6166 Y306.813 I-0.5253 J-2.5887
G3 X137.9756 Y304.1716 I-0.0001 J-2.6409
G3 X140.6166 Y301.5303 I2.6415 J0.0002
G3 X143.2583 Y304.1716 I0.0004 J2.6413
G3 X141.1421 Y306.7602 I-2.6415 J-0.0001
G0 Z5.0
G0 X147.0179 Y306.1001
G1 Z0.0
G3 X147.0024 Y305.8242 I2.4619 J-0.2766
G3 X149.4794 Y303.3475 I2.4772 J0.0005
G3 X151.9564 Y305.8242 I0.0003 J2.4767
G3 X149.4794 Y308.3009 I-2.4768 J-0.0002
G3 X147.0179 Y306.1001 I0.0004 J-2.4774
G0 Z5.0
G0 X147.5889 Y298.3087
G1 Z0.0
G3 X145.0594 Y295.5875 I0.1995 J-2.7218
G3 X147.7879 Y292.859 I2.7289 J0.0004
G3 X150.5164 Y295.5875 I0.0005 J2.7281
G3 X147.7879 Y298.316 I-2.7282 J0.0003
G3 X147.5889 Y298.3087 I0.0005 J-2.7291
G0 Z5.0
G0 X155.3207 Y297.9102
G1 Z0.0
G3 X155.3175 Y297.7868 I2.396 J-0.1235
G3 X157.7166 Y295.3877 I2.3992 J0.0
G3 X160.1158 Y297.7868 I0.0 J2.3992
G3 X157.7166 Y300.186 I-2.3992 J0.0
G3 X155.3207 Y297.9102 I0.0 J-2.3992
G0 Z5.0
G0 X156.319 Y290.2384
G1 Z0.0
G3 X154.213 Y287.8398 I0.312 J-2.3978
G3 X156.6314 Y285.4213 I2.4184 J-0.0001
G3 X159.0506 Y287.8398 I0.0005 J2.4186
G3 X156.6314 Y290.2586 I-2.4186 J0.0002
G3 X156.319 Y290.2384 I-0.0004 J-2.418
G0 Z5.0
G0 X157.0861 Y305.6437
G1 Z0.0
G3 X157.2116 Y305.6406 I0.1256 J2.5222
G3 X159.7368 Y308.1659 I-0.0001 J2.5254
G3 X157.2116 Y310.6911 I-2.5254 J-0.0001
G3 X154.6863 Y308.1659 I0.0001 J-2.5254
G3 X157.0861 Y305.6437 I2.5254 J0.0001
G0 Z5.0
G0 X156.4704 Y315.9609
G1 Z0.0
G3 X158.5628 Y318.1818 I-0.1326 J2.221
G3 X156.3372 Y320.4066 I-2.2252 J-0.0003
G3 X154.1131 Y318.1818 I0.0003 J-2.2244
G3 X156.3372 Y315.9569 I2.2242 J-0.0006
G3 X156.4704 Y315.9609 I0.0006 J2.225
G0 Z5.0
G0 X149.2773 Y323.5995
G1 Z0.0
G3 X149.9039 Y325.0503 I-1.3659 J1.4506
G3 X147.9119 Y327.0426 I-1.9927 J-0.0004
G3 X145.9193 Y325.0503 I-0.0003 J-1.9924
G3 X147.9119 Y323.0576 I1.9922 J-0.0005
G3 X149.2773 Y323.5995 I-0.0005 J1.9925
G0 Z5.0
G0 X112.4537 Y301.6179
G1 Z0.0
G3 X110.1778 Y302.91 I-2.2762 J-1.3588
G3 X107.5271 Y300.259 I-0.0003 J-2.6503
G3 X110.1778 Y297.608 I2.6506 J-0.0004
G3 X112.8284 Y300.259 I-0.0004 J2.6511
G3 X112.4537 Y301.6179 I-2.6509 J0.0001
G0 Z5.0
G0 X114.5498 Y293.9405
G1 Z0.0
G3 X112.5046 Y291.2615 I0.7313 J-2.6785
G3 X115.2813 Y288.4847 I2.7765 J-0.0003
G3 X118.0581 Y291.2615 I0.0003 J2.7765
G3 X115.2813 Y294.0386 I-2.7771 J0.0
G3 X114.5498 Y293.9405 I-0.0003 J-2.7765
G0 Z5.0
G0 X108.2811 Y292.3559
G1 Z0.0
G3 X105.7674 Y294.3131 I-2.5135 J-0.6354
G3 X103.1746 Y291.7203 I0.0002 J-2.593
G3 X105.7674 Y289.1272 I2.5932 J0.0001
G3 X108.3601 Y291.7203 I-0.0002 J2.593
G3 X108.2811 Y292.3559 I-2.5926 J0.0002
G0 Z5.0
G0 X105.9859 Y284.9365
G1 Z0.0
G3 X105.274 Y285.0441 I-0.7119 J-2.3012
G3 X102.8652 Y282.6353 I-0.0002 J-2.4086
G3 X105.274 Y280.2261 I2.4092 J0.0001
G3 X107.6828 Y282.6353 I-0.0005 J2.4093
G3 X105.9859 Y284.9365 I-2.4088 J0.0
G0 Z5.0
G0 X111.4697 Y281.8204
G1 Z0.0
G3 X111.1362 Y280.5586 I2.2209 J-1.262
G3 X113.6904 Y278.0044 I2.5545 J0.0003
G3 X116.2446 Y280.5586 I-0.0003 J2.5545
G3 X113.6904 Y283.1128 I-2.5541 J0.0001
G3 X111.4697 Y281.8204 I0.0002 J-2.5544
G0 Z5.0
G0 X119.1729 Y283.9896
G1 Z0.0
G3 X121.8828 Y281.9373 I2.7101 J0.7632
G3 X124.6988 Y284.7526 I0.0002 J2.8158
G3 X121.8828 Y287.5683 I-2.8156 J0.0001
G3 X119.0675 Y284.7526 I-0.0003 J-2.815
G3 X119.1729 Y283.9896 I2.8155 J0.0001
G0 Z5.0
G0 X125.3963 Y280.3737
G1 Z0.0
G3 X125.0034 Y278.9153 I2.5098 J-1.4582
G3 X127.9062 Y276.0124 I2.9031 J0.0003
G3 X130.8091 Y278.9153 I0.0002 J2.9026
G3 X127.9062 Y281.8181 I-2.9026 J0.0002
G3 X125.3963 Y280.3737 I-0.0002 J-2.9026
G0 Z5.0
G0 X121.6347 Y275.5919
G1 Z0.0
G3 X120.0204 Y276.1509 I-1.6149 J-2.0529
G3 X117.4076 Y273.5389 I-0.0005 J-2.6123
G3 X120.0204 Y270.9264 I2.6124 J0.0
G3 X122.6318 Y273.5389 I-0.0008 J2.6122
G3 X121.6347 Y275.5919 I-2.6119 J0.0002
G0 Z5.0
G0 X127.7674 Y272.2402
G1 Z0.0
G3 X127.4095 Y270.8389 I2.5644 J-1.4015
G3 X130.3316 Y267.9168 I2.9219 J-0.0003
G3 X133.2537 Y270.8389 I0.0007 J2.9214
G3 X130.3316 Y273.7611 I-2.9219 J0.0002
G3 X127.7674 Y272.2402 I0.0003 J-2.9224
G0 Z5.0
G0 X124.8201 Y266.1131
G1 Z0.0
G3 X123.708 Y266.3665 I-1.1114 J-2.3104
G3 X121.1449 Y263.8027 I0.0003 J-2.5635
G3 X123.708 Y261.2388 I2.564 J0.0002
G3 X126.2726 Y263.8027 I0.0002 J2.5643
G3 X124.8201 Y266.1131 I-2.5638 J0.0001
G0 Z5.0
G0 X130.1184 Y262.7394
G1 Z0.0
G3 X129.6929 Y261.2791 I2.2936 J-1.4605
G3 X132.4117 Y258.5603 I2.7191 J0.0003
G3 X135.1306 Y261.2791 I0.0002 J2.7187
G3 X132.4117 Y263.998 I-2.7187 J0.0002
G3 X130.1184 Y262.7394 I0.0003 J-2.7191
G0 Z5.0
G0 X129.0317 Y256.2534
G1 Z0.0
G3 X128.6049 Y256.2889 I-0.4268 J-2.5476
G3 X126.0218 Y253.7058 I-0.0004 J-2.5828
G3 X128.6049 Y251.1223 I2.583 J-0.0005
G3 X131.188 Y253.7058 I-0.0003 J2.5835
G3 X129.0317 Y256.2534 I-2.5831 J0.0
G0 Z5.0
G0 X120.8778 Y255.884
G1 Z0.0
G3 X118.4233 Y258.2299 I-2.4546 J-0.1112
G3 X115.9662 Y255.7725 I-0.0005 J-2.4566
G3 X118.4233 Y253.3151 I2.4568 J-0.0006
G3 X120.8803 Y255.7725 I-0.0003 J2.4573
G3 X120.8778 Y255.884 I-2.4571 J0.0002
G0 Z5.0
G0 X121.5249 Y249.4824
G1 Z0.0
G3 X119.2535 Y246.9703 I0.254 J-2.5126
G3 X121.7788 Y244.445 I2.5254 J0.0001
G3 X124.304 Y246.9703 I-0.0001 J2.5254
G3 X121.7788 Y249.4952 I-2.5248 J0.0001
G3 X121.5249 Y249.4824 I0.0001 J-2.5254
G0 Z5.0
G0 X113.3044 Y248.4391
G1 Z0.0
G3 X110.9626 Y250.5025 I-2.3419 J-0.2972
G3 X108.602 Y248.142 I0.0001 J-2.3607
G3 X110.9626 Y245.7814 I2.3607 J0.0001
G3 X113.3231 Y248.142 I-0.0001 J2.3607
G3 X113.3044 Y248.4391 I-2.3607 J-0.0001
G0 Z5.0
G0 X116.6169 Y240.9256
G1 Z0.0
G3 X115.1566 Y238.6862 I0.9875 J-2.2397
G3 X117.6047 Y236.2385 I2.4477 J0.0
G3 X120.0521 Y238.6862 I-0.0005 J2.4479
G3 X117.6047 Y241.1336 I-2.4477 J-0.0003
G3 X116.6169 Y240.9256 I-0.0003 J-2.4477
G0 Z5.0
G0 X111.0822 Y239.0785
G1 Z0.0
G3 X108.7508 Y240.7577 I-2.3308 J-0.7779
G3 X106.2938 Y238.3004 I0.0002 J-2.4573
G3 X108.7508 Y235.8433 I2.4571 J0.0
G3 X111.2085 Y238.3004 I0.0006 J2.4571
G3 X111.0822 Y239.0785 I-2.4571 J0.0002
G0 Z5.0
G0 X112.7246 Y232.0507
G1 Z0.0
G3 X110.8413 Y229.6766 I0.5549 J-2.3742
G3 X113.2797 Y227.2388 I2.4384 J0.0007
G3 X115.7182 Y229.6766 I0.0002 J2.4382
G3 X113.2797 Y232.1147 I-2.4386 J-0.0005
G3 X112.7246 Y232.0507 I-0.0003 J-2.4382
G0 Z5.0
G0 X120.0729 Y229.9444
G1 Z0.0
G3 X119.9722 Y229.2273 I2.5017 J-0.7171
G3 X122.5746 Y226.6249 I2.6024 J0.0
G3 X125.177 Y229.2273 I0.0005 J2.602
G3 X122.5746 Y231.8298 I-2.602 J0.0005
G3 X120.0729 Y229.9444 I0.0 J-2.6024
G0 Z5.0
G0 X121.0805 Y221.9925
G1 Z0.0
G3 X119.0165 Y219.6507 I0.2967 J-2.342
G3 X121.3771 Y217.2901 I2.3607 J0.0001
G3 X123.7377 Y219.6507 I-0.0001 J2.3607
G3 X121.3771 Y222.0113 I-2.3607 J-0.0001
G3 X121.0805 Y221.9925 I0.0001 J-2.3607
G0 Z5.0
G0 X128.3219 Y222.3331
G1 Z0.0
G3 X130.9503 Y219.825 I2.6288 J0.1236
G3 X133.5817 Y222.4567 I-0.0001 J2.6315
G3 X130.9503 Y225.0884 I-2.6317 J0.0
G3 X128.319 Y222.4567 I0.0001 J-2.6315
G3 X128.3219 Y222.3331 I2.6317 J0.0
G0 Z5.0
G0 X130.9513 Y228.6504
G1 Z0.0
G3 X131.9329 Y228.4543 I0.9815 J2.358
G3 X134.4871 Y231.0085 I-0.0002 J2.5544
G3 X131.9329 Y233.5627 I-2.5545 J-0.0003
G3 X129.3787 Y231.0085 I0.0003 J-2.5545
G3 X130.9513 Y228.6504 I2.5541 J-0.0001
G0 Z5.0
G0 X138.3413 Y228.0447
G1 Z0.0
G3 X138.3325 Y227.8283 I2.6423 J-0.2166
G3 X140.9831 Y225.1773 I2.651 J0.0
G3 X143.6345 Y227.8283 I-0.0002 J2.6515
G3 X140.9831 Y230.4793 I-2.6509 J0.0001
G3 X138.3413 Y228.0447 I0.0005 J-2.6512
G0 Z5.0
G0 X138.2437 Y234.8827
G1 Z0.0
G3 X140.7613 Y237.4367 I-0.0365 J2.5538
G3 X138.2078 Y239.9909 I-2.5546 J-0.0004
G3 X135.6529 Y237.4367 I0.0 J-2.5549
G3 X138.2078 Y234.8825 I2.5547 J0.0005
G3 X138.2437 Y234.8827 I-0.0005 J2.554
G0 Z5.0
G0 X133.6703 Y242.7187
G1 Z0.0
G3 X134.9225 Y244.8998 I-1.2727 J2.1807
G3 X132.3979 Y247.4247 I-2.5248 J0.0001
G3 X129.8727 Y244.8998 I0.0001 J-2.5254
G3 X132.3979 Y242.3745 I2.5254 J0.0001
G3 X133.6703 Y242.7187 I-0.0003 J2.5249
G0 Z5.0
G0 X128.9063 Y239.6529
G1 Z0.0
G3 X126.7666 Y240.8204 I-2.1398 J-1.377
G3 X124.222 Y238.2759 I0.0005 J-2.545
G3 X126.7666 Y235.7317 I2.5448 J0.0006
G3 X129.3111 Y238.2759 I0.0003 J2.5442
G3 X128.9063 Y239.6529 I-2.5446 J0.0
G0 Z5.0
G0 X139.3957 Y221.059
G1 Z0.0
G3 X138.0865 Y218.8176 I1.2646 J-2.2416
G3 X140.6607 Y216.2438 I2.5738 J0.0
G3 X143.2335 Y218.8176 I-0.0008 J2.5736
G3 X140.6607 Y221.3911 I-2.5731 J0.0004
G3 X139.3957 Y221.059 I-0.0004 J-2.5737
G0 Z5.0
G0 X133.5729 Y215.3252
G1 Z0.0
G3 X131.7668 Y216.0816 I-1.8064 J-1.7788
G3 X129.2319 Y213.5467 I-0.0001 J-2.5348
G3 X131.7668 Y211.0118 I2.5348 J-0.0001
G3 X134.3017 Y213.5467 I0.0001 J2.5348
G3 X133.5729 Y215.3252 I-2.5352 J-0.0003
G0 Z5.0
G0 X139.65 Y210.9928
G1 Z0.0
G3 X139.1469 Y209.4201 I2.2055 J-1.5723
G3 X141.8554 Y206.7109 I2.7089 J-0.0003
G3 X144.5646 Y209.4201 I0.0004 J2.7089
G3 X141.8554 Y212.129 I-2.7087 J0.0002
G3 X139.65 Y210.9928 I0.0 J-2.7085
G0 Z5.0
G0 X134.8367 Y206.1821
G1 Z0.0
G3 X132.8865 Y206.9903 I-1.9505 J-1.9494
G3 X130.1283 Y204.2328 I-0.0002 J-2.758
G3 X132.8865 Y201.475 I2.7578 J0.0
G3 X135.6439 Y204.2328 I-0.0002 J2.7577
G3 X134.8367 Y206.1821 I-2.7577 J-0.0002
G0 Z5.0
G0 X133.354 Y197.8218
G1 Z0.0
G3 X132.8878 Y197.8629 I-0.4663 J-2.629
G3 X130.2172 Y195.1922 I-0.0003 J-2.6704
G3 X132.8878 Y192.5219 I2.6702 J-0.0001
G3 X135.5578 Y195.1922 I0.0 J2.6699
G3 X133.354 Y197.8218 I-2.67 J0.0006
G0 Z5.0
G0 X125.7253 Y199.1471
G1 Z0.0
G3 X125.7634 Y199.5888 I-2.5454 J0.4422
G3 X123.1803 Y202.172 I-2.5832 J-0.0001
G3 X120.5964 Y199.5888 I-0.0006 J-2.5832
G3 X123.1803 Y197.0057 I2.5838 J0.0007
G3 X125.7253 Y199.1471 I-0.0004 J2.5835
G0 Z5.0
G0 X122.8345 Y192.5814
G1 Z0.0
G3 X121.7981 Y192.7996 I-1.037 J-2.3552
G3 X119.2239 Y190.2261 I-0.0005 J-2.5737
G3 X121.7981 Y187.6526 I2.5732 J-0.0003
G3 X124.3709 Y190.2261 I-0.0001 J2.5729
G3 X122.8345 Y192.5814 I-2.5734 J0.0001
G0 Z5.0
G0 X122.7228 Y184.4195
G1 Z0.0
G3 X122.6855 Y184.4197 I-0.0373 J-2.7283
G3 X119.957 Y181.6912 I0.0 J-2.7286
G3 X122.6855 Y178.9627 I2.7286 J0.0
G3 X125.4141 Y181.6912 I0.0 J2.7286
G3 X122.7228 Y184.4195 I-2.7286 J0.0
G0 Z5.0
G0 X129.6382 Y185.9746
G1 Z0.0
G3 X132.1403 Y183.9733 I2.5013 J0.5625
G3 X134.7034 Y186.5371 I-0.0003 J2.5635
G3 X132.1403 Y189.1009 I-2.564 J-0.0002
G3 X129.5757 Y186.5371 I-0.0002 J-2.5643
G3 X129.6382 Y185.9746 I2.5638 J-0.0001
G0 Z5.0
G0 X131.4489 Y179.9683
G1 Z0.0
G3 X129.5702 Y177.4393 I0.7622 J-2.5285
G3 X132.2112 Y174.7979 I2.6415 J0.0002
G3 X134.8522 Y177.4393 I0.0001 J2.6409
G3 X132.2112 Y180.0806 I-2.6411 J0.0002
G3 X131.4489 Y179.9683 I-0.0001 J-2.6409
G0 Z5.0
G0 X125.3529 Y174.6312
G1 Z0.0
G3 X123.3876 Y175.5228 I-1.9656 J-1.7208
G3 X120.7756 Y172.9104 I-0.0003 J-2.6118
G3 X123.3876 Y170.2983 I2.6122 J0.0001
G3 X125.9997 Y172.9104 I0.0002 J2.6119
G3 X125.3529 Y174.6312 I-2.6124 J0.0
G0 Z5.0
G0 X130.8271 Y169.5528
G1 Z0.0
G3 X130.2048 Y167.967 I1.7094 J-1.5858
G3 X132.5358 Y165.6357 I2.3315 J0.0003
G3 X134.8674 Y167.967 I-0.0001 J2.3317
G3 X132.5358 Y170.2986 I-2.3316 J0.0001
G3 X130.8271 Y169.5528 I0.0007 J-2.3317
G0 Z5.0
G0 X126.4297 Y165.622
G1 Z0.0
G3 X124.5907 Y166.445 I-1.8394 J-1.6441
G3 X122.1233 Y163.9779 I-0.0002 J-2.4672
G3 X124.5907 Y161.5109 I2.4673 J0.0002
G3 X127.0574 Y163.9779 I-0.0002 J2.4668
G3 X126.4297 Y165.622 I-2.4671 J0.0
G0 Z5.0
G0 X129.5536 Y158.9082
G1 Z0.0
G3 X127.9262 Y156.3553 I1.1876 J-2.5522
G3 X130.7415 Y153.5396 I2.8156 J-0.0001
G3 X133.5569 Y156.3553 I0.0003 J2.815
G3 X130.7415 Y159.171 I-2.8156 J0.0001
G3 X129.5536 Y158.9082 I-0.0003 J-2.815
G0 Z5.0
G0 X122.2366 Y157.4585
G1 Z0.0
G3 X119.5601 Y159.6567 I-2.6765 J-0.5303
G3 X116.8316 Y156.9282 I0.0 J-2.7286
G3 X119.5601 Y154.1997 I2.7286 J0.0
G3 X122.2887 Y156.9282 I0.0 J2.7286
G3 X122.2366 Y157.4585 I-2.7286 J0.0
G0 Z5.0
G0 X123.3812 Y151.1793
G1 Z0.0
G3 X121.3006 Y148.6855 I0.4546 J-2.4942
G3 X123.8362 Y146.1509 I2.5353 J0.0007
G3 X126.3704 Y148.6855 I-0.0002 J2.5344
G3 X123.8362 Y151.2204 I-2.5349 J0.0
G3 X123.3812 Y151.1793 I-0.0003 J-2.5353
G0 Z5.0
G0 X116.655 Y149.9992
G1 Z0.0
G3 X114.11 Y152.1364 I-2.5448 J-0.4465
G3 X111.5269 Y149.553 I0.0004 J-2.5835
G3 X114.11 Y146.9698 I2.5832 J0.0001
G3 X116.6938 Y149.553 I0.0006 J2.5832
G3 X116.655 Y149.9992 I-2.5837 J-0.0002
G0 Z5.0
G0 X118.3953 Y143.1008
G1 Z0.0
G3 X116.3342 Y140.4552 I0.6674 J-2.6457
G3 X119.0627 Y137.7266 I2.7286 J0.0
G3 X121.7912 Y140.4552 I0.0 J2.7286
G3 X119.0627 Y143.1837 I-2.7286 J0.0
G3 X118.3953 Y143.1008 I0.0 J-2.7286
G0 Z5.0
G0 X111.6779 Y142.8081
G1 Z0.0
G3 X108.8845 Y145.4826 I-2.7935 J-0.1217
G3 X106.0878 Y142.6865 I-0.0003 J-2.7965
G3 X108.8845 Y139.8902 I2.7963 J0.0
G3 X111.6805 Y142.6865 I-0.0002 J2.7962
G3 X111.6779 Y142.8081 I-2.7962 J-0.0002
G0 Z5.0
G0 X111.3729 Y136.5318
G1 Z0.0
G3 X111.2416 Y136.535 I-0.1315 J-2.7063
G3 X108.5324 Y133.8261 I-0.0002 J-2.709
G3 X111.2416 Y131.1169 I2.7093 J0.0001
G3 X113.9508 Y133.8261 I-0.0005 J2.7097
G3 X111.3729 Y136.5318 I-2.7095 J-0.0006
G0 Z5.0
G0 X104.5366 Y136.4481
G1 Z0.0
G3 X101.8083 Y139.1429 I-2.728 J-0.0334
G3 X99.0797 Y136.4144 I0.0005 J-2.7291
G3 X101.8083 Y133.6859 I2.7289 J0.0004
G3 X104.5368 Y136.4144 I0.0005 J2.7281
G3 X104.5366 Y136.4481 I-2.7282 J0.0003
G0 Z5.0
G0 X103.5738 Y131.1269
G1 Z0.0
G3 X103.0705 Y131.172 I-0.503 J-2.7803
G3 X100.2456 Y128.3467 I0.0003 J-2.8253
G3 X103.0705 Y125.5214 I2.825 J-0.0004
G3 X105.8962 Y128.3467 I0.0001 J2.8256
G3 X103.5738 Y131.1269 I-2.8255 J-0.0001
G0 Z5.0
G0 X109.1622 Y125.8851
G1 Z0.0
G3 X108.4187 Y124.0052 I2.0039 J-1.8795
G3 X111.1665 Y121.2574 I2.7478 J0.0
G3 X113.9143 Y124.0052 I-0.0004 J2.7483
G3 X111.1665 Y126.753 I-2.7478 J0.0
G3 X109.1622 Y125.8851 I-0.0004 J-2.7474
G0 Z5.0
G0 X116.8094 Y128.9407
G1 Z0.0
G3 X119.2446 Y127.2915 I2.435 J0.973
G3 X121.867 Y129.9135 I0.0 J2.6224
G3 X119.2446 Y132.5356 I-2.6222 J-0.0002
G3 X116.6222 Y129.9135 I0.0 J-2.6224
G3 X116.8094 Y128.9407 I2.6222 J0.0002
G0 Z5.0
G0 X119.288 Y121.8
G1 Z0.0
G3 X117.6433 Y119.4876 I0.8025 J-2.3118
G3 X120.0907 Y117.0399 I2.4477 J0.0
G3 X122.5381 Y119.4876 I0.0003 J2.4471
G3 X120.0907 Y121.9354 I-2.4477 J0.0
G3 X119.288 Y121.8 I-0.0003 J-2.4471
G0 Z5.0
G0 X125.2426 Y125.3272
G1 Z0.0
G3 X127.5321 Y124.0224 I2.2894 J1.3561
G3 X130.1931 Y126.6834 I-0.0004 J2.6614
G3 X127.5321 Y129.344 I-2.6615 J-0.0009
G3 X124.8711 Y126.6834 I0.0 J-2.661
G3 X125.2426 Y125.3272 I2.6609 J-0.0001
G0 Z5.0
G0 X126.7073 Y133.5423
G1 Z0.0
G3 X127.1793 Y133.5005 I0.4722 J2.6483
G3 X129.8692 Y136.1905 I-0.0001 J2.69
G3 X127.1793 Y138.8801 I-2.6899 J-0.0003
G3 X124.4894 Y136.1905 I0.0001 J-2.6901
G3 X126.7073 Y133.5423 I2.69 J0.0001
G0 Z5.0
G0 X133.2922 Y136.0563
G1 Z0.0
G3 X135.6791 Y134.4128 I2.3867 J0.9112
G3 X138.2326 Y136.967 I-0.0004 J2.5539
G3 X135.6791 Y139.5212 I-2.5538 J0.0004
G3 X133.1242 Y136.967 I0.0 J-2.5549
G3 X133.2922 Y136.0563 I2.5547 J0.0005
G0 Z5.0
G0 X135.827 Y130.1682
G1 Z0.0
G3 X134.248 Y127.7686 I1.0327 J-2.399
G3 X136.86 Y125.1562 I2.6124 J0.0
G3 X139.4728 Y127.7686 I-0.0002 J2.613
G3 X136.86 Y130.381 I-2.6124 J0.0
G3 X135.827 Y130.1682 I-0.0003 J-2.6118
G0 Z5.0
G0 X132.5335 Y143.2977
G1 Z0.0
G3 X134.4512 Y145.7565 I-0.6166 J2.4582
G3 X131.917 Y148.2914 I-2.5349 J0.0
G3 X129.3814 Y145.7565 I-0.0003 J-2.5353
G3 X131.917 Y143.2216 I2.5355 J0.0006
G3 X132.5335 Y143.2977 I-0.0001 J2.5344
G0 Z5.0
G0 X111.8108 Y157.062
G1 Z0.0
G3 X112.2648 Y158.5664 I-2.2647 J1.5042
G3 X109.5466 Y161.2852 I-2.7183 J0.0005
G3 X106.8278 Y158.5664 I0.0003 J-2.7191
G3 X109.5466 Y155.8475 I2.7191 J0.0003
G3 X111.8108 Y157.062 I-0.0005 J2.7187
G0 Z5.0
G0 X106.1781 Y153.0532
G1 Z0.0
G3 X103.9794 Y154.1873 I-2.1992 J-1.5652
G3 X101.2798 Y151.4881 I-0.0001 J-2.6995
G3 X103.9794 Y148.7885 I2.6994 J-0.0001
G3 X106.6782 Y151.4881 I-0.0002 J2.6991
G3 X106.1781 Y153.0532 I-2.6993 J-0.0001
G0 Z5.0
G0 X101.2095 Y158.2435
G1 Z0.0
G3 X102.0811 Y160.2844 I-1.9537 J2.0409
G3 X99.2561 Y163.1098 I-2.8254 J-0.0001
G3 X96.4305 Y160.2844 I-0.0001 J-2.8256
G3 X99.2561 Y157.4591 I2.8255 J0.0001
G3 X101.2095 Y158.2435 I-0.0003 J2.8253
G0 Z5.0
G0 X95.7787 Y154.0163
G1 Z0.0
G3 X93.5951 Y155.0837 I-2.1836 J-1.6996
G3 X90.8274 Y152.3166 I-0.0003 J-2.7675
G3 X93.5951 Y149.5492 I2.7677 J0.0002
G3 X96.3622 Y152.3166 I0.0 J2.7671
G3 X95.7787 Y154.0163 I-2.7671 J0.0
G0 Z5.0
G0 X91.278 Y158.4058
G1 Z0.0
G3 X92.1165 Y160.466 I-2.1131 J2.0609
G3 X89.1648 Y163.4171 I-2.9511 J0.0
G3 X86.2137 Y160.466 I-0.0006 J-2.9505
G3 X89.1648 Y157.5149 I2.9511 J0.0
G3 X91.278 Y158.4058 I0.0001 J2.9517
G0 Z5.0
G0 X84.3755 Y153.6285
G1 Z0.0
G3 X82.5943 Y154.5621 I-1.7816 J-1.233
G3 X80.4273 Y152.3952 I-0.0006 J-2.1663
G3 X82.5943 Y150.2286 I2.1663 J-0.0003
G3 X84.7605 Y152.3952 I-0.0002 J2.1665
G3 X84.3755 Y153.6285 I-2.1666 J0.0003
G0 Z5.0
G0 X87.5186 Y146.4481
G1 Z0.0
G3 X85.9829 Y144.0994 I1.0281 J-2.3487
G3 X88.5467 Y141.5355 I2.5639 J0.0
G3 X91.1105 Y144.0994 I0.0 J2.5639
G3 X88.5467 Y146.6632 I-2.5639 J0.0
G3 X87.5186 Y146.4481 I0.0 J-2.5639
G0 Z5.0
G0 X95.8439 Y144.8247
G1 Z0.0
G3 X95.7931 Y144.2992 I2.6975 J-0.526
G3 X98.5409 Y141.5514 I2.7478 J0.0
G3 X101.2887 Y144.2992 I-0.0004 J2.7483
G3 X98.5409 Y147.047 I-2.7478 J0.0
G3 X95.8439 Y144.8247 I0.0004 J-2.7483
G0 Z5.0
G0 X93.1498 Y137.9376
G1 Z0.0
G3 X92.2261 Y138.1118 I-0.9234 J-2.3604
G3 X89.6912 Y135.5773 I0.0 J-2.5349
G3 X92.2261 Y133.0423 I2.5352 J0.0003
G3 X94.761 Y135.5773 I0.0001 J2.5348
G3 X93.1498 Y137.9376 I-2.5346 J0.0
G0 Z5.0
G0 X94.0281 Y128.9957
G1 Z0.0
G3 X91.6886 Y126.4154 I0.2535 J-2.5805
G3 X94.2814 Y123.8226 I2.5926 J-0.0002
G3 X96.8749 Y126.4154 I0.0 J2.5934
G3 X94.2814 Y129.0081 I-2.5933 J-0.0005
G3 X94.0281 Y128.9957 I0.0002 J-2.593
G0 Z5.0
G0 X84.633 Y127.8979
G1 Z0.0
G3 X83.1062 Y129.2569 I-1.527 J-0.1784
G3 X81.569 Y127.7193 I0.0 J-1.5372
G3 X83.1062 Y126.1821 I1.5367 J-0.0005
G3 X84.6434 Y127.7193 I-0.0001 J1.5373
G3 X84.633 Y127.8979 I-1.5374 J0.0002
G0 Z5.0
G0 X79.2024 Y138.1587
G1 Z0.0
G3 X79.9381 Y139.3806 I-0.6466 J1.2218
G3 X78.5552 Y140.7628 I-1.3821 J0.0001
G3 X77.1731 Y139.3806 I-0.0001 J-1.3821
G3 X78.5552 Y137.9981 I1.3822 J-0.0003
G3 X79.2024 Y138.1587 I0.0005 J1.3824
G0 Z5.0
G0 X70.2407 Y129.2057
G1 Z0.0
G3 X69.5022 Y129.5118 I-0.7385 J-0.7378
G3 X68.459 Y128.4683 I0.0005 J-1.0437
G3 X69.5022 Y127.4248 I1.0431 J-0.0004
G3 X70.5461 Y128.4683 I0.0006 J1.0432
G3 X70.2407 Y129.2057 I-1.0438 J-0.0003
G0 Z5.0
G0 X64.0063 Y118.9263
G1 Z0.0
G3 X63.0937 Y119.1814 I-0.9124 J-1.5044
G3 X61.3339 Y117.4216 I-0.0001 J-1.7596
G3 X63.0937 Y115.6615 I1.7599 J-0.0002
G3 X64.8534 Y117.4216 I0.0004 J1.7593
G3 X64.0063 Y118.9263 I-1.7595 J0.0002
G0 Z5.0
G0 X54.7551 Y119.0045
G1 Z0.0
G3 Y119.0232 I-2.2054 J0.0186
G3 X52.5496 Y121.2288 I-2.2057 J-0.0002
G3 X50.344 Y119.0232 I0.0 J-2.2056
G3 X52.5496 Y116.8177 I2.2054 J-0.0001
G3 X54.7551 Y119.0045 I0.0001 J2.2054
G0 Z5.0
G0 X46.7027 Y111.4559
G1 Z0.0
G3 X45.7014 Y111.8898 I-1.0015 J-0.9389
G3 X44.3289 Y110.5169 I0.0001 J-1.3727
G3 X45.7014 Y109.1444 I1.3727 J0.0001
G3 X47.074 Y110.5169 I-0.0001 J1.3727
G3 X46.7027 Y111.4559 I-1.3728 J0.0001
G0 Z5.0
G0 X54.8524 Y105.9582
G1 Z0.0
G3 X54.5581 Y104.9958 I1.4272 J-0.9627
G3 X56.2799 Y103.2747 I1.7213 J0.0001
G3 X58.0011 Y104.9958 I0.0 J1.7211
G3 X56.2799 Y106.717 I-1.7214 J-0.0002
G3 X54.8524 Y105.9582 I-0.0003 J-1.7215
G0 Z5.0
G0 X47.7209 Y97.5267
G1 Z0.0
G3 X46.5655 Y97.9499 I-1.1557 J-1.3664
G3 X44.7768 Y96.1605 I0.0003 J-1.7889
G3 X46.5655 Y94.3718 I1.7885 J-0.0002
G3 X48.3548 Y96.1605 I0.0002 J1.7891
G3 X47.7209 Y97.5267 I-1.7896 J-0.0003
G0 Z5.0
G0 X56.1219 Y93.655
G1 Z0.0
G3 X55.963 Y92.9304 I1.5717 J-0.7243
G3 X57.6938 Y91.1996 I1.7308 J0.0
G3 X59.4253 Y92.9304 I0.0006 J1.7309
G3 X57.6938 Y94.6612 I-1.7307 J0.0001
G3 X56.1219 Y93.655 I-0.0003 J-1.7306
G0 Z5.0
G0 X49.4252 Y85.5113
G1 Z0.0
G3 X48.4182 Y85.8721 I-1.0069 J-1.2245
G3 X46.8328 Y84.286 I0.0001 J-1.5855
G3 X48.4182 Y82.7005 I1.5855 J0.0001
G3 X50.0037 Y84.286 I-0.0005 J1.5859
G3 X49.4252 Y85.5113 I-1.5853 J0.0008
G0 Z5.0
G0 X52.4776 Y74.9427
G1 Z0.0
G3 X51.206 Y73.252 I0.4883 J-1.6908
G3 X52.9658 Y71.4923 I1.7593 J-0.0004
G3 X54.7262 Y73.252 I0.0004 J1.76
G3 X52.9658 Y75.0118 I-1.7606 J-0.0009
G3 X52.4776 Y74.9427 I0.0001 J-1.7599
G0 Z5.0
G0 X62.2597 Y72.102
G1 Z0.0
G3 X62.1676 Y71.4544 I2.2288 J-0.6472
G3 X64.4896 Y69.1331 I2.3214 J0.0001
G3 X66.8109 Y71.4544 I-0.0003 J2.3216
G3 X64.4896 Y73.7757 I-2.3212 J0.0001
G3 X62.2597 Y72.102 I-0.0011 J-2.3209
G0 Z5.0
G0 X62.0741 Y80.4638
G1 Z0.0
G3 X63.9274 Y82.3588 I-0.0421 J1.8949
G3 X62.0319 Y84.2543 I-1.8953 J0.0002
G3 X60.1364 Y82.3588 I0.0003 J-1.8958
G3 X62.0319 Y80.4633 I1.8958 J0.0003
G3 X62.0741 Y80.4638 I0.0001 J1.8954
G0 Z5.0
G0 X70.3314 Y81.3832
G1 Z0.0
G3 X72.6104 Y79.3443 I2.2784 J0.2537
G3 X74.9027 Y81.6367 I0.0005 J2.2919
G3 X72.6104 Y83.9291 I-2.2925 J-0.0001
G3 X70.3173 Y81.6367 I-0.0004 J-2.2927
G3 X70.3314 Y81.3832 I2.2925 J0.0001
G0 Z5.0
G0 X74.2771 Y73.4111
G1 Z0.0
G3 X72.9204 Y71.2263 I1.0816 J-2.1852
G3 X75.3589 Y68.7879 I2.4389 J0.0005
G3 X77.7966 Y71.2263 I-0.0007 J2.4384
G3 X75.3589 Y73.6641 I-2.4377 J0.0
G3 X74.2771 Y73.4111 I-0.0002 J-2.4382
G0 Z5.0
G0 X82.2032 Y71.234
G1 Z0.0
G3 X82.1037 Y70.496 I2.6868 J-0.738
G3 X84.8908 Y67.7096 I2.7867 J0.0003
G3 X87.6772 Y70.496 I0.0004 J2.786
G3 X84.8908 Y73.2823 I-2.7866 J-0.0003
G3 X82.2032 Y71.234 I-0.0008 J-2.7863
G0 Z5.0
G0 X82.9737 Y77.7932
G1 Z0.0
G3 X83.1944 Y77.7803 I0.2212 J1.8831
G3 X85.0899 Y79.6764 I-0.0003 J1.8958
G3 X83.1944 Y81.5712 I-1.8951 J-0.0003
G3 X81.2989 Y79.6764 I-0.0002 J-1.8953
G3 X82.9737 Y77.7932 I1.896 J-0.0001
G0 Z5.0
G0 X79.7647 Y88.8261
G1 Z0.0
G3 X80.9916 Y90.461 I-0.4754 J1.6346
G3 X79.289 Y92.1628 I-1.7024 J-0.0005
G3 X77.5872 Y90.461 I0.0001 J-1.702
G3 X79.289 Y88.7584 I1.7019 J-0.0006
G3 X79.7647 Y88.8261 I0.0003 J1.7023
G0 Z5.0
G0 X71.2374 Y91.8784
G1 Z0.0
G3 X71.3557 Y92.5597 I-1.9032 J0.6812
G3 X69.3341 Y94.5813 I-2.0215 J0.0
G3 X67.3125 Y92.5597 I0.0004 J-2.0219
G3 X69.3341 Y90.5381 I2.0219 J0.0004
G3 X71.2374 Y91.8784 I0.0001 J2.0215
G0 Z5.0
G0 X68.6696 Y101.2026
G1 Z0.0
G3 X70.1327 Y103.1238 I-0.5289 J1.9205
G3 X68.14 Y105.1164 I-1.9929 J-0.0002
G3 X66.1481 Y103.1238 I0.0011 J-1.9931
G3 X68.14 Y101.1311 I1.9922 J-0.0004
G3 X68.6696 Y101.2026 I0.0007 J1.9919
G0 Z5.0
G0 X76.3852 Y101.8069
G1 Z0.0
G3 X78.7578 Y99.6125 I2.3729 J0.1858
G3 X81.1377 Y101.9924 I0.0002 J2.3797
G3 X78.7578 Y104.3723 I-2.3795 J0.0004
G3 X76.3779 Y101.9924 I-0.0004 J-2.3795
G3 X76.3852 Y101.8069 I2.3802 J0.0003
G0 Z5.0
G0 X77.8728 Y113.7204
G1 Z0.0
G3 X78.0426 Y113.7099 I0.1701 J1.3622
G3 X79.4151 Y115.0827 I-0.0001 J1.3727
G3 X78.0426 Y116.4556 I-1.3728 J0.0001
G3 X76.6701 Y115.0827 I0.0001 J-1.3727
G3 X77.8728 Y113.7204 I1.3728 J-0.0001
G0 Z5.0
G0 X58.9846 Y135.1232
G1 Z0.0
G3 X59.3605 Y135.9566 I-0.7353 J0.8332
G3 X58.2498 Y137.0676 I-1.1112 J-0.0002
G3 X57.1385 Y135.9566 I0.0 J-1.1114
G3 X58.2498 Y134.8452 I1.1112 J-0.0001
G3 X58.9846 Y135.1232 I-0.0006 J1.1113
G0 Z5.0
G0 X44.9307 Y135.5233
G1 Z0.0
G3 X44.9311 Y135.5552 I-1.1104 J0.0316
G3 X43.8204 Y136.6666 I-1.1109 J0.0005
G3 X42.709 Y135.5552 I-0.0001 J-1.1112
G3 X43.8204 Y134.4442 I1.1109 J-0.0001
G3 X44.9307 Y135.5233 I-0.0001 J1.1108
G0 Z5.0
G0 X29.4277 Y132.3386
G1 Z0.0
G3 X28.0164 Y133.4892 I-1.411 J-0.2899
G3 X26.5756 Y132.0488 I-0.0002 J-1.4406
G3 X28.0164 Y130.608 I1.4406 J-0.0002
G3 X29.4571 Y132.0488 I0.0002 J1.4406
G3 X29.4277 Y132.3386 I-1.4405 J-0.0001
G0 Z5.0
G0 X21.6754 Y122.6487
G1 Z0.0
G3 X20.6728 Y123.0002 I-1.0023 J-1.2528
G3 X19.0674 Y121.3952 I-0.0003 J-1.6051
G3 X20.6728 Y119.7901 I1.6052 J0.0002
G3 X22.2775 Y121.3952 I-0.0001 J1.6048
G3 X21.6754 Y122.6487 I-1.6044 J0.0007
G0 Z5.0
G0 X33.9618 Y119.7274
G1 Z0.0
G3 X33.9275 Y119.4349 I1.2322 J-0.293
G3 X35.1939 Y118.1688 I1.2659 J-0.0002
G3 X36.4603 Y119.4349 I-0.0001 J1.2665
G3 X35.1939 Y120.701 I-1.2659 J0.0002
G3 X33.9618 Y119.7274 I0.0001 J-1.2665
G0 Z5.0
G0 X34.7577 Y102.7929
G1 Z0.0
G3 X33.4217 Y101.3929 I0.0658 J-1.4002
G3 X34.8232 Y99.9908 I1.402 J-0.0001
G3 X36.2254 Y101.3929 I0.0001 J1.4021
G3 X34.8232 Y102.7944 I-1.4018 J-0.0003
G3 X34.7577 Y102.7929 I0.0003 J-1.4018
G0 Z5.0
G0 X26.9706 Y93.9223
G1 Z0.0
G3 X26.0334 Y94.2754 I-0.9375 J-1.0679
G3 X24.6119 Y92.8539 I0.0003 J-1.4218
G3 X26.0334 Y91.4325 I1.4218 J0.0003
G3 X27.4541 Y92.8539 I-0.0006 J1.4214
G3 X26.9706 Y93.9223 I-1.421 J0.0005
G0 Z5.0
G0 X34.8149 Y86.3362
G1 Z0.0
G3 X34.4263 Y85.3753 I0.9935 J-0.9608
G3 X35.8085 Y83.9925 I1.3824 J-0.0005
G3 X37.1907 Y85.3753 I0.0001 J1.3821
G3 X35.8085 Y86.7575 I-1.3821 J0.0001
G3 X34.8149 Y86.3362 I-0.0001 J-1.3821
G0 Z5.0
G0 X23.4712 Y82.113
G1 Z0.0
G3 X21.8214 Y83.2593 I-1.65 J-0.6143
G3 X20.0617 Y81.4996 I0.0005 J-1.7602
G3 X21.8214 Y79.7391 I1.7601 J-0.0003
G3 X23.5819 Y81.4996 I-0.0001 J1.7605
G3 X23.4712 Y82.113 I-1.7606 J-0.0009
G0 Z5.0
G0 X26.7301 Y74.279
G1 Z0.0
G3 X25.2941 Y72.1262 I0.8955 J-2.1527
G3 X27.6257 Y69.7945 I2.3322 J0.0006
G3 X29.9573 Y72.1262 I-0.0008 J2.3325
G3 X27.6257 Y74.4578 I-2.3318 J-0.0002
G3 X26.7301 Y74.279 I-0.0001 J-2.3316
G0 Z5.0
G0 X17.1871 Y71.0746
G1 Z0.0
G3 X15.0773 Y72.5913 I-2.1091 J-0.7082
G3 X12.8524 Y70.3664 I0.0 J-2.2248
G3 X15.0773 Y68.1416 I2.2245 J-0.0003
G3 X17.3028 Y70.3664 I0.0007 J2.2248
G3 X17.1871 Y71.0746 I-2.2249 J0.0
G0 Z5.0
G0 X14.7953 Y61.7951
G1 Z0.0
G3 X14.4696 Y61.8364 I-0.3257 J-1.2637
G3 X13.1646 Y60.5314 I0.0 J-1.305
G3 X14.4696 Y59.2264 I1.305 J0.0
G3 X15.7746 Y60.5314 I0.0 J1.305
G3 X14.7953 Y61.7951 I-1.305 J0.0
G0 Z5.0
G0 X4.1684 Y64.2274
G1 Z0.0
G3 X4.2218 Y64.6999 I-2.0656 J0.4728
G3 X2.1031 Y66.818 I-2.1184 J-0.0003
G3 X-0.015 Y64.6999 I-0.0002 J-2.1178
G3 X2.1031 Y62.5812 I2.1184 J-0.0003
G3 X4.1684 Y64.2274 I-0.0002 J2.119
G0 Z5.0
G0 X3.0085 Y54.3387
G1 Z0.0
G3 X2.7997 Y54.3509 I-0.2084 J-1.7767
G3 X1.0103 Y52.5622 I-0.0002 J-1.7891
G3 X2.7997 Y50.7728 I1.7896 J0.0003
G3 X4.589 Y52.5622 I0.0001 J1.7893
G3 X3.0085 Y54.3387 I-1.7889 J-0.0002
G0 Z5.0
G0 X4.578 Y41.4807
G1 Z0.0
G3 X3.0146 Y39.7147 I0.2155 J-1.7658
G3 X4.7944 Y37.9357 I1.7795 J0.0004
G3 X6.5734 Y39.7147 I0.0 J1.779
G3 X4.7944 Y41.4938 I-1.779 J0.0
G3 X4.578 Y41.4807 I-0.0008 J-1.7789
G0 Z5.0
G0 X6.2933 Y29.4854
G1 Z0.0
G3 X4.516 Y27.4357 I0.2931 J-2.0496
G3 X6.5858 Y25.3659 I2.0699 J0.0001
G3 X8.6556 Y27.4357 I0.0005 J2.0694
G3 X6.5858 Y29.5062 I-2.0701 J0.0004
G3 X6.2933 Y29.4854 I0.0006 J-2.0704
G0 Z5.0
G0 X-3.5159 Y29.5009
G1 Z0.0
G3 Y29.5034 I-1.702 J0.0027
G3 X-5.2178 Y31.2053 I-1.702 J-0.0001
G3 X-6.9196 Y29.5034 I0.0001 J-1.702
G3 X-5.2178 Y27.8016 I1.702 J0.0001
G3 X-3.5159 Y29.5009 I-0.0001 J1.702
G0 Z5.0
G0 X-16.8549 Y25.8246
G1 Z0.0
G3 X-18.7852 Y27.2951 I-1.9307 J-0.5321
G3 X-20.7875 Y25.2929 I-0.0001 J-2.0022
G3 X-18.7852 Y23.2906 I2.0022 J-0.0001
G3 X-16.783 Y25.2929 I-0.0004 J2.0027
G3 X-16.8549 Y25.8246 I-2.0026 J-0.0004
G0 Z5.0
G0 X-46.1775 Y13.3848
G1 Z0.0
G3 X-47.5304 Y14.281 I-1.3536 J-0.5743
G3 X-49.0001 Y12.8113 I0.0 J-1.4697
G3 X-47.5304 Y11.3423 I1.4693 J0.0003
G3 X-46.0608 Y12.8113 I0.0002 J1.4695
G3 X-46.1775 Y13.3848 I-1.4704 J-0.0007
G0 Z5.0
G0 X-51.7141 Y22.6779
G1 Z0.0
G3 X-50.8267 Y24.2393 I-0.9304 J1.5617
G3 X-52.645 Y26.0584 I-1.8185 J0.0005
G3 X-54.4627 Y24.2393 I0.0004 J-1.818
G3 X-52.645 Y22.4217 I1.8176 J-0.0001
G3 X-51.7141 Y22.6779 I0.0004 J1.8179
G0 Z5.0
G0 X-52.6121 Y34.2105
G1 Z0.0
G3 X-51.0162 Y35.9361 I-0.1343 J1.725
G3 X-52.747 Y37.6669 I-1.7306 J0.0003
G3 X-54.4778 Y35.9361 I0.0 J-1.7308
G3 X-52.747 Y34.2053 I1.7302 J-0.0006
G3 X-52.6121 Y34.2105 I0.0006 J1.7302
G0 Z5.0
G0 X-62.7415 Y40.4716
G1 Z0.0
G3 X-62.5393 Y41.183 I-1.1512 J0.7116
G3 X-63.8933 Y42.5369 I-1.3541 J-0.0002
G3 X-65.2465 Y41.183 I0.0005 J-1.3537
G3 X-63.8933 Y39.8298 I1.353 J-0.0003
G3 X-62.7415 Y40.4716 I0.0005 J1.3534
G0 Z5.0
G0 X-66.3831 Y52.8935
G1 Z0.0
G3 X-65.2927 Y54.3495 I-0.4269 J1.4561
G3 X-66.8099 Y55.8681 I-1.5176 J0.001
G3 X-68.3285 Y54.3495 I-0.0007 J-1.5179
G3 X-66.8099 Y52.8323 I1.5176 J0.0004
G3 X-66.3831 Y52.8935 I-0.0001 J1.5173
G0 Z5.0
G0 X-76.2838 Y46.3922
G1 Z0.0
G3 X-77.5117 Y47.0548 I-1.2278 J-0.8063
G3 X-78.9821 Y45.5852 I-0.0003 J-1.4701
G3 X-77.5117 Y44.1162 I1.4697 J0.0007
G3 X-76.0427 Y45.5852 I0.0005 J1.4685
G3 X-76.2838 Y46.3922 I-1.4689 J0.0008
G0 Z5.0
G0 X-84.0374 Y40.1975
G1 Z0.0
G3 X-86.2595 Y41.2664 I-2.2222 J-1.7754
G3 X-89.1045 Y38.4214 I-0.0004 J-2.8446
G3 X-86.2595 Y35.5765 I2.8453 J0.0003
G3 X-83.4152 Y38.4214 I-0.0006 J2.8449
G3 X-84.0374 Y40.1975 I-2.8444 J0.0006
G0 Z5.0
G0 X-87.4635 Y46.1715
G1 Z0.0
G3 X-86.0239 Y48.6561 I-1.4252 J2.4852
G3 X-88.8881 Y51.5204 I-2.8643 J0.0
G3 X-91.7524 Y48.6561 I0.0006 J-2.8648
G3 X-88.8881 Y45.7919 I2.8643 J0.0
G3 X-87.4635 Y46.1715 I-0.0006 J2.8648
G0 Z5.0
G0 X-93.5913 Y42.9892
G1 Z0.0
G3 X-96.0732 Y44.4972 I-2.4824 J-1.2892
G3 X-98.8699 Y41.7005 I-0.0001 J-2.7966
G3 X-96.0732 Y38.9044 I2.797 J0.0009
G3 X-93.2765 Y41.7005 I0.0001 J2.7966
G3 X-93.5913 Y42.9892 I-2.7972 J-0.0005
G0 Z5.0
G0 X-99.3066 Y47.98
G1 Z0.0
G3 X-98.655 Y49.7172 I-1.9892 J1.7371
G3 X-101.296 Y52.3582 I-2.6409 J0.0001
G3 X-103.937 Y49.7172 I-0.0001 J-2.6409
G3 X-101.296 Y47.0762 I2.6409 J-0.0001
G3 X-99.3066 Y47.98 I0.0001 J2.6409
G0 Z5.0
G0 X-96.2463 Y55.1079
G1 Z0.0
G3 X-95.1851 Y54.8897 I1.0613 J2.4718
G3 X-92.4958 Y57.5796 I-0.0004 J2.6896
G3 X-95.1851 Y60.2688 I-2.6889 J0.0004
G3 X-97.875 Y57.5796 I-0.0006 J-2.6893
G3 X-96.2463 Y55.1079 I2.69 J0.0001
G0 Z5.0
G0 X-99.7975 Y63.5034
G1 Z0.0
G3 X-98.1499 Y65.9898 I-1.0515 J2.4859
G3 X-100.8488 Y68.6893 I-2.6995 J0.0001
G3 X-103.5484 Y65.9898 I-0.0001 J-2.6994
G3 X-100.8488 Y63.2902 I2.6994 J-0.0001
G3 X-99.7975 Y63.5034 I-0.0002 J2.6991
G0 Z5.0
G0 X-106.4209 Y59.5134
G1 Z0.0
G3 X-108.3019 Y60.5761 I-1.8808 J-1.133
G3 X-110.4978 Y58.3802 I0.0001 J-2.196
G3 X-108.3019 Y56.1843 I2.196 J0.0001
G3 X-106.106 Y58.3802 I0.0005 J2.1954
G3 X-106.4209 Y59.5134 I-2.1957 J0.0002
G0 Z5.0
G0 X-113.2025 Y65.0161
G1 Z0.0
G3 X-112.6186 Y66.6622 I-2.0291 J1.6464
G3 X-115.2314 Y69.2743 I-2.6125 J-0.0005
G3 X-117.8435 Y66.6622 I-0.0003 J-2.6118
G3 X-115.2314 Y64.0495 I2.6123 J-0.0005
G3 X-113.2025 Y65.0161 I-0.0002 J2.613
G0 Z5.0
G0 X-108.7472 Y71.9898
G1 Z0.0
G3 X-107.3979 Y71.5956 I1.3491 J2.1116
G3 X-104.892 Y74.1016 I0.0003 J2.5057
G3 X-107.3979 Y76.6076 I-2.5057 J0.0003
G3 X-109.9039 Y74.1016 I0.0004 J-2.5064
G3 X-108.7472 Y71.9898 I2.5058 J-0.0002
G0 Z5.0
G0 X-115.5065 Y77.8049
G1 Z0.0
G3 X-114.9027 Y79.4325 I-1.8918 J1.6276
G3 X-117.399 Y81.9282 I-2.4958 J-0.0001
G3 X-119.8947 Y79.4325 I0.0002 J-2.4958
G3 X-117.399 Y76.9369 I2.4952 J-0.0004
G3 X-115.5065 Y77.8049 I0.0007 J2.4956
G0 Z5.0
G0 X-123.6394 Y71.6428
G1 Z0.0
G3 X-125.444 Y72.5396 I-1.8045 J-1.3672
G3 X-127.7074 Y70.2755 I0.0006 J-2.264
G3 X-125.444 Y68.012 I2.2637 J0.0002
G3 X-123.1799 Y70.2755 I0.0005 J2.2636
G3 X-123.6394 Y71.6428 I-2.2639 J0.0002
G0 Z5.0
G0 X-128.6204 Y78.8004
G1 Z0.0
G3 X-127.5628 Y80.8257 I-1.409 J2.0247
G3 X-130.0294 Y83.2924 I-2.4668 J-0.0002
G3 X-132.4968 Y80.8257 I-0.0001 J-2.4673
G3 X-130.0294 Y78.3583 I2.4671 J-0.0002
G3 X-128.6204 Y78.8004 I0.0 J2.4667
G0 Z5.0
G0 X-135.6739 Y73.3617
G1 Z0.0
G3 X-137.413 Y74.2167 I-1.7388 J-1.3407
G3 X-139.6089 Y72.0208 I0.0001 J-2.196
G3 X-137.413 Y69.8248 I2.196 J0.0001
G3 X-135.2171 Y72.0208 I0.0005 J2.1954
G3 X-135.6739 Y73.3617 I-2.1957 J0.0002
G0 Z5.0
G0 X-142.1149 Y80.5423
G1 Z0.0
G3 X-141.4238 Y82.0908 I-1.3889 J1.5484
G3 X-143.5039 Y84.1702 I-2.0804 J-0.0009
G3 X-145.5834 Y82.0908 I0.0002 J-2.0796
G3 X-143.5039 Y80.0106 I2.0794 J-0.0008
G3 X-142.1149 Y80.5423 I0.0001 J2.0801
G0 Z5.0
G0 X-136.1827 Y89.3299
G1 Z0.0
G3 X-134.9435 Y88.9506 I1.2397 J1.8364
G3 X-132.7283 Y91.1665 I-0.0002 J2.2154
G3 X-134.9435 Y93.381 I-2.2149 J-0.0003
G3 X-137.1587 Y91.1665 I-0.0001 J-2.2151
G3 X-136.1827 Y89.3299 I2.2157 J-0.0002
G0 Z5.0
G0 X-144.0348 Y92.7052
G1 Z0.0
G3 X-143.8649 Y93.5299 I-1.9198 J0.8252
G3 X-145.9547 Y95.619 I-2.0893 J-0.0002
G3 X-148.0438 Y93.5299 I0.0001 J-2.0892
G3 X-145.9547 Y91.4408 I2.0896 J0.0005
G3 X-144.0348 Y92.7052 I0.0001 J2.0897
G0 Z5.0
G0 X-147.0316 Y102.4748
G1 Z0.0
G3 X-145.5689 Y104.4536 I-0.607 J1.9787
G3 X-147.6387 Y106.5241 I-2.0696 J0.0009
G3 X-149.7085 Y104.4536 I0.0002 J-2.0701
G3 X-147.6387 Y102.3838 I2.0704 J0.0006
G3 X-147.0316 Y102.4748 I0.0001 J2.0697
G0 Z5.0
G0 X-138.2618 Y102.8295
G1 Z0.0
G3 X-135.6415 Y100.3139 I2.6194 J0.106
G3 X-133.0198 Y102.935 I0.0004 J2.6213
G3 X-135.6415 Y105.5574 I-2.6217 J0.0007
G3 X-138.2639 Y102.935 I0.0 J-2.6224
G3 X-138.2618 Y102.8295 I2.6216 J0.0005
G0 Z5.0
G0 X-139.9738 Y110.4797
G1 Z0.0
G3 X-138.1661 Y112.7359 I-0.5051 J2.2569
G3 X-140.4784 Y115.0483 I-2.3124 J-0.0001
G3 X-142.7908 Y112.7359 I-0.0003 J-2.312
G3 X-140.4784 Y110.4239 I2.3119 J-0.0001
G3 X-139.9738 Y110.4797 I-0.0004 J2.3128
G0 Z5.0
G0 X-132.0381 Y112.7168
G1 Z0.0
G3 X-129.6918 Y110.9403 I2.3465 J0.6615
G3 X-127.2534 Y113.3784 I0.0003 J2.4382
G3 X-129.6918 Y115.8162 I-2.4384 J-0.0007
G3 X-132.1296 Y113.3784 I0.0 J-2.4377
G3 X-132.0381 Y112.7168 I2.438 J-0.0001
G0 Z5.0
G0 X-136.3152 Y120.3705
G1 Z0.0
G3 X-135.0421 Y122.541 I-1.2126 J2.1698
G3 X-137.528 Y125.0273 I-2.4863 J0.0001
G3 X-140.0147 Y122.541 I0.0002 J-2.4868
G3 X-137.528 Y120.0547 I2.4863 J-0.0001
G3 X-136.3152 Y120.3705 I0.0003 J2.4857
G0 Z5.0
G0 X-140.0553 Y129.6186
G1 Z0.0
G3 X-138.4348 Y132.0223 I-0.972 J2.4034
G3 X-141.0276 Y134.6154 I-2.5924 J0.0007
G3 X-143.6203 Y132.0223 I0.0002 J-2.593
G3 X-141.0276 Y129.4295 I2.593 J0.0002
G3 X-140.0553 Y129.6186 I0.0002 J2.5926
G0 Z5.0
G0 X-137.6992 Y138.0715
G1 Z0.0
G3 X-136.9486 Y137.9688 I0.7508 J2.6935
G3 X-134.1518 Y140.7649 I0.0001 J2.7966
G3 X-136.9486 Y143.5613 I-2.7971 J-0.0007
G3 X-139.7446 Y140.7649 I0.0002 J-2.7962
G3 X-137.6992 Y138.0715 I2.7962 J0.0002
G0 Z5.0
G0 X-144.2628 Y141.3537
G1 Z0.0
G3 X-143.9635 Y142.6218 I-2.5354 J1.2678
G3 X-146.7981 Y145.4571 I-2.835 J0.0003
G3 X-149.6334 Y142.6218 I0.0006 J-2.8359
G3 X-146.7981 Y139.7868 I2.8353 J0.0003
G3 X-144.2628 Y141.3537 I-0.0001 J2.8347
G0 Z5.0
G0 X-140.307 Y148.5124
G1 Z0.0
G3 X-138.9364 Y148.1587 I1.3713 J2.4816
G3 X-136.1018 Y150.9937 I-0.0001 J2.8347
G3 X-138.9364 Y153.8287 I-2.8348 J0.0001
G3 X-141.771 Y150.9937 I0.0001 J-2.8347
G3 X-140.307 Y148.5124 I2.8353 J0.0003
G0 Z5.0
G0 X-146.6882 Y151.642
G1 Z0.0
G3 X-146.3916 Y152.9199 I-2.6068 J1.2784
G3 X-149.2951 Y155.8227 I-2.9034 J-0.0006
G3 X-152.1973 Y152.9199 I0.0003 J-2.9024
G3 X-149.2951 Y150.017 I2.9026 J-0.0002
G3 X-146.6882 Y151.642 I0.0001 J2.9034
G0 Z5.0
G0 X-143.7851 Y159.1824
G1 Z0.0
G3 X-142.839 Y159.0067 I0.9455 J2.4557
G3 X-140.2076 Y161.638 I-0.0002 J2.6315
G3 X-142.839 Y164.2697 I-2.6317 J0.0
G3 X-145.4711 Y161.638 I-0.0002 J-2.6318
G3 X-143.7851 Y159.1824 I2.6315 J0.0001
G0 Z5.0
G0 X-151.0186 Y162.568
G1 Z0.0
G3 X-150.7586 Y163.7368 I-2.4976 J1.169
G3 X-153.516 Y166.4942 I-2.7572 J0.0002
G3 X-156.2735 Y163.7368 I0.0002 J-2.7577
G3 X-153.516 Y160.9793 I2.7577 J0.0002
G3 X-151.0186 Y162.568 I-0.0002 J2.7577
G0 Z5.0
G0 X-147.9157 Y169.5615
G1 Z0.0
G3 X-146.754 Y169.3154 I1.1616 J2.618
G3 X-143.8904 Y172.1797 I-0.0002 J2.8637
G3 X-146.754 Y175.0436 I-2.8632 J0.0007
G3 X-149.6183 Y172.1797 I-0.0002 J-2.8641
G3 X-147.9157 Y169.5615 I2.8641 J-0.0001
G0 Z5.0
G0 X-138.8707 Y169.9795
G1 Z0.0
G3 X-136.077 Y167.3124 I2.7932 J0.1291
G3 X-133.2809 Y170.1085 I-0.0002 J2.7962
G3 X-136.077 Y172.9049 I-2.7963 J0.0001
G3 X-138.8737 Y170.1085 I-0.0003 J-2.7965
G3 X-138.8707 Y169.9795 I2.7961 J0.0001
G0 Z5.0
G0 X-138.4318 Y177.0127
G1 Z0.0
G3 X-138.257 Y177.0073 I0.1747 J2.8002
G3 X-135.4513 Y179.813 I0.0001 J2.8056
G3 X-138.257 Y182.619 I-2.8057 J0.0003
G3 X-141.0627 Y179.813 I-0.0001 J-2.8056
G3 X-138.4318 Y177.0127 I2.8056 J-0.0001
G0 Z5.0
G0 X-129.1535 Y176.6244
G1 Z0.0
G3 X-129.1558 Y176.5146 I2.6095 J-0.1092
G3 X-126.5437 Y173.9026 I2.6118 J-0.0003
G3 X-123.9309 Y176.5146 I0.0005 J2.6123
G3 X-126.5437 Y179.127 I-2.6124 J0.0
G3 X-129.1535 Y176.6244 I-0.0003 J-2.6118
G0 Z5.0
G0 X-130.2629 Y183.6578
G1 Z0.0
G3 X-127.919 Y186.4007 I-0.4326 J2.7426
G3 X-130.6957 Y189.1778 I-2.7771 J0.0
G3 X-133.4725 Y186.4007 I-0.0003 J-2.7765
G3 X-130.6957 Y183.6239 I2.7765 J-0.0003
G3 X-130.2629 Y183.6578 I0.0003 J2.7765
G0 Z5.0
G0 X-123.8052 Y185.3133
G1 Z0.0
G3 X-121.1528 Y183.2553 I2.6522 J0.6799
G3 X-118.4146 Y185.9935 I0.0002 J2.738
G3 X-121.1528 Y188.7316 I-2.7384 J-0.0002
G3 X-123.891 Y185.9935 I-0.0002 J-2.738
G3 X-123.8052 Y185.3133 I2.738 J-0.0002
G0 Z5.0
G0 X-118.1518 Y192.8107
G1 Z0.0
G3 X-116.5846 Y192.2859 I1.5674 J2.0786
G3 X-113.9822 Y194.8887 I0.0001 J2.6024
G3 X-116.5846 Y197.4911 I-2.6024 J0.0
G3 X-119.1877 Y194.8887 I-0.0002 J-2.6029
G3 X-118.1518 Y192.8107 I2.6033 J0.0005
G0 Z5.0
G0 X-123.4651 Y196.0012
G1 Z0.0
G3 X-123.1117 Y197.2762 I-2.1233 J1.275
G3 X-125.5887 Y199.7528 I-2.4767 J0.0
G3 X-128.0651 Y197.2762 I-0.0001 J-2.4763
G3 X-125.5887 Y194.7995 I2.4768 J0.0002
G3 X-123.4651 Y196.0012 I0.0003 J2.4767
G0 Z5.0
G0 X-131.0766 Y195.6315
G1 Z0.0
G3 X-133.879 Y198.3011 I-2.8024 J-0.1361
G3 X-136.6847 Y195.495 I-0.0001 J-2.8056
G3 X-133.879 Y192.6894 I2.8056 J-0.0001
G3 X-131.0733 Y195.495 I0.0001 J2.8056
G3 X-131.0766 Y195.6315 I-2.8057 J0.0003
G0 Z5.0
G0 X-134.7319 Y201.4248
G1 Z0.0
G3 X-133.509 Y203.6423 I-1.3991 J2.2175
G3 X-136.1307 Y206.2644 I-2.6223 J-0.0002
G3 X-138.7531 Y203.6423 I0.0 J-2.6224
G3 X-136.1307 Y201.0203 I2.6218 J-0.0002
G3 X-134.7319 Y201.4248 I-0.0003 J2.622
G0 Z5.0
G0 X-129.1479 Y205.5642
G1 Z0.0
G3 X-126.8786 Y204.4213 I2.2699 J1.6827
G3 X-124.0536 Y207.247 I-0.0004 J2.8253
G3 X-126.8786 Y210.0723 I-2.8254 J-0.0001
G3 X-129.7035 Y207.247 I0.0003 J-2.8253
G3 X-129.1479 Y205.5642 I2.8256 J-0.0001
G0 Z5.0
G0 X-133.3421 Y209.8429
G1 Z0.0
G3 X-132.512 Y211.8193 I-1.937 J1.976
G3 X-135.2791 Y214.5864 I-2.7671 J0.0
G3 X-138.0462 Y211.8193 I0.0 J-2.7671
G3 X-135.2791 Y209.0518 I2.7672 J-0.0002
G3 X-133.3421 Y209.8429 I0.0 J2.7671
G0 Z5.0
G0 X-131.0969 Y216.3839
G1 Z0.0
G3 X-130.1955 Y216.2335 I0.9015 J2.6265
G3 X-127.4181 Y219.0102 I0.0002 J2.7773
G3 X-130.1955 Y221.7873 I-2.7771 J0.0
G3 X-132.9722 Y219.0102 I-0.0003 J-2.7765
G3 X-131.0969 Y216.3839 I2.7769 J0.0002
G0 Z5.0
G0 X-124.8462 Y215.7264
G1 Z0.0
G3 X-124.8618 Y215.4294 I2.8297 J-0.2977
G3 X-122.0168 Y212.5848 I2.8447 J0.0001
G3 X-119.1726 Y215.4294 I0.0001 J2.8441
G3 X-122.0168 Y218.274 I-2.8447 J-0.0001
G3 X-124.8462 Y215.7264 I0.0003 J-2.8453
G0 Z5.0
G0 X-124.739 Y223.8601
G1 Z0.0
G3 X-124.7047 Y223.8599 I0.0348 J2.6413
G3 X-122.0637 Y226.5012 I0.0001 J2.6409
G3 X-124.7047 Y229.1426 I-2.6415 J-0.0002
G3 X-127.3457 Y226.5012 I-0.0001 J-2.6409
G3 X-124.739 Y223.8601 I2.6415 J0.0002
G0 Z5.0
G0 X-118.4989 Y223.5078
G1 Z0.0
G3 X-118.5028 Y223.3662 I2.5013 J-0.1412
G3 X-115.9976 Y220.8606 I2.5056 J0.0
G3 X-113.4909 Y223.3662 I0.0004 J2.5062
G3 X-115.9976 Y225.8718 I-2.5061 J-0.0005
G3 X-118.4989 Y223.5078 I0.0 J-2.5053
G0 Z5.0
G0 X-113.9719 Y216.5945
G1 Z0.0
G3 X-115.1446 Y214.4255 I1.4207 J-2.1696
G3 X-112.5511 Y211.8324 I2.5931 J0.0
G3 X-109.9583 Y214.4255 I-0.0002 J2.593
G3 X-112.5511 Y217.0183 I-2.593 J-0.0002
G3 X-113.9719 Y216.5945 I-0.0001 J-2.5934
G0 Z5.0
G0 X-106.1723 Y215.7799
G1 Z0.0
G3 X-106.1859 Y215.5172 I2.5112 J-0.2623
G3 X-103.6614 Y212.992 I2.5247 J-0.0006
G3 X-101.1361 Y215.5172 I-0.0001 J2.5254
G3 X-103.6614 Y218.0425 I-2.5254 J-0.0001
G3 X-106.1723 Y215.7799 I0.0003 J-2.5249
G0 Z5.0
G0 X-106.2125 Y221.0601
G1 Z0.0
G3 X-103.764 Y223.5271 I-0.0188 J2.4671
G3 X-106.2314 Y225.9941 I-2.4669 J0.0001
G3 X-108.6981 Y223.5271 I0.0001 J-2.4668
G3 X-106.2314 Y221.0601 I2.4671 J0.0
G3 X-106.2125 I0.0002 J2.4672
G0 Z5.0
G0 X-97.7583 Y221.7631
G1 Z0.0
G3 X-95.5027 Y219.6875 I2.2553 J0.1875
G3 X-93.2393 Y221.9513 I-0.0001 J2.2635
G3 X-95.5027 Y224.2151 I-2.2639 J-0.0002
G3 X-97.7661 Y221.9513 I0.0001 J-2.2635
G3 X-97.7583 Y221.7631 I2.263 J-0.0007
G0 Z5.0
G0 X-94.3286 Y228.5423
G1 Z0.0
G3 X-93.3199 Y228.3017 I1.0088 J1.9939
G3 X-91.0854 Y230.5361 I-0.0001 J2.2345
G3 X-93.3199 Y232.771 I-2.2351 J-0.0003
G3 X-95.5544 Y230.5361 I0.0001 J-2.2345
G3 X-94.3286 Y228.5423 I2.2345 J0.0001
G0 Z5.0
G0 X-85.5736 Y227.9879
G1 Z0.0
G3 X-85.5774 Y227.8693 I1.8625 J-0.118
G3 X-83.7115 Y226.0027 I1.8662 J-0.0004
G3 X-81.8443 Y227.8693 I-0.0001 J1.8673
G3 X-83.7115 Y229.7362 I-1.8676 J-0.0007
G3 X-85.5736 Y227.9879 I0.0004 J-1.8663
G0 Z5.0
G0 X-86.9954 Y236.5429
G1 Z0.0
G3 X-85.1516 Y238.7186 I-0.3616 J2.1756
G3 X-87.3571 Y240.9241 I-2.2054 J0.0001
G3 X-89.5627 Y238.7186 I-0.0001 J-2.2054
G3 X-87.3571 Y236.513 I2.2054 J-0.0001
G3 X-86.9954 Y236.5429 I0.0001 J2.2054
G0 Z5.0
G0 X-79.9625 Y241.6485
G1 Z0.0
G3 X-78.6555 Y240.9824 I1.3068 J0.9487
G3 X-77.0411 Y242.5974 I-0.0001 J1.6145
G3 X-78.6555 Y244.2121 I-1.615 J-0.0002
G3 X-80.2706 Y242.5974 I-0.0002 J-1.6149
G3 X-79.9625 Y241.6485 I1.6148 J-0.0003
G0 Z5.0
G0 X-86.5159 Y247.8226
G1 Z0.0
G3 X-85.8709 Y249.448 I-1.7251 J1.6253
G3 X-88.2411 Y251.8182 I-2.3704 J-0.0002
G3 X-90.6114 Y249.448 I0.0 J-2.3702
G3 X-88.2411 Y247.0778 I2.3701 J-0.0001
G3 X-86.5159 Y247.8226 I0.0001 J2.3701
G0 Z5.0
G0 X-86.2776 Y255.9875
G1 Z0.0
G3 X-86.2071 Y255.9864 I0.0706 J2.4175
G3 X-83.7887 Y258.4049 I0.0003 J2.4181
G3 X-86.2071 Y260.8237 I-2.4186 J0.0002
G3 X-88.6256 Y258.4049 I0.0003 J-2.4187
G3 X-86.2776 Y255.9875 I2.4186 J0.0001
G0 Z5.0
G0 X-78.7616 Y253.943
G1 Z0.0
G3 X-78.825 Y253.4677 I1.7446 J-0.4746
G3 X-77.017 Y251.6594 I1.8076 J-0.0008
G3 X-75.2083 Y253.4677 I0.0005 J1.8082
G3 X-77.017 Y255.2764 I-1.8086 J0.0
G3 X-78.7616 Y253.943 I0.0 J-1.808
G0 Z5.0
G0 X-78.6493 Y261.9653
G1 Z0.0
G3 X-78.6162 Y261.9651 I0.0333 J2.3798
G3 X-76.2363 Y264.3449 I-0.0004 J2.3803
G3 X-78.6162 Y266.7248 I-2.3801 J-0.0002
G3 X-80.9961 Y264.3449 I0.0004 J-2.3803
G3 X-78.6493 Y261.9653 I2.3801 J0.0002
G0 Z5.0
G0 X-73.974 Y270.9627
G1 Z0.0
G3 X-73.0593 Y270.7394 I0.9141 J1.7591
G3 X-71.0763 Y272.722 I-0.0004 J1.9834
G3 X-73.0593 Y274.705 I-1.9832 J-0.0002
G3 X-75.0423 Y272.722 I-0.0003 J-1.9827
G3 X-73.974 Y270.9627 I1.9824 J-0.0002
G0 Z5.0
G0 X-71.3316 Y279.3669
G1 Z0.0
G3 X-70.6009 Y279.2546 I0.7313 J2.3261
G3 X-68.1624 Y281.6927 I-0.0005 J2.4389
G3 X-70.6009 Y284.1308 I-2.4383 J-0.0002
G3 X-73.0386 Y281.6927 I0.0 J-2.4377
G3 X-71.3316 Y279.3669 I2.4383 J0.0002
G0 Z5.0
G0 X-62.8551 Y282.851
G1 Z0.0
G3 X-61.5678 Y281.9883 I1.2873 J0.5291
G3 X-60.176 Y283.3805 I-0.0004 J1.3922
G3 X-61.5678 Y284.7726 I-1.3921 J0.0001
G3 X-62.9596 Y283.3805 I-0.0003 J-1.3915
G3 X-62.8551 Y282.851 I1.3918 J-0.0004
G0 Z5.0
G0 X-63.2158 Y290.2697
G1 Z0.0
G3 X-60.9146 Y292.6853 I-0.1174 J2.4158
G3 X-63.3338 Y295.1041 I-2.4186 J0.0002
G3 X-65.7522 Y292.6853 I-0.0004 J-2.418
G3 X-63.3338 Y290.2669 I2.4184 J-0.0001
G3 X-63.2158 Y290.2697 I0.0005 J2.4186
G0 Z5.0
G0 X-56.1866 Y293.3567
G1 Z0.0
G3 X-54.4158 Y292.2002 I1.7709 J0.7777
G3 X-52.481 Y294.1347 I0.0005 J1.9343
G3 X-54.4158 Y296.0691 I-1.9348 J-0.0003
G3 X-56.3499 Y294.1347 I0.0005 J-1.9346
G3 X-56.1866 Y293.3567 I1.9342 J-0.0003
G0 Z5.0
G0 X-44.3609 Y289.0353
G1 Z0.0
G3 X-44.4402 Y288.5874 I1.2257 J-0.4479
G3 X-43.1352 Y287.2824 I1.305 J0.0
G3 X-41.8302 Y288.5874 I0.0 J1.305
G3 X-43.1352 Y289.8924 I-1.305 J0.0
G3 X-44.3609 Y289.0353 I0.0 J-1.305
G0 Z5.0
G0 X-37.1548 Y295.7656
G1 Z0.0
G3 X-36.0596 Y295.2898 I1.0954 J1.023
G3 X-34.561 Y296.7884 I-0.0002 J1.4988
G3 X-36.0596 Y298.287 I-1.4983 J0.0003
G3 X-37.5583 Y296.7884 I0.0003 J-1.4989
G3 X-37.1548 Y295.7656 I1.4988 J0.0002
G0 Z5.0
G0 X-27.7331 Y294.1303
G1 Z0.0
G3 X-27.7604 Y293.8129 I1.8297 J-0.3176
G3 X-25.9035 Y291.956 I1.8571 J0.0002
G3 X-24.0466 Y293.8129 I0.0003 J1.8566
G3 X-25.9035 Y295.6698 I-1.8566 J0.0003
G3 X-27.7331 Y294.1303 I0.0001 J-1.857
G0 Z5.0
G0 X-31.3041 Y285.7458
G1 Z0.0
G3 X-31.8945 Y285.8664 I-0.5909 J-1.3875
G3 X-33.4035 Y284.3582 I-0.0006 J-1.5084
G3 X-31.8945 Y282.8499 I1.5084 J0.0001
G3 X-30.3869 Y284.3582 I-0.0005 J1.5081
G3 X-31.3041 Y285.7458 I-1.5081 J0.0002
G0 Z5.0
G0 X-22.2274 Y285.0304
G1 Z0.0
G3 X-22.2331 Y284.8849 I1.8412 J-0.1451
G3 X-20.3865 Y283.0377 I1.8472 J-0.0001
G3 X-18.5386 Y284.8849 I0.0001 J1.8479
G3 X-20.3865 Y286.7322 I-1.8477 J-0.0004
G3 X-22.2274 Y285.0304 I0.0004 J-1.8469
G0 Z5.0
G0 X-12.8228 Y287.7116
G1 Z0.0
G3 X-10.9628 Y286.3081 I1.8596 J0.5302
G3 X-9.0287 Y288.2425 I-0.0001 J1.9342
G3 X-10.9628 Y290.1769 I-1.9337 J0.0007
G3 X-12.8969 Y288.2425 I0.0001 J-1.9342
G3 X-12.8228 Y287.7116 I1.9337 J-0.0007
G0 Z5.0
G0 X-15.6885 Y294.9883
G1 Z0.0
G3 X-14.5064 Y296.725 I-0.6837 J1.736
G3 X-16.3723 Y298.5916 I-1.8662 J0.0004
G3 X-18.2395 Y296.725 I-0.0003 J-1.8669
G3 X-16.3723 Y294.8585 I1.8665 J-0.0001
G3 X-15.6885 Y294.9883 I0.0001 J1.8658
G0 Z5.0
G0 X-8.6734 Y296.8399
G1 Z0.0
G3 X-6.5875 Y295.233 I2.0861 J0.5506
G3 X-4.4302 Y297.3903 I-0.0002 J2.1575
G3 X-6.5875 Y299.5473 I-2.1569 J0.0001
G3 X-8.7449 Y297.3903 I0.0002 J-2.1575
G3 X-8.6734 Y296.8399 I2.1575 J0.0002
G0 Z5.0
G0 X-0.7643 Y294.0693
G1 Z0.0
G3 X-0.9024 Y293.2569 I2.3192 J-0.8124
G3 X1.5546 Y290.7995 I2.4577 J0.0003
G3 X4.0123 Y293.2569 I-0.0001 J2.4578
G3 X1.5546 Y295.7142 I-2.4575 J-0.0001
G3 X-0.7643 Y294.0693 I0.0003 J-2.4574
G0 Z5.0
G0 X1.7542 Y299.7503
G1 Z0.0
G3 X2.7811 Y299.5328 I1.0272 J2.3171
G3 X5.3166 Y302.0677 I0.0003 J2.5353
G3 X2.7811 Y304.6026 I-2.5355 J-0.0006
G3 X0.2468 Y302.0677 I0.0001 J-2.5344
G3 X1.7542 Y299.7503 I2.5346 J-0.0003
G0 Z5.0
G0 X8.5257 Y302.9742
G1 Z0.0
G3 X10.9363 Y301.4517 I2.4111 J1.1479
G3 X13.6069 Y304.1223 I0.0003 J2.6704
G3 X10.9363 Y306.7926 I-2.6706 J-0.0003
G3 X8.2663 Y304.1223 I0.0001 J-2.67
G3 X8.5257 Y302.9742 I2.6704 J-0.0002
G0 Z5.0
G0 X10.1652 Y297.2716
G1 Z0.0
G3 X8.4007 Y294.9284 I0.6737 J-2.3433
G3 X10.8391 Y292.4903 I2.4381 J0.0001
G3 X13.2769 Y294.9284 I0.0 J2.4377
G3 X10.8391 Y297.3665 I-2.4383 J-0.0002
G3 X10.1652 Y297.2716 I-0.0002 J-2.4382
G0 Z5.0
G0 X16.9987 Y298.5674
G1 Z0.0
G3 X19.4987 Y296.4973 I2.4994 J0.4739
G3 X22.0433 Y299.0415 I0.0002 J2.5443
G3 X19.4987 Y301.5861 I-2.5447 J-0.0001
G3 X16.9542 Y299.0415 I-0.0003 J-2.5442
G3 X16.9987 Y298.5674 I2.544 J-0.0002
G0 Z5.0
G0 X18.8272 Y305.1346
G1 Z0.0
G3 X19.5724 Y305.0329 I0.7449 J2.6753
G3 X22.3492 Y307.81 I0.0003 J2.7765
G3 X19.5724 Y310.5867 I-2.7765 J0.0003
G3 X16.795 Y307.81 I-0.0005 J-2.7769
G3 X18.8272 Y305.1346 I2.7771 J0.0
G0 Z5.0
G0 X13.618 Y310.2265
G1 Z0.0
G3 X14.4475 Y312.2624 I-2.0824 J2.0355
G3 X11.535 Y315.1749 I-2.9125 J0.0
G3 X8.6226 Y312.2624 I0.0005 J-2.913
G3 X11.535 Y309.3499 I2.9124 J0.0
G3 X13.618 Y310.2265 I0.0005 J2.912
G0 Z5.0
G0 X16.3611 Y315.5269
G1 Z0.0
G3 X17.7038 Y315.2001 I1.3428 J2.5947
G3 X20.6266 Y318.1222 I0.0003 J2.9225
G3 X17.7038 Y321.0443 I-2.9223 J-0.0002
G3 X14.7824 Y318.1222 I0.0002 J-2.9216
G3 X16.3611 Y315.5269 I2.9215 J-0.0006
G0 Z5.0
G0 X11.6658 Y318.6385
G1 Z0.0
G3 X12.1393 Y320.2096 I-2.3718 J1.5718
G3 X9.2944 Y323.0545 I-2.8448 J0.0001
G3 X6.4494 Y320.2096 I0.0004 J-2.8453
G3 X9.2944 Y317.3649 I2.8447 J0.0001
G3 X11.6658 Y318.6385 I-0.0003 J2.8453
G0 Z5.0
G0 X14.5851 Y324.7831
G1 Z0.0
G3 X15.8269 Y324.5032 I1.2413 J2.6128
G3 X18.7194 Y327.396 I0.0004 J2.8921
G3 X15.8269 Y330.2892 I-2.8924 J0.0008
G3 X12.9338 Y327.396 I0.0 J-2.8932
G3 X14.5851 Y324.7831 I2.8926 J-0.0002
G0 Z5.0
G0 X8.3214 Y326.6555
G1 Z0.0
G3 X8.4413 Y327.476 I-2.7441 J0.8203
G3 X5.5771 Y330.3399 I-2.864 J-0.0001
G3 X2.7128 Y327.476 I-0.0002 J-2.8641
G3 X5.5771 Y324.6117 I2.8641 J-0.0001
G3 X8.3214 Y326.6555 I0.0001 J2.8641
G0 Z5.0
G0 X2.1962 Y321.8361
G1 Z0.0
G3 X0.0594 Y322.8737 I-2.1366 J-1.6811
G3 X-2.6594 Y320.1548 I0.0003 J-2.7191
G3 X0.0594 Y317.4359 I2.7191 J0.0003
G3 X2.7783 Y320.1548 I-0.0003 J2.7191
G3 X2.1962 Y321.8361 I-2.7187 J0.0002
G0 Z5.0
G0 X-4.5192 Y323.6748
G1 Z0.0
G3 X-4.424 Y324.3826 I-2.5847 J0.7077
G3 X-7.1043 Y327.0629 I-2.6802 J0.0001
G3 X-9.7839 Y324.3826 I0.0002 J-2.6798
G3 X-7.1043 Y321.7027 I2.68 J0.0001
G3 X-4.5192 Y323.6748 I0.0005 J2.6798
G0 Z5.0
G0 X-2.9837 Y328.2042
G1 Z0.0
G3 X-2.0917 Y328.0571 I0.8916 J2.6301
G3 X0.6851 Y330.8342 I0.0003 J2.7765
G3 X-2.0917 Y333.611 I-2.7769 J-0.0002
G3 X-4.8691 Y330.8342 I-0.0002 J-2.7773
G3 X-2.9837 Y328.2042 I2.7771 J0.0
G0 Z5.0
G0 X-9.3053 Y330.692
G1 Z0.0
G3 X-9.1259 Y331.6376 I-2.4041 J0.9461
G3 X-11.709 Y334.2208 I-2.5832 J-0.0001
G3 X-14.2928 Y331.6376 I-0.0006 J-2.5832
G3 X-11.709 Y329.0545 I2.5838 J0.0007
G3 X-9.3053 Y330.692 I-0.0004 J2.5835
G0 Z5.0
G0 X-13.6163 Y324.7427
G1 Z0.0
G3 X-15.1665 Y325.2453 I-1.5499 J-2.1389
G3 X-17.8075 Y322.6039 I-0.0001 J-2.6409
G3 X-15.1665 Y319.9626 I2.6411 J-0.0002
G3 X-12.5248 Y322.6039 I0.0004 J2.6413
G3 X-13.6163 Y324.7427 I-2.6415 J-0.0001
G0 Z5.0
G0 X-17.6479 Y328.1737
G1 Z0.0
G3 X-16.958 Y330.0488 I-2.2033 J1.8751
G3 X-19.8512 Y332.9419 I-2.8932 J0.0
G3 X-22.7443 Y330.0488 I0.0 J-2.8932
G3 X-19.8512 Y327.1556 I2.8932 J0.0
G3 X-17.6479 Y328.1737 I0.0 J2.8932
G0 Z5.0
G0 X-22.3763 Y324.1152
G1 Z0.0
G3 X-24.4614 Y325.0734 I-2.0851 J-1.7897
G3 X-27.2092 Y322.3255 I0.0004 J-2.7483
G3 X-24.4614 Y319.5777 I2.7478 J0.0
G3 X-21.7136 Y322.3255 I-0.0004 J2.7483
G3 X-22.3763 Y324.1152 I-2.7478 J0.0
G0 Z5.0
G0 X-19.8179 Y317.0012
G1 Z0.0
G3 X-21.5716 Y314.5066 I0.897 J-2.4943
G3 X-18.9203 Y311.8556 I2.6509 J-0.0001
G3 X-16.2696 Y314.5066 I-0.0005 J2.6512
G3 X-18.9203 Y317.1576 I-2.651 J0.0
G3 X-19.8179 Y317.0012 I-0.0007 J-2.6507
G0 Z5.0
G0 X-26.2533 Y315.415
G1 Z0.0
G3 X-28.8456 Y317.4463 I-2.5926 J-0.639
G3 X-31.5162 Y314.776 I-0.0003 J-2.6704
G3 X-28.8456 Y312.1057 I2.6702 J-0.0001
G3 X-26.1757 Y314.776 I-0.0001 J2.67
G3 X-26.2533 Y315.415 I-2.6702 J0.0001
G0 Z5.0
G0 X-23.758 Y307.225
G1 Z0.0
G3 X-25.1352 Y305.3653 I0.5665 J-1.8593
G3 X-23.1915 Y303.4213 I1.9436 J-0.0005
G3 X-21.2478 Y305.3653 I-0.0003 J1.944
G3 X-23.1915 Y307.3094 I-1.9443 J-0.0002
G3 X-23.758 Y307.225 I0.0 J-1.9437
G0 Z5.0
G0 X-30.6319 Y306.8927
G1 Z0.0
G3 X-32.6607 Y308.8259 I-2.029 J-0.0981
G3 X-34.6919 Y306.7947 I0.0001 J-2.0313
G3 X-32.6607 Y304.7635 I2.0313 J0.0001
G3 X-30.6295 Y306.7947 I-0.0001 J2.0313
G3 X-30.6319 Y306.8927 I-2.0313 J-0.0001
G0 Z5.0
G0 X-15.6401 Y306.407
G1 Z0.0
G3 X-15.6412 Y306.3389 I2.1179 J-0.0686
G3 X-13.5225 Y304.2202 I2.1187 J0.0
G3 X-11.4045 Y306.3389 I-0.0002 J2.1182
G3 X-13.5225 Y308.4573 I-2.1184 J0.0
G3 X-15.6401 Y306.407 I0.0002 J-2.119
G0 Z5.0
G0 X-6.99 Y307.2654
G1 Z0.0
G3 X-4.6218 Y305.1204 I2.3684 J0.235
G3 X-2.2419 Y307.5003 I0.0003 J2.3796
G3 X-4.6218 Y309.8801 I-2.3798 J0.0
G3 X-7.0016 Y307.5003 I0.0004 J-2.3803
G3 X-6.99 Y307.2654 I2.3801 J0.0002
G0 Z5.0
G0 X-8.0463 Y313.0069
G1 Z0.0
G3 X-5.8909 Y315.5952 I-0.4761 J2.5881
G3 X-8.5223 Y318.2269 I-2.6317 J0.0
G3 X-11.1537 Y315.5952 I0.0001 J-2.6315
G3 X-8.5223 Y312.9635 I2.6317 J0.0
G3 X-8.0463 Y313.0069 I-0.0001 J2.6315
G0 Z5.0
G0 X0.1486 Y312.3748
G1 Z0.0
G3 X0.1407 Y312.1701 I2.653 J-0.2046
G3 X2.8017 Y309.5094 I2.6608 J0.0001
G3 X5.4627 Y312.1701 I-0.0001 J2.6611
G3 X2.8017 Y314.8311 I-2.6613 J-0.0003
G3 X0.1486 Y312.3748 I-0.0001 J-2.6609
G0 Z5.0
G0 X22.5836 Y313.3805
G1 Z0.0
G3 X25.4346 Y310.6542 I2.8513 J0.1278
G3 X28.2892 Y313.5085 I-0.0001 J2.8547
G3 X25.4346 Y316.3628 I-2.8541 J0.0001
G3 X22.5807 Y313.5085 I-0.0004 J-2.8535
G3 X22.5836 Y313.3805 I2.8541 J-0.0001
G0 Z5.0
G0 X23.6517 Y320.592
G1 Z0.0
G3 X24.0828 Y320.5603 I0.431 J2.9103
G3 X27.0242 Y323.5017 I0.0003 J2.9411
G3 X24.0828 Y326.4435 I-2.9417 J0.0
G3 X21.1407 Y323.5017 I0.0002 J-2.9423
G3 X23.6517 Y320.592 I2.9421 J0.0006
G0 Z5.0
G0 X28.304 Y320.0407
G1 Z0.0
G3 X28.2837 Y319.6969 I2.902 J-0.3439
G3 X31.2058 Y316.7748 I2.9219 J-0.0003
G3 X34.1287 Y319.6969 I0.0001 J2.9228
G3 X31.2058 Y322.6191 I-2.9231 J-0.001
G3 X28.304 Y320.0407 I0.0002 J-2.9223
G0 Z5.0
G0 X32.878 Y314.3291
G1 Z0.0
G3 X31.8804 Y312.2524 I1.6633 J-2.077
G3 X34.5414 Y309.5918 I2.6608 J0.0001
G3 X37.2017 Y312.2524 I-0.0002 J2.6605
G3 X34.5414 Y314.9131 I-2.6603 J0.0003
G3 X32.878 Y314.3291 I-0.0001 J-2.6609
G0 Z5.0
G0 X38.2963 Y308.0734
G1 Z0.0
G3 X37.4711 Y306.2673 I1.5646 J-1.8064
G3 X39.8606 Y303.8774 I2.3901 J0.0002
G3 X42.2501 Y306.2673 I-0.0002 J2.3897
G3 X39.8606 Y308.6568 I-2.3898 J-0.0003
G3 X38.2963 Y308.0734 I0.0003 J-2.3898
G0 Z5.0
G0 X31.2409 Y305.121
G1 Z0.0
G3 X29.001 Y306.6121 I-2.2403 J-0.9375
G3 X26.5729 Y304.1837 I0.0001 J-2.4282
G3 X29.001 Y301.7556 I2.4278 J-0.0003
G3 X31.4291 Y304.1837 I-0.0001 J2.4282
G3 X31.2409 Y305.121 I-2.4286 J-0.0001
G0 Z5.0
G0 X36.2697 Y298.0558
G1 Z0.0
G3 X35.4447 Y296.4563 I1.1387 J-1.5998
G3 X37.4084 Y294.493 I1.9639 J0.0005
G3 X39.3721 Y296.4563 I0.0003 J1.9634
G3 X37.4084 Y298.4197 I-1.9631 J0.0002
G3 X36.2697 Y298.0558 I0.0 J-1.9637
G0 Z5.0
G0 X29.7959 Y295.378
G1 Z0.0
G3 X27.7304 Y296.7585 I-2.0649 J-0.8541
G3 X25.4959 Y294.5236 I-0.0001 J-2.2344
G3 X27.7304 Y292.2891 I2.2345 J0.0001
G3 X29.9656 Y294.5236 I0.0007 J2.2345
G3 X29.7959 Y295.378 I-2.2345 J0.0003
G0 Z5.0
G0 X29.8304 Y285.8237
G1 Z0.0
G3 X28.2982 Y284.2862 I0.0055 J-1.5377
G3 X29.8361 Y282.749 I1.5382 J0.001
G3 X31.3733 Y284.2862 I-0.0001 J1.5373
G3 X29.8361 Y285.8237 I-1.5374 J0.0002
G3 X29.8304 I-0.0001 J-1.5378
G0 Z5.0
G0 X21.0443 Y288.1875
G1 Z0.0
G3 X21.1131 Y288.7073 I-1.9336 J0.5202
G3 X19.1108 Y290.7096 I-2.0026 J-0.0004
G3 X17.1085 Y288.7073 I-0.0001 J-2.0022
G3 X19.1108 Y286.7053 I2.0024 J0.0005
G3 X21.0443 Y288.1875 I-0.0001 J2.0024
G0 Z5.0
G0 X10.8093 Y285.5734
G1 Z0.0
G3 X9.151 Y286.8617 I-1.6588 J-0.4237
G3 X7.4388 Y285.1499 I0.0004 J-1.7126
G3 X9.151 Y283.4383 I1.7119 J0.0004
G3 X10.8626 Y285.1499 I0.0001 J1.7114
G3 X10.8093 Y285.5734 I-1.712 J-0.0001
G0 Z5.0
G0 X-0.0865 Y285.0804
G1 Z0.0
G3 X-1.9318 Y286.8445 I-1.8458 J-0.0835
G3 X-3.7791 Y284.9972 I0.0003 J-1.8476
G3 X-1.9318 Y283.15 I1.8475 J0.0002
G3 X-0.0846 Y284.9972 I-0.0001 J1.8474
G3 X-0.0865 Y285.0804 I-1.8477 J-0.0004
G0 Z5.0
G0 X4.7665 Y274.3888
G1 Z0.0
G3 X4.0861 Y273.3328 I0.4794 J-1.0561
G3 X5.2464 Y272.1729 I1.1598 J-0.0002
G3 X6.4053 Y273.3328 I-0.0003 J1.1593
G3 X5.2464 Y274.4925 I-1.1591 J0.0005
G3 X4.7665 Y274.3888 I-0.0005 J-1.1598
G0 Z5.0
G0 X17.8217 Y275.699
G1 Z0.0
G3 X19.0626 Y274.5769 I1.2404 J0.1245
G3 X20.309 Y275.8236 I0.0 J1.2464
G3 X19.0626 Y277.0704 I-1.2467 J0.0001
G3 X17.8155 Y275.8236 I-0.0002 J-1.2469
G3 X17.8217 Y275.699 I1.2466 J-0.0002
G0 Z5.0
G0 X23.6116 Y266.0111
G1 Z0.0
G3 X23.0327 Y264.9909 I0.6099 J-1.0205
G3 X24.222 Y263.8023 I1.1889 J0.0004
G3 X25.4105 Y264.9909 I0.0003 J1.1883
G3 X24.222 Y266.1794 I-1.1883 J0.0003
G3 X23.6116 Y266.0111 I-0.0004 J-1.1888
G0 Z5.0
G0 X31.2463 Y257.5602
G1 Z0.0
G3 X30.8097 Y256.5776 I0.888 J-0.983
G3 X32.134 Y255.2533 I1.3243 J0.0
G3 X33.4583 Y256.5776 I-0.0004 J1.3247
G3 X32.134 Y257.9019 I-1.3243 J0.0
G3 X31.2463 Y257.5602 I0.0004 J-1.3247
G0 Z5.0
G0 X39.6846 Y250.8488
G1 Z0.0
G3 X39.3631 Y249.9279 I1.1576 J-0.9207
G3 X40.8425 Y248.4486 I1.4791 J-0.0002
G3 X42.3218 Y249.9279 I0.0002 J1.4791
G3 X40.8425 Y251.4072 I-1.4796 J-0.0003
G3 X39.6846 Y250.8488 I-0.0003 J-1.4791
G0 Z5.0
G0 X48.3253 Y245.0041
G1 Z0.0
G3 X48.0413 Y244.0781 I1.3701 J-0.9267
G3 X49.695 Y242.4245 I1.6539 J0.0003
G3 X51.3486 Y244.0781 I0.0002 J1.6535
G3 X49.695 Y245.7314 I-1.6533 J0.0
G3 X48.3253 Y245.0041 I0.0004 J-1.6541
G0 Z5.0
G0 X44.6619 Y236.1677
G1 Z0.0
G3 X44.1181 Y236.276 I-0.5443 J-1.3128
G3 X42.6966 Y234.8549 I-0.0006 J-1.4208
G3 X44.1181 Y233.4338 I1.4212 J0.0001
G3 X45.5388 Y234.8549 I-0.0008 J1.4215
G3 X44.6619 Y236.1677 I-1.4211 J0.0
G0 Z5.0
G0 X32.8392 Y240.6083
G1 Z0.0
G3 X32.9256 Y241.0843 I-1.2666 J0.4757
G3 X31.5724 Y242.4379 I-1.3535 J0.0
G3 X30.2192 Y241.0843 I0.0006 J-1.3538
G3 X31.5724 Y239.7311 I1.3534 J0.0002
G3 X32.8392 Y240.6083 I0.0003 J1.353
G0 Z5.0
G0 X30.3229 Y227.1889
G1 Z0.0
G3 X30.1275 Y227.2071 I-0.1959 J-1.0449
G3 X29.0644 Y226.1443 I0.0002 J-1.0633
G3 X30.1275 Y225.0815 I1.063 J0.0002
G3 X31.19 Y226.1443 I-0.0004 J1.0628
G3 X30.3229 Y227.1889 I-1.0631 J-0.0003
G0 Z5.0
G0 X23.7007 Y216.5391
G1 Z0.0
G3 X22.5049 Y216.8805 I-1.1953 J-1.9223
G3 X20.2415 Y214.6167 I0.0001 J-2.2635
G3 X22.5049 Y212.3533 I2.2633 J-0.0001
G3 X24.769 Y214.6167 I0.0007 J2.2635
G3 X23.7007 Y216.5391 I-2.2637 J0.0001
G0 Z5.0
G0 X14.5589 Y217.5866
G1 Z0.0
G3 X14.5729 Y217.8317 I-2.1435 J0.2456
G3 X12.4156 Y219.989 I-2.1575 J-0.0002
G3 X10.2583 Y217.8317 I0.0002 J-2.1575
G3 X12.4156 Y215.6747 I2.1569 J-0.0001
G3 X14.5589 Y217.5866 I-0.0002 J2.1575
G0 Z5.0
G0 X12.4476 Y209.242
G1 Z0.0
G3 X11.8451 Y209.3171 I-0.6027 J-2.3822
G3 X9.3874 Y206.8597 I0.0 J-2.4577
G3 X11.8451 Y204.4023 I2.4575 J0.0001
G3 X14.3021 Y206.8597 I-0.0003 J2.4574
G3 X12.4476 Y209.242 I-2.4573 J0.0001
G0 Z5.0
G0 X20.562 Y204.3445
G1 Z0.0
G3 X20.1933 Y203.0195 I2.1947 J-1.3246
G3 X22.7571 Y200.4556 I2.5634 J-0.0004
G3 X25.3209 Y203.0195 I0.0 J2.5638
G3 X22.7571 Y205.5833 I-2.5639 J0.0
G3 X20.562 Y204.3445 I-0.0004 J-2.5635
G0 Z5.0
G0 X14.5395 Y196.3712
G1 Z0.0
G3 X12.9413 Y196.9068 I-1.5978 J-2.1153
G3 X10.29 Y194.2558 I0.0002 J-2.6515
G3 X12.9413 Y191.6048 I2.6513 J0.0003
G3 X15.5927 Y194.2558 I-0.0002 J2.6515
G3 X14.5395 Y196.3712 I-2.6509 J0.0001
G0 Z5.0
G0 X22.3223 Y192.3421
G1 Z0.0
G3 X22.0515 Y191.2304 I2.1479 J-1.1119
G3 X24.4707 Y188.8116 I2.419 J0.0002
G3 X26.8891 Y191.2304 I-0.0003 J2.4188
G3 X24.4707 Y193.6488 I-2.4184 J0.0001
G3 X22.3223 Y192.3421 I-0.0005 J-2.4186
G0 Z5.0
G0 X24.9522 Y182.8218
G1 Z0.0
G3 X23.1919 Y180.5092 I0.6388 J-2.3126
G3 X25.591 Y178.1101 I2.3992 J0.0
G3 X27.9902 Y180.5092 I0.0 J2.3992
G3 X25.591 Y182.9084 I-2.3992 J0.0
G3 X24.9522 Y182.8218 I0.0 J-2.3992
G0 Z5.0
G0 X17.2102 Y182.5383
G1 Z0.0
G3 X14.7638 Y184.8969 I-2.4465 J-0.0896
G3 X12.3164 Y182.4495 I-0.0002 J-2.4472
G3 X14.7638 Y180.0018 I2.4477 J0.0
G3 X17.2119 Y182.4495 I-0.0002 J2.4483
G3 X17.2102 Y182.5383 I-2.4482 J-0.0008
G0 Z5.0
G0 X6.5346 Y181.6496
G1 Z0.0
G3 X3.6906 Y184.2668 I-2.8441 J-0.2368
G3 X0.836 Y181.4122 I0.0001 J-2.8547
G3 X3.6906 Y178.5579 I2.8541 J-0.0001
G3 X6.5445 Y181.4122 I0.0004 J2.8535
G3 X6.5346 Y181.6496 I-2.8539 J0.0007
G0 Z5.0
G0 X3.6201 Y188.6468
G1 Z0.0
G3 X5.4124 Y191.3354 I-1.1197 J2.6882
G3 X2.4999 Y194.2479 I-2.9122 J0.0003
G3 X-0.4125 Y191.3354 I0.0004 J-2.9129
G3 X2.4999 Y188.4229 I2.9128 J0.0003
G3 X3.6201 Y188.6468 I0.0004 J2.912
G0 Z5.0
G0 X-5.0095 Y183.5527
G1 Z0.0
G3 X-7.2428 Y184.828 I-2.2337 J-1.3186
G3 X-9.8356 Y182.2349 I0.0002 J-2.593
G3 X-7.2428 Y179.6421 I2.593 J0.0002
G3 X-4.6493 Y182.2349 I0.0 J2.5935
G3 X-5.0095 Y183.5527 I-2.5939 J-0.0008
G0 Z5.0
G0 X-7.9123 Y190.2366
G1 Z0.0
G3 X-6.6316 Y192.1884 I-0.8479 J1.9524
G3 X-8.76 Y194.3165 I-2.1278 J0.0002
G3 X-10.8877 Y192.1884 I-0.0005 J-2.1272
G3 X-8.76 Y190.0604 I2.1275 J-0.0005
G3 X-7.9123 Y190.2366 I-0.0002 J2.1286
G0 Z5.0
G0 X-17.0989 Y185.6918
G1 Z0.0
G3 X-19.2579 Y187.0329 I-2.1596 J-1.0684
G3 X-21.6667 Y184.6237 I-0.0002 J-2.4086
G3 X-19.2579 Y182.2149 I2.409 J0.0002
G3 X-16.8491 Y184.6237 I-0.0006 J2.4094
G3 X-17.0989 Y185.6918 I-2.4094 J-0.0002
G0 Z5.0
G0 X-29.3425 Y191.0251
G1 Z0.0
G3 X-29.093 Y192.2232 I-2.7498 J1.1978
G3 X-32.0923 Y195.2229 I-2.9995 J0.0002
G3 X-35.0923 Y192.2232 I-0.0004 J-2.9996
G3 X-32.0923 Y189.2236 I3.0001 J0.0005
G3 X-29.3425 Y191.0251 I-0.0001 J2.9994
G0 Z5.0
G0 X-23.0532 Y199.8951
G1 Z0.0
G3 X-21.6433 Y199.4459 I1.4101 J1.9888
G3 X-19.2049 Y201.884 I0.0003 J2.4382
G3 X-21.6433 Y204.3217 I-2.4384 J-0.0007
G3 X-24.081 Y201.884 I0.0 J-2.4377
G3 X-23.0532 Y199.8951 I2.438 J-0.0001
G0 Z5.0
G0 X-33.4787 Y205.9413
G1 Z0.0
G3 X-33.3235 Y206.5183 I-0.9947 J0.5769
G3 X-34.4735 Y207.6683 I-1.1498 J0.0002
G3 X-35.6235 Y206.5183 I0.0004 J-1.1504
G3 X-34.4735 Y205.3683 I1.1503 J0.0004
G3 X-33.4787 Y205.9413 I0.0001 J1.1499
G0 Z5.0
G0 X-24.2782 Y213.5105
G1 Z0.0
G3 X-23.0613 Y212.9358 I1.217 J1.0012
G3 X-21.4848 Y214.512 I0.0004 J1.576
G3 X-23.0613 Y216.0881 I-1.5762 J-0.0001
G3 X-24.6371 Y214.512 I0.0001 J-1.5759
G3 X-24.2782 Y213.5105 I1.5759 J-0.0002
G0 Z5.0
G0 X-13.0792 Y218.4839
G1 Z0.0
G3 X-11.4437 Y217.421 I1.635 J0.7261
G3 X-9.6544 Y219.2104 I0.0 J1.7894
G3 X-11.4437 Y220.9994 I-1.789 J0.0
G3 X-13.2331 Y219.2104 I-0.0006 J-1.7888
G3 X-13.0792 Y218.4839 I1.7889 J-0.0005
G0 Z5.0
G0 X-10.7766 Y208.8359
G1 Z0.0
G3 X-12.2843 Y206.9259 I0.4558 J-1.9099
G3 X-10.3213 Y204.9625 I1.9632 J-0.0001
G3 X-8.3576 Y206.9259 I0.0003 J1.9634
G3 X-10.3213 Y208.8896 I-1.9637 J0.0
G3 X-10.7766 Y208.8359 I0.0005 J-1.9635
G0 Z5.0
G0 X-1.3977 Y204.8905
G1 Z0.0
G3 X-1.6059 Y203.859 I2.4528 J-1.0318
G3 X1.0551 Y201.1984 I2.6608 J0.0001
G3 X3.7154 Y203.859 I-0.0002 J2.6605
G3 X1.0551 Y206.5197 I-2.66 J0.0006
G3 X-1.3977 Y204.8905 I0.0 J-2.661
G0 Z5.0
G0 X0.1201 Y212.3887
G1 Z0.0
G3 X0.5459 Y212.346 I0.426 J2.1045
G3 X2.6935 Y214.4934 I0.0003 J2.1474
G3 X0.5459 Y216.6407 I-2.1472 J0.0002
G3 X-1.6011 Y214.4934 I-0.0001 J-2.1469
G3 X0.1201 Y212.3887 I2.1472 J-0.0001
G0 Z5.0
G0 X1.6441 Y228.3982
G1 Z0.0
G3 X1.7406 Y228.3936 I0.0961 J1.0092
G3 X2.7549 Y229.4079 I0.0 J1.0142
G3 X1.7406 Y230.4225 I-1.014 J0.0006
G3 X0.7264 Y229.4079 I-0.0002 J-1.0141
G3 X1.6441 Y228.3982 I1.0138 J-0.0004
G0 Z5.0
G0 X-10.156 Y234.1549
G1 Z0.0
G3 X-10.0533 Y234.5996 I-0.9115 J0.4447
G3 X-11.0675 Y235.6142 I-1.014 J0.0006
G3 X-12.0825 Y234.5996 I-0.0003 J-1.0146
G3 X-11.0675 Y233.5854 I1.0148 J0.0005
G3 X-10.156 Y234.1549 I0.0 J1.0142
G0 Z5.0
G0 X-11.0053 Y249.2531
G1 Z0.0
G3 X-10.1394 Y250.1691 I-0.0515 J0.916
G3 X-11.0565 Y251.0868 I-0.9177 J0.0001
G3 X-11.9743 Y250.1691 I-0.0001 J-0.9177
G3 X-11.0565 Y249.2516 I0.9176 J0.0001
G3 X-11.0053 Y249.2531 I-0.0003 J0.9174
G0 Z5.0
G0 X-24.2693 Y244.1949
G1 Z0.0
G3 X-25.1449 Y244.7978 I-0.8752 J-0.3338
G3 X-26.0813 Y243.8607 I0.0005 J-0.9369
G3 X-25.1449 Y242.924 I0.9365 J-0.0002
G3 X-24.2078 Y243.8607 I0.0008 J0.9363
G3 X-24.2693 Y244.1949 I-0.9367 J0.0004
G0 Z5.0
G0 X-26.9977 Y258.4022
G1 Z0.0
G3 X-26.1984 Y259.3699 I-0.1858 J0.9674
G3 X-27.1837 Y260.3552 I-0.9853 J0.0
G3 X-28.169 Y259.3699 I0.0 J-0.9853
G3 X-27.1837 Y258.3846 I0.9851 J-0.0002
G3 X-26.9977 Y258.4022 I0.0002 J0.9851
G0 Z5.0
G0 X-38.0302 Y253.431
G1 Z0.0
G3 X-38.9198 Y254.0059 I-0.8895 J-0.4008
G3 X-39.8954 Y253.0302 I0.0 J-0.9757
G3 X-38.9198 Y252.0546 I0.9757 J0.0
G3 X-37.9441 Y253.0302 I0.0 J0.9757
G3 X-38.0302 Y253.431 I-0.9757 J0.0
G0 Z5.0
G0 X-47.8587 Y262.8011
G1 Z0.0
G3 X-47.5545 Y263.5612 I-0.7971 J0.7599
G3 X-48.6556 Y264.6629 I-1.1015 J0.0002
G3 X-49.758 Y263.5612 I-0.0006 J-1.1018
G3 X-48.6556 Y262.4598 I1.1015 J0.0001
G3 X-47.8587 Y262.8011 I-0.0002 J1.1012
G0 Z5.0
G0 X-39.0827 Y271.3851
G1 Z0.0
G3 X-38.2611 Y271.0394 I0.8215 J0.8035
G3 X-37.1104 Y272.1894 I0.0003 J1.1503
G3 X-38.2611 Y273.3394 I-1.1507 J-0.0007
G3 X-39.4103 Y272.1894 I0.0001 J-1.1493
G3 X-39.0827 Y271.3851 I1.1491 J-0.0008
G0 Z5.0
G0 X-48.1258 Y278.2034
G1 Z0.0
G3 X-47.8901 Y278.9073 I-0.9337 J0.704
G3 X-49.0594 Y280.0766 I-1.1691 J0.0001
G3 X-50.2293 Y278.9073 I-0.0007 J-1.1692
G3 X-49.0594 Y277.7381 I1.1695 J0.0003
G3 X-48.1258 Y278.2034 I-0.0001 J1.1694
G0 Z5.0
G0 X-58.7323 Y271.228
G1 Z0.0
G3 X-59.6441 Y271.7198 I-0.9122 J-0.5999
G3 X-60.7362 Y270.6281 I-0.0002 J-1.0919
G3 X-59.6441 Y269.5363 I1.0912 J-0.0005
G3 X-58.5527 Y270.6281 I0.0003 J1.0911
G3 X-58.7323 Y271.228 I-1.0918 J-0.0001
G0 Z5.0
G0 X-64.9114 Y260.1268
G1 Z0.0
G3 X-65.405 Y260.2549 I-0.4937 J-0.887
G3 X-66.4192 Y259.2403 I0.0003 J-1.0146
G3 X-65.405 Y258.2261 I1.0142 J0.0
G3 X-64.39 Y259.2403 I0.0001 J1.0148
G3 X-64.9114 Y260.1268 I-1.0151 J-0.0005
G0 Z5.0
G0 X-65.9379 Y245.5608
G1 Z0.0
G3 X-66.0092 Y245.5633 I-0.0713 J-1.0117
G3 X-67.0235 Y244.5491 I0.0 J-1.0142
G3 X-66.0092 Y243.5345 I1.0148 J0.0002
G3 X-64.995 Y244.5491 I0.0 J1.0142
G3 X-65.9379 Y245.5608 I-1.0142 J0.0
G0 Z5.0
G0 X-53.4334 Y248.8753
G1 Z0.0
G3 X-52.4996 Y248.1568 I0.9338 J0.2475
G3 X-51.5336 Y249.1228 I0.0 J0.966
G3 X-52.4996 Y250.0888 I-0.9663 J-0.0003
G3 X-53.4656 Y249.1228 I0.0003 J-0.9663
G3 X-53.4334 Y248.8753 I0.9661 J0.0001
G0 Z5.0
G0 X-55.1881 Y234.1197
G1 Z0.0
G3 X-55.2991 Y234.1263 I-0.1106 J-0.9301
G3 X-56.2362 Y233.1892 I0.0005 J-0.9376
G3 X-55.2991 Y232.2521 I0.9376 J0.0006
G3 X-54.3621 Y233.1892 I0.0003 J0.9368
G3 X-55.1881 Y234.1197 I-0.9367 J0.0004
G0 Z5.0
G0 X-57.763 Y220.0883
G1 Z0.0
G3 X-57.9326 Y220.1037 I-0.169 J-0.9212
G3 X-58.8696 Y219.167 I0.0001 J-0.9372
G3 X-57.9326 Y218.2299 I0.9372 J0.0001
G3 X-56.9955 Y219.167 I-0.0001 J0.9372
G3 X-57.763 Y220.0883 I-0.9366 J0.0001
G0 Z5.0
G0 X-71.7217 Y219.074
G1 Z0.0
G3 X-72.9456 Y220.2126 I-1.2243 J-0.089
G3 X-74.1734 Y218.9851 I0.0002 J-1.228
G3 X-72.9456 Y217.7576 I1.2274 J-0.0001
G3 X-71.7184 Y218.9851 I-0.0004 J1.2275
G3 X-71.7217 Y219.074 I-1.2276 J-0.0001
G0 Z5.0
G0 X-76.8713 Y209.6822
G1 Z0.0
G3 X-77.5965 Y209.868 I-0.7251 J-1.3225
G3 X-79.1047 Y208.3597 I0.0 J-1.5082
G3 X-77.5965 Y206.8515 I1.5082 J0.0
G3 X-76.0882 Y208.3597 I0.0 J1.5082
G3 X-76.8713 Y209.6822 I-1.5082 J0.0
G0 Z5.0
G0 X-84.5934 Y214.5327
G1 Z0.0
G3 X-84.3564 Y215.3553 I-1.3101 J0.8229
G3 X-85.904 Y216.9025 I-1.5473 J-0.0001
G3 X-87.4508 Y215.3553 I-0.0001 J-1.5467
G3 X-85.904 Y213.8085 I1.5467 J-0.0001
G3 X-84.5934 Y214.5327 I0.0005 J1.5471
G0 Z5.0
G0 X-87.6825 Y205.5876
G1 Z0.0
G3 X-88.3486 Y205.6994 I-0.6662 J-1.9292
G3 X-90.3895 Y203.6585 I0.0001 J-2.041
G3 X-88.3486 Y201.6173 I2.0413 J0.0001
G3 X-86.3077 Y203.6585 I0.0001 J2.0408
G3 X-87.6825 Y205.5876 I-2.041 J-0.0001
G0 Z5.0
G0 X-94.9685 Y208.9289
G1 Z0.0
G3 X-94.7951 Y209.7233 I-1.7318 J0.7942
G3 X-96.6995 Y211.6284 I-1.9051 J0.0
G3 X-98.6054 Y209.7233 I-0.0004 J-1.9054
G3 X-96.6995 Y207.8178 I1.9056 J0.0001
G3 X-94.9685 Y208.9289 I-0.0008 J1.9052
G0 Z5.0
G0 X-98.1354 Y201.1249
G1 Z0.0
G3 X-98.9285 Y201.2797 I-0.793 J-1.9542
G3 X-101.0376 Y199.171 I0.0005 J-2.1096
G3 X-98.9285 Y197.0622 I2.1093 J0.0005
G3 X-96.8194 Y199.171 I0.0003 J2.1088
G3 X-98.1354 Y201.1249 I-2.109 J-0.0002
G0 Z5.0
G0 X-105.1589 Y204.7074
G1 Z0.0
G3 X-104.8906 Y205.8238 I-2.1894 J1.1168
G3 X-107.3483 Y208.2812 I-2.4571 J0.0002
G3 X-109.8054 Y205.8238 I0.0002 J-2.4573
G3 X-107.3483 Y203.3664 I2.4577 J0.0003
G3 X-105.1589 Y204.7074 I-0.0001 J2.4578
G0 Z5.0
G0 X-107.0972 Y198.738
G1 Z0.0
G3 X-107.9223 Y198.8685 I-0.8246 J-2.5396
G3 X-110.5922 Y196.1982 I0.0001 J-2.67
G3 X-107.9223 Y193.5279 I2.6702 J-0.0001
G3 X-105.2516 Y196.1982 I0.0003 J2.6704
G3 X-107.0972 Y198.738 I-2.6702 J0.0001
G0 Z5.0
G0 X-115.1567 Y203.7521
G1 Z0.0
G3 X-114.767 Y205.1168 I-2.193 J1.3643
G3 X-117.3501 Y207.7 I-2.5831 J0.0
G3 X-119.9332 Y205.1168 I-0.0004 J-2.5828
G3 X-117.3501 Y202.5337 I2.5831 J0.0
G3 X-115.1567 Y203.7521 I0.0004 J2.5828
G0 Z5.0
G0 X-111.0289 Y189.163
G1 Z0.0
G3 X-112.9934 Y186.5657 I0.7349 J-2.5975
G3 X-110.2939 Y183.8661 I2.6994 J-0.0001
G3 X-107.5943 Y186.5657 I0.0001 J2.6994
G3 X-110.2939 Y189.2649 I-2.6993 J-0.0001
G3 X-111.0289 Y189.163 I-0.0001 J-2.6995
G0 Z5.0
G0 X-102.862 Y188.6754
G1 Z0.0
G3 X-102.8669 Y188.5115 I2.7531 J-0.1644
G3 X-100.1088 Y185.7537 I2.7578 J0.0
G3 X-97.3513 Y188.5115 I-0.0002 J2.7577
G3 X-100.1088 Y191.2689 I-2.7577 J-0.0002
G3 X-102.862 Y188.6754 I-0.0002 J-2.758
G0 Z5.0
G0 X-102.7015 Y181.7512
G1 Z0.0
G3 X-105.0642 Y179.3334 I0.0561 J-2.4182
G3 X-102.6458 Y176.9146 I2.4188 J0.0
G3 X-100.2273 Y179.3334 I0.0004 J2.418
G3 X-102.6458 Y181.7519 I-2.4184 J0.0001
G3 X-102.7015 Y181.7512 I0.0004 J-2.4188
G0 Z5.0
G0 X-93.4035 Y182.592
G1 Z0.0
G3 X-90.9373 Y180.3387 I2.4663 J0.223
G3 X-88.4602 Y182.8157 I-0.0003 J2.4774
G3 X-90.9373 Y185.2924 I-2.4768 J-0.0002
G3 X-93.4136 Y182.8157 I-0.0001 J-2.4763
G3 X-93.4035 Y182.592 I2.4764 J-0.0006
G0 Z5.0
G0 X-93.4419 Y175.0153
G1 Z0.0
G3 X-93.4529 I-0.0115 J-2.2639
G3 X-95.717 Y172.7516 I0.0 J-2.2641
G3 X-93.4529 Y170.4878 I2.2637 J-0.0001
G3 X-91.1894 Y172.7516 I-0.0001 J2.2635
G3 X-93.4419 Y175.0153 I-2.2639 J-0.0002
G0 Z5.0
G0 X-85.0932 Y174.3837
G1 Z0.0
G3 X-85.0992 Y174.2264 I2.0834 J-0.1576
G3 X-83.0101 Y172.1369 I2.0896 J0.0002
G3 X-80.921 Y174.2264 I0.0004 J2.0887
G3 X-83.0101 Y176.3155 I-2.0889 J0.0002
G3 X-85.0932 Y174.3837 I0.0003 J-2.0894
G0 Z5.0
G0 X-84.2597 Y163.8845
G1 Z0.0
G3 X-86.2099 Y161.7727 I0.1676 J-2.1112
G3 X-84.0919 Y159.6543 I2.1184 J0.0
G3 X-81.9731 Y161.7727 I-0.0002 J2.119
G3 X-84.0919 Y163.8911 I-2.1184 J0.0
G3 X-84.2597 Y163.8845 I-0.0002 J-2.1178
G0 Z5.0
G0 X-94.0906 Y163.5813
G1 Z0.0
G3 X-96.3343 Y165.7566 I-2.2435 J-0.0692
