( Made using CamBam - http://www.cambam.co.uk )
( Hanisch 1/24/2014 8:48:17 AM )
( T0 : 0.0 )
G21 G90 G64 G40
G0 Z5.0
( T0 : 0.0 )
T0 M6
( Profile1 )
G17
M3 S1000
G0 X199.4092 Y-3.0804
G1 F1.0 Z0.0
G3 X198.1655 Y-4.3247 I-0.0003 J-1.2434
G3 X199.4092 Y-5.5677 I1.2431 J0.0001
G3 X200.6522 Y-4.3247 I-0.0003 J1.2433
G3 X199.4092 Y-3.0804 I-1.2435 J0.0009
G0 Z5.0
G0 X199.8317 Y2.6914
G1 Z0.0
G3 X199.9218 Y2.6881 I0.0908 J1.2404
G3 X201.1655 Y3.9318 I0.0001 J1.2436
G3 X199.9218 Y5.1755 I-1.2436 J0.0001
G3 X198.6788 Y3.9318 I0.0001 J-1.2431
G3 X199.8317 Y2.6914 I1.2437 J0.0
G0 Z5.0
G0 X192.7489 Y4.424
G1 Z0.0
G3 X192.7843 Y4.7179 I-1.1987 J0.2932
G3 X191.5502 Y5.9527 I-1.2346 J0.0001
G3 X190.3162 Y4.7179 I0.0 J-1.234
G3 X191.5502 Y3.4832 I1.2346 J-0.0001
G3 X192.7489 Y4.424 I0.0 J1.234
G0 Z5.0
G0 X183.8412 Y2.2419
G1 Z0.0
G3 X182.6426 Y3.1828 I-1.1992 J-0.2937
G3 X181.4086 Y1.9481 I0.0 J-1.234
G3 X182.6426 Y0.7141 I1.2342 J0.0001
G3 X183.8766 Y1.9481 I-0.0001 J1.2342
G3 X183.8412 Y2.2419 I-1.2346 J0.0001
G0 Z5.0
G0 X183.629 Y9.4493
G1 Z0.0
G3 X184.822 Y10.678 I-0.0362 J1.2285
G3 X183.5921 Y11.9072 I-1.2292 J0.0
G3 X182.3629 Y10.678 I0.0001 J-1.2293
G3 X183.5921 Y9.4488 I1.2287 J-0.0005
G3 X183.629 Y9.4493 I0.0008 J1.2291
G0 Z5.0
G0 X175.7034 Y8.6037
G1 Z0.0
G3 X174.4805 Y9.703 I-1.2228 J-0.1305
G3 X173.2513 Y8.4731 I0.0001 J-1.2293
G3 X174.4805 Y7.2439 I1.2295 J0.0002
G3 X175.7104 Y8.4731 I0.0 J1.2299
G3 X175.7034 Y8.6037 I-1.2297 J0.0002
G0 Z5.0
G0 X174.7564 Y15.8422
G1 Z0.0
G3 X175.8268 Y17.061 I-0.1596 J1.2196
G3 X174.5969 Y18.2909 I-1.2299 J0.0
G3 X173.367 Y17.061 I0.0006 J-1.2305
G3 X174.5969 Y15.8318 I1.2301 J0.0009
G3 X174.7564 Y15.8422 I-0.0001 J1.23
G0 Z5.0
G0 X166.6165 Y14.7002
G1 Z0.0
G3 X165.4033 Y15.7547 I-1.2127 J-0.1701
G3 X164.1783 Y14.5303 I0.0001 J-1.2252
G3 X165.4033 Y13.3052 I1.225 J0.0
G3 X166.6284 Y14.5303 I0.0 J1.225
G3 X166.6165 Y14.7002 I-1.2246 J-0.0002
G0 Z5.0
G0 X164.853 Y21.8071
G1 Z0.0
G3 X165.7795 Y22.9921 I-0.2939 J1.1846
G3 X164.56 Y24.2117 I-1.2192 J0.0004
G3 X163.339 Y22.9921 I-0.0008 J-1.2202
G3 X164.56 Y21.7712 I1.2215 J0.0006
G3 X164.853 Y21.8071 I-0.0009 J1.2205
G0 Z5.0
G0 X157.1788 Y19.9652
G1 Z0.0
G3 X156.0024 Y20.8934 I-1.1773 J-0.2826
G3 X154.7911 Y19.6821 I-0.0001 J-1.2112
G3 X156.0024 Y18.4715 I1.2111 J0.0005
G3 X157.2123 Y19.6821 I-0.0005 J1.2104
G3 X157.1788 Y19.9652 I-1.2107 J0.0006
G0 Z5.0
G0 X156.2565 Y12.2019
G1 Z0.0
G3 X156.1133 Y12.2103 I-0.1434 J-1.2071
G3 X154.8979 Y10.9949 I-0.0005 J-1.2149
G3 X156.1133 Y9.7795 I1.2155 J0.0
G3 X157.3287 Y10.9949 I-0.0002 J1.2156
G3 X156.2565 Y12.2019 I-1.2156 J-0.0002
G0 Z5.0
G0 X148.6474 Y14.588
G1 Z0.0
G3 X148.7022 Y14.9464 I-1.1416 J0.358
G3 X147.5054 Y16.1433 I-1.1969 J-0.0001
G3 X146.3092 Y14.9464 I0.0004 J-1.1966
G3 X147.5054 Y13.7496 I1.1965 J-0.0004
G3 X148.6474 Y14.588 I0.0004 J1.1964
G0 Z5.0
G0 X141.3761 Y10.2232
G1 Z0.0
G3 X140.3458 Y10.8061 I-1.0298 J-0.6182
G3 X139.1448 Y9.6045 I0.0001 J-1.2011
G3 X140.3458 Y8.4028 I1.2018 J0.0002
G3 X141.5474 Y9.6045 I-0.0004 J1.202
G3 X141.3761 Y10.2232 I-1.2011 J0.0005
G0 Z5.0
G0 X134.8946 Y14.0205
G1 Z0.0
G3 X135.0879 Y14.7321 I-1.2157 J0.7122
G3 X133.6795 Y16.1398 I-1.408 J-0.0003
G3 X132.2719 Y14.7321 I0.0003 J-1.4079
G3 X133.6795 Y13.3238 I1.4084 J0.0
G3 X134.8946 Y14.0205 I-0.0006 J1.409
G0 Z5.0
G0 X131.7745 Y8.1271
G1 Z0.0
G3 X131.0916 Y8.2967 I-0.6827 J-1.2895
G3 X129.6322 Y6.8374 I-0.0002 J-1.4591
G3 X131.0916 Y5.378 I1.4591 J-0.0002
G3 X132.5509 Y6.8374 I0.0002 J1.4591
G3 X131.7745 Y8.1271 I-1.4591 J0.0002
G0 Z5.0
G0 X137.2149 Y2.0456
G1 Z0.0
G3 X136.6988 Y0.8911 I1.0326 J-1.1543
G3 X138.2477 Y-0.6578 I1.5492 J0.0003
G3 X139.7966 Y0.8911 I0.0004 J1.5485
G3 X138.2477 Y2.44 I-1.5485 J0.0004
G3 X137.2149 Y2.0456 I-0.0002 J-1.5487
G0 Z5.0
G0 X131.2302 Y-1.1358
G1 Z0.0
G3 X129.9416 Y-0.3615 I-1.2885 J-0.685
G3 X128.4823 Y-1.8208 I0.0005 J-1.4598
G3 X129.9416 Y-3.2809 I1.4595 J-0.0005
G3 X131.4009 Y-1.8208 I-0.0006 J1.4599
G3 X131.2302 Y-1.1358 I-1.4593 J0.0001
G0 Z5.0
G0 X136.0126 Y-5.6334
G1 Z0.0
G3 X135.5716 Y-6.746 I1.1831 J-1.1126
G3 X137.1956 Y-8.3693 I1.6237 J0.0003
G3 X138.8196 Y-6.746 I0.0011 J1.6229
G3 X137.1956 Y-5.1219 I-1.6238 J0.0002
G3 X136.0126 Y-5.6334 I0.0 J-1.624
G0 Z5.0
G0 X130.421 Y-9.2849
G1 Z0.0
G3 X129.1044 Y-8.5725 I-1.316 J-0.8594
G3 X127.5328 Y-10.1449 I0.0 J-1.5717
G3 X129.1044 Y-11.7165 I1.5714 J-0.0002
G3 X130.6768 Y-10.1449 I0.0008 J1.5715
G3 X130.421 Y-9.2849 I-1.5717 J0.0006
G0 Z5.0
G0 X134.409 Y-13.1053
G1 Z0.0
G3 X133.9551 Y-14.2356 I1.1793 J-1.1298
G3 X135.5881 Y-15.8686 I1.6332 J0.0002
G3 X137.2211 Y-14.2356 I-0.0005 J1.6335
G3 X135.5881 Y-12.6019 I-1.6329 J0.0007
G3 X134.409 Y-13.1053 I0.0002 J-1.6332
G0 Z5.0
G0 X134.0995 Y-19.985
G1 Z0.0
G3 X134.0261 Y-19.9834 I-0.0734 J-1.6313
G3 X132.3924 Y-21.6164 I-0.0005 J-1.6332
G3 X134.0261 Y-23.2493 I1.6338 J0.0008
G3 X135.6591 Y-21.6164 I0.0001 J1.6329
G3 X134.0995 Y-19.985 I-1.6329 J0.0001
G0 Z5.0
G0 X129.0758 Y-18.8775
G1 Z0.0
G3 X129.1141 Y-18.5254 I-1.5949 J0.3516
G3 X127.4811 Y-16.8924 I-1.6332 J-0.0002
G3 X125.8481 Y-18.5254 I0.0005 J-1.6335
G3 X127.4811 Y-20.1591 I1.6329 J-0.0007
G3 X129.0758 Y-18.8775 I-0.0002 J1.6332
G0 Z5.0
G0 X126.5911 Y-25.0957
G1 Z0.0
G3 X125.9832 Y-24.9788 I-0.608 J-1.5215
G3 X124.3454 Y-26.6166 I0.0001 J-1.6379
G3 X125.9832 Y-28.2544 I1.6382 J0.0004
G3 X127.6217 Y-26.6166 I0.0006 J1.6379
G3 X126.5911 Y-25.0957 I-1.6385 J-0.0007
G0 Z5.0
G0 X120.3584 Y-21.9128
G1 Z0.0
G3 X120.5268 Y-21.2126 I-1.3707 J0.7
G3 X118.9876 Y-19.6733 I-1.5391 J0.0002
G3 X117.4483 Y-21.2126 I-0.0002 J-1.5391
G3 X118.9876 Y-22.7519 I1.5391 J-0.0002
G3 X120.3584 Y-21.9128 I0.0002 J1.5391
G0 Z5.0
G0 X117.3703 Y-27.3678
G1 Z0.0
G3 X116.5856 Y-27.1671 I-0.7843 J-1.4319
G3 X114.952 Y-28.8001 I-0.0006 J-1.633
G3 X116.5856 Y-30.4331 I1.6338 J0.0008
G3 X118.2186 Y-28.8001 I0.0001 J1.6329
G3 X117.3703 Y-27.3678 I-1.6326 J0.0003
G0 Z5.0
G0 X121.6225 Y-33.0276
G1 Z0.0
G3 X120.9685 Y-34.337 I0.9836 J-1.3093
G3 X122.6063 Y-35.9748 I1.6376 J-0.0002
G3 X124.2441 Y-34.337 I0.0002 J1.6376
G3 X122.6063 Y-32.6992 I-1.6376 J0.0002
G3 X121.6225 Y-33.0276 I-0.0002 J-1.6376
G0 Z5.0
G0 X117.8091 Y-38.3013
G1 Z0.0
G3 X116.8516 Y-37.9916 I-0.9569 J-1.3234
G3 X115.2179 Y-39.6246 I-0.0006 J-1.633
G3 X116.8516 Y-41.2575 I1.6338 J0.0008
G3 X118.4853 Y-39.6246 I0.0005 J1.6332
G3 X117.8091 Y-38.3013 I-1.6331 J-0.0001
G0 Z5.0
G0 X112.2114 Y-34.8234
G1 Z0.0
G3 X112.4474 Y-33.9967 I-1.3311 J0.827
G3 X110.8799 Y-32.4291 I-1.5679 J-0.0004
G3 X109.3124 Y-33.9967 I0.0004 J-1.5679
G3 X110.8799 Y-35.5635 I1.5676 J0.0008
G3 X112.2114 Y-34.8234 I0.0005 J1.5671
G0 Z5.0
G0 X109.7822 Y-40.7337
G1 Z0.0
G3 X109.2042 Y-40.6195 I-0.5781 J-1.4065
G3 X107.6835 Y-42.1409 I0.0001 J-1.5207
G3 X109.2042 Y-43.6608 I1.5204 J0.0005
G3 X110.7249 Y-42.1409 I0.0002 J1.5204
G3 X109.7822 Y-40.7337 I-1.5207 J0.0006
G0 Z5.0
G0 X109.0843 Y-48.1734
G1 Z0.0
G3 X108.9341 Y-48.1663 I-0.1503 J-1.6026
G3 X107.3245 Y-49.7759 I0.0001 J-1.6097
G3 X108.9341 Y-51.3854 I1.6094 J-0.0001
G3 X110.5436 Y-49.7759 I0.0005 J1.609
G3 X109.0843 Y-48.1734 I-1.6097 J-0.0001
G0 Z5.0
G0 X115.3286 Y-48.4647
G1 Z0.0
G3 X115.3268 Y-48.5412 I1.6358 J-0.0763
G3 X116.9646 Y-50.179 I1.6376 J-0.0002
G3 X118.6024 Y-48.5412 I0.0002 J1.6376
G3 X116.9646 Y-46.9034 I-1.6376 J0.0002
G3 X115.3286 Y-48.4647 I-0.0002 J-1.6376
G0 Z5.0
G0 X112.5383 Y-54.6376
G1 Z0.0
G3 X111.8638 Y-54.4922 I-0.6746 J-1.4925
G3 X110.226 Y-56.1307 I0.0007 J-1.6385
G3 X111.8638 Y-57.7685 I1.6379 J0.0001
G3 X113.5016 Y-56.1307 I-0.0004 J1.6382
G3 X112.5383 Y-54.6376 I-1.6379 J0.0006
G0 Z5.0
G0 X117.5253 Y-56.1713
G1 Z0.0
G3 X117.4531 Y-56.6516 I1.5605 J-0.4799
G3 X119.0861 Y-58.2846 I1.6323 J-0.0007
G3 X120.7191 Y-56.6516 I0.0001 J1.6329
G3 X119.0861 Y-55.0186 I-1.6329 J0.0001
G3 X117.5253 Y-56.1713 I-0.0003 J-1.6326
G0 Z5.0
G0 X115.1427 Y-61.7914
G1 Z0.0
G3 X114.5034 Y-61.6615 I-0.6393 J-1.508
G3 X112.8656 Y-63.2993 I0.0004 J-1.6382
G3 X114.5034 Y-64.9378 I1.6379 J-0.0006
G3 X116.1412 Y-63.2993 I-0.0007 J1.6385
G3 X115.1427 Y-61.7914 I-1.6379 J-0.0001
G0 Z5.0
G0 X119.4398 Y-66.3749
G1 Z0.0
G3 X118.9311 Y-67.5491 I1.1009 J-1.1743
G3 X120.5406 Y-69.1587 I1.6097 J0.0001
G3 X122.1509 Y-67.5491 I0.0005 J1.6097
G3 X120.5406 Y-65.9396 I-1.6099 J-0.0004
G3 X119.4398 Y-66.3749 I0.0001 J-1.6097
G0 Z5.0
G0 X123.8887 Y-62.5754
G1 Z0.0
G3 X125.1274 Y-63.1463 I1.2383 J1.0576
G3 X126.7556 Y-61.5175 I-0.0003 J1.6285
G3 X125.1274 Y-59.8886 I-1.6285 J0.0004
G3 X123.4986 Y-61.5175 I0.0003 J-1.6291
G3 X123.8887 Y-62.5754 I1.6285 J-0.0004
G0 Z5.0
G0 X127.2939 Y-68.1516
G1 Z0.0
G3 X126.5096 Y-69.5494 I0.8536 J-1.3979
G3 X128.1481 Y-71.1872 I1.6385 J0.0007
G3 X129.7859 Y-69.5494 I-0.0001 J1.6379
G3 X128.1481 Y-67.9116 I-1.6382 J-0.0004
G3 X127.2939 Y-68.1516 I-0.0006 J-1.6379
G0 Z5.0
G0 X132.0818 Y-66.4853
G1 Z0.0
G3 X133.6065 Y-67.5691 I1.5247 J0.5306
G3 X135.2215 Y-65.9547 I0.0004 J1.6147
G3 X133.6065 Y-64.3404 I-1.6153 J-0.0009
G3 X131.9921 Y-65.9547 I0.0 J-1.6144
G3 X132.0818 Y-66.4853 I1.6144 J0.0
G0 Z5.0
G0 X132.0553 Y-60.2786
G1 Z0.0
G3 X133.6719 Y-58.6553 I-0.0069 J1.6235
G3 X132.0479 Y-57.0313 I-1.6238 J0.0002
G3 X130.4246 Y-58.6553 I0.0004 J-1.6238
G3 X132.0479 Y-60.2786 I1.6235 J0.0002
G3 X132.0553 I0.0005 J1.6235
G0 Z5.0
G0 X138.3402 Y-61.1937
G1 Z0.0
G3 X138.3235 Y-61.4244 I1.5838 J-0.2306
G3 X139.9234 Y-63.025 I1.6003 J-0.0003
G3 X141.524 Y-61.4244 I0.0003 J1.6003
G3 X139.9234 Y-59.8239 I-1.5999 J0.0007
G3 X138.3402 Y-61.1937 I0.0006 J-1.6005
G0 Z5.0
G0 X140.3628 Y-56.1296
G1 Z0.0
G3 X140.9597 Y-56.2444 I0.5971 J1.4949
G3 X142.5692 Y-54.6342 I-0.0004 J1.6099
G3 X140.9597 Y-53.0246 I-1.6097 J-0.0001
G3 X139.3502 Y-54.6342 I0.0001 J-1.6097
G3 X140.3628 Y-56.1296 I1.6097 J-0.0005
G0 Z5.0
G0 X135.5847 Y-53.097
G1 Z0.0
G3 X135.8382 Y-52.224 I-1.3749 J0.8726
G3 X134.2101 Y-50.5958 I-1.6282 J0.0
G3 X132.5812 Y-52.224 I-0.0006 J-1.6282
G3 X134.2101 Y-53.8528 I1.6285 J-0.0004
G3 X135.5847 Y-53.097 I-0.0003 J1.6285
G0 Z5.0
G0 X139.4079 Y-48.1842
G1 Z0.0
G3 X140.405 Y-48.5267 I0.9978 J1.2822
G3 X142.0291 Y-46.9027 I-0.0006 J1.6247
G3 X140.405 Y-45.2787 I-1.6247 J-0.0006
G3 X138.781 Y-46.9027 I0.0006 J-1.6247
G3 X139.4079 Y-48.1842 I1.6247 J0.0006
G0 Z5.0
G0 X132.9328 Y-46.6405
G1 Z0.0
G3 X132.9774 Y-46.2605 I-1.593 J0.3798
G3 X131.3396 Y-44.6227 I-1.6376 J0.0002
G3 X129.7018 Y-46.2605 I-0.0002 J-1.6376
G3 X131.3396 Y-47.8983 I1.6376 J-0.0002
G3 X132.9328 Y-46.6405 I0.0002 J1.6376
G0 Z5.0
G0 X135.4115 Y-41.5052
G1 Z0.0
G3 X136.1214 Y-41.6675 I0.7098 J1.4706
G3 X137.7544 Y-40.0345 I0.0003 J1.6326
G3 X136.1214 Y-38.4009 I-1.633 J0.0006
G3 X134.4884 Y-40.0345 I0.0008 J-1.6338
G3 X135.4115 Y-41.5052 I1.6329 J-0.0001
G0 Z5.0
G0 X129.9394 Y-39.9346
G1 Z0.0
G3 X130.0029 Y-39.4826 I-1.5741 J0.4518
G3 X128.3651 Y-37.8448 I-1.6376 J0.0002
G3 X126.7273 Y-39.4826 I-0.0002 J-1.6376
G3 X128.3651 Y-41.1204 I1.6376 J-0.0002
G3 X129.9394 Y-39.9346 I0.0002 J1.6376
G0 Z5.0
G0 X130.9011 Y-34.7014
G1 Z0.0
G3 X131.1977 Y-34.7284 I0.2961 J1.6111
G3 X132.8355 Y-33.0913 I0.0002 J1.6376
G3 X131.1977 Y-31.4528 I-1.6382 J0.0003
G3 X129.5592 Y-33.0913 I-0.0003 J-1.6382
G3 X130.9011 Y-34.7014 I1.638 J0.0009
G0 Z5.0
G0 X134.576 Y-28.9748
G1 Z0.0
G3 X135.4606 Y-29.2342 I0.8844 J1.3782
G3 X137.0984 Y-27.5957 I-0.0001 J1.6379
G3 X135.4606 Y-25.9586 I-1.6376 J-0.0005
G3 X133.8228 Y-27.5957 I-0.0005 J-1.6373
G3 X134.576 Y-28.9748 I1.6376 J-0.0009
G0 Z5.0
G0 X138.6213 Y-32.1737
G1 Z0.0
G3 X138.2691 Y-33.1864 I1.2813 J-1.0132
G3 X139.9021 Y-34.82 I1.6329 J-0.0007
G3 X141.5357 Y-33.1864 I0.0002 J1.6335
G3 X139.9021 Y-31.5534 I-1.6341 J-0.0011
G3 X138.6213 Y-32.1737 I0.0005 J-1.6335
G0 Z5.0
G0 X142.5771 Y-27.066
G1 Z0.0
G3 X143.58 Y-27.4089 I1.0027 J1.2947
G3 X145.2178 Y-25.7711 I0.0002 J1.6376
G3 X143.58 Y-24.1334 I-1.6376 J0.0002
G3 X141.9422 Y-25.7711 I-0.0002 J-1.6376
G3 X142.5771 Y-27.066 I1.6376 J-0.0002
G0 Z5.0
G0 X146.4605 Y-30.6465
G1 Z0.0
G3 X146.0267 Y-31.7567 I1.2042 J-1.1102
G3 X147.6652 Y-33.3945 I1.6385 J0.0007
G3 X149.303 Y-31.7567 I-0.0001 J1.6379
G3 X147.6652 Y-30.1189 I-1.6382 J-0.0004
G3 X146.4605 Y-30.6465 I-0.0006 J-1.6379
G0 Z5.0
G0 X151.1826 Y-26.5228
G1 Z0.0
G3 X152.4126 Y-27.0817 I1.2299 J1.0741
G3 X154.0456 Y-25.4487 I0.0001 J1.6329
G3 X152.4126 Y-23.8157 I-1.6329 J0.0001
G3 X150.7796 Y-25.4487 I-0.0001 J-1.6329
G3 X151.1826 Y-26.5228 I1.6329 J-0.0001
G0 Z5.0
G0 X155.0133 Y-30.9563
G1 Z0.0
G3 X154.4493 Y-32.1887 I1.0651 J-1.2327
G3 X156.0782 Y-33.8175 I1.6285 J-0.0004
G3 X157.707 Y-32.1887 I0.0004 J1.6285
G3 X156.0782 Y-30.5598 I-1.6288 J0.0001
G3 X155.0133 Y-30.9563 I0.0003 J-1.6291
G0 Z5.0
G0 X151.8492 Y-36.3444
G1 Z0.0
G3 X151.0249 Y-36.1202 I-0.8246 J-1.4043
G3 X149.396 Y-37.7491 I0.0003 J-1.6291
G3 X151.0249 Y-39.3779 I1.6285 J-0.0004
G3 X152.653 Y-37.7491 I-0.0003 J1.6285
G3 X151.8492 Y-36.3444 I-1.6285 J0.0004
G0 Z5.0
G0 X154.9632 Y-40.9604
G1 Z0.0
G3 X154.2516 Y-42.2993 I0.903 J-1.3385
G3 X155.8659 Y-43.913 I1.6141 J0.0004
G3 X157.4803 Y-42.2993 I0.0009 J1.6135
G3 X155.8659 Y-40.6843 I-1.6144 J0.0006
G3 X154.9632 Y-40.9604 I0.0003 J-1.6146
G0 Z5.0
G0 X159.6589 Y-38.6295
G1 Z0.0
G3 X161.0963 Y-39.5205 I1.437 J0.7133
G3 X162.701 Y-37.9158 I0.0 J1.6047
G3 X161.0963 Y-36.3104 I-1.6044 J0.001
G3 X159.4916 Y-37.9158 I0.0002 J-1.605
G3 X159.6589 Y-38.6295 I1.6043 J-0.0004
G0 Z5.0
G0 X162.2186 Y-43.7821
G1 Z0.0
G3 X161.3175 Y-45.2359 I0.7223 J-1.454
G3 X162.9415 Y-46.86 I1.6238 J-0.0002
G3 X164.5655 Y-45.2359 I0.0 J1.624
G3 X162.9415 Y-43.6126 I-1.6244 J-0.001
G3 X162.2186 Y-43.7821 I-0.0005 J-1.6235
G0 Z5.0
G0 X167.2184 Y-40.2245
G1 Z0.0
G3 X168.5342 Y-40.9034 I1.3163 J0.9366
G3 X170.1479 Y-39.2883 I-0.0004 J1.6141
G3 X168.5342 Y-37.6746 I-1.6132 J0.0005
G3 X166.9192 Y-39.2883 I-0.0004 J-1.6147
G3 X167.2184 Y-40.2245 I1.6156 J0.0005
G0 Z5.0
G0 X172.1662 Y-43.6111
G1 Z0.0
G3 X171.8856 Y-44.518 I1.3246 J-0.9067
G3 X173.4904 Y-46.1227 I1.605 J0.0002
G3 X175.0958 Y-44.518 I0.0004 J1.605
G3 X173.4904 Y-42.9126 I-1.6053 J0.0002
G3 X172.1662 Y-43.6111 I0.0005 J-1.6052
G0 Z5.0
G0 X168.8096 Y-48.4794
G1 Z0.0
G3 X167.8907 Y-48.1932 I-0.9194 J-1.3335
G3 X166.2715 Y-49.8124 I-0.0001 J-1.6191
G3 X167.8907 Y-51.4309 I1.619 J0.0005
G3 X169.5099 Y-49.8124 I0.0001 J1.6191
G3 X168.8096 Y-48.4794 I-1.6197 J-0.0005
G0 Z5.0
G0 X173.007 Y-51.1566
G1 Z0.0
G3 X172.7538 Y-52.0248 I1.3608 J-0.868
G3 X174.3675 Y-53.6392 I1.6135 J-0.0009
G3 X175.9825 Y-52.0248 I0.0004 J1.6147
G3 X174.3675 Y-50.4105 I-1.6153 J-0.0009
G3 X173.007 Y-51.1566 I0.0004 J-1.6141
G0 Z5.0
G0 X169.7913 Y-56.4874
G1 Z0.0
G3 X168.9642 Y-56.2575 I-0.8264 J-1.3699
G3 X167.3643 Y-57.8574 I0.0004 J-1.6003
G3 X168.9642 Y-59.458 I1.6003 J-0.0003
G3 X170.5648 Y-57.8574 I0.0003 J1.6003
G3 X169.7913 Y-56.4874 I-1.5999 J0.0
G0 Z5.0
G0 X175.5236 Y-58.2573
G1 Z0.0
G3 X175.452 Y-58.7324 I1.5374 J-0.4747
G3 X177.0615 Y-60.342 I1.6097 J0.0001
G3 X178.6711 Y-58.7324 I-0.0001 J1.6097
G3 X177.0615 Y-57.1229 I-1.6094 J0.0001
G3 X175.5236 Y-58.2573 I-0.0005 J-1.609
G0 Z5.0
G0 X175.5848 Y-65.0577
G1 Z0.0
G3 X173.9989 Y-66.6575 I0.0144 J-1.6002
G3 X175.5994 Y-68.2581 I1.6006 J0.0
G3 X177.1993 Y-66.6575 I-0.0006 J1.6005
G3 X175.5994 Y-65.0576 I-1.6003 J-0.0004
G3 X175.5848 Y-65.0577 I-0.0003 J-1.6003
G0 Z5.0
G0 X170.0036 Y-65.1778
G1 Z0.0
G3 X168.3992 Y-63.6073 I-1.6046 J-0.0345
G3 X166.7938 Y-65.2127 I-0.0002 J-1.6053
G3 X168.3992 Y-66.8174 I1.6052 J0.0005
G3 X170.0039 Y-65.2127 I-0.0002 J1.605
G3 X170.0036 Y-65.1778 I-1.605 J0.0004
G0 Z5.0
G0 X168.1457 Y-71.2628
G1 Z0.0
G3 X167.6757 Y-71.1927 I-0.47 J-1.5395
G3 X166.0662 Y-72.8022 I0.0001 J-1.6097
G3 X167.6757 Y-74.4125 I1.6097 J-0.0005
G3 X169.2853 Y-72.8022 I-0.0004 J1.6099
G3 X168.1457 Y-71.2628 I-1.6097 J-0.0001
G0 Z5.0
G0 X162.5548 Y-69.5083
G1 Z0.0
G3 X162.628 Y-69.0305 I-1.5226 J0.4778
G3 X161.0322 Y-67.4348 I-1.5958 J-0.0001
G3 X159.4364 Y-69.0305 I0.0001 J-1.5958
G3 X161.0322 Y-70.6263 I1.5958 J0.0001
G3 X162.5548 Y-69.5083 I-0.0001 J1.5958
G0 Z5.0
G0 X160.7323 Y-75.5881
G1 Z0.0
G3 X160.2757 Y-75.5211 I-0.4566 J-1.5233
G3 X158.684 Y-77.112 I-0.0004 J-1.5912
G3 X160.2757 Y-78.703 I1.5914 J0.0004
G3 X161.8659 Y-77.112 I-0.0006 J1.5908
G3 X160.7323 Y-75.5881 I-1.5903 J0.0007
G0 Z5.0
G0 X155.2605 Y-72.8285
G1 Z0.0
G3 X155.4305 Y-72.1146 I-1.4168 J0.7145
G3 X153.8437 Y-70.5278 I-1.5874 J-0.0006
G3 X152.2575 Y-72.1146 I0.0005 J-1.5867
G3 X153.8437 Y-73.7007 I1.5864 J0.0003
G3 X155.2605 Y-72.8285 I0.0001 J1.5867
G0 Z5.0
G0 X153.0176 Y-78.1899
G1 Z0.0
G3 X152.4057 Y-78.067 I-0.6122 J-1.4635
G3 X150.8189 Y-79.6531 I-0.0003 J-1.5865
G3 X152.4057 Y-81.2393 I1.5867 J0.0005
G3 X153.9918 Y-79.6531 I-0.0003 J1.5864
G3 X153.0176 Y-78.1899 I-1.5864 J-0.0003
G0 Z5.0
G0 X147.5036 Y-74.8269
G1 Z0.0
G3 X147.7369 Y-73.9956 I-1.3617 J0.8305
G3 X146.1411 Y-72.4005 I-1.5952 J-0.0001
G3 X144.546 Y-73.9956 I0.0005 J-1.5956
G3 X146.1411 Y-75.5914 I1.5954 J-0.0004
G3 X147.5036 Y-74.8269 I0.0008 J1.595
G0 Z5.0
G0 X144.585 Y-79.2422
G1 Z0.0
G3 X143.7103 Y-78.9793 I-0.8745 J-1.3229
G3 X142.1241 Y-80.5654 I0.0001 J-1.5862
G3 X143.7103 Y-82.1515 I1.5858 J-0.0003
G3 X145.2964 Y-80.5654 I-0.0001 J1.5862
G3 X144.585 Y-79.2422 I-1.5858 J0.0003
G0 Z5.0
G0 X138.5577 Y-75.1279
G1 Z0.0
G3 X138.8389 Y-74.2175 I-1.3341 J0.9106
G3 X137.2245 Y-72.6031 I-1.6144 J0.0
G3 X135.6102 Y-74.2175 I0.0 J-1.6144
G3 X137.2245 Y-75.8325 I1.6147 J-0.0004
G3 X138.5577 Y-75.1279 I-0.0009 J1.6153
G0 Z5.0
G0 X140.3256 Y-69.9078
G1 Z0.0
G3 X140.8391 Y-69.9924 I0.5134 J1.5159
G3 X142.4397 Y-68.3925 I0.0003 J1.6003
G3 X140.8391 Y-66.7919 I-1.6003 J0.0003
G3 X139.2385 Y-68.3925 I-0.0007 J-1.5999
G3 X140.3256 Y-69.9078 I1.6005 J0.0006
G0 Z5.0
G0 X146.2914 Y-67.3101
G1 Z0.0
G3 X147.7589 Y-68.2712 I1.4668 J0.6387
G3 X149.3588 Y-66.6713 I-0.0004 J1.6003
G3 X147.7589 Y-65.0707 I-1.6003 J0.0003
G3 X146.1583 Y-66.6713 I-0.0003 J-1.6003
G3 X146.2914 Y-67.3101 I1.5999 J0.0
G0 Z5.0
G0 X147.3545 Y-61.0731
G1 Z0.0
G3 X147.6225 Y-61.0958 I0.2681 J1.5732
G3 X149.2183 Y-59.5 I-0.0001 J1.5958
G3 X147.6225 Y-57.9042 I-1.5958 J-0.0001
G3 X146.0267 Y-59.5 I0.0001 J-1.5958
G3 X147.3545 Y-61.0731 I1.5958 J0.0001
G0 Z5.0
G0 X153.2153 Y-63.6536
G1 Z0.0
G3 X153.0789 Y-64.3025 I1.4726 J-0.6484
G3 X154.6884 Y-65.912 I1.6097 J0.0001
G3 X156.298 Y-64.3025 I-0.0001 J1.6097
G3 X154.6884 Y-62.6929 I-1.6094 J0.0001
G3 X153.2153 Y-63.6536 I-0.0005 J-1.609
G0 Z5.0
G0 X154.3262 Y-58.3067
G1 Z0.0
G3 X154.654 Y-58.3404 I0.3275 J1.5763
G3 X156.2635 Y-56.7308 I-0.0001 J1.6097
G3 X154.654 Y-55.1213 I-1.6097 J-0.0001
G3 X153.0437 Y-56.7308 I-0.0005 J-1.6097
G3 X154.3262 Y-58.3067 I1.6099 J0.0004
G0 Z5.0
G0 X160.1184 Y-60.5629
G1 Z0.0
G3 X160.0083 Y-61.1488 I1.5043 J-0.5859
G3 X161.6227 Y-62.7632 I1.6141 J-0.0003
G3 X163.2371 Y-61.1488 I0.0006 J1.6138
G3 X161.6227 Y-59.5345 I-1.6144 J0.0
G3 X160.1184 Y-60.5629 I0.0 J-1.6144
G0 Z5.0
G0 X161.3175 Y-55.107
G1 Z0.0
G3 X161.6647 Y-55.1447 I0.3477 J1.5819
G3 X163.2839 Y-53.5255 I0.0001 J1.6191
G3 X161.6647 Y-51.9063 I-1.6193 J-0.0001
G3 X160.0455 Y-53.5255 I0.0008 J-1.62
G3 X161.3175 Y-55.107 I1.6197 J0.0005
G0 Z5.0
G0 X156.5447 Y-50.3818
G1 Z0.0
G3 X157.0145 Y-49.2391 I-1.1539 J1.1424
G3 X155.3905 Y-47.6151 I-1.6238 J0.0002
G3 X153.7665 Y-49.2391 I-0.0002 J-1.6238
G3 X155.3905 Y-50.8632 I1.6238 J-0.0002
G3 X156.5447 Y-50.3818 I0.0002 J1.6238
G0 Z5.0
G0 X149.5014 Y-51.6781
G1 Z0.0
G3 X147.8995 Y-50.3443 I-1.6016 J-0.2948
G3 X146.2713 Y-51.9732 I0.0003 J-1.6285
G3 X147.8995 Y-53.6013 I1.6282 J0.0
G3 X149.5283 Y-51.9732 I0.0006 J1.6282
G3 X149.5014 Y-51.6781 I-1.6285 J0.0004
G0 Z5.0
G0 X148.6748 Y-46.6511
G1 Z0.0
G3 X150.0313 Y-45.0533 I-0.2628 J1.5979
G3 X148.4121 Y-43.4342 I-1.6197 J-0.0005
G3 X146.7929 Y-45.0533 I-0.0001 J-1.6191
G3 X148.4121 Y-46.6725 I1.6191 J-0.0001
G3 X148.6748 Y-46.6511 I-0.0001 J1.6193
G0 Z5.0
G0 X144.6187 Y-40.7899
G1 Z0.0
G3 X145.3184 Y-39.4551 I-0.9239 J1.3351
G3 X143.6944 Y-37.831 I-1.6244 J-0.0004
G3 X142.0704 Y-39.4551 I-0.0002 J-1.6238
G3 X143.6944 Y-41.0784 I1.6235 J0.0002
G3 X144.6187 Y-40.7899 I0.0004 J1.6236
G0 Z5.0
G0 X162.5148 Y-32.2792
G1 Z0.0
G3 X163.9771 Y-33.2029 I1.4622 J0.6953
G3 X165.5963 Y-31.5837 I0.0001 J1.6191
G3 X163.9771 Y-29.9652 I-1.619 J-0.0005
G3 X162.3579 Y-31.5837 I-0.0004 J-1.6188
G3 X162.5148 Y-32.2792 I1.6191 J-0.0001
G0 Z5.0
G0 X160.8167 Y-26.3673
G1 Z0.0
G3 X161.9955 Y-24.8024 I-0.4495 J1.5649
G3 X160.3673 Y-23.1735 I-1.6282 J0.0006
G3 X158.7391 Y-24.8024 I0.0003 J-1.6285
G3 X160.3673 Y-26.4305 I1.6282 J0.0
G3 X160.8167 Y-26.3673 I0.0 J1.6282
G0 Z5.0
G0 X166.8047 Y-25.3461
G1 Z0.0
G3 X168.2297 Y-26.5491 I1.4254 J0.2431
G3 X169.6753 Y-25.1035 I0.0003 J1.4453
G3 X168.2297 Y-23.6579 I-1.4453 J0.0003
G3 X166.7841 Y-25.1035 I-0.0001 J-1.4455
G3 X166.8047 Y-25.3461 I1.446 J0.0004
G0 Z5.0
G0 X166.0443 Y-18.7215
G1 Z0.0
G3 X167.1128 Y-17.5229 I-0.1375 J1.1981
G3 X165.907 Y-16.3164 I-1.2059 J0.0006
G3 X164.7005 Y-17.5229 I0.0 J-1.2065
G3 X165.907 Y-18.7294 I1.2065 J0.0
G3 X166.0443 Y-18.7215 I-0.0002 J1.206
G0 Z5.0
G0 X158.7656 Y-18.139
G1 Z0.0
G3 X158.7708 Y-18.0087 I-1.6321 J0.1306
G3 X157.1324 Y-16.3702 I-1.6379 J0.0006
G3 X155.4952 Y-18.0087 I0.0008 J-1.6379
G3 X157.1324 Y-19.6458 I1.6373 J0.0002
G3 X158.7656 Y-18.139 I0.0012 J1.6373
G0 Z5.0
G0 X160.978 Y-11.5761
G1 Z0.0
G3 X161.3678 Y-11.6401 I0.3898 J1.1564
G3 X162.588 Y-10.4198 I-0.0001 J1.2203
G3 X161.3678 Y-9.1996 I-1.2203 J-0.0001
G3 X160.1475 Y-10.4198 I0.0001 J-1.2203
G3 X160.978 Y-11.5761 I1.2203 J0.0001
G0 Z5.0
G0 X153.6018 Y-11.6183
G1 Z0.0
G3 X151.9688 Y-9.9947 I-1.6329 J-0.0093
G3 X150.3352 Y-11.6283 I-0.0005 J-1.6332
G3 X151.9688 Y-13.2613 I1.6334 J0.0005
G3 X153.6018 Y-11.6283 I-0.0005 J1.6335
G3 Y-11.6183 I-1.6329 J0.0007
G0 Z5.0
G0 X154.3419 Y-5.2977
G1 Z0.0
G3 X154.4831 Y-5.3059 I0.1414 J1.2074
G3 X155.6985 Y-4.0905 I0.0005 J1.2149
G3 X154.4831 Y-2.875 I-1.2155 J0.0
G3 X153.2676 Y-4.0905 I0.0002 J-1.2156
G3 X154.3419 Y-5.2977 I1.2156 J0.0002
G0 Z5.0
G0 X147.0733 Y-4.5402
G1 Z0.0
G3 X147.0816 Y-4.3792 I-1.5454 J0.161
G3 X145.5286 Y-2.8261 I-1.5529 J0.0001
G3 X143.9748 Y-4.3792 I-0.0005 J-1.5532
G3 X145.5286 Y-5.9329 I1.5541 J0.0004
G3 X147.0733 Y-4.5402 I-0.0007 J1.5538
G0 Z5.0
G0 X144.6169 Y-10.4361
G1 Z0.0
G3 X143.9941 Y-10.3116 I-0.6227 J-1.4946
G3 X142.3749 Y-11.9308 I-0.0001 J-1.6191
G3 X143.9941 Y-13.5493 I1.619 J0.0005
G3 X145.6133 Y-11.9308 I0.0004 J1.6188
G3 X144.6169 Y-10.4361 I-1.6191 J0.0001
G0 Z5.0
G0 X141.9599 Y-17.5974
G1 Z0.0
G3 X141.3917 Y-17.4953 I-0.5683 J-1.5318
G3 X139.7587 Y-19.129 I0.0002 J-1.6332
G3 X141.3917 Y-20.762 I1.6332 J0.0002
G3 X143.0254 Y-19.129 I-0.0001 J1.6338
G3 X141.9599 Y-17.5974 I-1.6338 J-0.0001
G0 Z5.0
G0 X147.4665 Y-18.6171
G1 Z0.0
G3 X147.4392 Y-18.914 I1.6013 J-0.2965
G3 X149.0681 Y-20.5422 I1.6287 J0.0006
G3 X150.6969 Y-18.914 I-0.0003 J1.6291
G3 X149.0681 Y-17.2852 I-1.6291 J-0.0003
G3 X147.4665 Y-18.6171 I-0.0004 J-1.6285
G0 Z5.0
G0 X163.4848 Y-3.6725
G1 Z0.0
G3 X164.3801 Y-4.0615 I0.895 J0.835
G3 X165.6052 Y-2.8371 I0.0007 J1.2244
G3 X164.3801 Y-1.6128 I-1.2245 J-0.0001
G3 X163.1558 Y-2.8371 I0.0002 J-1.2246
G3 X163.4848 Y-3.6725 I1.224 J-0.0004
G0 Z5.0
G0 X158.0696 Y2.1586
G1 Z0.0
G3 X158.458 Y3.0491 I-0.8272 J0.8908
G3 X157.2426 Y4.2646 I-1.2156 J-0.0002
G3 X156.0272 Y3.0491 I-0.0005 J-1.2149
G3 X157.2426 Y1.8337 I1.2155 J0.0
G3 X158.0696 Y2.1586 I-0.0002 J1.2156
G0 Z5.0
G0 X164.367 Y5.4688
G1 Z0.0
G3 X165.4509 Y4.8144 I1.0833 J0.5694
G3 X166.6753 Y6.0388 I0.0005 J1.2239
G3 X165.4509 Y7.2632 I-1.2239 J0.0005
G3 X164.2265 Y6.0388 I-0.0005 J-1.2239
G3 X164.367 Y5.4688 I1.2239 J-0.0005
G0 Z5.0
G0 X171.8346 Y0.556
G1 Z0.0
G3 X171.6321 Y-0.1197 I1.0281 J-0.6764
G3 X172.862 Y-1.3496 I1.2306 J0.0007
G3 X174.0919 Y-0.1197 I-0.0007 J1.2306
G3 X172.862 Y1.1102 I-1.2306 J-0.0007
G3 X171.8346 Y0.556 I0.0007 J-1.2306
G0 Z5.0
G0 X178.6883 Y-5.0116
G1 Z0.0
G3 X178.412 Y-5.7896 I0.9579 J-0.7782
G3 X179.6461 Y-7.0243 I1.2346 J-0.0001
G3 X180.8801 Y-5.7896 I0.0 J1.234
G3 X179.6461 Y-4.5556 I-1.2342 J-0.0001
G3 X178.6883 Y-5.0116 I0.0001 J-1.2342
G0 Z5.0
G0 X172.3049 Y-8.9756
G1 Z0.0
G3 X171.2641 Y-8.3968 I-1.0407 J-0.6463
G3 X170.0391 Y-9.6219 I0.0 J-1.225
G3 X171.2641 Y-10.847 I1.225 J0.0
G3 X172.4892 Y-9.6219 I0.0 J1.225
G3 X172.3049 Y-8.9756 I-1.225 J0.0
G0 Z5.0
G0 X174.7369 Y-16.5732
G1 Z0.0
G3 X173.8852 Y-17.7393 I0.3735 J-1.1669
G3 X175.1102 Y-18.9643 I1.225 J0.0
G3 X176.3346 Y-17.7393 I-0.0001 J1.2245
G3 X175.1102 Y-16.5149 I-1.2246 J-0.0002
G3 X174.7369 Y-16.5732 I0.0001 J-1.2252
G0 Z5.0
G0 X181.4501 Y-13.4479
G1 Z0.0
G3 X182.5689 Y-14.1612 I1.1189 J0.5209
G3 X183.8029 Y-12.9271 I-0.0001 J1.2342
G3 X182.5689 Y-11.6931 I-1.2342 J-0.0001
G3 X181.3348 Y-12.9271 I0.0001 J-1.2342
G3 X181.4501 Y-13.4479 I1.2342 J0.0001
G0 Z5.0
G0 X183.9022 Y-20.6314
G1 Z0.0
G3 X183.0629 Y-21.8038 I0.4005 J-1.1733
G3 X184.3018 Y-23.0426 I1.239 J0.0001
G3 X185.5406 Y-21.8038 I0.0009 J1.238
G3 X184.3018 Y-20.5649 I-1.2388 J0.0001
G3 X183.9022 Y-20.6314 I0.0009 J-1.2397
G0 Z5.0
G0 X189.6729 Y-16.9331
G1 Z0.0
G3 X190.72 Y-17.5057 I1.047 J0.671
G3 X191.9636 Y-16.262 I0.0001 J1.2436
G3 X190.72 Y-15.0183 I-1.2436 J0.0001
G3 X189.4763 Y-16.262 I-0.0001 J-1.2436
G3 X189.6729 Y-16.9331 I1.2436 J-0.0001
G0 Z5.0
G0 X197.0074 Y-13.1419
G1 Z0.0
G3 X198.1166 Y-13.8167 I1.1085 J0.573
G3 X199.3651 Y-12.5689 I0.0002 J1.2483
G3 X198.1166 Y-11.3204 I-1.2484 J0.0001
G3 X196.8681 Y-12.5689 I-0.0002 J-1.2483
G3 X197.0074 Y-13.1419 I1.2478 J0.0
G0 Z5.0
G0 X198.3175 Y-19.9549
G1 Z0.0
G3 X197.3049 Y-21.1802 I0.2357 J-1.2259
G3 X198.5534 Y-22.4287 I1.2484 J-0.0001
G3 X199.8019 Y-21.1802 I0.0002 J1.2483
G3 X198.5534 Y-19.9324 I-1.2478 J0.0
G3 X198.3175 Y-19.9549 I-0.0002 J-1.2483
G0 Z5.0
G0 X206.2346 Y-21.8116
G1 Z0.0
G3 X206.2015 Y-22.098 I1.2199 J-0.2861
G3 X207.4549 Y-23.3513 I1.2537 J0.0004
G3 X208.7082 Y-22.098 I0.0002 J1.2531
G3 X207.4549 Y-20.8447 I-1.253 J0.0003
G3 X206.2346 Y-21.8116 I-0.0003 J-1.253
G0 Z5.0
G0 X201.9857 Y-28.7827
G1 Z0.0
G3 X201.3336 Y-28.5996 I-0.6525 J-1.0705
G3 X200.0803 Y-29.8529 I-0.0002 J-1.2531
G3 X201.3336 Y-31.1055 I1.2525 J-0.0001
G3 X202.5869 Y-29.8529 I0.0002 J1.2531
G3 X201.9857 Y-28.7827 I-1.2537 J-0.0004
G0 Z5.0
G0 X209.1893 Y-31.6982
G1 Z0.0
G3 X209.0975 Y-32.1701 I1.1654 J-0.4717
G3 X210.3549 Y-33.4275 I1.2574 J-0.0001
G3 X211.6131 Y-32.1701 I0.0003 J1.2579
G3 X210.3549 Y-30.9126 I-1.2573 J0.0001
G3 X209.1893 Y-31.6982 I-0.0002 J-1.2573
G0 Z5.0
G0 X205.0313 Y-37.741
G1 Z0.0
G3 X204.3212 Y-37.5203 I-0.7101 J-1.032
G3 X203.0679 Y-38.7729 I-0.0002 J-1.2531
G3 X204.3212 Y-40.0256 I1.2525 J-0.0001
G3 X205.5738 Y-38.7729 I0.0 J1.2527
G3 X205.0313 Y-37.741 I-1.2527 J0.0
G0 Z5.0
G0 X212.4308 Y-41.2653
G1 Z0.0
G3 X212.3076 Y-41.8101 I1.1441 J-0.5449
G3 X213.5747 Y-43.0772 I1.2673 J0.0002
G3 X214.8418 Y-41.8101 I0.0003 J1.2668
G3 X213.5747 Y-40.543 I-1.2668 J0.0003
G3 X212.4308 Y-41.2653 I0.0001 J-1.2672
G0 Z5.0
G0 X207.9737 Y-46.3101
G1 Z0.0
G3 X207.1379 Y-45.9939 I-0.8356 J-0.9458
G3 X205.8756 Y-47.2561 I-0.0002 J-1.2621
G3 X207.1379 Y-48.5184 I1.2621 J-0.0002
G3 X208.4002 Y-47.2561 I0.0002 J1.2621
G3 X207.9737 Y-46.3101 I-1.2621 J0.0002
G0 Z5.0
G0 X213.7476 Y-51.3717
G1 Z0.0
G3 X213.4321 Y-52.2102 I0.9564 J-0.8385
G3 X214.704 Y-53.4814 I1.2719 J0.0007
G3 X215.976 Y-52.2102 I0.0003 J1.2716
G3 X214.704 Y-50.9383 I-1.2715 J0.0004
G3 X213.7476 Y-51.3717 I0.0 J-1.2719
G0 Z5.0
G0 X205.4124 Y-54.4631
G1 Z0.0
G3 X204.2289 Y-53.6399 I-1.1833 J-0.4389
G3 X202.9666 Y-54.9022 I-0.0002 J-1.2621
G3 X204.2289 Y-56.1645 I1.2621 J-0.0002
G3 X205.4912 Y-54.9022 I0.0002 J1.2621
G3 X205.4124 Y-54.4631 I-1.2621 J0.0002
G0 Z5.0
G0 X209.218 Y-60.4083
G1 Z0.0
G3 X208.6338 Y-61.4754 I0.6834 J-1.0677
G3 X209.9009 Y-62.7425 I1.2673 J0.0002
G3 X211.168 Y-61.4754 I-0.0001 J1.2672
G3 X209.9009 Y-60.2083 I-1.2677 J-0.0006
G3 X209.218 Y-60.4083 I0.0006 J-1.2677
G0 Z5.0
G0 X201.4457 Y-62.9752
G1 Z0.0
G3 X200.2608 Y-62.1183 I-1.1855 J-0.3915
G3 X199.0123 Y-63.3668 I-0.0001 J-1.2484
G3 X200.2608 Y-64.6153 I1.2483 J-0.0002
G3 X201.5086 Y-63.3668 I0.0 J1.2478
G3 X201.4457 Y-62.9752 I-1.2485 J0.0
G0 Z5.0
G0 X206.6444 Y-69.3852
G1 Z0.0
G3 X206.1754 Y-70.3693 I0.7983 J-0.9842
G3 X207.4425 Y-71.6364 I1.2668 J-0.0003
G3 X208.7096 Y-70.3693 I-0.0001 J1.2672
G3 X207.4425 Y-69.1022 I-1.2677 J-0.0006
G3 X206.6444 Y-69.3852 I0.0002 J-1.2673
G0 Z5.0
G0 X199.6495 Y-71.8216
G1 Z0.0
G3 X198.1379 Y-70.7476 I-1.5115 J-0.5265
G3 X196.5374 Y-72.3482 I0.0 J-1.6006
G3 X198.1379 Y-73.9487 I1.6006 J0.0
G3 X199.7385 Y-72.3482 I0.0 J1.6006
G3 X199.6495 Y-71.8216 I-1.6006 J0.0
G0 Z5.0
G0 X203.0237 Y-77.1896
G1 Z0.0
G3 X202.3541 Y-78.4012 I0.7618 J-1.2119
G3 X203.7858 Y-79.833 I1.4315 J-0.0003
G3 X205.2169 Y-78.4012 I-0.0001 J1.4312
G3 X203.7858 Y-76.9701 I-1.4312 J-0.0001
G3 X203.0237 Y-77.1896 I-0.0004 J-1.4314
G0 Z5.0
G0 X196.9975 Y-79.8797
G1 Z0.0
G3 X195.5403 Y-78.9345 I-1.457 J-0.6504
G3 X193.9446 Y-80.5303 I-0.0006 J-1.5952
G3 X195.5403 Y-82.1253 I1.5958 J0.0007
G3 X197.1361 Y-80.5303 I0.0002 J1.5956
G3 X196.9975 Y-79.8797 I-1.5956 J0.0002
G0 Z5.0
G0 X199.7472 Y-84.717
G1 Z0.0
G3 X198.9379 Y-86.1086 I0.7906 J-1.3909
G3 X200.5378 Y-87.7085 I1.6003 J0.0004
G3 X202.1384 Y-86.1086 I0.0003 J1.6003
G3 X200.5378 Y-84.508 I-1.6003 J0.0003
G3 X199.7472 Y-84.717 I0.0 J-1.5999
G0 Z5.0
G0 X198.8519 Y-91.2237
G1 Z0.0
G3 X198.6327 Y-91.2087 I-0.2194 J-1.5946
G3 X197.0224 Y-92.8182 I-0.0005 J-1.6097
G3 X198.6327 Y-94.4278 I1.6099 J0.0004
G3 X200.2422 Y-92.8182 I-0.0001 J1.6097
G3 X198.8519 Y-91.2237 I-1.6097 J-0.0001
G0 Z5.0
G0 X193.238 Y-89.5393
G1 Z0.0
G3 X193.3059 Y-89.0768 I-1.5418 J0.4626
G3 X191.6963 Y-87.4673 I-1.6097 J-0.0001
G3 X190.0868 Y-89.0768 I0.0001 J-1.6097
G3 X191.6963 Y-90.6864 I1.6097 J0.0001
G3 X193.238 Y-89.5393 I-0.0001 J1.6097
G0 Z5.0
G0 X192.5224 Y-96.2173
G1 Z0.0
G3 X192.3523 Y-96.2082 I-0.1705 J-1.5912
G3 X190.7517 Y-97.8088 I0.0 J-1.6006
G3 X192.3523 Y-99.4094 I1.6006 J0.0
G3 X193.9522 Y-97.8088 I-0.0006 J1.6005
G3 X192.5224 Y-96.2173 I-1.6003 J0.0003
G0 Z5.0
G0 X186.3136 Y-94.7119
G1 Z0.0
G3 X186.3585 Y-94.3354 I-1.5503 J0.3759
G3 X184.7627 Y-92.7404 I-1.5958 J-0.0007
G3 X183.1669 Y-94.3354 I-0.0002 J-1.5956
G3 X184.7627 Y-95.9312 I1.5956 J-0.0002
G3 X186.3136 Y-94.7119 I0.0006 J1.5952
G0 Z5.0
G0 X184.3812 Y-100.4796
G1 Z0.0
G3 X183.8773 Y-100.3974 I-0.5039 J-1.504
G3 X182.2905 Y-101.9836 I-0.0009 J-1.5859
G3 X183.8773 Y-103.5697 I1.5864 J0.0003
G3 X185.4634 Y-101.9836 I0.0003 J1.5858
G3 X184.3812 Y-100.4796 I-1.5862 J-0.0001
G0 Z5.0
G0 X178.6053 Y-98.8979
G1 Z0.0
G3 X178.6614 Y-98.4806 I-1.5256 J0.4178
G3 X177.0795 Y-96.8986 I-1.582 J0.0
G3 X175.4982 Y-98.4806 I0.0007 J-1.582
G3 X177.0795 Y-100.0619 I1.5817 J0.0004
G3 X178.6053 Y-98.8979 I0.0002 J1.5818
G0 Z5.0
G0 X176.7353 Y-104.5695
G1 Z0.0
G3 X176.2416 Y-104.4902 I-0.4936 J-1.4972
G3 X174.6644 Y-106.0674 I0.0002 J-1.5773
G3 X176.2416 Y-107.6438 I1.577 J0.0005
G3 X177.8181 Y-106.0674 I0.0003 J1.5761
G3 X176.7353 Y-104.5695 I-1.5765 J0.0007
G0 Z5.0
G0 X169.934 Y-103.6758
G1 Z0.0
G3 X169.9474 Y-103.4705 I-1.563 J0.2054
G3 X168.3703 Y-101.8933 I-1.5773 J-0.0002
G3 X166.7938 Y-103.4705 I0.0005 J-1.577
G3 X168.3703 Y-105.0469 I1.5761 J-0.0003
G3 X169.934 Y-103.6758 I0.0007 J1.5765
G0 Z5.0
G0 X170.0681 Y-97.6003
G1 Z0.0
G3 X170.1038 Y-97.6007 I0.0351 J1.5899
G3 X171.6948 Y-96.0098 I0.0004 J1.5905
G3 X170.1038 Y-94.4188 I-1.5911 J-0.0002
G3 X168.5129 Y-96.0098 I0.0 J-1.5909
G3 X170.0681 Y-97.6003 I1.5903 J-0.0007
G0 Z5.0
G0 X164.1667 Y-96.3114
G1 Z0.0
G3 X164.2031 Y-95.9739 I-1.5448 J0.3374
G3 X162.6211 Y-94.3919 I-1.582 J0.0
G3 X161.0398 Y-95.9739 I0.0004 J-1.5817
G3 X162.6211 Y-97.5552 I1.5809 J-0.0004
G3 X164.1667 Y-96.3114 I0.0008 J1.5812
G0 Z5.0
G0 X166.8611 Y-89.9673
G1 Z0.0
G3 X167.4828 Y-90.0938 I0.6217 J1.4637
G3 X169.0744 Y-88.5029 I0.0004 J1.5912
G3 X167.4828 Y-86.9119 I-1.5914 J-0.0004
G3 X165.8925 Y-88.5029 I0.0006 J-1.5908
G3 X166.8611 Y-89.9673 I1.5903 J-0.0007
G0 Z5.0
G0 X161.3322 Y-85.8411
G1 Z0.0
G3 X161.6482 Y-84.8897 I-1.2752 J0.9517
G3 X160.0572 Y-83.2987 I-1.5911 J-0.0002
G3 X158.4663 Y-84.8897 I0.0002 J-1.5911
G3 X160.0572 Y-86.4806 I1.5911 J0.0002
G3 X161.3322 Y-85.8411 I-0.0002 J1.5911
G0 Z5.0
G0 X157.7307 Y-90.2453
G1 Z0.0
G3 X156.7327 Y-89.8892 I-0.998 J-1.2204
G3 X155.1556 Y-91.4664 I0.0002 J-1.5773
G3 X156.7327 Y-93.0428 I1.577 J0.0005
G3 X158.3092 Y-91.4664 I0.0003 J1.5761
G3 X157.7307 Y-90.2453 I-1.5765 J0.0007
G0 Z5.0
G0 X152.1269 Y-87.2391
G1 Z0.0
G3 X152.3147 Y-86.4916 I-1.3936 J0.7476
G3 X150.7334 Y-84.9097 I-1.5812 J0.0008
G3 X149.1521 Y-86.4916 I0.0004 J-1.5817
G3 X150.7334 Y-88.0729 I1.5811 J-0.0002
G3 X152.1269 Y-87.2391 I-0.0002 J1.5815
G0 Z5.0
G0 X148.9025 Y-92.6809
G1 Z0.0
G3 X148.0986 Y-92.4606 I-0.804 J-1.357
G3 X146.5215 Y-94.0378 I0.0002 J-1.5773
G3 X148.0986 Y-95.6143 I1.5772 J0.0008
G3 X149.6758 Y-94.0378 I0.0001 J1.5771
G3 X148.9025 Y-92.6809 I-1.5773 J-0.0002
G0 Z5.0
G0 X143.8158 Y-89.0251
G1 Z0.0
G3 X144.1175 Y-88.0881 I-1.3035 J0.9368
G3 X142.5127 Y-86.4834 I-1.605 J-0.0002
G3 X140.9073 Y-88.0881 I-0.0004 J-1.605
G3 X142.5127 Y-89.6935 I1.6053 J-0.0002
G3 X143.8158 Y-89.0251 I-0.0005 J1.6052
G0 Z5.0
G0 X140.3802 Y-94.0703
G1 Z0.0
G3 X139.4583 Y-93.7863 I-0.9217 J-1.3536
G3 X137.8205 Y-95.4241 I-0.0002 J-1.6376
G3 X139.4583 Y-97.0619 I1.6376 J-0.0002
G3 X141.0961 Y-95.4241 I0.0002 J1.6376
G3 X140.3802 Y-94.0703 I-1.6376 J0.0002
G0 Z5.0
G0 X135.2472 Y-89.9977
G1 Z0.0
G3 X135.6019 Y-88.9797 I-1.2829 J1.0178
G3 X133.9641 Y-87.3419 I-1.6376 J0.0002
G3 X132.3263 Y-88.9797 I-0.0002 J-1.6376
G3 X133.9641 Y-90.6175 I1.6376 J-0.0002
G3 X135.2472 Y-89.9977 I0.0002 J1.6376
G0 Z5.0
G0 X132.3215 Y-94.2373
G1 Z0.0
G3 X131.3913 Y-93.9475 I-0.9303 J-1.3481
G3 X129.7535 Y-95.5853 I0.0004 J-1.6382
G3 X131.3913 Y-97.2238 I1.6379 J-0.0006
G3 X133.0291 Y-95.5853 I-0.0007 J1.6385
G3 X132.3215 Y-94.2373 I-1.6379 J-0.0001
G0 Z5.0
G0 X128.0691 Y-99.1017
G1 Z0.0
G3 X126.9912 Y-98.6969 I-1.078 J-1.2331
G3 X125.3534 Y-100.3354 I0.0007 J-1.6385
G3 X126.9912 Y-101.9732 I1.6379 J0.0001
G3 X128.629 Y-100.3354 I-0.0004 J1.6382
G3 X128.0691 Y-99.1017 I-1.6379 J0.0006
G0 Z5.0
G0 X121.9023 Y-96.1994
G1 Z0.0
G3 X122.0447 Y-95.5619 I-1.3537 J0.6371
G3 X120.5482 Y-94.0647 I-1.4965 J0.0007
G3 X119.051 Y-95.5619 I0.0001 J-1.4973
G3 X120.5482 Y-97.0584 I1.497 J0.0004
G3 X121.9023 Y-96.1994 I0.0004 J1.4962
G0 Z5.0
G0 X124.5058 Y-91.2783
G1 Z0.0
G3 X125.2501 Y-91.4629 I0.7438 J1.4059
G3 X126.841 Y-89.872 I-0.0002 J1.5911
G3 X125.2501 Y-88.281 I-1.5909 J0.0
G3 X123.6591 Y-89.872 I-0.0007 J-1.5903
G3 X124.5058 Y-91.2783 I1.5905 J-0.0004
G0 Z5.0
G0 X126.7649 Y-84.6575
G1 Z0.0
G3 X127.2923 Y-84.745 I0.5273 J1.5454
G3 X128.9253 Y-83.1113 I-0.0002 J1.6332
G3 X127.2923 Y-81.4783 I-1.6329 J0.0001
G3 X125.6593 Y-83.1113 I-0.0001 J-1.6329
G3 X126.7649 Y-84.6575 I1.6329 J-0.0007
G0 Z5.0
G0 X129.9295 Y-78.1547
G1 Z0.0
G3 X130.6465 Y-78.3199 I0.717 J1.4733
G3 X132.2843 Y-76.6821 I-0.0001 J1.6379
G3 X130.6465 Y-75.0443 I-1.6382 J-0.0004
G3 X129.008 Y-76.6821 I-0.0006 J-1.6379
G3 X129.9295 Y-78.1547 I1.6385 J0.0007
G0 Z5.0
G0 X134.7916 Y-81.3571
G1 Z0.0
G3 X134.5215 Y-82.2583 I1.3684 J-0.9013
G3 X136.16 Y-83.8961 I1.6382 J0.0004
G3 X137.7971 Y-82.2583 I-0.0011 J1.6382
G3 X136.16 Y-80.6198 I-1.6381 J0.0004
G3 X134.7916 Y-81.3571 I0.0 J-1.6385
G0 Z5.0
G0 X124.3505 Y-75.993
G1 Z0.0
G3 X124.5218 Y-75.2854 I-1.3782 J0.708
G3 X122.9729 Y-73.7365 I-1.5492 J-0.0003
G3 X121.4246 Y-75.2854 I0.0002 J-1.5484
G3 X122.9729 Y-76.8344 I1.5485 J-0.0004
G3 X124.3505 Y-75.993 I-0.0005 J1.5494
G0 Z5.0
G0 X119.852 Y-80.0712
G1 Z0.0
G3 X118.7292 Y-79.5732 I-1.1236 J-1.0186
G3 X117.2133 Y-81.089 I-0.0002 J-1.5157
G3 X118.7292 Y-82.6049 I1.5152 J-0.0007
G3 X120.245 Y-81.089 I-0.0002 J1.5161
G3 X119.852 Y-80.0712 I-1.5165 J-0.0007
G0 Z5.0
G0 X117.1992 Y-86.4891
G1 Z0.0
G3 X116.6291 Y-86.3759 I-0.5701 J-1.3793
G3 X115.1366 Y-87.8683 I-0.0007 J-1.4918
G3 X116.6291 Y-89.36 I1.4916 J-0.0001
G3 X118.1215 Y-87.8683 I0.0006 J1.4918
G3 X117.1992 Y-86.4891 I-1.4924 J0.0
G0 Z5.0
G0 X110.5119 Y-86.4727
G1 Z0.0
G3 Y-86.4682 I-1.638 J0.004
G3 X108.8748 Y-84.8304 I-1.6376 J0.0002
G3 X107.2363 Y-86.4682 I-0.0003 J-1.6382
G3 X108.8748 Y-88.1067 I1.6382 J-0.0003
G3 X110.5119 Y-86.4727 I-0.0009 J1.638
G0 Z5.0
G0 X110.7883 Y-80.5774
G1 Z0.0
G3 X110.8647 Y-80.5792 I0.0767 J1.637
G3 X112.5025 Y-78.9414 I-0.0007 J1.6385
G3 X110.8647 Y-77.3029 I-1.6385 J0.0
G3 X109.2262 Y-78.9414 I0.0003 J-1.6388
G3 X110.7883 Y-80.5774 I1.6388 J0.001
G0 Z5.0
G0 X104.9747 Y-81.0965
G1 Z0.0
G3 X103.353 Y-79.6132 I-1.6217 J-0.1448
G3 X101.7242 Y-81.2413 I-0.0006 J-1.6282
G3 X103.353 Y-82.8702 I1.6285 J-0.0004
G3 X104.9812 Y-81.2413 I-0.0003 J1.6285
G3 X104.9747 Y-81.0965 I-1.6282 J0.0
G0 Z5.0
G0 X104.5448 Y-74.5406
G1 Z0.0
G3 X106.0629 Y-72.92 I-0.1063 J1.6209
G3 X104.4389 Y-71.296 I-1.624 J0.0
G3 X102.8156 Y-72.92 I0.0003 J-1.6237
G3 X104.4389 Y-74.5441 I1.6236 J-0.0004
G3 X104.5448 Y-74.5406 I-0.0004 J1.6244
G0 Z5.0
G0 X99.1662 Y-76.0288
G1 Z0.0
G3 X97.7637 Y-74.9616 I-1.4025 J-0.3881
G3 X96.3092 Y-76.4161 I-0.0001 J-1.4544
G3 X97.7637 Y-77.8706 I1.4544 J-0.0001
G3 X99.2189 Y-76.4161 I0.0004 J1.4548
G3 X99.1662 Y-76.0288 I-1.4552 J-0.0007
G0 Z5.0
G0 X95.2433 Y-70.157
G1 Z0.0
G3 X95.8524 Y-69.0181 I-0.7613 J1.1395
G3 X94.4812 Y-67.647 I-1.3712 J0.0
G3 X93.1115 Y-69.0181 I0.0007 J-1.3705
G3 X94.4812 Y-70.3879 I1.3697 J-0.0001
G3 X95.2433 Y-70.157 I0.0007 J1.3704
G0 Z5.0
G0 X99.0116 Y-65.4395
G1 Z0.0
G3 X99.8556 Y-65.7349 I0.8433 J1.0557
G3 X101.2067 Y-64.3838 I0.0 J1.3512
G3 X99.8556 Y-63.0319 I-1.3515 J0.0003
G3 X98.5037 Y-64.3838 I-0.0004 J-1.3515
G3 X99.0116 Y-65.4395 I1.3512 J0.0
G0 Z5.0
G0 X106.5076 Y-66.5656
G1 Z0.0
G3 X106.4895 Y-66.8091 I1.6194 J-0.2433
G3 X108.1279 Y-68.4469 I1.6379 J0.0001
G3 X109.765 Y-66.8091 I-0.0005 J1.6376
G3 X108.1279 Y-65.1713 I-1.6373 J0.0005
G3 X106.5076 Y-66.5656 I-0.0009 J-1.6376
G0 Z5.0
G0 X105.5259 Y-59.8158
G1 Z0.0
G3 X106.7554 Y-58.3948 I-0.2067 J1.4213
G3 X105.3188 Y-56.9589 I-1.4367 J-0.0008
G3 X103.8829 Y-58.3948 I0.0 J-1.4359
G3 X105.3188 Y-59.8307 I1.4359 J0.0
G3 X105.5259 Y-59.8158 I0.0003 J1.4363
G0 Z5.0
G0 X98.5075 Y-56.2327
G1 Z0.0
G3 X98.6553 Y-55.6181 I-1.2041 J0.6147
G3 X97.3034 Y-54.2669 I-1.3519 J-0.0008
G3 X95.9516 Y-55.6181 I-0.0003 J-1.3515
G3 X97.3034 Y-56.9699 I1.3515 J-0.0004
G3 X98.5075 Y-56.2327 I-0.0001 J1.352
G0 Z5.0
G0 X100.5888 Y-48.8092
G1 Z0.0
G3 X100.9497 Y-48.8588 I0.3608 J1.287
G3 X102.2878 Y-47.5214 I0.0003 J1.3378
G3 X100.9497 Y-46.184 I-1.3381 J-0.0007
G3 X99.613 Y-47.5214 I0.0002 J-1.3369
G3 X100.5888 Y-48.8092 I1.3366 J-0.0007
G0 Z5.0
G0 X92.7981 Y-49.0423
G1 Z0.0
G3 X91.4743 Y-47.7584 I-1.3229 J-0.0396
G3 X90.1514 Y-49.082 I0.0003 J-1.3232
G3 X91.4743 Y-50.4056 I1.3236 J0.0
G3 X92.7986 Y-49.082 I0.0004 J1.3239
G3 X92.7981 Y-49.0423 I-1.3235 J0.0001
G0 Z5.0
G0 X93.4801 Y-41.9261
G1 Z0.0
G3 X93.6062 Y-41.9321 I0.1258 J1.3125
G3 X94.925 Y-40.614 I-0.0001 J1.3189
G3 X93.6062 Y-39.2952 I-1.3184 J0.0004
G3 X92.2874 Y-40.614 I-0.0004 J-1.3184
G3 X93.4801 Y-41.9261 I1.3185 J0.0004
G0 Z5.0
G0 X100.0843 Y-37.8981
G1 Z0.0
G3 X101.2426 Y-38.5483 I1.1582 J0.7064
G3 X102.5986 Y-37.1923 I0.0001 J1.3559
G3 X101.2426 Y-35.8363 I-1.3554 J0.0006
G3 X99.8859 Y-37.1923 I-0.0004 J-1.3563
G3 X100.0843 Y-37.8981 I1.3566 J0.0006
G0 Z5.0
G0 X103.9717 Y-30.1841
G1 Z0.0
G3 X104.5609 Y-30.3242 I0.5891 J1.1689
G3 X105.87 Y-29.0151 I0.0001 J1.309
G3 X104.5609 Y-27.7059 I-1.309 J0.0001
G3 X103.2518 Y-29.0151 I-0.0001 J-1.309
G3 X103.9717 Y-30.1841 I1.309 J-0.0001
G0 Z5.0
G0 X100.7415 Y-22.9397
G1 Z0.0
G3 X101.4458 Y-21.8548 I-0.4838 J1.0852
G3 X100.2587 Y-20.6683 I-1.1872 J-0.0007
G3 X99.0715 Y-21.8548 I-0.0008 J-1.1864
G3 X100.2587 Y-23.0426 I1.1873 J-0.0005
G3 X100.7415 Y-22.9397 I-0.001 J1.1881
G0 Z5.0
G0 X95.2042 Y-28.1473
G1 Z0.0
G3 X94.3358 Y-27.7721 I-0.8681 J-0.8164
G3 X93.1438 Y-28.9641 I0.0002 J-1.1922
G3 X94.3358 Y-30.1561 I1.1917 J-0.0003
G3 X95.5278 Y-28.9641 I-0.0002 J1.1922
G3 X95.2042 Y-28.1473 I-1.1917 J0.0003
G0 Z5.0
G0 X88.6776 Y-33.2279
G1 Z0.0
G3 X87.6847 Y-32.7426 I-0.9927 J-0.7728
G3 X86.4273 Y-34.0001 I-0.0001 J-1.2574
G3 X87.6847 Y-35.2576 I1.2574 J-0.0001
G3 X88.9429 Y-34.0001 I0.0003 J1.2579
G3 X88.6776 Y-33.2279 I-1.2581 J-0.0006
G0 Z5.0
G0 X80.8197 Y-33.5591
G1 Z0.0
G3 X79.6101 Y-32.3995 I-1.2095 J-0.051
G3 X78.3995 Y-33.6108 I0.0005 J-1.2111
G3 X79.6101 Y-34.8214 I1.2109 J0.0003
G3 X80.8207 Y-33.6108 I0.0004 J1.2102
G3 X80.8197 Y-33.5591 I-1.2106 J0.0007
G0 Z5.0
G0 X83.1082 Y-41.5508
G1 Z0.0
G3 X82.1051 Y-42.8816 I0.3811 J-1.3308
G3 X83.49 Y-44.2658 I1.3847 J0.0005
G3 X84.8735 Y-42.8816 I-0.0007 J1.3843
G3 X83.49 Y-41.4973 I-1.3838 J0.0004
G3 X83.1082 Y-41.5508 I-0.0007 J-1.3843
G0 Z5.0
G0 X76.7559 Y-47.5048
G1 Z0.0
G3 X75.7937 Y-47.088 I-0.9619 J-0.9016
G3 X74.4756 Y-48.4068 I0.0004 J-1.3185
G3 X75.7937 Y-49.7256 I1.3189 J0.0001
G3 X77.1124 Y-48.4068 I0.0004 J1.3184
G3 X76.7559 Y-47.5048 I-1.3184 J0.0004
G0 Z5.0
G0 X73.5877 Y-41.2781
G1 Z0.0
G3 X74.2875 Y-40.1358 I-0.5807 J1.1413
G3 X73.0066 Y-38.8549 I-1.281 J-0.0002
G3 X71.7257 Y-40.1358 I0.0002 J-1.2811
G3 X73.0066 Y-41.4174 I1.281 J-0.0006
G3 X73.5877 Y-41.2781 I0.0004 J1.2805
G0 Z5.0
G0 X66.6443 Y-46.5146
G1 Z0.0
G3 X65.6217 Y-46.0049 I-1.0228 J-0.7714
G3 X64.3408 Y-47.2865 I0.0004 J-1.2813
G3 X65.6217 Y-48.568 I1.2811 J-0.0005
G3 X66.9025 Y-47.2865 I-0.0004 J1.2813
G3 X66.6443 Y-46.5146 I-1.2811 J0.0005
G0 Z5.0
G0 X64.3395 Y-37.8221
G1 Z0.0
G3 X65.1986 Y-36.7059 I-0.296 J1.1165
G3 X64.0438 Y-35.5518 I-1.1548 J-0.0007
G3 X62.8897 Y-36.7059 I0.0001 J-1.1542
G3 X64.0438 Y-37.8607 I1.1541 J-0.0007
G3 X64.3395 Y-37.8221 I-0.0003 J1.1551
G0 Z5.0
G0 X57.839 Y-42.2473
G1 Z0.0
G3 X56.714 Y-41.6523 I-1.1247 J-0.7657
G3 X55.3532 Y-43.0132 I-0.0002 J-1.3606
G3 X56.714 Y-44.374 I1.3606 J-0.0002
G3 X58.0748 Y-43.0132 I0.0002 J1.3606
G3 X57.839 Y-42.2473 I-1.3606 J0.0002
G0 Z5.0
G0 X54.5581 Y-33.878
G1 Z0.0
G3 X55.327 Y-32.7509 I-0.442 J1.1274
G3 X54.1164 Y-31.5396 I-1.2111 J0.0002
G3 X52.9058 Y-32.7509 I0.0001 J-1.2107
G3 X54.1164 Y-33.9615 I1.2107 J0.0001
G3 X54.5581 Y-33.878 I-0.0003 J1.2109
G0 Z5.0
G0 X46.1974 Y-35.2309
G1 Z0.0
G3 X45.0207 Y-34.2295 I-1.1764 J-0.1904
G3 X43.8287 Y-35.4216 I-0.0005 J-1.1915
G3 X45.0207 Y-36.6136 I1.1922 J0.0002
G3 X46.2127 Y-35.4216 I-0.0004 J1.1924
G3 X46.1974 Y-35.2309 I-1.1917 J0.0003
G0 Z5.0
G0 X46.8543 Y-43.6967
G1 Z0.0
G3 X45.7717 Y-44.8666 I0.0908 J-1.1698
G3 X46.9444 Y-46.0393 I1.1727 J0.0
G3 X48.1178 Y-44.8666 I0.0008 J1.1726
G3 X46.9444 Y-43.6932 I-1.1737 J-0.0003
G3 X46.8543 Y-43.6967 I0.0006 J-1.1733
G0 Z5.0
G0 X37.8643 Y-40.7699
G1 Z0.0
G3 X37.9252 Y-40.3859 I-1.1773 J0.3833
G3 X36.6863 Y-39.1464 I-1.2392 J0.0003
G3 X35.4474 Y-40.3859 I0.0007 J-1.2396
G3 X36.6863 Y-41.6248 I1.239 J0.0002
G3 X37.8643 Y-40.7699 I0.0007 J1.2381
G0 Z5.0
G0 X36.53 Y-49.1173
G1 Z0.0
G3 X36.3638 Y-49.1041 I-0.1658 J-1.0373
G3 X35.3124 Y-50.1548 I-0.0008 J-1.0507
G3 X36.3638 Y-51.2063 I1.0513 J-0.0002
G3 X37.4146 Y-50.1548 I-0.0004 J1.0512
G3 X36.53 Y-49.1173 I-1.0504 J0.0003
G0 Z5.0
G0 X27.7868 Y-46.0287
G1 Z0.0
G3 X27.8503 Y-45.6576 I-1.0486 J0.3704
G3 X26.7382 Y-44.5455 I-1.1121 J-0.0001
G3 X25.6262 Y-45.6576 I0.0003 J-1.1124
G3 X26.7382 Y-46.7704 I1.1124 J-0.0004
G3 X27.7868 Y-46.0287 I-0.0001 J1.1121
G0 Z5.0
G0 X27.9307 Y-37.2211
G1 Z0.0
G3 X27.9509 Y-37.2213 I0.0205 J1.2576
G3 X29.2091 Y-35.9631 I-0.0003 J1.2584
G3 X27.9509 Y-34.7057 I-1.2581 J-0.0006
G3 X26.6935 Y-35.9631 I-0.0001 J-1.2574
G3 X27.9307 Y-37.2211 I1.2578 J-0.0003
G0 Z5.0
G0 X19.15 Y-36.6246
G1 Z0.0
G3 X19.1528 Y-36.5405 I-1.2359 J0.084
G3 X17.914 Y-35.3017 I-1.2396 J-0.0007
G3 X16.6751 Y-36.5405 I0.0002 J-1.239
G3 X17.914 Y-37.7794 I1.2381 J-0.0007
G3 X19.15 Y-36.6246 I0.0001 J1.2387
G0 Z5.0
G0 X23.6939 Y-28.1975
G1 Z0.0
G3 X24.2192 Y-28.3302 I0.5257 J0.975
G3 X25.3271 Y-27.2222 I-0.0001 J1.108
G3 X24.2192 Y-26.1143 I-1.108 J-0.0001
G3 X23.1119 Y-27.2222 I0.0008 J-1.108
G3 X23.6939 Y-28.1975 I1.1077 J-0.0002
G0 Z5.0
G0 X14.9334 Y-26.8983
G1 Z0.0
G3 X14.9478 Y-26.7041 I-1.3148 J0.195
G3 X13.6193 Y-25.3757 I-1.3287 J-0.0002
G3 X12.2909 Y-26.7041 I0.0003 J-1.3287
G3 X13.6193 Y-28.0325 I1.3291 J0.0007
G3 X14.9334 Y-26.8983 I-0.0007 J1.3291
G0 Z5.0
G0 X18.9483 Y-18.429
G1 Z0.0
G3 X19.3589 Y-18.5213 I0.41 J0.865
G3 X20.3159 Y-17.5642 I-0.0001 J0.9572
G3 X19.3589 Y-16.6072 I-0.9572 J-0.0001
G3 X18.4011 Y-17.5642 I-0.0003 J-0.9574
G3 X18.9483 Y-18.429 I0.9572 J0.0002
G0 Z5.0
G0 X8.955 Y-16.0915
G1 Z0.0
G3 X8.9836 Y-15.8438 I-1.0603 J0.248
G3 X7.895 Y-14.7551 I-1.0892 J-0.0005
G3 X6.8056 Y-15.8438 I-0.0001 J-1.0892
G3 X7.895 Y-16.9324 I1.0889 J0.0003
G3 X8.955 Y-16.0915 I-0.0002 J1.0889
G0 Z5.0
G0 X4.7771 Y-25.1296
G1 Z0.0
G3 X4.2514 Y-25.0139 I-0.5261 J-1.138
G3 X2.9988 Y-26.2672 I0.0007 J-1.2534
G3 X4.2514 Y-27.5199 I1.2527 J0.0
G3 X5.5047 Y-26.2672 I0.0002 J1.2531
G3 X4.7771 Y-25.1296 I-1.2537 J-0.0004
G0 Z5.0
G0 X-1.5592 Y-20.4874
G1 Z0.0
G3 X-1.3207 Y-19.7574 I-0.9954 J0.7293
G3 X-2.5547 Y-18.5234 I-1.2342 J-0.0001
G3 X-3.7894 Y-19.7574 I-0.0001 J-1.2346
G3 X-2.5547 Y-20.9921 I1.2345 J-0.0003
G3 X-1.5592 Y-20.4874 I0.0 J1.234
G0 Z5.0
G0 X-9.0575 Y-24.393
G1 Z0.0
G3 X-10.1105 Y-23.7544 I-1.0526 J-0.5483
G3 X-11.2977 Y-24.9416 I-0.0004 J-1.1868
G3 X-10.1105 Y-26.1294 I1.1873 J-0.0005
G3 X-8.9233 Y-24.9416 I-0.0003 J1.1875
G3 X-9.0575 Y-24.393 I-1.1868 J0.0004
G0 Z5.0
G0 X-12.4901 Y-15.7243
G1 Z0.0
G3 X-11.7256 Y-14.5987 I-0.4455 J1.1251
G3 X-12.9362 Y-13.3881 I-1.21 J0.0006
G3 X-14.1468 Y-14.5987 I-0.0006 J-1.21
G3 X-12.9362 Y-15.8093 I1.21 J-0.0006
G3 X-12.4901 Y-15.7243 I0.0006 J1.21
G0 Z5.0
G0 X-3.8912 Y-10.0214
G1 Z0.0
G3 X-2.9564 Y-10.5232 I0.9349 J0.62
G3 X-1.8354 Y-9.4014 I-0.0002 J1.1213
G3 X-2.9564 Y-8.2797 I-1.1212 J0.0005
G3 X-4.0781 Y-9.4014 I0.0001 J-1.1218
G3 X-3.8912 Y-10.0214 I1.1218 J0.0001
G0 Z5.0
G0 X-9.1416 Y-0.7748
G1 Z0.0
G3 X-8.6973 Y-0.0115 I-0.4333 J0.7631
G3 X-9.5744 Y0.8656 I-0.8772 J-0.0001
G3 X-10.4522 Y-0.0115 I-0.0008 J-0.8771
G3 X-9.5744 Y-0.8893 I0.8775 J-0.0003
G3 X-9.1416 Y-0.7748 I-0.0005 J0.8776
G0 Z5.0
G0 X-18.1741 Y-5.2505
G1 Z0.0
G3 X-19.0526 Y-4.7051 I-0.879 J-0.4356
G3 X-20.0337 Y-5.6862 I0.0 J-0.9811
G3 X-19.0526 Y-6.6674 I0.9811 J0.0
G3 X-18.0721 Y-5.6862 I-0.0004 J0.9809
G3 X-18.1741 Y-5.2505 I-0.981 J0.0001
G0 Z5.0
G0 X-22.0792 Y3.9145
G1 Z0.0
G3 X-21.4511 Y4.8647 I-0.405 J0.9504
G3 X-22.4839 Y5.8975 I-1.0332 J-0.0004
G3 X-23.516 Y4.8647 I0.0008 J-1.033
G3 X-22.4839 Y3.8319 I1.033 J0.0002
G3 X-22.0792 Y3.9145 I-0.0003 J1.0331
G0 Z5.0
G0 X-29.5213 Y-4.523
G1 Z0.0
G3 X-30.3194 Y-4.2214 I-0.798 J-0.9047
G3 X-31.5252 Y-5.4272 I0.0004 J-1.2062
G3 X-30.3194 Y-6.6336 I1.2064 J-0.0001
G3 X-29.113 Y-5.4272 I0.0 J1.2065
G3 X-29.5213 Y-4.523 I-1.2064 J-0.0006
G0 Z5.0
G0 X-33.8796 Y4.2265
G1 Z0.0
G3 X-33.2946 Y5.1713 I-0.4707 J0.945
G3 X-34.3509 Y6.2269 I-1.0559 J-0.0003
G3 X-35.4071 Y5.1713 I-0.0005 J-1.0557
G3 X-34.3509 Y4.1157 I1.0559 J0.0003
G3 X-33.8796 Y4.2265 I0.0005 J1.0557
G0 Z5.0
G0 X-40.7677 Y-3.2115
G1 Z0.0
G3 X-41.4471 Y-2.9453 I-0.6792 J-0.7335
G3 X-42.4462 Y-3.9451 I0.0009 J-0.9999
G3 X-41.4471 Y-4.9449 I1.0 J0.0002
G3 X-40.4473 Y-3.9451 I0.0001 J0.9996
G3 X-40.7677 Y-3.2115 I-0.9997 J0.0001
G0 Z5.0
G0 X-44.5672 Y6.5437
G1 Z0.0
G3 X-43.951 Y7.4451 I-0.3511 J0.9013
G3 X-44.9184 Y8.4111 I-0.9669 J-0.0009
G3 X-45.8844 Y7.4451 I0.0003 J-0.9663
G3 X-44.9184 Y6.4777 I0.9667 J-0.0007
G3 X-44.5672 Y6.5437 I0.0001 J0.9673
G0 Z5.0
G0 X-54.1333 Y5.6625
G1 Z0.0
G3 X-55.1103 Y6.5535 I-0.9768 J-0.09
G3 X-56.0908 Y5.573 I-0.0001 J-0.9804
G3 X-55.1103 Y4.5925 I0.9804 J-0.0001
G3 X-54.1292 Y5.573 I0.0001 J0.981
G3 X-54.1333 Y5.6625 I-0.9809 J-0.0004
G0 Z5.0
G0 X-61.4553 Y12.7185
G1 Z0.0
G3 X-61.2137 Y13.3176 I-0.6217 J0.5991
G3 X-62.077 Y14.1809 I-0.8634 J0.0
G3 X-62.9403 Y13.3176 I-0.0003 J-0.863
G3 X-62.077 Y12.4543 I0.8628 J-0.0006
G3 X-61.4553 Y12.7185 I0.0 J0.8634
G0 Z5.0
G0 X-66.1402 Y22.8429
G1 Z0.0
G3 X-65.6585 Y23.5964 I-0.3487 J0.7537
G3 X-66.4888 Y24.4266 I-0.8298 J0.0004
G3 X-67.3197 Y23.5964 I-0.0004 J-0.8306
G3 X-66.4888 Y22.7661 I0.831 J0.0008
G3 X-66.1402 Y22.8429 I-0.0002 J0.8304
G0 Z5.0
G0 X-71.9619 Y33.031
G1 Z0.0
G3 X-71.5434 Y33.7518 I-0.4121 J0.7211
G3 X-72.3744 Y34.5828 I-0.831 J0.0
G3 X-73.2047 Y33.7518 I0.0 J-0.8303
G3 X-72.3744 Y32.9216 I0.8298 J-0.0004
G3 X-71.9619 Y33.031 I0.0004 J0.8306
G0 Z5.0
G0 X-76.9216 Y44.3926
G1 Z0.0
G3 X-76.4741 Y45.0766 I-0.2984 J0.6837
G3 X-77.2196 Y45.8221 I-0.7451 J0.0004
G3 X-77.9658 Y45.0766 I-0.0007 J-0.7455
G3 X-77.2196 Y44.3303 I0.7463 J0.0001
G3 X-76.9216 Y44.3926 I-0.0004 J0.746
G0 Z5.0
G0 X-86.5188 Y40.6478
G1 Z0.0
G3 X-87.949 Y41.6246 I-1.4296 J-0.5578
G3 X-89.4827 Y40.0901 I0.0003 J-1.5341
G3 X-87.949 Y38.5557 I1.5336 J-0.0009
G3 X-86.4138 Y40.0901 I0.0006 J1.5345
G3 X-86.5188 Y40.6478 I-1.5346 J-0.0001
G0 Z5.0
G0 X-89.0889 Y47.7259
G1 Z0.0
G3 X-88.1584 Y49.0536 I-0.4821 J1.3277
G3 X-89.5709 Y50.4661 I-1.4119 J0.0006
G3 X-90.9834 Y49.0536 I0.0002 J-1.4127
G3 X-89.5709 Y47.6411 I1.4127 J0.0002
G3 X-89.0889 Y47.7259 I0.0 J1.4125
G0 Z5.0
G0 X-96.6736 Y43.8939
G1 Z0.0
G3 X-98.09 Y44.7651 I-1.4162 J-0.7155
G3 X-99.6761 Y43.179 I0.0003 J-1.5864
G3 X-98.09 Y41.5922 I1.5865 J-0.0003
G3 X-96.5032 Y43.179 I0.0001 J1.5867
G3 X-96.6736 Y43.8939 I-1.5867 J-0.0005
G0 Z5.0
G0 X-94.6787 Y36.3589
G1 Z0.0
G3 X-95.821 Y34.8749 I0.3929 J-1.4841
G3 X-94.2866 Y33.3405 I1.5344 J-0.0001
G3 X-92.7514 Y34.8749 I0.0004 J1.5347
G3 X-94.2866 Y36.4101 I-1.5356 J-0.0004
G3 X-94.6787 Y36.3589 I0.0008 J-1.5352
G0 Z5.0
G0 X-101.3894 Y34.8821
G1 Z0.0
G3 X-102.8745 Y36.0759 I-1.485 J-0.3268
G3 X-104.3945 Y34.5552 I0.0005 J-1.5204
G3 X-102.8745 Y33.0346 I1.5204 J-0.0002
G3 X-101.3538 Y34.5552 I0.0001 J1.5206
G3 X-101.3894 Y34.8821 I-1.5206 J0.0001
G0 Z5.0
G0 X-98.0803 Y28.8818
G1 Z0.0
G3 X-98.8885 Y27.5135 I0.7548 J-1.3687
G3 X-97.3258 Y25.9508 I1.5623 J-0.0004
G3 X-95.7631 Y27.5135 I0.0004 J1.5623
G3 X-97.3258 Y29.0761 I-1.5626 J0.0001
G3 X-98.0803 Y28.8818 I0.0003 J-1.563
G0 Z5.0
G0 X-104.3065 Y26.2117
G1 Z0.0
G3 X-105.6781 Y27.1159 I-1.3716 J-0.5882
G3 X-107.1705 Y25.6235 I-0.0005 J-1.4919
G3 X-105.6781 Y24.1311 I1.4926 J0.0002
G3 X-104.1857 Y25.6235 I-0.0002 J1.4926
G3 X-104.3065 Y26.2117 I-1.4924 J0.0
G0 Z5.0
G0 X-99.9626 Y20.9538
G1 Z0.0
G3 X-100.5505 Y19.7055 I1.0312 J-1.2482
G3 X-98.9313 Y18.087 I1.619 J0.0005
G3 X-97.3128 Y19.7055 I-0.0003 J1.6188
G3 X-98.9313 Y21.3247 I-1.6188 J0.0004
G3 X-99.9626 Y20.9538 I-0.0001 J-1.6191
G0 Z5.0
G0 X-102.1371 Y14.3221
G1 Z0.0
G3 X-102.6079 Y14.3973 I-0.4708 J-1.4358
G3 X-104.1189 Y12.887 I0.0 J-1.511
G3 X-102.6079 Y11.3752 I1.5113 J-0.0004
G3 X-101.0968 Y12.887 I-0.0003 J1.5113
G3 X-102.1371 Y14.3221 I-1.511 J-0.0007
G0 Z5.0
G0 X-107.0644 Y17.131
G1 Z0.0
G3 X-106.8722 Y17.8562 I-1.272 J0.7252
G3 X-108.3371 Y19.3203 I-1.4646 J-0.0005
G3 X-109.8012 Y17.8562 I-0.0003 J-1.4638
G3 X-108.3371 Y16.392 I1.4638 J-0.0003
G3 X-107.0644 Y17.131 I0.0007 J1.4642
G0 Z5.0
G0 X-110.4716 Y11.1412
G1 Z0.0
G3 X-111.2006 Y11.3339 I-0.7284 J-1.2805
G3 X-112.6737 Y9.8608 I0.0005 J-1.4736
G3 X-111.2006 Y8.3863 I1.4735 J-0.001
G3 X-109.7268 Y9.8608 I-0.0002 J1.474
G3 X-110.4716 Y11.1412 I-1.4732 J-0.0001
G0 Z5.0
G0 X-115.5161 Y14.0542
G1 Z0.0
G3 X-115.3451 Y14.6922 I-1.1054 J0.6383
G3 X-116.6218 Y15.9689 I-1.2762 J0.0005
G3 X-117.8979 Y14.6922 I-0.0003 J-1.2758
G3 X-116.6218 Y13.4161 I1.2763 J0.0003
G3 X-115.5161 Y14.0542 I0.0003 J1.2764
G0 Z5.0
G0 X-114.6932 Y21.4785
G1 Z0.0
G3 X-114.541 Y21.4701 I0.1525 J1.3762
G3 X-113.1561 Y22.8543 I0.0007 J1.3843
G3 X-114.541 Y24.2392 I-1.385 J-0.0001
G3 X-115.9252 Y22.8543 I0.0005 J-1.3847
G3 X-114.6932 Y21.4785 I1.3846 J0.0003
G0 Z5.0
G0 X-119.0258 Y27.2499
G1 Z0.0
G3 X-118.4463 Y28.4092 I-0.8706 J1.1597
G3 X-119.8967 Y29.8596 I-1.4509 J-0.0005
G3 X-121.3471 Y28.4092 I0.0003 J-1.4507
G3 X-119.8967 Y26.9595 I1.4498 J0.0001
G3 X-119.0258 Y27.2499 I0.0003 J1.4501
G0 Z5.0
G0 X-112.9963 Y30.6482
G1 Z0.0
G3 X-111.6878 Y29.8837 I1.3085 J0.7375
G3 X-110.1864 Y31.3857 I-0.0005 J1.5019
G3 X-111.6878 Y32.8878 I-1.5019 J0.0002
G3 X-113.1898 Y31.3857 I0.0 J-1.502
G3 X-112.9963 Y30.6482 I1.502 J0.0
G0 Z5.0
G0 X-116.8852 Y35.7538
G1 Z0.0
G3 X-116.2897 Y36.9558 I-0.9157 J1.2021
G3 X-117.8007 Y38.4668 I-1.511 J0.0001
G3 X-119.3118 Y36.9558 I-0.0005 J-1.5105
G3 X-117.8007 Y35.4448 I1.5112 J0.0001
G3 X-116.8852 Y35.7538 I-0.0001 J1.5112
G0 Z5.0
G0 X-110.3697 Y38.8745
G1 Z0.0
G3 X-108.9641 Y37.9893 I1.4056 J0.6732
G3 X-107.4055 Y39.5472 I0.0006 J1.5579
G3 X-108.9641 Y41.105 I-1.5585 J-0.0006
G3 X-110.5226 Y39.5472 I-0.0006 J-1.5579
G3 X-110.3697 Y38.8745 I1.5585 J0.0006
G0 Z5.0
G0 X-114.8852 Y44.3592
G1 Z0.0
G3 X-114.3908 Y45.4059 I-0.8624 J1.0475
G3 X-115.7468 Y46.7626 I-1.3562 J0.0004
G3 X-117.1034 Y45.4059 I-0.0005 J-1.3562
G3 X-115.7468 Y44.0499 I1.3567 J0.0007
G3 X-114.8852 Y44.3592 I-0.0008 J1.3568
G0 Z5.0
G0 X-107.5029 Y46.9032
G1 Z0.0
G3 X-106.3361 Y46.0715 I1.1663 J0.4019
G3 X-105.1014 Y47.3048 I0.0008 J1.2339
G3 X-106.3361 Y48.5396 I-1.2345 J0.0003
G3 X-107.5702 Y47.3048 I0.0 J-1.234
G3 X-107.5029 Y46.9032 I1.2337 J0.0003
G0 Z5.0
G0 X-114.5763 Y52.8044
G1 Z0.0
G3 X-114.255 Y53.6914 I-1.0626 J0.8865
G3 X-115.6393 Y55.0756 I-1.384 J0.0003
G3 X-117.0235 Y53.6914 I0.0003 J-1.3846
G3 X-115.6393 Y52.3071 I1.3838 J-0.0004
G3 X-114.5763 Y52.8044 I0.0004 J1.3838
G0 Z5.0
G0 X-123.0815 Y51.5915
G1 Z0.0
G3 X-124.5262 Y52.8446 I-1.4445 J-0.206
G3 X-125.9856 Y51.3852 I-0.0002 J-1.4591
G3 X-124.5262 Y49.9252 I1.4595 J-0.0005
G3 X-123.0669 Y51.3852 I-0.0006 J1.4599
G3 X-123.0815 Y51.5915 I-1.4591 J0.0002
G0 Z5.0
G0 X-123.9814 Y44.2033
G1 Z0.0
G3 X-124.1562 Y44.2139 I-0.1748 J-1.4349
G3 X-125.6011 Y42.7683 I0.0 J-1.4448
G3 X-124.1562 Y41.3228 I1.4445 J-0.0011
G3 X-122.7107 Y42.7683 I0.0003 J1.4453
G3 X-123.9814 Y44.2033 I-1.4455 J0.0001
G0 Z5.0
G0 X-131.4748 Y45.3726
G1 Z0.0
G3 X-131.4578 Y45.5919 I-1.4051 J0.2193
G3 X-132.8799 Y47.0141 I-1.4221 J0.0001
G3 X-134.3021 Y45.5919 I-0.0001 J-1.4221
G3 X-132.8799 Y44.1698 I1.4221 J-0.0001
G3 X-131.4748 Y45.3726 I0.0001 J1.4221
G0 Z5.0
G0 X-131.6475 Y39.6279
G1 Z0.0
G3 X-131.6886 Y39.6285 I-0.0412 J-1.3699
G3 X-133.0591 Y38.258 I-0.0001 J-1.3704
G3 X-131.6886 Y36.8876 I1.3705 J0.0001
G3 X-130.3181 Y38.258 I0.0001 J1.3704
G3 X-131.6475 Y39.6279 I-1.3705 J-0.0001
G0 Z5.0
G0 X-126.9257 Y34.6671
G1 Z0.0
G3 X-127.3733 Y33.6237 I0.9937 J-1.044
G3 X-125.9325 Y32.1829 I1.4406 J-0.0002
G3 X-124.4918 Y33.6237 I0.0002 J1.4406
G3 X-125.9325 Y35.0644 I-1.4407 J0.0
G3 X-126.9257 Y34.6671 I0.0006 J-1.4413
G0 Z5.0
G0 X-128.2703 Y27.3134
G1 Z0.0
G3 X-128.5012 Y27.3343 I-0.2303 J-1.2593
G3 X-129.7821 Y26.0541 I-0.0002 J-1.2807
G3 X-128.5012 Y24.7725 I1.281 J-0.0006
G3 X-127.2203 Y26.0541 I0.0004 J1.2805
G3 X-128.2703 Y27.3134 I-1.2802 J0.0
G0 Z5.0
G0 X-135.3929 Y24.1983
G1 Z0.0
G3 X-136.5627 Y24.9634 I-1.1697 J-0.5116
G3 X-137.8395 Y23.6866 I-0.0001 J-1.2766
G3 X-136.5627 Y22.4106 I1.2766 J0.0005
G3 X-135.286 Y23.6866 I0.0004 J1.2764
G3 X-135.3929 Y24.1983 I-1.2767 J0.0001
G0 Z5.0
G0 X-132.7392 Y19.3602
G1 Z0.0
G3 X-133.4043 Y18.2365 I0.6162 J-1.1234
G3 X-132.1234 Y16.9556 I1.2815 J0.0006
G3 X-130.8418 Y18.2365 I0.0004 J1.2811
G3 X-132.1234 Y19.5181 I-1.2809 J0.0007
G3 X-132.7392 Y19.3602 I0.0004 J-1.2813
G0 Z5.0
G0 X-131.1463 Y12.729
G1 Z0.0
G3 X-132.1248 Y11.4876 I0.2982 J-1.2413
G3 X-130.8487 Y10.2108 I1.2764 J-0.0004
G3 X-129.5726 Y11.4876 I-0.0005 J1.2766
G3 X-130.8487 Y12.7643 I-1.2764 J0.0004
G3 X-131.1463 Y12.729 I0.0005 J-1.2766
G0 Z5.0
G0 X-125.1918 Y11.3271
G1 Z0.0
G3 X-125.2256 Y11.0356 I1.2381 J-0.2915
G3 X-123.9544 Y9.7636 I1.2717 J-0.0002
G3 X-122.6824 Y11.0356 I0.0 J1.272
G3 X-123.9544 Y12.3075 I-1.2719 J0.0
G3 X-125.1918 Y11.3271 I0.0007 J-1.2719
G0 Z5.0
G0 X-120.0879 Y6.5668
G1 Z0.0
G3 X-120.4273 Y5.706 I0.9235 J-0.8613
G3 X-119.165 Y4.4437 I1.2622 J-0.0001
G3 X-117.902 Y5.706 I0.0004 J1.2626
G3 X-119.165 Y6.9683 I-1.2628 J-0.0005
G3 X-120.0879 Y6.5668 I0.0006 J-1.2628
G0 Z5.0
G0 X-114.5029 Y2.6807
G1 Z0.0
G3 X-114.7711 Y1.8254 I1.2288 J-0.855
G3 X-113.2746 Y0.3289 I1.4962 J-0.0004
G3 X-111.7773 Y1.8254 I0.0007 J1.4965
G3 X-113.2746 Y3.3227 I-1.4973 J-0.0001
G3 X-114.5029 Y2.6807 I0.0004 J-1.497
G0 Z5.0
G0 X-119.0904 Y-1.5734
G1 Z0.0
G3 X-120.0573 Y-1.1511 I-0.9674 J-0.8971
G3 X-121.3761 Y-2.4699 I0.0005 J-1.3193
G3 X-120.0573 Y-3.7887 I1.3184 J-0.0004
G3 X-118.7385 Y-2.4699 I0.0004 J1.3184
G3 X-119.0904 Y-1.5734 I-1.3193 J-0.0005
G0 Z5.0
G0 X-114.0513 Y-5.6345
G1 Z0.0
G3 X-114.3825 Y-6.5737 I1.1649 J-0.9388
G3 X-112.886 Y-8.0709 I1.4965 J-0.0007
G3 X-111.3887 Y-6.5737 I-0.0001 J1.4973
G3 X-112.886 Y-5.0771 I-1.497 J-0.0004
G3 X-114.0513 Y-5.6345 I-0.0004 J-1.4962
G0 Z5.0
G0 X-118.4114 Y-9.468
G1 Z0.0
G3 X-119.4868 Y-8.9818 I-1.0749 J-0.9451
G3 X-120.9179 Y-10.4129 I0.0001 J-1.4312
G3 X-119.4868 Y-11.8447 I1.4314 J-0.0004
G3 X-118.055 Y-10.4129 I0.0003 J1.4315
G3 X-118.4114 Y-9.468 I-1.4312 J-0.0001
G0 Z5.0
G0 X-112.6516 Y-13.2486
G1 Z0.0
G3 X-112.8949 Y-14.062 I1.2401 J-0.814
G3 X-111.4115 Y-15.5447 I1.4832 J0.0004
G3 X-109.9287 Y-14.062 I0.0002 J1.4825
G3 X-111.4115 Y-12.5792 I-1.4832 J-0.0005
G3 X-112.6516 Y-13.2486 I-0.0001 J-1.4834
G0 Z5.0
G0 X-117.5105 Y-17.0955
G1 Z0.0
G3 X-118.6882 Y-16.5259 I-1.1775 J-0.9323
G3 X-120.1896 Y-18.0273 I0.0004 J-1.5018
G3 X-118.6882 Y-19.5293 I1.5019 J-0.0002
G3 X-117.1861 Y-18.0273 I0.0 J1.502
G3 X-117.5105 Y-17.0955 I-1.5019 J-0.0005
G0 Z5.0
G0 X-112.5892 Y-21.5557
G1 Z0.0
G3 X-112.9783 Y-22.5645 I1.113 J-1.0087
G3 X-111.4762 Y-24.0658 I1.5019 J0.0005
G3 X-109.9742 Y-22.5645 I0.0002 J1.5019
G3 X-111.4762 Y-21.0624 I-1.502 J0.0
G3 X-112.5892 Y-21.5557 I0.0 J-1.502
G0 Z5.0
G0 X-117.7722 Y-24.9968
G1 Z0.0
G3 X-119.0155 Y-24.3297 I-1.2435 J-0.8256
G3 X-120.5079 Y-25.8221 I0.0002 J-1.4926
G3 X-119.0155 Y-27.3146 I1.4926 J0.0002
G3 X-117.5231 Y-25.8221 I-0.0002 J1.4926
G3 X-117.7722 Y-24.9968 I-1.4926 J-0.0002
G0 Z5.0
G0 X-115.3638 Y-30.0609
G1 Z0.0
G3 X-116.207 Y-31.3956 I0.6348 J-1.3348
G3 X-114.7284 Y-32.8736 I1.4784 J0.0005
G3 X-113.2505 Y-31.3956 I0.0003 J1.4776
G3 X-114.7284 Y-29.9177 I-1.4776 J0.0003
G3 X-115.3638 Y-30.0609 I-0.0006 J-1.478
G0 Z5.0
G0 X-109.9784 Y-34.5986
G1 Z0.0
G3 X-110.3483 Y-35.6117 I1.2024 J-1.0132
G3 X-108.776 Y-37.1841 I1.572 J-0.0004
G3 X-107.2043 Y-35.6117 I-0.0006 J1.5723
G3 X-108.776 Y-34.0394 I-1.5718 J0.0006
G3 X-109.9784 Y-34.5986 I0.0 J-1.5724
G0 Z5.0
G0 X-106.8131 Y-29.0311
G1 Z0.0
G3 X-106.0288 Y-29.2383 I0.7836 J1.3784
G3 X-104.4427 Y-27.6522 I0.0003 J1.5858
G3 X-106.0288 Y-26.066 I-1.5862 J-0.0001
G3 X-107.615 Y-27.6522 I-0.0006 J-1.5856
G3 X-106.8131 Y-29.0311 I1.5856 J-0.0006
G0 Z5.0
G0 X-100.1562 Y-29.3818
G1 Z0.0
G3 X-100.1584 Y-29.4643 I1.5704 J-0.0827
G3 X-98.5861 Y-31.0366 I1.5726 J0.0003
G3 X-97.0137 Y-29.4643 I-0.0003 J1.5726
G3 X-98.5861 Y-27.8919 I-1.5726 J-0.0003
G3 X-100.1562 Y-29.3818 I0.0003 J-1.5726
G0 Z5.0
G0 X-98.8206 Y-23.5307
G1 Z0.0
G3 X-98.4737 Y-23.5697 I0.3466 J1.5186
G3 X-96.9159 Y-22.0119 I0.0003 J1.5576
G3 X-98.4737 Y-20.4533 I-1.5579 J0.0006
G3 X-100.0316 Y-22.0119 I0.0006 J-1.5585
G3 X-98.8206 Y-23.5307 I1.5576 J-0.0003
G0 Z5.0
G0 X-103.4019 Y-18.7934
G1 Z0.0
G3 X-102.9296 Y-17.6807 I-1.077 J1.1136
G3 X-104.4785 Y-16.1318 I-1.5492 J-0.0003
G3 X-106.0275 Y-17.6807 I-0.0004 J-1.5485
G3 X-104.4785 Y-19.2289 I1.5486 J0.0004
G3 X-103.4019 Y-18.7934 I-0.0003 J1.5492
G0 Z5.0
G0 X-98.1044 Y-13.5922
G1 Z0.0
G3 X-97.0123 Y-14.0502 I1.0917 J1.0719
G3 X-95.4827 Y-12.5199 I-0.0002 J1.5299
G3 X-97.0123 Y-10.9903 I-1.5297 J-0.0001
G3 X-98.5426 Y-12.5199 I-0.0005 J-1.5298
G3 X-98.1044 Y-13.5922 I1.53 J-0.0003
G0 Z5.0
G0 X-102.7561 Y-9.9922
G1 Z0.0
G3 X-102.4391 Y-9.0645 I-1.1988 J0.9277
G3 X-103.9549 Y-7.5487 I-1.5159 J0.0
G3 X-105.4707 Y-9.0645 I0.0 J-1.5159
G3 X-103.9549 Y-10.5803 I1.5159 J0.0
G3 X-102.7561 Y-9.9922 I0.0 J1.5159
G0 Z5.0
G0 X-106.3498 Y-3.5587
G1 Z0.0
G3 X-105.583 Y-2.2522 I-0.7298 J1.3065
G3 X-107.0803 Y-0.7549 I-1.4973 J-0.0001
G3 X-108.5768 Y-2.2522 I0.0004 J-1.497
G3 X-107.0803 Y-3.7487 I1.4962 J-0.0004
G3 X-106.3498 Y-3.5587 I0.0007 J1.4965
G0 Z5.0
G0 X-101.0448 Y-1.75
G1 Z0.0
G3 X-99.5879 Y-2.7924 I1.4567 J0.4967
G3 X-98.0486 Y-1.2531 I0.0002 J1.5391
G3 X-99.5879 Y0.2862 I-1.5391 J0.0002
G3 X-101.1272 Y-1.2531 I-0.0002 J-1.5391
G3 X-101.0448 Y-1.75 I1.5391 J-0.0002
G0 Z5.0
G0 X-104.6884 Y3.8334
G1 Z0.0
G3 X-104.0093 Y5.0873 I-0.8183 J1.254
G3 X-105.5066 Y6.5838 I-1.497 J-0.0004
G3 X-107.0031 Y5.0873 I-0.0004 J-1.4962
G3 X-105.5066 Y3.59 I1.4965 J-0.0007
G3 X-104.6884 Y3.8334 I-0.0001 J1.4973
G0 Z5.0
G0 X-99.6374 Y6.3145
G1 Z0.0
G3 X-98.1761 Y5.4042 I1.4614 J0.7179
G3 X-96.5473 Y7.0331 I0.0001 J1.6288
G3 X-98.1761 Y8.6612 I-1.6294 J-0.0012
G3 X-99.8042 Y7.0331 I0.0007 J-1.6288
G3 X-99.6374 Y6.3145 I1.6282 J-0.0006
G0 Z5.0
G0 X-93.6845 Y3.8655
G1 Z0.0
G3 X-93.8077 Y3.2421 I1.5153 J-0.6234
G3 X-92.1699 Y1.6043 I1.6379 J0.0001
G3 X-90.5321 Y3.2421 I-0.0004 J1.6382
G3 X-92.1699 Y4.8806 I-1.6379 J0.0006
G3 X-93.6845 Y3.8655 I0.0007 J-1.6385
G0 Z5.0
G0 X-86.8971 Y6.9334
G1 Z0.0
G3 X-85.4561 Y6.0037 I1.4405 J0.6511
G3 X-83.8741 Y7.585 I0.0008 J1.5812
G3 X-85.4561 Y9.1663 I-1.582 J-0.0007
G3 X-87.0374 Y7.585 I0.0002 J-1.5815
G3 X-86.8971 Y6.9334 I1.5809 J-0.0004
G0 Z5.0
G0 X-85.567 Y13.885
G1 Z0.0
G3 X-85.2797 Y13.8578 I0.2875 J1.5026
G3 X-83.7501 Y15.3881 I-0.0002 J1.5299
G3 X-85.2797 Y16.9177 I-1.5297 J-0.0001
G3 X-86.8093 Y15.3881 I0.0001 J-1.5297
G3 X-85.567 Y13.885 I1.5298 J-0.0005
G0 Z5.0
G0 X-91.6077 Y13.3856
G1 Z0.0
G3 X-93.2214 Y14.8713 I-1.6136 J-0.1334
G3 X-94.8405 Y13.2521 I0.0001 J-1.6193
G3 X-93.2214 Y11.6329 I1.6197 J0.0005
G3 X-91.6022 Y13.2521 I0.0001 J1.6191
G3 X-91.6077 Y13.3856 I-1.6191 J0.0001
G0 Z5.0
G0 X-90.5499 Y20.983
G1 Z0.0
G3 X-90.3392 Y20.9685 I0.2103 J1.5106
G3 X-88.8144 Y22.4933 I0.0 J1.5248
G3 X-90.3392 Y24.0187 I-1.5244 J0.001
G3 X-91.8647 Y22.4933 I-0.0002 J-1.5253
G3 X-90.5499 Y20.983 I1.5251 J0.0003
G0 Z5.0
G0 X-82.065 Y22.8992
G1 Z0.0
G3 X-81.0905 Y22.1198 I0.975 J0.2202
G3 X-80.0907 Y23.1196 I0.0001 J0.9996
G3 X-81.0905 Y24.1193 I-0.9997 J0.0001
G3 X-82.0896 Y23.1196 I0.0004 J-0.9995
G3 X-82.065 Y22.8992 I0.9995 J-0.0002
G0 Z5.0
G0 X-85.5732 Y29.5919
G1 Z0.0
G3 X-84.7836 Y30.8972 I-0.6842 J1.3053
G3 X-86.2567 Y32.371 I-1.4733 J0.0005
G3 X-87.7306 Y30.8972 I0.0001 J-1.4739
G3 X-86.2567 Y29.4234 I1.4734 J-0.0004
G3 X-85.5732 Y29.5919 I-0.0006 J1.4737
G0 Z5.0
G0 X-74.4497 Y13.4001
G1 Z0.0
G3 X-74.7935 Y12.7464 I0.4489 J-0.6534
G3 X-74.0005 Y11.9533 I0.7928 J-0.0003
G3 X-73.2074 Y12.7464 I0.0003 J0.7928
G3 X-74.0005 Y13.5395 I-0.7928 J0.0003
G3 X-74.4497 Y13.4001 I-0.0003 J-0.7928
G0 Z5.0
G0 X-78.3987 Y3.5391
G1 Z0.0
G3 X-78.7809 Y3.6128 I-0.3822 J-0.9543
G3 X-79.8082 Y2.5847 I0.0006 J-1.0279
G3 X-78.7809 Y1.5567 I1.0278 J-0.0002
G3 X-77.7529 Y2.5847 I0.0 J1.028
G3 X-78.3987 Y3.5391 I-1.028 J0.0
G0 Z5.0
G0 X-84.6858 Y-1.1424
G1 Z0.0
G3 X-85.9922 Y-0.4862 I-1.3066 J-0.9729
G3 X-87.621 Y-2.1144 I-0.0006 J-1.6282
G3 X-85.9922 Y-3.7432 I1.6285 J-0.0004
G3 X-84.3633 Y-2.1144 I0.0001 J1.6288
G3 X-84.6858 Y-1.1424 I-1.6291 J-0.0009
G0 Z5.0
G0 X-79.3604 Y-6.0661
G1 Z0.0
G3 X-79.6725 Y-6.8631 I0.8622 J-0.7972
G3 X-78.4991 Y-8.0358 I1.1733 J0.0006
G3 X-77.3257 Y-6.8631 I0.0008 J1.1726
G3 X-78.4991 Y-5.689 I-1.1735 J0.0006
G3 X-79.3604 Y-6.0661 I0.0009 J-1.1743
G0 Z5.0
G0 X-85.1286 Y-9.9602
G1 Z0.0
G3 X-86.4786 Y-9.243 I-1.3497 J-0.9112
G3 X-88.1068 Y-10.8711 I0.0 J-1.6282
G3 X-86.4786 Y-12.4993 I1.6282 J0.0
G3 X-84.8498 Y-10.8711 I0.0006 J1.6282
G3 X-85.1286 Y-9.9602 I-1.6285 J-0.0003
G0 Z5.0
G0 X-84.454 Y-17.3409
G1 Z0.0
G3 X-85.9426 Y-18.9719 I0.149 J-1.6308
G3 X-84.3054 Y-20.6097 I1.6373 J-0.0005
G3 X-82.667 Y-18.9719 I0.0009 J1.6376
G3 X-84.3054 Y-17.3341 I-1.6379 J-0.0001
G3 X-84.454 Y-17.3409 I0.0005 J-1.6376
G0 Z5.0
G0 X-90.143 Y-17.6465
G1 Z0.0
G3 X-91.6986 Y-16.1717 I-1.5561 J-0.0836
G3 X-93.2572 Y-17.7303 I-0.0006 J-1.5579
G3 X-91.6986 Y-19.2875 I1.5577 J0.0005
G3 X-90.1408 Y-17.7303 I0.0002 J1.5577
G3 X-90.143 Y-17.6465 I-1.5584 J0.0002
G0 Z5.0
G0 X-89.7159 Y-24.6474
G1 Z0.0
G3 X-91.135 Y-26.1556 I0.092 J-1.5084
G3 X-89.624 Y-27.6673 I1.5113 J-0.0004
G3 X-88.113 Y-26.1556 I-0.0003 J1.5113
G3 X-89.624 Y-24.6446 I-1.5112 J-0.0001
G3 X-89.7159 Y-24.6474 I0.0001 J-1.5112
G0 Z5.0
G0 X-82.2171 Y-25.8715
G1 Z0.0
G3 X-82.237 Y-26.1177 I1.505 J-0.2457
G3 X-80.7122 Y-27.6425 I1.5241 J-0.0007
G3 X-79.1867 Y-26.1177 I0.001 J1.5244
G3 X-80.7122 Y-24.5922 I-1.5253 J0.0002
G3 X-82.2171 Y-25.8715 I0.0001 J-1.5249
G0 Z5.0
G0 X-84.1799 Y-33.4511
G1 Z0.0
G3 X-84.5604 Y-33.4027 I-0.3798 J-1.4668
G3 X-86.0762 Y-34.9186 I0.0002 J-1.5161
G3 X-84.5604 Y-36.4344 I1.5165 J0.0007
G3 X-83.0445 Y-34.9186 I0.0002 J1.5157
G3 X-84.1799 Y-33.4511 I-1.5152 J0.0007
G0 Z5.0
G0 X-91.0117 Y-33.7405
G1 Z0.0
G3 X-92.5778 Y-32.239 I-1.5665 J-0.0664
G3 X-94.1453 Y-33.8065 I0.0004 J-1.5679
G3 X-92.5778 Y-35.374 I1.5679 J0.0004
G3 X-91.0103 Y-33.8065 I-0.0004 J1.5679
G3 X-91.0117 Y-33.7405 I-1.5679 J-0.0004
G0 Z5.0
G0 X-92.4201 Y-39.7383
G1 Z0.0
G3 X-92.7776 Y-39.6969 I-0.3572 J-1.521
G3 X-94.3403 Y-41.2596 I-0.0001 J-1.5626
G3 X-92.7776 Y-42.823 I1.5633 J-0.0001
G3 X-91.2149 Y-41.2596 I-0.0005 J1.5632
G3 X-92.4201 Y-39.7383 I-1.5623 J0.0004
G0 Z5.0
G0 X-86.4171 Y-43.8023
G1 Z0.0
G3 X-86.6833 Y-44.6703 I1.282 J-0.8679
G3 X-85.135 Y-46.2192 I1.5485 J-0.0004
G3 X-83.5861 Y-44.6703 I-0.0003 J1.5492
G3 X-85.135 Y-43.122 I-1.5484 J-0.0002
G3 X-86.4171 Y-43.8023 I0.0 J-1.5482
G0 Z5.0
G0 X-91.62 Y-48.325
G1 Z0.0
G3 X-92.8135 Y-47.7812 I-1.1933 J-1.0373
G3 X-94.3954 Y-49.3632 I0.0 J-1.582
G3 X-92.8135 Y-50.9445 I1.5817 J0.0004
G3 X-91.2322 Y-49.3632 I0.0004 J1.5809
G3 X-91.62 Y-48.325 I-1.5812 J0.0008
G0 Z5.0
G0 X-86.8183 Y-52.6847
G1 Z0.0
G3 X-87.2241 Y-53.7357 I1.1573 J-1.0508
G3 X-85.6614 Y-55.2984 I1.5626 J-0.0001
G3 X-84.0987 Y-53.7357 I-0.0005 J1.5632
G3 X-85.6614 Y-52.1723 I-1.5633 J0.0001
G3 X-86.8183 Y-52.6847 I0.0005 J-1.5632
G0 Z5.0
G0 X-92.5819 Y-56.7353
G1 Z0.0
G3 X-93.8835 Y-56.0591 I-1.3018 J-0.9149
G3 X-95.4744 Y-57.65 I0.0002 J-1.5911
G3 X-93.8835 Y-59.2409 I1.5911 J0.0002
G3 X-92.2926 Y-57.65 I-0.0002 J1.5911
G3 X-92.5819 Y-56.7353 I-1.5911 J-0.0002
G0 Z5.0
G0 X-88.4594 Y-61.3234
G1 Z0.0
G3 X-88.9825 Y-62.4966 I1.0542 J-1.1733
G3 X-87.4053 Y-64.0737 I1.5773 J0.0002
G3 X-85.8282 Y-62.4966 I-0.0002 J1.5773
G3 X-87.4053 Y-60.9194 I-1.5773 J-0.0002
G3 X-88.4594 Y-61.3234 I0.0002 J-1.5773
G0 Z5.0
G0 X-94.9137 Y-64.8617
G1 Z0.0
G3 X-96.313 Y-64.0331 I-1.3993 J-0.7671
G3 X-97.9088 Y-65.6281 I-0.0002 J-1.5956
G3 X-96.313 Y-67.2239 I1.5956 J-0.0002
G3 X-94.7172 Y-65.6281 I0.0006 J1.5952
G3 X-94.9137 Y-64.8617 I-1.5958 J-0.0007
G0 Z5.0
G0 X-91.0647 Y-69.3653
G1 Z0.0
G3 X-91.6221 Y-70.5753 I1.0339 J-1.2097
G3 X-90.0312 Y-72.1656 I1.5908 J0.0006
G3 X-88.4403 Y-70.5753 I0.0007 J1.5903
G3 X-90.0312 Y-68.9837 I-1.5912 J0.0004
G3 X-91.0647 Y-69.3653 I0.0004 J-1.5914
G0 Z5.0
G0 X-97.0461 Y-73.1591
G1 Z0.0
G3 X-98.3738 Y-72.4288 I-1.328 J-0.8423
G3 X-99.9462 Y-74.0011 I0.0003 J-1.5726
G3 X-98.3738 Y-75.5734 I1.5726 J0.0003
G3 X-96.8015 Y-74.0011 I-0.0003 J1.5726
G3 X-97.0461 Y-73.1591 I-1.5726 J-0.0003
G0 Z5.0
G0 X-92.7191 Y-77.7414
G1 Z0.0
G3 X-93.2179 Y-78.8987 I1.0926 J-1.157
G3 X-91.627 Y-80.4889 I1.5911 J0.0008
G3 X-90.036 Y-78.8987 I0.0 J1.5909
G3 X-91.627 Y-77.307 I-1.5912 J0.0004
G3 X-92.7191 Y-77.7414 I0.0004 J-1.5914
G0 Z5.0
G0 X-98.5945 Y-81.7621
G1 Z0.0
G3 X-99.8842 Y-81.0822 I-1.2893 J-0.8823
G3 X-101.4469 Y-82.6449 I-0.0001 J-1.5626
G3 X-99.8842 Y-84.2075 I1.563 J0.0003
G3 X-98.3215 Y-82.6449 I0.0004 J1.5623
G3 X-98.5945 Y-81.7621 I-1.5623 J0.0004
G0 Z5.0
G0 X-93.6371 Y-85.9984
G1 Z0.0
G3 X-94.0096 Y-87.007 I1.1813 J-1.0094
G3 X-92.4565 Y-88.5608 I1.5537 J-0.0001
G3 X-90.9028 Y-87.007 I0.0005 J1.5532
G3 X-92.4565 Y-85.454 I-1.5533 J-0.0003
G3 X-93.6371 Y-85.9984 I0.0008 J-1.5538
G0 Z5.0
G0 X-96.0833 Y-93.2495
G1 Z0.0
G3 X-96.5831 Y-93.1676 I-0.4994 J-1.4804
G3 X-98.1465 Y-94.7302 I-0.0007 J-1.5626
G3 X-96.5831 Y-96.2929 I1.5632 J0.0005
G3 X-95.0204 Y-94.7302 I0.0004 J1.5623
G3 X-96.0833 Y-93.2495 I-1.5623 J0.0004
G0 Z5.0
G0 X-101.8576 Y-90.7782
G1 Z0.0
G3 X-101.7342 Y-90.1758 I-1.4066 J0.602
G3 X-103.2645 Y-88.6462 I-1.5299 J-0.0002
G3 X-104.7941 Y-90.1758 I0.0001 J-1.5297
G3 X-103.2645 Y-91.7061 I1.5298 J-0.0005
G3 X-101.8576 Y-90.7782 I0.0003 J1.53
G0 Z5.0
G0 X-104.7237 Y-97.2707
G1 Z0.0
G3 X-105.3508 Y-97.1384 I-0.6272 J-1.4209
G3 X-106.9039 Y-98.6914 I0.0005 J-1.5536
G3 X-105.3508 Y-100.2452 I1.553 J-0.0007
G3 X-103.7978 Y-98.6914 I-0.0001 J1.5531
G3 X-104.7237 Y-97.2707 I-1.5531 J-0.0001
G0 Z5.0
G0 X-110.6032 Y-91.7554
G1 Z0.0
G3 X-110.1802 Y-90.6864 I-1.1399 J1.0693
G3 X-111.7429 Y-89.1237 I-1.5623 J0.0004
G3 X-113.3056 Y-90.6864 I-0.0004 J-1.5623
G3 X-111.7429 Y-92.2491 I1.5626 J-0.0001
G3 X-110.6032 Y-91.7554 I-0.0003 J1.563
G0 Z5.0
G0 X-113.5336 Y-96.3842
G1 Z0.0
G3 X-114.357 Y-96.1455 I-0.8233 J-1.3004
G3 X-115.8963 Y-97.6848 I-0.0002 J-1.5391
G3 X-114.357 Y-99.224 I1.5391 J-0.0002
G3 X-112.8177 Y-97.6848 I0.0002 J1.5391
G3 X-113.5336 Y-96.3842 I-1.5391 J0.0002
G0 Z5.0
G0 X-119.9397 Y-92.2353
G1 Z0.0
G3 X-119.6969 Y-91.414 I-1.2684 J0.8215
G3 X-121.2079 Y-89.903 I-1.511 J0.0001
G3 X-122.7196 Y-91.414 I-0.0011 J-1.5106
G3 X-121.2079 Y-92.925 I1.5113 J0.0003
G3 X-119.9397 Y-92.2353 I-0.0001 J1.5112
G0 Z5.0
G0 X-124.0266 Y-96.5979
G1 Z0.0
G3 X-125.0823 Y-96.1806 I-1.0557 J-1.1269
G3 X-126.6264 Y-97.7254 I0.0008 J-1.5449
G3 X-125.0823 Y-99.2688 I1.5444 J0.0009
G3 X-123.5382 Y-97.7254 I0.0005 J1.5436
G3 X-124.0266 Y-96.5979 I-1.5441 J0.0006
G0 Z5.0
G0 X-120.4353 Y-102.4199
G1 Z0.0
G3 X-121.1459 Y-103.6937 I0.7855 J-1.2734
G3 X-119.6494 Y-105.1909 I1.4965 J-0.0007
G3 X-118.1521 Y-103.6937 I-0.0001 J1.4973
G3 X-119.6494 Y-102.1971 I-1.497 J-0.0004
G3 X-120.4353 Y-102.4199 I-0.0004 J-1.4962
G0 Z5.0
G0 X-123.783 Y-107.6563
G1 Z0.0
G3 X-124.6248 Y-107.4103 I-0.8417 J-1.3165
G3 X-126.1875 Y-108.973 I0.0003 J-1.563
G3 X-124.6248 Y-110.5357 I1.5623 J-0.0004
G3 X-123.0621 Y-108.973 I0.0004 J1.5623
G3 X-123.783 Y-107.6563 I-1.5626 J0.0001
G0 Z5.0
G0 X-118.4656 Y-111.8558
G1 Z0.0
G3 X-118.7909 Y-112.7929 I1.186 J-0.9367
G3 X-117.2798 Y-114.3039 I1.5112 J0.0001
G3 X-115.7688 Y-112.7929 I-0.0001 J1.5112
G3 X-117.2798 Y-111.2812 I-1.5113 J0.0004
G3 X-118.4656 Y-111.8558 I0.0003 J-1.5113
G0 Z5.0
G0 X-121.5676 Y-117.5795
G1 Z0.0
G3 X-122.3124 Y-117.3907 I-0.7444 J-1.3736
G3 X-123.8751 Y-118.9534 I-0.0004 J-1.5623
G3 X-122.3124 Y-120.5161 I1.5623 J-0.0004
G3 X-120.7497 Y-118.9534 I0.0004 J1.5623
G3 X-121.5676 Y-117.5795 I-1.5623 J0.0004
G0 Z5.0
G0 X-115.5255 Y-121.6171
G1 Z0.0
G3 X-115.7881 Y-122.4832 I1.2955 J-0.8657
G3 X-114.2295 Y-124.0411 I1.5587 J0.0008
G3 X-112.6717 Y-122.4832 I-0.0006 J1.5585
G3 X-114.2295 Y-120.9247 I-1.5584 J0.0002
G3 X-115.5255 Y-121.6171 I-0.0004 J-1.5581
G0 Z5.0
G0 X-110.6309 Y-116.5227
G1 Z0.0
G3 X-109.6489 Y-116.918 I0.982 J1.0221
G3 X-108.2316 Y-115.5007 I0.0 J1.4174
G3 X-109.6489 Y-114.0834 I-1.4174 J0.0
G3 X-111.0663 Y-115.5007 I0.0 J-1.4174
G3 X-110.6309 Y-116.5227 I1.4174 J0.0
G0 Z5.0
G0 X-103.7532 Y-116.3427
G1 Z0.0
G3 X-102.2806 Y-117.7779 I1.4733 J0.0386
G3 X-100.8061 Y-116.3041 I0.0009 J1.4736
G3 X-102.2806 Y-114.831 I-1.4738 J-0.0007
G3 X-103.7537 Y-116.3041 I0.0 J-1.4731
G3 X-103.7532 Y-116.3427 I1.4738 J0.0
G0 Z5.0
G0 X-103.7334 Y-109.2555
G1 Z0.0
G3 X-103.7289 I0.0043 J1.5391
G3 X-102.1896 Y-107.7162 I0.0002 J1.5391
G3 X-103.7289 Y-106.1769 I-1.5391 J0.0002
G3 X-105.2682 Y-107.7162 I-0.0002 J-1.5391
G3 X-103.7334 Y-109.2555 I1.5391 J-0.0002
G0 Z5.0
G0 X-97.3761 Y-111.0545
G1 Z0.0
G3 X-97.4354 Y-111.481 I1.5087 J-0.427
G3 X-95.8672 Y-113.0485 I1.5681 J0.0006
G3 X-94.3004 Y-111.481 I-0.0008 J1.5676
G3 X-95.8672 Y-109.9135 I-1.5671 J0.0005
G3 X-97.3761 Y-111.0545 I-0.0002 J-1.568
G0 Z5.0
G0 X-96.8136 Y-104.5657
G1 Z0.0
G3 X-96.6802 Y-104.5715 I0.1334 J1.5384
G3 X-95.1368 Y-103.0267 I-0.0005 J1.5439
G3 X-96.6802 Y-101.4833 I-1.5428 J0.0006
G3 X-98.2243 Y-103.0267 I-0.0005 J-1.5436
G3 X-96.8136 Y-104.5657 I1.5441 J-0.0006
G0 Z5.0
G0 X-89.75 Y-101.4955
G1 Z0.0
G3 X-88.3162 Y-102.4355 I1.4336 J0.6231
G3 X-86.7535 Y-100.8729 I0.0004 J1.5623
G3 X-88.3162 Y-99.3102 I-1.5626 J0.0001
G3 X-89.8796 Y-100.8729 I-0.0001 J-1.5633
G3 X-89.75 Y-101.4955 I1.5632 J0.0005
G0 Z5.0
G0 X-88.3373 Y-106.9156
G1 Z0.0
G3 X-89.5027 Y-108.4231 I0.3931 J-1.5081
G3 X-87.9448 Y-109.9817 I1.5584 J-0.0002
G3 X-86.3863 Y-108.4231 I0.0006 J1.5579
G3 X-87.9448 Y-106.8653 I-1.558 J-0.0002
G3 X-88.3373 Y-106.9156 I0.0006 J-1.5585
G0 Z5.0
G0 X-80.8902 Y-105.5487
G1 Z0.0
G3 X-79.3762 Y-106.8101 I1.514 J0.2779
G3 X-77.8369 Y-105.2709 I-0.0005 J1.5398
G3 X-79.3762 Y-103.7316 I-1.5391 J0.0002
G3 X-80.9155 Y-105.2709 I-0.0002 J-1.5391
G3 X-80.8902 Y-105.5487 I1.5393 J0.0
G0 Z5.0
G0 X-80.1434 Y-111.1837
G1 Z0.0
G3 X-81.497 Y-112.7281 I0.2047 J-1.5448
G3 X-79.9391 Y-114.2867 I1.5579 J-0.0006
G3 X-78.3813 Y-112.7281 I-0.0006 J1.5585
G3 X-79.9391 Y-111.1702 I-1.5578 J0.0
G3 X-80.1434 Y-111.1837 I0.0004 J-1.5583
G0 Z5.0
G0 X-82.1821 Y-118.6524
G1 Z0.0
G3 X-82.5884 Y-118.5979 I-0.4065 J-1.4891
G3 X-84.1325 Y-120.142 I-0.0003 J-1.5438
G3 X-82.5884 Y-121.6854 I1.5437 J0.0003
G3 X-81.045 Y-120.142 I-0.0001 J1.5435
G3 X-82.1821 Y-118.6524 I-1.5436 J0.0005
G0 Z5.0
G0 X-87.726 Y-116.7891
G1 Z0.0
G3 X-87.6458 Y-116.2986 I-1.4589 J0.4903
G3 X-89.1851 Y-114.7593 I-1.5391 J0.0002
G3 X-90.7243 Y-116.2986 I-0.0002 J-1.5391
G3 X-89.1851 Y-117.8379 I1.5391 J-0.0002
G3 X-87.726 Y-116.7891 I0.0002 J1.5391
G0 Z5.0
G0 X-88.9343 Y-123.8403
G1 Z0.0
G3 X-89.1892 Y-123.8186 I-0.2552 J-1.4896
G3 X-90.7009 Y-125.3303 I-0.0003 J-1.5115
G3 X-89.1892 Y-126.8413 I1.5113 J0.0003
G3 X-87.6782 Y-125.3303 I-0.0001 J1.5112
G3 X-88.9343 Y-123.8403 I-1.5113 J0.0004
G0 Z5.0
G0 X-94.7697 Y-121.8082
G1 Z0.0
G3 X-94.6848 Y-121.3064 I-1.4404 J0.5016
G3 X-96.2103 Y-119.7816 I-1.5251 J-0.0003
G3 X-97.7358 Y-121.3064 I-0.0002 J-1.5253
G3 X-96.2103 Y-122.8319 I1.5259 J0.0005
G3 X-94.7697 Y-121.8082 I0.0002 J1.5253
G0 Z5.0
G0 X-96.5737 Y-129.1135
G1 Z0.0
G3 X-96.9179 Y-129.0716 I-0.3442 J-1.394
G3 X-98.3539 Y-130.5076 I0.0 J-1.4359
G3 X-96.9179 Y-131.9435 I1.4359 J0.0
G3 X-95.482 Y-130.5076 I0.0 J1.4359
G3 X-96.5737 Y-129.1135 I-1.4359 J0.0
G0 Z5.0
G0 X-103.3832 Y-125.7057
G1 Z0.0
G3 X-103.2328 Y-125.0698 I-1.2717 J0.6364
G3 X-104.6549 Y-123.6477 I-1.4221 J0.0001
G3 X-106.0771 Y-125.0698 I-0.0001 J-1.4221
G3 X-104.6549 Y-126.4913 I1.4218 J0.0004
G3 X-103.3832 Y-125.7057 I0.0001 J1.422
G0 Z5.0
G0 X-108.9116 Y-129.7297
G1 Z0.0
G3 X-110.1678 Y-129.0903 I-1.2563 J-0.9144
G3 X-111.7208 Y-130.644 I0.0001 J-1.5531
G3 X-110.1678 Y-132.197 I1.5529 J-0.0001
G3 X-108.614 Y-130.644 I0.0005 J1.5532
G3 X-108.9116 Y-129.7297 I-1.5539 J-0.0001
G0 Z5.0
G0 X-104.2389 Y-135.627
G1 Z0.0
G3 X-104.8258 Y-136.841 I0.9618 J-1.2139
G3 X-103.2769 Y-138.3899 I1.5494 J0.0005
G3 X-101.728 Y-136.841 I-0.0003 J1.5492
G3 X-103.2769 Y-135.2921 I-1.5485 J0.0004
G3 X-104.2389 Y-135.627 I-0.0002 J-1.5487
G0 Z5.0
G0 X-111.0353 Y-138.1156
G1 Z0.0
G3 X-112.5118 Y-137.0843 I-1.4759 J-0.5404
G3 X-114.0835 Y-138.6566 I0.0 J-1.5717
G3 X-112.5118 Y-140.2282 I1.5714 J-0.0002
G3 X-110.9395 Y-138.6566 I0.0008 J1.5715
G3 X-111.0353 Y-138.1156 I-1.5717 J0.0006
G0 Z5.0
G0 X-108.4909 Y-143.6372
G1 Z0.0
G3 X-109.3968 Y-145.0528 I0.652 J-1.4148
G3 X-107.8389 Y-146.6106 I1.5578 J0.0
G3 X-106.281 Y-145.0528 I-0.0004 J1.5583
G3 X-107.8389 Y-143.4942 I-1.5577 J0.0008
G3 X-108.4909 Y-143.6372 I-0.0001 J-1.5578
G0 Z5.0
G0 X-113.2141 Y-149.4154
G1 Z0.0
G3 X-114.2061 Y-149.0615 I-0.9921 J-1.2137
G3 X-115.7736 Y-150.6283 I-0.0005 J-1.5671
G3 X-114.2061 Y-152.1965 I1.568 J-0.0002
G3 X-112.6386 Y-150.6283 I-0.0006 J1.5681
G3 X-113.2141 Y-149.4154 I-1.5676 J-0.0008
G0 Z5.0
G0 X-120.1833 Y-146.8183
G1 Z0.0
G3 X-120.0855 Y-146.2765 I-1.4559 J0.5425
G3 X-121.6393 Y-144.7227 I-1.5532 J0.0005
G3 X-123.1923 Y-146.2765 I0.0003 J-1.5533
G3 X-121.6393 Y-147.8295 I1.5538 J0.0008
G3 X-120.1833 Y-146.8183 I0.0001 J1.5537
G0 Z5.0
G0 X-123.0056 Y-152.3082
G1 Z0.0
G3 X-123.7118 Y-152.1373 I-0.7063 J-1.3739
G3 X-125.2552 Y-153.6813 I0.0009 J-1.5444
G3 X-123.7118 Y-155.2254 I1.5436 J-0.0005
G3 X-122.167 Y-153.6813 I0.0006 J1.5441
G3 X-123.0056 Y-152.3082 I-1.5449 J-0.0008
G0 Z5.0
G0 X-130.3211 Y-149.2605
G1 Z0.0
G3 X-130.2024 Y-148.6667 I-1.4253 J0.5938
G3 X-131.7465 Y-147.1226 I-1.5447 J-0.0006
G3 X-133.2906 Y-148.6667 I0.0006 J-1.5447
G3 X-131.7465 Y-150.2108 I1.5445 J0.0004
G3 X-130.3211 Y-149.2605 I0.0001 J1.544
G0 Z5.0
G0 X-132.0792 Y-155.1574
G1 Z0.0
G3 X-132.5244 Y-155.0925 I-0.4453 J-1.4937
G3 X-134.0823 Y-156.6503 I0.0006 J-1.5585
G3 X-132.5244 Y-158.2089 I1.5584 J-0.0002
G3 X-130.9658 Y-156.6503 I0.0004 J1.5581
G3 X-132.0792 Y-155.1574 I-1.5587 J-0.0008
G0 Z5.0
G0 X-139.0609 Y-152.3076
G1 Z0.0
G3 X-138.9447 Y-151.7156 I-1.4517 J0.5926
G3 X-140.5129 Y-150.1481 I-1.5681 J-0.0006
G3 X-142.0797 Y-151.7156 I0.0008 J-1.5676
G3 X-140.5129 Y-153.2831 I1.5671 J-0.0005
G3 X-139.0609 Y-152.3076 I0.0002 J1.568
G0 Z5.0
G0 X-139.7991 Y-158.7895
G1 Z0.0
G3 X-139.9768 Y-158.7794 I-0.178 J-1.5625
G3 X-141.5492 Y-160.3517 I0.0003 J-1.5726
G3 X-139.9768 Y-161.9241 I1.5726 J0.0003
G3 X-138.4045 Y-160.3517 I-0.0003 J1.5726
G3 X-139.7991 Y-158.7895 I-1.5726 J-0.0003
G0 Z5.0
G0 X-146.6309 Y-156.8106
G1 Z0.0
G3 X-146.5687 Y-156.372 I-1.515 J0.4388
G3 X-148.1458 Y-154.7955 I-1.577 J-0.0005
G3 X-149.7223 Y-156.372 I-0.0003 J-1.5761
G3 X-148.1458 Y-157.9491 I1.5765 J-0.0007
G3 X-146.6309 Y-156.8106 I-0.0002 J1.5773
G0 Z5.0
G0 X-147.4789 Y-162.6009
G1 Z0.0
G3 X-147.7076 Y-162.5842 I-0.2292 J-1.5651
G3 X-149.2896 Y-164.1661 I0.0 J-1.582
G3 X-147.7076 Y-165.7474 I1.5817 J0.0004
G3 X-146.1263 Y-164.1661 I0.0002 J1.5811
G3 X-147.4789 Y-162.6009 I-1.5818 J0.0002
G0 Z5.0
G0 X-154.1701 Y-161.689
G1 Z0.0
G3 X-154.1554 Y-161.4728 I-1.5858 J0.2161
G3 X-155.7554 Y-159.8722 I-1.6003 J0.0003
G3 X-157.3559 Y-161.4728 I-0.0003 J-1.6003
G3 X-155.7554 Y-163.0734 I1.5999 J-0.0007
G3 X-154.1701 Y-161.689 I-0.0006 J1.6005
G0 Z5.0
G0 X-155.37 Y-167.0936
G1 Z0.0
G3 X-155.714 Y-167.0559 I-0.3439 J-1.549
G3 X-157.3001 Y-168.642 I0.0003 J-1.5864
G3 X-155.714 Y-170.2281 I1.5862 J0.0001
G3 X-154.1272 Y-168.642 I0.0009 J1.5859
G3 X-155.37 Y-167.0936 I-1.5867 J-0.0005
G0 Z5.0
G0 X-159.0241 Y-172.7908
G1 Z0.0
G3 X-159.8778 Y-172.5405 I-0.8538 J-1.3312
G3 X-161.4591 Y-174.1218 I-0.0004 J-1.5809
G3 X-159.8778 Y-175.7031 I1.5811 J-0.0002
G3 X-158.2965 Y-174.1218 I-0.0004 J1.5817
G3 X-159.0241 Y-172.7908 I-1.5815 J-0.0002
G0 Z5.0
G0 X-164.0776 Y-169.4859
G1 Z0.0
G3 X-163.8203 Y-168.6227 I-1.3201 J0.8633
G3 X-165.3975 Y-167.0462 I-1.577 J-0.0005
G3 X-166.974 Y-168.6227 I-0.0003 J-1.5761
G3 X-165.3975 Y-170.1999 I1.5765 J-0.0007
G3 X-164.0776 Y-169.4859 I-0.0002 J1.5773
G0 Z5.0
G0 X-164.1289 Y-162.4918
G1 Z0.0
G3 X-162.5401 Y-160.8912 I-0.0118 J1.6005
G3 X-164.1407 Y-159.2906 I-1.6006 J0.0
G3 X-165.7406 Y-160.8912 I0.0006 J-1.6005
G3 X-164.1407 Y-162.4918 I1.6003 J-0.0003
G3 X-164.1289 I0.0 J1.6006
G0 Z5.0
G0 X-170.0134 Y-158.0573
G1 Z0.0
G3 X-169.6949 Y-157.1051 I-1.2632 J0.9519
G3 X-171.2762 Y-155.5238 I-1.5809 J0.0004
G3 X-172.8582 Y-157.1051 I-0.0008 J-1.5812
G3 X-171.2762 Y-158.6871 I1.582 J0.0
G3 X-170.0134 Y-158.0573 I-0.0004 J1.5817
G0 Z5.0
G0 X-172.2142 Y-163.3963
G1 Z0.0
G3 X-172.8113 Y-163.278 I-0.5975 J-1.4496
G3 X-174.3788 Y-164.8455 I0.0004 J-1.5679
G3 X-172.8113 Y-166.413 I1.5679 J0.0004
G3 X-171.2438 Y-164.8455 I-0.0004 J1.5679
G3 X-172.2142 Y-163.3963 I-1.5679 J-0.0004
G0 Z5.0
G0 X-177.7594 Y-159.9263
G1 Z0.0
G3 X-177.5228 Y-159.1019 I-1.3168 J0.824
G3 X-179.0759 Y-157.5488 I-1.5538 J-0.0008
G3 X-180.6296 Y-159.1019 I-0.0001 J-1.5537
G3 X-179.0759 Y-160.6556 I1.5532 J-0.0005
G3 X-177.7594 Y-159.9263 I-0.0003 J1.5533
G0 Z5.0
G0 X-183.6754 Y-163.8551
G1 Z0.0
G3 X-184.9656 Y-163.1629 I-1.2905 J-0.857
G3 X-186.5145 Y-164.7118 I-0.0004 J-1.5485
G3 X-184.9656 Y-166.2608 I1.5487 J-0.0002
G3 X-183.4167 Y-164.7118 I-0.0005 J1.5494
G3 X-183.6754 Y-163.8551 I-1.5492 J-0.0003
G0 Z5.0
G0 X-180.8441 Y-167.9143
G1 Z0.0
G3 X-181.5047 Y-169.1808 I0.8832 J-1.2662
G3 X-179.9606 Y-170.7249 I1.5438 J-0.0003
G3 X-178.4165 Y-169.1808 I0.0003 J1.5438
G3 X-179.9606 Y-167.6367 I-1.5438 J0.0003
G3 X-180.8441 Y-167.9143 I-0.0003 J-1.5438
G0 Z5.0
G0 X-181.293 Y-175.4488
G1 Z0.0
G3 X-181.3855 Y-175.4461 I-0.0924 J-1.5502
G3 X-182.9392 Y-176.9991 I-0.0007 J-1.553
G3 X-181.3855 Y-178.5529 I1.5534 J-0.0003
G3 X-179.8324 Y-176.9991 I-0.0007 J1.5538
G3 X-181.293 Y-175.4488 I-1.5529 J0.0001
G0 Z5.0
G0 X-174.8883 Y-173.8131
G1 Z0.0
G3 X-173.3929 Y-174.9748 I1.4956 J0.382
G3 X-171.8481 Y-173.4307 I0.0006 J1.5441
G3 X-173.3929 Y-171.8866 I-1.5446 J-0.0006
G3 X-174.9363 Y-173.4307 I0.0003 J-1.5437
G3 X-174.8883 Y-173.8131 I1.5436 J-0.0005
G0 Z5.0
G0 X-168.6899 Y-177.0055
G1 Z0.0
G3 X-168.8632 Y-177.7212 I1.3889 J-0.7153
G3 X-167.3006 Y-179.2839 I1.5623 J-0.0004
G3 X-165.7379 Y-177.7212 I0.0001 J1.5626
G3 X-167.3006 Y-176.1585 I-1.563 J-0.0003
G3 X-168.6899 Y-177.0055 I-0.0004 J-1.5623
G0 Z5.0
G0 X-168.3968 Y-184.1283
G1 Z0.0
G3 X-169.8816 Y-185.6759 I0.0637 J-1.5472
G3 X-168.3327 Y-187.2242 I1.5484 J0.0002
G3 X-166.7838 Y-185.6759 I0.0006 J1.5483
G3 X-168.3327 Y-184.127 I-1.5485 J0.0004
G3 X-168.3968 Y-184.1283 I-0.0004 J-1.5485
G0 Z5.0
G0 X-173.9657 Y-182.9183
G1 Z0.0
G3 X-173.9303 Y-182.5885 I-1.5175 J0.3297
G3 X-175.4833 Y-181.0347 I-1.5532 J0.0005
G3 X-177.0371 Y-182.5885 I0.0001 J-1.5539
G3 X-175.4833 Y-184.1415 I1.5531 J0.0001
G3 X-173.9657 Y-182.9183 I0.0001 J1.5529
G0 Z5.0
G0 X-174.2912 Y-190.65
G1 Z0.0
G3 X-174.3561 Y-190.6486 I-0.0647 J-1.5377
G3 X-175.8954 Y-192.1879 I-0.0002 J-1.5391
G3 X-174.3561 Y-193.7271 I1.5391 J-0.0002
G3 X-172.8168 Y-192.1879 I0.0002 J1.5391
G3 X-174.2912 Y-190.65 I-1.5391 J0.0002
G0 Z5.0
G0 X-180.3667 Y-192.9316
G1 Z0.0
G3 X-181.8251 Y-191.9212 I-1.4588 J-0.5479
G3 X-183.3836 Y-193.4791 I-0.0008 J-1.5577
G3 X-181.8251 Y-195.037 I1.5578 J-0.0001
G3 X-180.2672 Y-193.4791 I0.0 J1.5578
G3 X-180.3667 Y-192.9316 I-1.5583 J-0.0004
G0 Z5.0
G0 X-182.5429 Y-187.5126
G1 Z0.0
G3 X-181.5564 Y-186.0535 I-0.5861 J1.4593
G3 X-183.1287 Y-184.4812 I-1.5726 J-0.0003
G3 X-184.701 Y-186.0535 I0.0003 J-1.5726
G3 X-183.1287 Y-187.6259 I1.5726 J0.0003
G3 X-182.5429 Y-187.5126 I-0.0003 J1.5726
G0 Z5.0
G0 X-188.4363 Y-192.1055
G1 Z0.0
G3 X-189.6764 Y-191.4995 I-1.2404 J-0.9667
G3 X-191.2481 Y-193.0719 I0.0006 J-1.5723
G3 X-189.6764 Y-194.6442 I1.5718 J-0.0006
G3 X-188.1041 Y-193.0719 I-0.0003 J1.5726
G3 X-188.4363 Y-192.1055 I-1.5726 J-0.0003
G0 Z5.0
G0 X-191.7631 Y-187.482
G1 Z0.0
G3 X-191.1013 Y-186.19 I-0.9293 J1.2915
G3 X-192.6923 Y-184.5997 I-1.5902 J0.0001
G3 X-194.2832 Y-186.19 I-0.0007 J-1.5903
G3 X-192.6923 Y-187.7816 I1.5912 J-0.0004
G3 X-191.7631 Y-187.482 I-0.0002 J1.5911
G0 Z5.0
G0 X-189.1633 Y-181.4143
G1 Z0.0
G3 X-188.5389 Y-181.5425 I0.6248 J1.4583
G3 X-186.9521 Y-179.9557 I0.0001 J1.5867
G3 X-188.5389 Y-178.3696 I-1.5867 J-0.0005
G3 X-190.125 Y-179.9557 I0.0003 J-1.5864
G3 X-189.1633 Y-181.4143 I1.5865 J-0.0003
G0 Z5.0
G0 X-194.9469 Y-178.8281
G1 Z0.0
G3 X-194.8083 Y-178.178 I-1.4525 J0.6495
G3 X-196.3992 Y-176.5878 I-1.5902 J0.0001
G3 X-197.9902 Y-178.178 I-0.0007 J-1.5903
G3 X-196.3992 Y-179.7697 I1.5912 J-0.0004
G3 X-194.9469 Y-178.8281 I-0.0002 J1.5911
G0 Z5.0
G0 X-199.7312 Y-183.8864
G1 Z0.0
G3 X-200.8144 Y-183.4552 I-1.0833 J-1.1453
G3 X-202.3916 Y-185.0324 I0.0002 J-1.5773
G3 X-200.8144 Y-186.6089 I1.5772 J0.0008
G3 X-199.238 Y-185.0324 I-0.0003 J1.5768
G3 X-199.7312 Y-183.8864 I-1.5765 J0.0007
G0 Z5.0
G0 X-206.8996 Y-184.8555
G1 Z0.0
G3 X-208.457 Y-183.4945 I-1.5574 J-0.2105
G3 X-210.0294 Y-185.0669 I-0.0006 J-1.5717
G3 X-208.457 Y-186.6385 I1.5717 J0.0
G3 X-206.8854 Y-185.0669 I0.0002 J1.5714
G3 X-206.8996 Y-184.8555 I-1.5715 J0.0008
G0 Z5.0
G0 X-206.3327 Y-191.3539
G1 Z0.0
G3 X-207.768 Y-192.9203 I0.1366 J-1.566
G3 X-206.1957 Y-194.4919 I1.5723 J0.0006
G3 X-204.6233 Y-192.9203 I0.0006 J1.5718
G3 X-206.1957 Y-191.3479 I-1.5724 J0.0
G3 X-206.3327 Y-191.3539 I-0.0004 J-1.572
G0 Z5.0
G0 X-212.7791 Y-193.2447
G1 Z0.0
G3 X-214.2972 Y-192.1079 I-1.518 J-0.4452
G3 X-215.8792 Y-193.6892 I-0.0002 J-1.5818
G3 X-214.2972 Y-195.2712 I1.582 J0.0
G3 X-212.7152 Y-193.6892 I0.0 J1.582
G3 X-212.7791 Y-193.2447 I-1.582 J-0.0007
G0 Z5.0
G0 X-215.3377 Y-188.4336
G1 Z0.0
G3 X-214.4991 Y-187.0374 I-0.7424 J1.396
G3 X-216.0804 Y-185.4555 I-1.5818 J0.0002
G3 X-217.6623 Y-187.0374 I0.0 J-1.582
G3 X-216.0804 Y-188.6187 I1.5817 J0.0004
G3 X-215.3377 Y-188.4336 I0.0002 J1.5811
G0 Z5.0
G0 X-221.4233 Y-191.9256
G1 Z0.0
G3 X-222.799 Y-191.1288 I-1.3758 J-0.7895
G3 X-224.3858 Y-192.715 I-0.0003 J-1.5865
G3 X-222.799 Y-194.3011 I1.5873 J0.0012
G3 X-221.2129 Y-192.715 I-0.0003 J1.5864
G3 X-221.4233 Y-191.9256 I-1.5862 J-0.0001
G0 Z5.0
G0 X-222.2824 Y-184.9702
G1 Z0.0
G3 X-220.8945 Y-183.4008 I-0.1939 J1.5698
G3 X-222.4758 Y-181.8188 I-1.5818 J0.0002
G3 X-224.0578 Y-183.4008 I0.0 J-1.582
G3 X-222.4758 Y-184.9821 I1.582 J0.0007
G3 X-222.2824 Y-184.9702 I-0.0004 J1.5817
G0 Z5.0
G0 X-227.5961 Y-186.0578
G1 Z0.0
G3 X-229.169 Y-184.7747 I-1.5724 J-0.3218
G3 X-230.7737 Y-186.3794 I-0.0004 J-1.6043
G3 X-229.169 Y-187.9842 I1.6047 J0.0
G3 X-227.5635 Y-186.3794 I0.001 J1.6044
G3 X-227.5961 Y-186.0578 I-1.605 J-0.0002
G0 Z5.0
G0 X-229.7137 Y-180.0649
G1 Z0.0
G3 X-228.6563 Y-178.5694 I-0.5282 J1.495
G3 X-230.2424 Y-176.9833 I-1.5858 J0.0003
G3 X-231.8286 Y-178.5694 I0.0001 J-1.5862
G3 X-230.2424 Y-180.1555 I1.5856 J-0.0006
G3 X-229.7137 Y-180.0649 I0.0006 J1.5856
G0 Z5.0
G0 X-235.7875 Y-184.647
G1 Z0.0
G3 X-237.0582 Y-184.014 I-1.2704 J-0.9584
G3 X-238.6485 Y-185.605 I0.0006 J-1.5908
G3 X-237.0582 Y-187.1959 I1.5903 J-0.0007
G3 X-235.4666 Y-185.605 I0.0004 J1.5912
G3 X-235.7875 Y-184.647 I-1.5914 J-0.0004
G0 Z5.0
G0 X-238.2357 Y-179.8562
G1 Z0.0
G3 X-237.3738 Y-178.4481 I-0.7196 J1.4083
G3 X-238.9551 Y-176.8661 I-1.5812 J0.0008
G3 X-240.5364 Y-178.4481 I0.0007 J-1.582
G3 X-238.9551 Y-180.0294 I1.5817 J0.0004
G3 X-238.2357 Y-179.8562 I-0.0002 J1.5815
G0 Z5.0
G0 X-245.7045 Y-178.0547
G1 Z0.0
G3 X-245.6606 Y-177.6861 I-1.5285 J0.3687
G3 X-247.233 Y-176.1137 I-1.572 J0.0004
G3 X-248.8046 Y-177.6861 I0.0006 J-1.5723
G3 X-247.233 Y-179.2584 I1.5718 J-0.0006
G3 X-245.7045 Y-178.0547 I0.0 J1.5724
G0 Z5.0
G0 X-243.5089 Y-172.5089
G1 Z0.0
G3 X-242.9314 Y-172.619 I0.5771 J1.4578
G3 X-241.3646 Y-171.0515 I-0.0001 J1.5669
G3 X-242.9314 Y-169.484 I-1.5671 J0.0005
G3 X-244.4996 Y-171.0515 I-0.0002 J-1.568
G3 X-243.5089 Y-172.5089 I1.5679 J0.0004
G0 Z5.0
G0 X-249.9233 Y-170.9119
G1 Z0.0
G3 X-249.8767 Y-170.532 I-1.5257 J0.3799
G3 X-251.4484 Y-168.9597 I-1.5718 J0.0006
G3 X-253.0207 Y-170.532 I0.0 J-1.5724
G3 X-251.4484 Y-172.1043 I1.572 J-0.0004
G3 X-249.9233 Y-170.9119 I-0.0006 J1.5723
G0 Z5.0
G0 X-246.9064 Y-165.3214
G1 Z0.0
G3 X-246.1553 Y-165.5111 I0.7509 J1.3914
G3 X-244.574 Y-163.9298 I-0.0002 J1.5815
G3 X-246.1553 Y-162.3485 I-1.5809 J0.0004
G3 X-247.7366 Y-163.9298 I-0.0004 J-1.5809
G3 X-246.9064 Y-165.3214 I1.5811 J-0.0002
G0 Z5.0
G0 X-251.8701 Y-162.5247
G1 Z0.0
G3 X-251.6682 Y-161.7553 I-1.3658 J0.7696
G3 X-253.2357 Y-160.1878 I-1.567 J0.0005
G3 X-254.8032 Y-161.7553 I-0.0003 J-1.5673
G3 X-253.2357 Y-163.3228 I1.5679 J0.0004
G3 X-251.8701 Y-162.5247 I-0.0002 J1.5677
G0 Z5.0
G0 X-258.0572 Y-166.2183
G1 Z0.0
G3 X-259.4072 Y-165.4519 I-1.3501 J-0.806
G3 X-260.9796 Y-167.0242 I-0.0004 J-1.572
G3 X-259.4072 Y-168.5959 I1.5723 J0.0006
G3 X-257.8349 Y-167.0242 I0.0006 J1.5718
G3 X-258.0572 Y-166.2183 I-1.5724 J0.0
G0 Z5.0
G0 X-260.3733 Y-159.9234
G1 Z0.0
G3 X-259.3563 Y-158.4652 I-0.5364 J1.4579
G3 X-260.91 Y-156.9122 I-1.554 J-0.0009
G3 X-262.4637 Y-158.4652 I0.0002 J-1.5539
G3 X-260.91 Y-160.0189 I1.5539 J0.0001
G3 X-260.3733 Y-159.9234 I0.0003 J1.5534
G0 Z5.0
G0 X-265.8345 Y-163.8753
G1 Z0.0
G3 X-267.0926 Y-163.2325 I-1.2586 J-0.9108
G3 X-268.6463 Y-164.7856 I-0.0007 J-1.553
G3 X-267.0926 Y-166.3393 I1.5534 J-0.0003
G3 X-265.5395 Y-164.7856 I-0.0009 J1.554
G3 X-265.8345 Y-163.8753 I-1.5536 J-0.0005
G0 Z5.0
G0 X-269.6973 Y-159.0327
G1 Z0.0
G3 X-269.1073 Y-157.8072 I-0.9774 J1.2253
G3 X-270.6755 Y-156.2397 I-1.5681 J-0.0006
G3 X-272.2423 Y-157.8072 I0.0008 J-1.5676
G3 X-270.6755 Y-159.3747 I1.5668 J-0.0007
G3 X-269.6973 Y-159.0327 I0.0009 J1.5674
G0 Z5.0
G0 X-274.17 Y-163.312
G1 Z0.0
G3 X-275.296 Y-162.8308 I-1.1263 J-1.0776
G3 X-276.8546 Y-164.3894 I0.0002 J-1.5588
G3 X-275.296 Y-165.9473 I1.5587 J0.0008
G3 X-273.7375 Y-164.3894 I0.0 J1.5586
G3 X-274.17 Y-163.312 I-1.5588 J-0.0002
G0 Z5.0
G0 X-278.3605 Y-158.9875
G1 Z0.0
G3 X-277.884 Y-157.8616 I-1.0904 J1.1253
G3 X-279.4508 Y-156.2941 I-1.5671 J0.0005
G3 X-281.019 Y-157.8616 I-0.0002 J-1.568
G3 X-279.4508 Y-159.4291 I1.5679 J0.0004
G3 X-278.3605 Y-158.9875 I-0.0001 J1.5669
G0 Z5.0
G0 X-285.8531 Y-159.8189
G1 Z0.0
G3 X-287.4159 Y-158.4197 I-1.563 J-0.1734
G3 X-288.9882 Y-159.9921 I0.0003 J-1.5726
G3 X-287.4159 Y-161.5644 I1.5726 J0.0003
G3 X-285.8435 Y-159.9921 I-0.0003 J1.5726
G3 X-285.8531 Y-159.8189 I-1.5726 J-0.0003
G0 Z5.0
G0 X-286.2388 Y-153.5537
G1 Z0.0
G3 X-284.7769 Y-151.9988 I-0.0957 J1.5547
G3 X-286.3348 Y-150.4409 I-1.5576 J0.0003
G3 X-287.8927 Y-151.9988 I-0.0003 J-1.5576
G3 X-286.3348 Y-153.5566 I1.5576 J-0.0003
G3 X-286.2388 Y-153.5537 I0.0003 J1.5576
G0 Z5.0
G0 X-292.446 Y-154.1494
G1 Z0.0
G3 X-294.0112 Y-152.7271 I-1.5654 J-0.1502
G3 X-295.5835 Y-154.2994 I0.0003 J-1.5726
G3 X-294.0112 Y-155.8717 I1.5726 J0.0003
G3 X-292.4388 Y-154.2994 I-0.0003 J1.5726
G3 X-292.446 Y-154.1494 I-1.5726 J-0.0003
G0 Z5.0
G0 X-291.8689 Y-147.5466
G1 Z0.0
G3 X-291.7333 Y-147.5525 I0.1361 J1.5573
G3 X-290.1699 Y-145.9898 I0.0001 J1.5633
G3 X-291.7333 Y-144.4271 I-1.5632 J-0.0005
G3 X-293.296 Y-145.9898 I-0.0001 J-1.5626
G3 X-291.8689 Y-147.5466 I1.5632 J0.0005
G0 Z5.0
G0 X-298.4795 Y-148.8164
G1 Z0.0
G3 X-300.0277 Y-147.5374 I-1.5481 J-0.2974
G3 X-301.6048 Y-149.1138 I-0.0001 J-1.5771
G3 X-300.0277 Y-150.691 I1.5773 J0.0002
G3 X-298.4512 Y-149.1138 I-0.0005 J1.577
G3 X-298.4795 Y-148.8164 I-1.5764 J0.0001
G0 Z5.0
G0 X-297.8841 Y-142.5715
G1 Z0.0
G3 X-297.7367 Y-142.5785 I0.1475 J1.5468
G3 X-296.183 Y-141.0254 I0.0005 J1.5532
G3 X-297.7367 Y-139.4717 I-1.5541 J-0.0004
G3 X-299.2904 Y-141.0254 I0.0004 J-1.5541
G3 X-297.8841 Y-142.5715 I1.5538 J0.0007
G0 Z5.0
G0 X-303.3478 Y-138.3028
G1 Z0.0
G3 X-303.0166 Y-137.3406 I-1.2311 J0.9619
G3 X-304.5793 Y-135.7779 I-1.5623 J0.0004
G3 X-306.142 Y-137.3406 I-0.0001 J-1.5626
G3 X-304.5793 Y-138.9033 I1.563 J0.0003
G3 X-303.3478 Y-138.3028 I0.0004 J1.5623
G0 Z5.0
G0 X-305.7737 Y-143.2607
G1 Z0.0
G3 X-306.4652 Y-143.1008 I-0.6908 J-1.4117
G3 X-308.0368 Y-144.6724 I-0.0002 J-1.5714
G3 X-306.4652 Y-146.2448 I1.5715 J-0.0008
G3 X-304.8928 Y-144.6724 I0.0006 J1.5717
G3 X-305.7737 Y-143.2607 I-1.5717 J0.0
G0 Z5.0
G0 X-311.8078 Y-140.6101
G1 Z0.0
G3 X-311.6762 Y-139.9836 I-1.4264 J0.6266
G3 X-313.2348 Y-138.4258 I-1.5585 J-0.0006
G3 X-314.7934 Y-139.9836 I-0.0006 J-1.5579
G3 X-313.2348 Y-141.5415 I1.5585 J0.0006
G3 X-311.8078 Y-140.6101 I0.0006 J1.5579
G0 Z5.0
G0 X-313.8429 Y-146.2802
G1 Z0.0
G3 X-314.371 Y-146.1883 I-0.5281 J-1.4715
G3 X-315.9337 Y-147.751 I0.0003 J-1.563
G3 X-314.371 Y-149.3137 I1.5623 J-0.0004
G3 X-312.8076 Y-147.751 I0.0007 J1.5626
G3 X-313.8429 Y-146.2802 I-1.5634 J-0.0007
G0 Z5.0
G0 X-319.9405 Y-143.96
G1 Z0.0
G3 X-319.8384 Y-143.4046 I-1.461 J0.5559
G3 X-321.4011 Y-141.8419 I-1.563 J-0.0003
G3 X-322.9637 Y-143.4046 I-0.0004 J-1.5623
G3 X-321.4011 Y-144.9673 I1.5626 J-0.0001
G3 X-319.9405 Y-143.96 I-0.0005 J1.5632
G0 Z5.0
G0 X-321.5531 Y-148.9916
G1 Z0.0
G3 X-322.0267 Y-148.9175 I-0.4742 J-1.4795
G3 X-323.5804 Y-150.4712 I-0.0005 J-1.5532
G3 X-322.0267 Y-152.0243 I1.5533 J0.0003
G3 X-320.4736 Y-150.4712 I-0.0008 J1.5538
G3 X-321.5531 Y-148.9916 I-1.5537 J0.0001
G0 Z5.0
G0 X-328.2458 Y-148.7821
G1 Z0.0
G3 X-328.2451 Y-148.7356 I-1.4919 J0.0467
G3 X-329.7375 Y-147.2431 I-1.4926 J-0.0002
G3 X-331.2299 Y-148.7356 I0.0 J-1.4924
G3 X-329.7375 Y-150.228 I1.4919 J-0.0005
G3 X-328.2458 Y-148.7821 I-0.0002 J1.4926
G0 Z5.0
G0 X-331.6802 Y-155.1656
G1 Z0.0
G3 X-332.4157 Y-154.9801 I-0.7361 J-1.3681
G3 X-333.9695 Y-156.5332 I-0.0007 J-1.553
G3 X-332.4157 Y-158.0862 I1.5531 J0.0001
G3 X-330.8627 Y-156.5332 I-0.0001 J1.5531
G3 X-331.6802 Y-155.1656 I-1.5536 J-0.0005
G0 Z5.0
G0 X-325.9705 Y-156.8085
G1 Z0.0
G3 X-326.0313 Y-157.2394 I1.497 J-0.4308
G3 X-324.4727 Y-158.7973 I1.5578 J-0.0001
G3 X-322.9148 Y-157.2394 I0.0 J1.5578
G3 X-324.4727 Y-155.6816 I-1.5583 J-0.0004
G3 X-325.9705 Y-156.8085 I-0.0008 J-1.5577
G0 Z5.0
G0 X-327.3412 Y-162.6586
G1 Z0.0
G3 X-327.6987 Y-162.6172 I-0.3576 J-1.5263
G3 X-329.2662 Y-164.1848 I-0.0003 J-1.5673
G3 X-327.6987 Y-165.7523 I1.5677 J0.0002
G3 X-326.1312 Y-164.1848 I0.0003 J1.5673
G3 X-327.3412 Y-162.6586 I-1.5677 J-0.0002
G0 Z5.0
G0 X-320.3249 Y-163.5259
G1 Z0.0
G3 X-320.3365 Y-163.7155 I1.533 J-0.1895
G3 X-318.7924 Y-165.2589 I1.5437 J0.0003
G3 X-317.2483 Y-163.7155 I0.0005 J1.5436
G3 X-318.7924 Y-162.1707 I-1.5441 J0.0006
G3 X-320.3249 Y-163.5259 I0.0006 J-1.5446
G0 Z5.0
G0 X-322.7318 Y-169.5121
G1 Z0.0
G3 X-323.311 Y-169.3999 I-0.5794 J-1.4411
G3 X-324.8648 Y-170.9537 I0.0001 J-1.5539
G3 X-323.311 Y-172.5074 I1.5534 J-0.0003
G3 X-321.758 Y-170.9537 I-0.0007 J1.5538
G3 X-322.7318 Y-169.5121 I-1.5532 J0.0005
G0 Z5.0
G0 X-317.1004 Y-171.7833
G1 Z0.0
G3 X-317.2132 Y-172.3641 I1.4405 J-0.581
G3 X-315.6595 Y-173.9178 I1.5541 J0.0004
G3 X-314.1057 Y-172.3641 I-0.0004 J1.5541
G3 X-315.6595 Y-170.811 I-1.5538 J-0.0007
G3 X-317.1004 Y-171.7833 I-0.0005 J-1.5532
G0 Z5.0
G0 X-312.5083 Y-167.8024
G1 Z0.0
G3 X-311.3379 Y-168.3368 I1.1705 J1.0147
G3 X-309.789 Y-166.7886 I0.0004 J1.5485
G3 X-311.3379 Y-165.2396 I-1.5492 J-0.0003
G3 X-312.8868 Y-166.7886 I-0.0002 J-1.5487
G3 X-312.5083 Y-167.8024 I1.5491 J0.0008
G0 Z5.0
G0 X-307.8439 Y-171.6702
G1 Z0.0
G3 X-308.207 Y-172.6769 I1.2142 J-1.0068
G3 X-306.6299 Y-174.2534 I1.5772 J0.0008
G3 X-305.0534 Y-172.6769 I-0.0003 J1.5768
G3 X-306.6299 Y-171.0997 I-1.5765 J0.0007
G3 X-307.8439 Y-171.6702 I0.0002 J-1.5773
G0 Z5.0
G0 X-304.2595 Y-166.5549
G1 Z0.0
G3 X-303.357 Y-166.8395 I0.9021 J1.2874
G3 X-301.7854 Y-165.2672 I-0.0006 J1.5723
G3 X-303.357 Y-163.6955 I-1.5714 J0.0002
G3 X-304.9294 Y-165.2672 I-0.0008 J-1.5715
G3 X-304.2595 Y-166.5549 I1.572 J-0.0004
G0 Z5.0
G0 X-299.2405 Y-170.4559
G1 Z0.0
G3 X-299.5695 Y-171.4146 I1.2343 J-0.9594
G3 X-298.0061 Y-172.9773 I1.5632 J0.0005
G3 X-296.4434 Y-171.4146 I0.0001 J1.5626
G3 X-298.0061 Y-169.8519 I-1.5632 J-0.0005
G3 X-299.2405 Y-170.4559 I-0.0001 J-1.5633
G0 Z5.0
G0 X-296.6215 Y-163.6227
G1 Z0.0
G3 X-296.0638 Y-163.7259 I0.5575 J1.4544
G3 X-294.5059 Y-162.168 I0.0003 J1.5576
G3 X-296.0638 Y-160.6094 I-1.5579 J0.0006
G3 X-297.6216 Y-162.168 I0.0006 J-1.5585
G3 X-296.6215 Y-163.6227 I1.5576 J-0.0003
G0 Z5.0
G0 X-292.2104 Y-166.2192
G1 Z0.0
G3 X-292.4264 Y-167.0118 I1.3469 J-0.7929
G3 X-290.8637 Y-168.5745 I1.5623 J-0.0004
G3 X-289.301 Y-167.0118 I0.0001 J1.5626
G3 X-290.8637 Y-165.4491 I-1.5632 J-0.0005
G3 X-292.2104 Y-166.2192 I0.0003 J-1.563
G0 Z5.0
G0 X-289.5229 Y-172.2689
G1 Z0.0
G3 X-290.4538 Y-173.7008 I0.6362 J-1.4321
G3 X-288.8862 Y-175.2683 I1.5677 J0.0002
G3 X-287.3187 Y-173.7008 I0.0003 J1.5673
G3 X-288.8862 Y-172.134 I-1.5676 J-0.0008
G3 X-289.5229 Y-172.2689 I-0.0005 J-1.5671
G0 Z5.0
G0 X-283.872 Y-168.344
G1 Z0.0
G3 X-282.5886 Y-169.0155 I1.2839 J0.8918
G3 X-281.0259 Y-167.4528 I-0.0003 J1.563
G3 X-282.5886 Y-165.8894 I-1.5626 J0.0007
G3 X-284.1513 Y-167.4528 I0.0007 J-1.5634
G3 X-283.872 Y-168.344 I1.5632 J0.0005
G0 Z5.0
G0 X-280.9944 Y-174.9072
G1 Z0.0
G3 X-281.9299 Y-176.3384 I0.6277 J-1.4316
G3 X-280.3672 Y-177.9017 I1.5633 J-0.0001
G3 X-278.8045 Y-176.3384 I-0.0005 J1.5632
G3 X-280.3672 Y-174.7757 I-1.5626 J0.0001
G3 X-280.9944 Y-174.9072 I0.0005 J-1.5632
G0 Z5.0
G0 X-275.5489 Y-172.2962
G1 Z0.0
G3 X-274.1268 Y-173.1916 I1.4223 J0.682
G3 X-272.5496 Y-171.6144 I-0.0002 J1.5773
G3 X-274.1268 Y-170.038 I-1.577 J-0.0005
G3 X-275.7039 Y-171.6144 I-0.0007 J-1.5765
G3 X-275.5489 Y-172.2962 I1.5773 J0.0002
G0 Z5.0
G0 X-272.5131 Y-177.8632
G1 Z0.0
G3 X-273.3227 Y-179.2267 I0.7436 J-1.3636
G3 X-271.7696 Y-180.7798 I1.5536 J0.0005
G3 X-270.2159 Y-179.2267 I0.0007 J1.553
G3 X-271.7696 Y-177.6737 I-1.5531 J-0.0001
G3 X-272.5131 Y-177.8632 I0.0001 J-1.5531
G0 Z5.0
G0 X-267.3109 Y-173.7313
G1 Z0.0
G3 X-266.0797 Y-174.3257 I1.2312 J0.9779
G3 X-264.5074 Y-172.7541 I0.0006 J1.5718
G3 X-266.0797 Y-171.1817 I-1.5724 J0.0
G3 X-267.6521 Y-172.7541 I-0.0004 J-1.572
G3 X-267.3109 Y-173.7313 I1.5723 J0.0006
G0 Z5.0
G0 X-264.0428 Y-178.9742
G1 Z0.0
G3 X-264.7857 Y-180.3126 I0.8344 J-1.3386
G3 X-263.2086 Y-181.8891 I1.577 J0.0005
G3 X-261.6314 Y-180.3126 I0.0007 J1.5765
G3 X-263.2086 Y-178.7355 I-1.5773 J-0.0002
G3 X-264.0428 Y-178.9742 I0.0002 J-1.5773
G0 Z5.0
G0 X-259.0207 Y-175.9044
G1 Z0.0
G3 X-257.6668 Y-176.6636 I1.3538 J0.8275
G3 X-256.0807 Y-175.0775 I-0.0003 J1.5864
G3 X-257.6668 Y-173.4906 I-1.5865 J0.0003
G3 X-259.2536 Y-175.0775 I-0.0001 J-1.5867
G3 X-259.0207 Y-175.9044 I1.5867 J0.0005
G0 Z5.0
G0 X-254.5353 Y-181.0415
G1 Z0.0
G3 X-255.0733 Y-182.226 I1.0339 J-1.1841
G3 X-253.501 Y-183.7977 I1.5723 J0.0006
G3 X-251.9293 Y-182.226 I0.0002 J1.5714
G3 X-253.501 Y-180.6537 I-1.5715 J0.0008
G3 X-254.5353 Y-181.0415 I-0.0004 J-1.572
G0 Z5.0
G0 X-258.2615 Y-185.6255
G1 Z0.0
G3 X-259.2619 Y-185.2701 I-1.0007 J-1.231
G3 X-260.848 Y-186.8562 I0.0003 J-1.5864
G3 X-259.2619 Y-188.443 I1.5865 J-0.0003
G3 X-257.6757 Y-186.8562 I-0.0005 J1.5867
G3 X-258.2615 Y-185.6255 I-1.5864 J-0.0003
G0 Z5.0
G0 X-254.8432 Y-191.151
G1 Z0.0
G3 X-255.5901 Y-192.4917 I0.8292 J-1.3404
G3 X-254.0136 Y-194.0689 I1.5765 J-0.0007
G3 X-252.4364 Y-192.4917 I-0.0002 J1.5773
G3 X-254.0136 Y-190.9152 I-1.577 J-0.0005
G3 X-254.8432 Y-191.151 I-0.0003 J-1.5761
G0 Z5.0
G0 X-261.4423 Y-193.0651
G1 Z0.0
